(1001-ROBSBIKEBRACKETV4-BORINGANDFINISHING)
(MACHINE)
(  VENDOR HOMEMADE)
(  DESCRIPTION GENERIC 3-AXIS)
(T1 D=4. CR=0. - ZMIN=-5.5 - FLAT END MILL)
G90 G94 G91.1 G40 G49 G17
G21
(WHEN USING FUSION FOR PERSONAL USE, THE FEEDRATE OF RAPID)
(MOVES IS REDUCED TO MATCH THE FEEDRATE OF CUTTING MOVES,)
(WHICH CAN INCREASE MACHINING TIME. UNRESTRICTED RAPID MOVES)
(ARE AVAILABLE WITH A FUSION SUBSCRIPTION.)
G28 G91 Z0.
G90

(BORE - ROUGHING)
T1 M6
S5000 M3
G17 G90 G94
G54
G0 X-71.7 Y-0.4
G43 Z15. H1
G1 Z2.2 F300.
Z0.6
G18 G2 X-71.3 Z0.2 I0.4 K0.
G1 X-71.1
G17 G3 X-70.7 Y0. I0. J0.4
X-74.3 Z0.067 I-1.8 J0.
X-70.7 Z-0.065 I1.8 J0.
X-74.3 Z-0.198 I-1.8 J0.
X-70.7 Z-0.331 I1.8 J0.
X-74.3 Z-0.463 I-1.8 J0.
X-70.7 Z-0.596 I1.8 J0.
X-74.3 Z-0.729 I-1.8 J0.
X-70.7 Z-0.862 I1.8 J0.
X-74.3 Z-0.994 I-1.8 J0.
X-70.7 Z-1.127 I1.8 J0.
X-74.3 Z-1.26 I-1.8 J0.
X-70.7 Z-1.392 I1.8 J0.
X-74.3 Z-1.525 I-1.8 J0.
X-70.7 Z-1.658 I1.8 J0.
X-74.3 Z-1.79 I-1.8 J0.
X-70.7 Z-1.923 I1.8 J0.
X-74.3 Z-2.056 I-1.8 J0.
X-70.7 Z-2.189 I1.8 J0.
X-74.3 Z-2.321 I-1.8 J0.
X-70.7 Z-2.454 I1.8 J0.
X-74.3 Z-2.587 I-1.8 J0.
X-70.7 Z-2.719 I1.8 J0.
X-74.3 Z-2.852 I-1.8 J0.
X-70.7 Z-2.985 I1.8 J0.
X-74.3 Z-3.117 I-1.8 J0.
X-70.7 Z-3.25 I1.8 J0.
X-74.3 Z-3.383 I-1.8 J0.
X-70.7 Z-3.516 I1.8 J0.
X-74.3 Z-3.648 I-1.8 J0.
X-70.7 Z-3.781 I1.8 J0.
X-74.3 Z-3.914 I-1.8 J0.
X-70.7 Z-4.046 I1.8 J0.
X-74.3 Z-4.179 I-1.8 J0.
X-70.7 Z-4.312 I1.8 J0.
X-74.3 Z-4.444 I-1.8 J0.
X-70.7 Z-4.577 I1.8 J0.
X-74.3 Z-4.71 I-1.8 J0.
X-70.7 Z-4.843 I1.8 J0.
X-74.3 Z-4.975 I-1.8 J0.
X-70.7 Z-5.108 I1.8 J0.
X-74.3 Z-5.241 I-1.8 J0.
X-70.7 Z-5.373 I1.8 J0.
X-74.282 Y0.257 Z-5.5 I-1.8 J0.
X-70.718 Y-0.257 I1.782 J-0.257
X-74.282 Y0.257 I-1.782 J0.257
X-73.943 Y-0.196 I0.396 J-0.057
G1 X-73.745 Y-0.225
X-73.668 Y-0.236 Z-5.492
X-73.593 Y-0.246 Z-5.47
X-73.525 Y-0.256 Z-5.433
X-73.465 Y-0.265 Z-5.383
X-73.416 Y-0.272 Z-5.322
X-73.379 Y-0.277 Z-5.253
X-73.357 Y-0.281 Z-5.178
X-73.349 Y-0.282 Z-5.1
Z5.
X73.3 Y-0.4
Z2.2
Z0.6
G18 G2 X73.7 Z0.2 I0.4 K0.
G1 X73.9
G17 G3 X74.3 Y0. I0. J0.4
X70.7 Z0.067 I-1.8 J0.
X74.3 Z-0.065 I1.8 J0.
X70.7 Z-0.198 I-1.8 J0.
X74.3 Z-0.331 I1.8 J0.
X70.7 Z-0.463 I-1.8 J0.
X74.3 Z-0.596 I1.8 J0.
X70.7 Z-0.729 I-1.8 J0.
X74.3 Z-0.862 I1.8 J0.
X70.7 Z-0.994 I-1.8 J0.
X74.3 Z-1.127 I1.8 J0.
X70.7 Z-1.26 I-1.8 J0.
X74.3 Z-1.392 I1.8 J0.
X70.7 Z-1.525 I-1.8 J0.
X74.3 Z-1.658 I1.8 J0.
X70.7 Z-1.79 I-1.8 J0.
X74.3 Z-1.923 I1.8 J0.
X70.7 Z-2.056 I-1.8 J0.
X74.3 Z-2.189 I1.8 J0.
X70.7 Z-2.321 I-1.8 J0.
X74.3 Z-2.454 I1.8 J0.
X70.7 Z-2.587 I-1.8 J0.
X74.3 Z-2.719 I1.8 J0.
X70.7 Z-2.852 I-1.8 J0.
X74.3 Z-2.985 I1.8 J0.
X70.7 Z-3.117 I-1.8 J0.
X74.3 Z-3.25 I1.8 J0.
X70.7 Z-3.383 I-1.8 J0.
X74.3 Z-3.516 I1.8 J0.
X70.7 Z-3.648 I-1.8 J0.
X74.3 Z-3.781 I1.8 J0.
X70.7 Z-3.914 I-1.8 J0.
X74.3 Z-4.046 I1.8 J0.
X70.7 Z-4.179 I-1.8 J0.
X74.3 Z-4.312 I1.8 J0.
X70.7 Z-4.444 I-1.8 J0.
X74.3 Z-4.577 I1.8 J0.
X70.7 Z-4.71 I-1.8 J0.
X74.3 Z-4.843 I1.8 J0.
X70.7 Z-4.975 I-1.8 J0.
X74.3 Z-5.108 I1.8 J0.
X70.7 Z-5.241 I-1.8 J0.
X74.3 Z-5.373 I1.8 J0.
X70.718 Y0.257 Z-5.5 I-1.8 J0.
X74.282 Y-0.257 I1.782 J-0.257
X70.718 Y0.257 I-1.782 J0.257
X71.057 Y-0.196 I0.396 J-0.057
G1 X71.255 Y-0.225
X71.332 Y-0.236 Z-5.492
X71.407 Y-0.246 Z-5.47
X71.475 Y-0.256 Z-5.433
X71.535 Y-0.265 Z-5.383
X71.584 Y-0.272 Z-5.322
X71.621 Y-0.277 Z-5.253
X71.643 Y-0.281 Z-5.178
X71.651 Y-0.282 Z-5.1
Z15.
(WHEN USING FUSION FOR PERSONAL USE, THE FEEDRATE OF RAPID)
(MOVES IS REDUCED TO MATCH THE FEEDRATE OF CUTTING MOVES,)
(WHICH CAN INCREASE MACHINING TIME. UNRESTRICTED RAPID MOVES)
(ARE AVAILABLE WITH A FUSION SUBSCRIPTION.)

(BORE - FINISHING)
G0 X-72.4 Y-0.4
G1 Z15. F300.
Z2.
Z0.4
G18 G2 X-72. Z0. I0.4 K0.
G1 X-71.8
G17 G3 X-71.4 Y0. I0. J0.4
X-73.6 Z-0.108 I-1.1 J0.
X-71.4 Z-0.217 I1.1 J0.
X-73.6 Z-0.325 I-1.1 J0.
X-71.4 Z-0.433 I1.1 J0.
X-73.6 Z-0.541 I-1.1 J0.
X-71.4 Z-0.65 I1.1 J0.
X-73.6 Z-0.758 I-1.1 J0.
X-71.4 Z-0.866 I1.1 J0.
X-73.6 Z-0.974 I-1.1 J0.
X-71.4 Z-1.083 I1.1 J0.
X-73.6 Z-1.191 I-1.1 J0.
X-71.4 Z-1.299 I1.1 J0.
X-73.6 Z-1.407 I-1.1 J0.
X-71.4 Z-1.516 I1.1 J0.
X-73.6 Z-1.624 I-1.1 J0.
X-71.4 Z-1.732 I1.1 J0.
X-73.6 Z-1.84 I-1.1 J0.
X-71.4 Z-1.949 I1.1 J0.
X-73.6 Z-2.057 I-1.1 J0.
X-71.4 Z-2.165 I1.1 J0.
X-73.6 Z-2.273 I-1.1 J0.
X-71.4 Z-2.382 I1.1 J0.
X-73.6 Z-2.49 I-1.1 J0.
X-71.4 Z-2.598 I1.1 J0.
X-73.6 Z-2.706 I-1.1 J0.
X-71.4 Z-2.815 I1.1 J0.
X-73.6 Z-2.923 I-1.1 J0.
X-71.4 Z-3.031 I1.1 J0.
X-73.6 Z-3.139 I-1.1 J0.
X-71.4 Z-3.248 I1.1 J0.
X-73.6 Z-3.356 I-1.1 J0.
X-71.4 Z-3.464 I1.1 J0.
X-73.6 Z-3.572 I-1.1 J0.
X-71.4 Z-3.681 I1.1 J0.
X-73.6 Z-3.789 I-1.1 J0.
X-71.4 Z-3.897 I1.1 J0.
X-73.6 Z-4.005 I-1.1 J0.
X-71.4 Z-4.114 I1.1 J0.
X-73.6 Z-4.222 I-1.1 J0.
X-71.4 Z-4.33 I1.1 J0.
X-73.6 Z-4.438 I-1.1 J0.
X-71.4 Z-4.547 I1.1 J0.
X-73.6 Z-4.655 I-1.1 J0.
X-71.4 Z-4.763 I1.1 J0.
X-73.6 Z-4.871 I-1.1 J0.
X-71.4 Z-4.98 I1.1 J0.
X-73.6 Z-5.088 I-1.1 J0.
X-71.4 Z-5.196 I1.1 J0.
X-73.6 Z-5.304 I-1.1 J0.
X-71.4 Z-5.413 I1.1 J0.
X-73.402 Y0.629 Z-5.5 I-1.1 J0.
X-71.598 Y-0.629 I0.902 J-0.629
X-73.402 Y0.629 I-0.902 J0.629
X-73.303 Y0.072 I0.328 J-0.229
G1 X-73.139 Y-0.042
X-73.075 Y-0.087 Z-5.492
X-73.013 Y-0.13 Z-5.47
X-72.957 Y-0.169 Z-5.433
X-72.907 Y-0.204 Z-5.383
X-72.866 Y-0.232 Z-5.322
X-72.836 Y-0.254 Z-5.253
X-72.817 Y-0.267 Z-5.178
X-72.811 Y-0.271 Z-5.1
Z5.
Z15.
X-71.9 Y-0.4
Z2.
Z0.4
G18 G2 X-71.5 Z0. I0.4 K0.
G1 X-71.3
G17 G3 X-70.9 Y0. I0. J0.4
X-74.1 Z-0.126 I-1.6 J0.
X-70.9 Z-0.251 I1.6 J0.
X-74.1 Z-0.377 I-1.6 J0.
X-70.9 Z-0.503 I1.6 J0.
X-74.1 Z-0.629 I-1.6 J0.
X-70.9 Z-0.754 I1.6 J0.
X-74.1 Z-0.88 I-1.6 J0.
X-70.9 Z-1.006 I1.6 J0.
X-74.1 Z-1.131 I-1.6 J0.
X-70.9 Z-1.257 I1.6 J0.
X-74.1 Z-1.383 I-1.6 J0.
X-70.9 Z-1.509 I1.6 J0.
X-74.1 Z-1.634 I-1.6 J0.
X-70.9 Z-1.76 I1.6 J0.
X-74.1 Z-1.886 I-1.6 J0.
X-70.9 Z-2.011 I1.6 J0.
X-74.1 Z-2.137 I-1.6 J0.
X-70.9 Z-2.263 I1.6 J0.
X-74.1 Z-2.389 I-1.6 J0.
X-70.9 Z-2.514 I1.6 J0.
X-74.1 Z-2.64 I-1.6 J0.
X-70.9 Z-2.766 I1.6 J0.
X-74.1 Z-2.891 I-1.6 J0.
X-70.9 Z-3.017 I1.6 J0.
X-74.1 Z-3.143 I-1.6 J0.
X-70.9 Z-3.269 I1.6 J0.
X-74.1 Z-3.394 I-1.6 J0.
X-70.9 Z-3.52 I1.6 J0.
X-74.1 Z-3.646 I-1.6 J0.
X-70.9 Z-3.771 I1.6 J0.
X-74.1 Z-3.897 I-1.6 J0.
X-70.9 Z-4.023 I1.6 J0.
X-74.1 Z-4.149 I-1.6 J0.
X-70.9 Z-4.274 I1.6 J0.
X-74.1 Z-4.4 I-1.6 J0.
X-70.9 Z-4.526 I1.6 J0.
X-74.1 Z-4.651 I-1.6 J0.
X-70.9 Z-4.777 I1.6 J0.
X-74.1 Z-4.903 I-1.6 J0.
X-70.9 Z-5.029 I1.6 J0.
X-74.1 Z-5.154 I-1.6 J0.
X-70.9 Z-5.28 I1.6 J0.
X-74.1 Z-5.406 I-1.6 J0.
X-71.369 Y-1.132 Z-5.5 I1.6 J0.
X-73.631 Y1.132 I-1.131 J1.132
X-71.369 Y-1.132 I1.131 J-1.132
Y-0.566 I-0.283 J0.283
G1 X-71.51 Y-0.425
X-71.565 Y-0.37 Z-5.492
X-71.618 Y-0.316 Z-5.47
X-71.667 Y-0.268 Z-5.433
X-71.71 Y-0.225 Z-5.383
X-71.745 Y-0.189 Z-5.322
X-71.771 Y-0.163 Z-5.253
X-71.788 Y-0.147 Z-5.178
X-71.793 Y-0.142 Z-5.1
Z5.
Z15.
X-71.5 Y-0.4
Z-3.5
Z-5.1
G18 G2 X-71.1 Z-5.5 I0.4 K0.
G1 X-70.9
G17 G3 X-70.5 Y0. I0. J0.4
X-74.5 I-2. J0.
X-70.5 I2. J0.
X-70.9 Y0.4 I-0.4 J0.
G1 X-71.1
G18 G3 X-71.5 Z-5.1 I0. K0.4
G1 Z5.
X72.6 Y-0.4
Z2.
Z0.4
G2 X73. Z0. I0.4 K0.
G1 X73.2
G17 G3 X73.6 Y0. I0. J0.4
X71.4 Z-0.108 I-1.1 J0.
X73.6 Z-0.217 I1.1 J0.
X71.4 Z-0.325 I-1.1 J0.
X73.6 Z-0.433 I1.1 J0.
X71.4 Z-0.541 I-1.1 J0.
X73.6 Z-0.65 I1.1 J0.
X71.4 Z-0.758 I-1.1 J0.
X73.6 Z-0.866 I1.1 J0.
X71.4 Z-0.974 I-1.1 J0.
X73.6 Z-1.083 I1.1 J0.
X71.4 Z-1.191 I-1.1 J0.
X73.6 Z-1.299 I1.1 J0.
X71.4 Z-1.407 I-1.1 J0.
X73.6 Z-1.516 I1.1 J0.
X71.4 Z-1.624 I-1.1 J0.
X73.6 Z-1.732 I1.1 J0.
X71.4 Z-1.84 I-1.1 J0.
X73.6 Z-1.949 I1.1 J0.
X71.4 Z-2.057 I-1.1 J0.
X73.6 Z-2.165 I1.1 J0.
X71.4 Z-2.273 I-1.1 J0.
X73.6 Z-2.382 I1.1 J0.
X71.4 Z-2.49 I-1.1 J0.
X73.6 Z-2.598 I1.1 J0.
X71.4 Z-2.706 I-1.1 J0.
X73.6 Z-2.815 I1.1 J0.
X71.4 Z-2.923 I-1.1 J0.
X73.6 Z-3.031 I1.1 J0.
X71.4 Z-3.139 I-1.1 J0.
X73.6 Z-3.248 I1.1 J0.
X71.4 Z-3.356 I-1.1 J0.
X73.6 Z-3.464 I1.1 J0.
X71.4 Z-3.572 I-1.1 J0.
X73.6 Z-3.681 I1.1 J0.
X71.4 Z-3.789 I-1.1 J0.
X73.6 Z-3.897 I1.1 J0.
X71.4 Z-4.005 I-1.1 J0.
X73.6 Z-4.114 I1.1 J0.
X71.4 Z-4.222 I-1.1 J0.
X73.6 Z-4.33 I1.1 J0.
X71.4 Z-4.438 I-1.1 J0.
X73.6 Z-4.547 I1.1 J0.
X71.4 Z-4.655 I-1.1 J0.
X73.6 Z-4.763 I1.1 J0.
X71.4 Z-4.871 I-1.1 J0.
X73.6 Z-4.98 I1.1 J0.
X71.4 Z-5.088 I-1.1 J0.
X73.6 Z-5.196 I1.1 J0.
X71.4 Z-5.304 I-1.1 J0.
X73.6 Z-5.413 I1.1 J0.
X71.598 Y0.629 Z-5.5 I-1.1 J0.
X73.402 Y-0.629 I0.902 J-0.629
X71.598 Y0.629 I-0.902 J0.629
X71.697 Y0.072 I0.328 J-0.229
G1 X71.861 Y-0.042
X71.925 Y-0.087 Z-5.492
X71.987 Y-0.13 Z-5.47
X72.043 Y-0.169 Z-5.433
X72.093 Y-0.204 Z-5.383
X72.134 Y-0.232 Z-5.322
X72.164 Y-0.254 Z-5.253
X72.183 Y-0.267 Z-5.178
X72.189 Y-0.271 Z-5.1
Z5.
X73.1 Y-0.4
Z2.
Z0.4
G18 G2 X73.5 Z0. I0.4 K0.
G1 X73.7
G17 G3 X74.1 Y0. I0. J0.4
X70.9 Z-0.126 I-1.6 J0.
X74.1 Z-0.251 I1.6 J0.
X70.9 Z-0.377 I-1.6 J0.
X74.1 Z-0.503 I1.6 J0.
X70.9 Z-0.629 I-1.6 J0.
X74.1 Z-0.754 I1.6 J0.
X70.9 Z-0.88 I-1.6 J0.
X74.1 Z-1.006 I1.6 J0.
X70.9 Z-1.131 I-1.6 J0.
X74.1 Z-1.257 I1.6 J0.
X70.9 Z-1.383 I-1.6 J0.
X74.1 Z-1.509 I1.6 J0.
X70.9 Z-1.634 I-1.6 J0.
X74.1 Z-1.76 I1.6 J0.
X70.9 Z-1.886 I-1.6 J0.
X74.1 Z-2.011 I1.6 J0.
X70.9 Z-2.137 I-1.6 J0.
X74.1 Z-2.263 I1.6 J0.
X70.9 Z-2.389 I-1.6 J0.
X74.1 Z-2.514 I1.6 J0.
X70.9 Z-2.64 I-1.6 J0.
X74.1 Z-2.766 I1.6 J0.
X70.9 Z-2.891 I-1.6 J0.
X74.1 Z-3.017 I1.6 J0.
X70.9 Z-3.143 I-1.6 J0.
X74.1 Z-3.269 I1.6 J0.
X70.9 Z-3.394 I-1.6 J0.
X74.1 Z-3.52 I1.6 J0.
X70.9 Z-3.646 I-1.6 J0.
X74.1 Z-3.771 I1.6 J0.
X70.9 Z-3.897 I-1.6 J0.
X74.1 Z-4.023 I1.6 J0.
X70.9 Z-4.149 I-1.6 J0.
X74.1 Z-4.274 I1.6 J0.
X70.9 Z-4.4 I-1.6 J0.
X74.1 Z-4.526 I1.6 J0.
X70.9 Z-4.651 I-1.6 J0.
X74.1 Z-4.777 I1.6 J0.
X70.9 Z-4.903 I-1.6 J0.
X74.1 Z-5.029 I1.6 J0.
X70.9 Z-5.154 I-1.6 J0.
X74.1 Z-5.28 I1.6 J0.
X70.9 Z-5.406 I-1.6 J0.
X73.631 Y-1.132 Z-5.5 I1.6 J0.
X71.369 Y1.132 I-1.131 J1.132
X73.631 Y-1.132 I1.131 J-1.132
Y-0.566 I-0.283 J0.283
G1 X73.49 Y-0.425
X73.435 Y-0.37 Z-5.492
X73.382 Y-0.316 Z-5.47
X73.333 Y-0.268 Z-5.433
X73.29 Y-0.225 Z-5.383
X73.255 Y-0.189 Z-5.322
X73.229 Y-0.163 Z-5.253
X73.212 Y-0.147 Z-5.178
X73.207 Y-0.142 Z-5.1
Z5.
X73.5 Y-0.4
Z-3.5
Z-5.1
G18 G2 X73.9 Z-5.5 I0.4 K0.
G1 X74.1
G17 G3 X74.5 Y0. I0. J0.4
X70.5 I-2. J0.
X74.5 I2. J0.
X74.1 Y0.4 I-0.4 J0.
G1 X73.9
G18 G3 X73.5 Z-5.1 I0. K0.4
G1 Z15.
G17
(WHEN USING FUSION FOR PERSONAL USE, THE FEEDRATE OF RAPID)
(MOVES IS REDUCED TO MATCH THE FEEDRATE OF CUTTING MOVES,)
(WHICH CAN INCREASE MACHINING TIME. UNRESTRICTED RAPID MOVES)
(ARE AVAILABLE WITH A FUSION SUBSCRIPTION.)

(2D CONTOUR - ROUGHING)
G0 X-25.083 Y14.15
G1 Z15. F300.
Z5.
Z1.4 F100.
G19 G2 Y13.75 Z1. J-0.4 K0. F300.
G1 Y13.35
G17 G3 X-24.683 Y12.95 I0.4 J0.
G1 X72.5 Z0.803 F150.
G2 X83.507 Y6.822 Z0.776 I0. J-12.95
X83.95 Y5.268 Z0.773 I-2.507 J-1.554
G1 Y-5.268 Z0.752
G2 X83.507 Y-6.822 Z0.749 I-2.95 J0.
X72.5 Y-12.95 Z0.722 I-11.007 J6.822
G1 X-72.5 Z0.428
G2 X-83.507 Y-6.822 Z0.401 I0. J12.95
X-83.95 Y-5.268 Z0.398 I2.507 J1.554
G1 Y5.268 Z0.377
G2 X-83.507 Y6.822 Z0.374 I2.95 J0.
X-72.5 Y12.95 Z0.347 I11.007 J-6.822
G1 X72.5 Z0.053
G2 X83.507 Y6.822 Z0.026 I0. J-12.95
X83.95 Y5.268 Z0.023 I-2.507 J-1.554
G1 Y-5.268 Z0.002
G2 X83.507 Y-6.822 Z-0.001 I-2.95 J0.
X72.5 Y-12.95 Z-0.028 I-11.007 J6.822
G1 X-72.5 Z-0.322
G2 X-83.507 Y-6.822 Z-0.349 I0. J12.95
X-83.95 Y-5.268 Z-0.352 I2.507 J1.554
G1 Y5.268 Z-0.373
G2 X-83.507 Y6.822 Z-0.376 I2.95 J0.
X-72.5 Y12.95 Z-0.403 I11.007 J-6.822
G1 X72.5 Z-0.697
G2 X83.507 Y6.822 Z-0.724 I0. J-12.95
X83.95 Y5.268 Z-0.727 I-2.507 J-1.554
G1 Y-5.268 Z-0.748
G2 X83.507 Y-6.822 Z-0.751 I-2.95 J0.
X72.5 Y-12.95 Z-0.778 I-11.007 J6.822
G1 X-72.5 Z-1.072
G2 X-83.507 Y-6.822 Z-1.099 I0. J12.95
X-83.95 Y-5.268 Z-1.102 I2.507 J1.554
G1 Y5.268 Z-1.123
G2 X-83.507 Y6.822 Z-1.126 I2.95 J0.
X-72.5 Y12.95 Z-1.153 I11.007 J-6.822
G1 X72.5 Z-1.447
G2 X83.507 Y6.822 Z-1.474 I0. J-12.95
X83.95 Y5.268 Z-1.477 I-2.507 J-1.554
G1 Y-5.268 Z-1.498
G2 X83.507 Y-6.822 Z-1.501 I-2.95 J0.
X72.5 Y-12.95 Z-1.528 I-11.007 J6.822
G1 X-72.5 Z-1.822
G2 X-83.507 Y-6.822 Z-1.849 I0. J12.95
X-83.95 Y-5.268 Z-1.852 I2.507 J1.554
G1 Y5.268 Z-1.873
G2 X-83.507 Y6.822 Z-1.876 I2.95 J0.
X-72.5 Y12.95 Z-1.903 I11.007 J-6.822
G1 X72.5 Z-2.197
G2 X83.507 Y6.822 Z-2.224 I0. J-12.95
X83.95 Y5.268 Z-2.227 I-2.507 J-1.554
G1 Y-5.268 Z-2.248
G2 X83.507 Y-6.822 Z-2.251 I-2.95 J0.
X72.5 Y-12.95 Z-2.278 I-11.007 J6.822
G1 X-72.5 Z-2.572
G2 X-83.507 Y-6.822 Z-2.599 I0. J12.95
X-83.95 Y-5.268 Z-2.602 I2.507 J1.554
G1 Y5.268 Z-2.623
G2 X-83.507 Y6.822 Z-2.626 I2.95 J0.
X-72.5 Y12.95 Z-2.653 I11.007 J-6.822
G1 X72.5 Z-2.947
G2 X83.507 Y6.822 Z-2.974 I0. J-12.95
X83.95 Y5.268 Z-2.977 I-2.507 J-1.554
G1 Y-5.268 Z-2.998
G2 X83.507 Y-6.822 Z-3.001 I-2.95 J0.
X72.5 Y-12.95 Z-3.028 I-11.007 J6.822
G1 X-72.5 Z-3.322
G2 X-83.507 Y-6.822 Z-3.349 I0. J12.95
X-83.95 Y-5.268 Z-3.352 I2.507 J1.554
G1 Y5.268 Z-3.373
G2 X-83.507 Y6.822 Z-3.376 I2.95 J0.
X-72.5 Y12.95 Z-3.403 I11.007 J-6.822
G1 X72.5 Z-3.697
G2 X83.507 Y6.822 Z-3.724 I0. J-12.95
X83.95 Y5.268 Z-3.727 I-2.507 J-1.554
G1 Y-5.268 Z-3.748
G2 X83.507 Y-6.822 Z-3.751 I-2.95 J0.
X72.5 Y-12.95 Z-3.778 I-11.007 J6.822
G1 X-72.5 Z-4.072
G2 X-83.507 Y-6.822 Z-4.099 I0. J12.95
X-83.95 Y-5.268 Z-4.102 I2.507 J1.554
G1 Y5.268 Z-4.123
G2 X-83.507 Y6.822 Z-4.126 I2.95 J0.
X-72.5 Y12.95 Z-4.153 I11.007 J-6.822
G1 X0. Z-4.3
X72.5 F300.
G2 X83.507 Y6.822 I0. J-12.95
X83.95 Y5.268 I-2.507 J-1.554
G1 Y-5.268
G2 X83.507 Y-6.822 I-2.95 J0.
X72.5 Y-12.95 I-11.007 J6.822
G1 X-72.5
G2 X-83.507 Y-6.822 I0. J12.95
X-83.95 Y-5.268 I2.507 J1.554
G1 Y5.268
G2 X-83.507 Y6.822 I2.95 J0.
X-72.5 Y12.95 I11.007 J-6.822
G1 X0.
G2 X0.338 Y12.725 I0. J-0.366
G3 X0.675 Y12.5 I0.338 J0.141
G1 X72.5
G2 X83.125 Y6.585 I0. J-12.5
X83.5 Y5.268 I-2.125 J-1.317
G1 Y-5.268
G2 X83.125 Y-6.585 I-2.5 J0.
X72.5 Y-12.5 I-10.625 J6.585
G1 X-72.5
G2 X-83.125 Y-6.585 I0. J12.5
X-83.5 Y-5.268 I2.125 J1.317
G1 Y5.268
G2 X-83.125 Y6.585 I2.5 J0.
X-72.5 Y12.5 I10.625 J-6.585
G1 X0.675
G2 X0.975 Y12.3 I0. J-0.325
G3 X1.275 Y12.1 I0.3 J0.125
G1 X72.5
G2 X82.785 Y6.374 I0. J-12.1
X83.1 Y5.268 I-1.785 J-1.106
G1 Y-5.268
G2 X82.785 Y-6.374 I-2.1 J0.
X72.5 Y-12.1 I-10.285 J6.374
G1 X-72.5
G2 X-82.785 Y-6.374 I0. J12.1
X-83.1 Y-5.268 I1.785 J1.106
G1 Y5.268
G2 X-82.785 Y6.374 I2.1 J0.
X-72.5 Y12.1 I10.285 J-6.374
G1 X1.275
G3 X1.675 Y12.5 I0. J0.4
G1 Y12.9
G19 G3 Y13.3 Z-3.9 J0. K0.4
G1 Z15.
G17
(WHEN USING FUSION FOR PERSONAL USE, THE FEEDRATE OF RAPID)
(MOVES IS REDUCED TO MATCH THE FEEDRATE OF CUTTING MOVES,)
(WHICH CAN INCREASE MACHINING TIME. UNRESTRICTED RAPID MOVES)
(ARE AVAILABLE WITH A FUSION SUBSCRIPTION.)

(2D CONTOUR - FINISHING 3)
G0 X-84.6 Y-0.4
G1 Z15. F400.
Z5.
Z0.8 F133.
Z-0.6
G18 G2 X-84.2 Z-1. I0.4 K0. F400.
G1 X-83.8
G17 G3 X-83.4 Y0. I0. J0.4
G1 Y5.268
G2 X-83.04 Y6.532 I2.4 J0.
X-72.5 Y12.4 I10.54 J-6.532
G1 X72.5
G2 X83.04 Y6.532 I0. J-12.4
X83.4 Y5.268 I-2.04 J-1.264
G1 Y-5.268
G2 X83.04 Y-6.532 I-2.4 J0.
X72.5 Y-12.4 I-10.54 J6.532
G1 X-72.5
G2 X-83.04 Y-6.532 I0. J12.4
X-83.4 Y-5.268 I2.04 J1.264
G1 Y0.
G3 X-83.8 Y0.4 I-0.4 J0.
G1 X-84.2
G18 G3 X-84.6 Z-0.6 I0. K0.4
G1 Z5.
Y-0.4
Z-0.2 F133.
Z-1.6
G2 X-84.2 Z-2. I0.4 K0. F400.
G1 X-83.8
G17 G3 X-83.4 Y0. I0. J0.4
G1 Y5.268
G2 X-83.04 Y6.532 I2.4 J0.
X-72.5 Y12.4 I10.54 J-6.532
G1 X72.5
G2 X83.04 Y6.532 I0. J-12.4
X83.4 Y5.268 I-2.04 J-1.264
G1 Y-5.268
G2 X83.04 Y-6.532 I-2.4 J0.
X72.5 Y-12.4 I-10.54 J6.532
G1 X-72.5
G2 X-83.04 Y-6.532 I0. J12.4
X-83.4 Y-5.268 I2.04 J1.264
G1 Y0.
G3 X-83.8 Y0.4 I-0.4 J0.
G1 X-84.2
G18 G3 X-84.6 Z-1.6 I0. K0.4
G1 Z5.
Y-0.4
Z-1.2 F133.
Z-2.6
G2 X-84.2 Z-3. I0.4 K0. F400.
G1 X-83.8
G17 G3 X-83.4 Y0. I0. J0.4
G1 Y5.268
G2 X-83.04 Y6.532 I2.4 J0.
X-72.5 Y12.4 I10.54 J-6.532
G1 X72.5
G2 X83.04 Y6.532 I0. J-12.4
X83.4 Y5.268 I-2.04 J-1.264
G1 Y-5.268
G2 X83.04 Y-6.532 I-2.4 J0.
X72.5 Y-12.4 I-10.54 J6.532
G1 X-72.5
G2 X-83.04 Y-6.532 I0. J12.4
X-83.4 Y-5.268 I2.04 J1.264
G1 Y0.
G3 X-83.8 Y0.4 I-0.4 J0.
G1 X-84.2
G18 G3 X-84.6 Z-2.6 I0. K0.4
G1 Z5.
Y-0.4
Z-2.2 F133.
Z-3.6
G2 X-84.2 Z-4. I0.4 K0. F400.
G1 X-83.8
G17 G3 X-83.4 Y0. I0. J0.4
G1 Y5.268
G2 X-83.04 Y6.532 I2.4 J0.
X-72.5 Y12.4 I10.54 J-6.532
G1 X72.5
G2 X83.04 Y6.532 I0. J-12.4
X83.4 Y5.268 I-2.04 J-1.264
G1 Y-5.268
G2 X83.04 Y-6.532 I-2.4 J0.
X72.5 Y-12.4 I-10.54 J6.532
G1 X-72.5
G2 X-83.04 Y-6.532 I0. J12.4
X-83.4 Y-5.268 I2.04 J1.264
G1 Y0.
G3 X-83.8 Y0.4 I-0.4 J0.
G1 X-84.2
G18 G3 X-84.6 Z-3.6 I0. K0.4
G1 Z5.
Y-0.4
Z-3.2 F133.
Z-4.4
X-84.2 F400.
X-83.8
G17 G3 X-83.4 Y0. I0. J0.4
G1 Y1.842
Z-5. F133.
Y5.268 F400.
G2 X-83.04 Y6.532 I2.4 J0.
X-72.5 Y12.4 I10.54 J-6.532
G1 X-58.915
Z-4.4
X-50.915
Z-5. F133.
X-23.743 F400.
Z-4.4
X-15.743
Z-5. F133.
X11.428 F400.
Z-4.4
X19.428
Z-5. F133.
X46.599 F400.
Z-4.4
X54.599
Z-5. F133.
X72.5 F400.
G2 X83.04 Y6.532 I0. J-12.4
X83.229 Y6.158 I-2.04 J-1.264
G1 Z-4.4
G2 X83.4 Y5.268 I-2.229 J-0.89
G1 Y-1.842
Z-5. F133.
Y-5.268 F400.
G2 X83.04 Y-6.532 I-2.4 J0.
X72.5 Y-12.4 I-10.54 J6.532
G1 X58.915
Z-4.4
X50.915
Z-5. F133.
X23.743 F400.
Z-4.4
X15.743
Z-5. F133.
X-11.428 F400.
Z-4.4
X-19.428
Z-5. F133.
X-46.599 F400.
Z-4.4
X-54.599
Z-5. F133.
X-72.5 F400.
G2 X-83.04 Y-6.532 I0. J12.4
X-83.229 Y-6.158 I2.04 J1.264
G1 Z-4.4
G2 X-83.4 Y-5.268 I2.229 J0.89
G1 Y0.
G3 X-83.8 Y0.4 I-0.4 J0.
G1 X-84.6
Z5.
Y-0.4
Z-4.2 F133.
Z-4.4
X-84.2 F400.
X-83.8
G3 X-83.4 Y0. I0. J0.4
G1 Y1.842
Z-5.4 F133.
Y5.268 F400.
G2 X-83.04 Y6.532 I2.4 J0.
X-72.5 Y12.4 I10.54 J-6.532
G1 X-58.915
Z-4.4
X-50.915
Z-5.4 F133.
X-23.743 F400.
Z-4.4
X-15.743
Z-5.4 F133.
X11.428 F400.
Z-4.4
X19.428
Z-5.4 F133.
X46.599 F400.
Z-4.4
X54.599
Z-5.4 F133.
X72.5 F400.
G2 X83.04 Y6.532 I0. J-12.4
X83.229 Y6.158 I-2.04 J-1.264
G1 Z-4.4
G2 X83.4 Y5.268 I-2.229 J-0.89
G1 Y-1.842
Z-5.4 F133.
Y-5.268 F400.
G2 X83.04 Y-6.532 I-2.4 J0.
X72.5 Y-12.4 I-10.54 J6.532
G1 X58.915
Z-4.4
X50.915
Z-5.4 F133.
X23.743 F400.
Z-4.4
X15.743
Z-5.4 F133.
X-11.428 F400.
Z-4.4
X-19.428
Z-5.4 F133.
X-46.599 F400.
Z-4.4
X-54.599
Z-5.4 F133.
X-72.5 F400.
G2 X-83.04 Y-6.532 I0. J12.4
X-83.229 Y-6.158 I2.04 J1.264
G1 Z-4.4
G2 X-83.4 Y-5.268 I2.229 J0.89
G1 Y0.
G3 X-83.8 Y0.4 I-0.4 J0.
G1 X-84.6
Z5.
X-84.2 Y-0.4
Z-4.2 F133.
Z-4.4
X-83.8 F400.
X-83.4
G3 X-83. Y0. I0. J0.4
G1 Y1.842
Z-5.4 F133.
Y5.268 F400.
G2 X-82.7 Y6.321 I2. J0.
X-72.5 Y12. I10.2 J-6.321
G1 X-58.915
Z-4.4
X-50.915
Z-5.4 F133.
X-23.743 F400.
Z-4.4
X-15.743
Z-5.4 F133.
X11.428 F400.
Z-4.4
X19.428
Z-5.4 F133.
X46.599 F400.
Z-4.4
X54.599
Z-5.4 F133.
X72.5 F400.
G2 X82.7 Y6.321 I0. J-12.
G1 X82.747 Y6.241
X82.791 Y6.158
Z-4.4
G2 X83. Y5.268 I-1.791 J-0.89
G1 Y-1.842
Z-5.4 F133.
Y-5.268 F400.
G2 X82.7 Y-6.321 I-2. J0.
X72.5 Y-12. I-10.2 J6.321
G1 X58.915
Z-4.4
X50.915
Z-5.4 F133.
X23.743 F400.
Z-4.4
X15.743
Z-5.4 F133.
X-11.428 F400.
Z-4.4
X-19.428
Z-5.4 F133.
X-46.599 F400.
Z-4.4
X-54.599
Z-5.4 F133.
X-72.5 F400.
G2 X-82.7 Y-6.321 I0. J12.
G1 X-82.747 Y-6.241
X-82.791 Y-6.158
Z-4.4
G2 X-83. Y-5.268 I1.791 J0.89
G1 Y0.
G3 X-83.4 Y0.4 I-0.4 J0.
G1 X-84.2
Z15.

M5
G28 G91 Z0.
G90
G28 G91 X0. Y0.
G90
M30
