(1001-ROBSBIKEBRACKETV2-CHAMFERING)
(MACHINE)
(  VENDOR HOMEMADE)
(  DESCRIPTION GENERIC 3-AXIS)
(T2 D=4. CR=0. TAPER=45DEG - ZMIN=-1.5 - CHAMFER MILL)
G90 G94 G91.1 G40 G49 G17
G21
(WHEN USING FUSION FOR PERSONAL USE, THE FEEDRATE OF RAPID)
(MOVES IS REDUCED TO MATCH THE FEEDRATE OF CUTTING MOVES,)
(WHICH CAN INCREASE MACHINING TIME. UNRESTRICTED RAPID MOVES)
(ARE AVAILABLE WITH A FUSION SUBSCRIPTION.)
G28 G91 Z0.
G90

(2D CHAMFER1 2)
T2 M6
S5000 M3
G17 G90 G94
G54
G0 X82.45 Y0.
G43 Z15. H2
G1 Z5. F300.
Z2. F100.
Z-1.5
X82.05 F300.
Y-5.268
G2 X81.893 Y-5.821 I-1.05 J0.
X72.5 Y-11.05 I-9.393 J5.821
G1 X-72.5
G2 X-81.893 Y-5.821 I0. J11.05
X-82.05 Y-5.268 I0.893 J0.553
G1 Y5.268
G2 X-81.893 Y5.821 I1.05 J0.
X-72.5 Y11.05 I9.393 J-5.821
G1 X72.5
G2 X81.893 Y5.821 I0. J-11.05
X82.05 Y5.268 I-0.893 J-0.553
G1 Y0.
X82.45
Z5.
X75.05
Z2. F100.
Z-1.5
X75.45 F300.
G3 X69.55 I-2.95 J0.
X75.45 I2.95 J0.
G1 X75.05
Z5.
X-69.95
Z2. F100.
Z-1.5
X-69.55 F300.
G3 X-75.45 I-2.95 J0.
X-69.55 I2.95 J0.
G1 X-69.95
Z15.

M5
G28 G91 Z0.
G90
G28 G91 X0. Y0.
G90
M30
