(1001-ROBBIKEBRACKET-PART1)
(MACHINE)
(  VENDOR HOMEMADE)
(  DESCRIPTION GENERIC 3-AXIS)
(T1 D=4. CR=0. - ZMIN=-5. - FLAT END MILL)
G90 G94 G91.1 G40 G49 G17
G21
(WHEN USING FUSION FOR PERSONAL USE, THE FEEDRATE OF RAPID)
(MOVES IS REDUCED TO MATCH THE FEEDRATE OF CUTTING MOVES,)
(WHICH CAN INCREASE MACHINING TIME. UNRESTRICTED RAPID MOVES)
(ARE AVAILABLE WITH A FUSION SUBSCRIPTION.)
G28 G91 Z0.
G90

(BORE - ROUGHING)
T1 M6
S5000 M3
G17 G90 G94
G54
G0 X-71.7 Y-0.4
G43 Z15. H1
G1 Z2. F300.
Z0.4
G18 G2 X-71.3 Z0. I0.4 K0.
G1 X-71.1
G17 G3 X-70.7 Y0. I0. J0.4
X-74.3 Z-0.133 I-1.8 J0.
X-70.7 Z-0.265 I1.8 J0.
X-74.3 Z-0.398 I-1.8 J0.
X-70.7 Z-0.531 I1.8 J0.
X-74.3 Z-0.663 I-1.8 J0.
X-70.7 Z-0.796 I1.8 J0.
X-74.3 Z-0.929 I-1.8 J0.
X-70.7 Z-1.062 I1.8 J0.
X-74.3 Z-1.194 I-1.8 J0.
X-70.7 Z-1.327 I1.8 J0.
X-74.3 Z-1.46 I-1.8 J0.
X-70.7 Z-1.592 I1.8 J0.
X-74.3 Z-1.725 I-1.8 J0.
X-70.7 Z-1.858 I1.8 J0.
X-74.3 Z-1.99 I-1.8 J0.
X-70.7 Z-2.123 I1.8 J0.
X-74.3 Z-2.256 I-1.8 J0.
X-70.7 Z-2.389 I1.8 J0.
X-74.3 Z-2.521 I-1.8 J0.
X-70.7 Z-2.654 I1.8 J0.
X-74.3 Z-2.787 I-1.8 J0.
X-70.7 Z-2.919 I1.8 J0.
X-74.3 Z-3.052 I-1.8 J0.
X-70.7 Z-3.185 I1.8 J0.
X-74.3 Z-3.317 I-1.8 J0.
X-70.7 Z-3.45 I1.8 J0.
X-74.3 Z-3.583 I-1.8 J0.
X-70.7 Z-3.716 I1.8 J0.
X-74.3 Z-3.848 I-1.8 J0.
X-70.7 Z-3.981 I1.8 J0.
X-74.3 Z-4.114 I-1.8 J0.
X-70.7 Z-4.246 I1.8 J0.
X-74.3 Z-4.379 I-1.8 J0.
X-70.7 Z-4.512 I1.8 J0.
X-74.3 Z-4.644 I-1.8 J0.
X-70.7 Z-4.777 I1.8 J0.
X-74.3 Z-4.91 I-1.8 J0.
X-71.539 Y-1.522 Z-5. I1.8 J0.
X-73.461 Y1.522 I-0.961 J1.522
X-71.539 Y-1.522 I0.961 J-1.522
X-71.414 Y-0.97 I-0.214 J0.338
G1 X-71.521 Y-0.801
X-71.563 Y-0.735 Z-4.992
X-71.603 Y-0.672 Z-4.97
X-71.64 Y-0.613 Z-4.933
X-71.672 Y-0.562 Z-4.883
X-71.699 Y-0.52 Z-4.822
X-71.718 Y-0.489 Z-4.753
X-71.731 Y-0.469 Z-4.678
X-71.735 Y-0.463 Z-4.6
Z5.
X73.3 Y-0.4
Z2.
Z0.4
G18 G2 X73.7 Z0. I0.4 K0.
G1 X73.9
G17 G3 X74.3 Y0. I0. J0.4
X70.7 Z-0.133 I-1.8 J0.
X74.3 Z-0.265 I1.8 J0.
X70.7 Z-0.398 I-1.8 J0.
X74.3 Z-0.531 I1.8 J0.
X70.7 Z-0.663 I-1.8 J0.
X74.3 Z-0.796 I1.8 J0.
X70.7 Z-0.929 I-1.8 J0.
X74.3 Z-1.062 I1.8 J0.
X70.7 Z-1.194 I-1.8 J0.
X74.3 Z-1.327 I1.8 J0.
X70.7 Z-1.46 I-1.8 J0.
X74.3 Z-1.592 I1.8 J0.
X70.7 Z-1.725 I-1.8 J0.
X74.3 Z-1.858 I1.8 J0.
X70.7 Z-1.99 I-1.8 J0.
X74.3 Z-2.123 I1.8 J0.
X70.7 Z-2.256 I-1.8 J0.
X74.3 Z-2.389 I1.8 J0.
X70.7 Z-2.521 I-1.8 J0.
X74.3 Z-2.654 I1.8 J0.
X70.7 Z-2.787 I-1.8 J0.
X74.3 Z-2.919 I1.8 J0.
X70.7 Z-3.052 I-1.8 J0.
X74.3 Z-3.185 I1.8 J0.
X70.7 Z-3.317 I-1.8 J0.
X74.3 Z-3.45 I1.8 J0.
X70.7 Z-3.583 I-1.8 J0.
X74.3 Z-3.716 I1.8 J0.
X70.7 Z-3.848 I-1.8 J0.
X74.3 Z-3.981 I1.8 J0.
X70.7 Z-4.114 I-1.8 J0.
X74.3 Z-4.246 I1.8 J0.
X70.7 Z-4.379 I-1.8 J0.
X74.3 Z-4.512 I1.8 J0.
X70.7 Z-4.644 I-1.8 J0.
X74.3 Z-4.777 I1.8 J0.
X70.7 Z-4.91 I-1.8 J0.
X73.461 Y-1.522 Z-5. I1.8 J0.
X71.539 Y1.522 I-0.961 J1.522
X73.461 Y-1.522 I0.961 J-1.522
X73.586 Y-0.97 I-0.214 J0.338
G1 X73.479 Y-0.801
X73.437 Y-0.735 Z-4.992
X73.397 Y-0.672 Z-4.97
X73.36 Y-0.613 Z-4.933
X73.328 Y-0.562 Z-4.883
X73.301 Y-0.52 Z-4.822
X73.282 Y-0.489 Z-4.753
X73.269 Y-0.469 Z-4.678
X73.265 Y-0.463 Z-4.6
Z15.
(WHEN USING FUSION FOR PERSONAL USE, THE FEEDRATE OF RAPID)
(MOVES IS REDUCED TO MATCH THE FEEDRATE OF CUTTING MOVES,)
(WHICH CAN INCREASE MACHINING TIME. UNRESTRICTED RAPID MOVES)
(ARE AVAILABLE WITH A FUSION SUBSCRIPTION.)

(BORE - FINISHING)
G0 X-72.4 Y-0.4
G1 Z15. F300.
Z2.
Z0.4
G18 G2 X-72. Z0. I0.4 K0.
G1 X-71.8
G17 G3 X-71.4 Y0. I0. J0.4
X-73.6 Z-0.108 I-1.1 J0.
X-71.4 Z-0.217 I1.1 J0.
X-73.6 Z-0.325 I-1.1 J0.
X-71.4 Z-0.433 I1.1 J0.
X-73.6 Z-0.541 I-1.1 J0.
X-71.4 Z-0.65 I1.1 J0.
X-73.6 Z-0.758 I-1.1 J0.
X-71.4 Z-0.866 I1.1 J0.
X-73.6 Z-0.974 I-1.1 J0.
X-71.4 Z-1.083 I1.1 J0.
X-73.6 Z-1.191 I-1.1 J0.
X-71.4 Z-1.299 I1.1 J0.
X-73.6 Z-1.407 I-1.1 J0.
X-71.4 Z-1.516 I1.1 J0.
X-73.6 Z-1.624 I-1.1 J0.
X-71.4 Z-1.732 I1.1 J0.
X-73.6 Z-1.84 I-1.1 J0.
X-71.4 Z-1.949 I1.1 J0.
X-73.6 Z-2.057 I-1.1 J0.
X-71.4 Z-2.165 I1.1 J0.
X-73.6 Z-2.273 I-1.1 J0.
X-71.4 Z-2.382 I1.1 J0.
X-73.6 Z-2.49 I-1.1 J0.
X-71.4 Z-2.598 I1.1 J0.
X-73.6 Z-2.706 I-1.1 J0.
X-71.4 Z-2.815 I1.1 J0.
X-73.6 Z-2.923 I-1.1 J0.
X-71.4 Z-3.031 I1.1 J0.
X-73.6 Z-3.139 I-1.1 J0.
X-71.4 Z-3.248 I1.1 J0.
X-73.6 Z-3.356 I-1.1 J0.
X-71.4 Z-3.464 I1.1 J0.
X-73.6 Z-3.572 I-1.1 J0.
X-71.4 Z-3.681 I1.1 J0.
X-73.6 Z-3.789 I-1.1 J0.
X-71.4 Z-3.897 I1.1 J0.
X-73.6 Z-4.005 I-1.1 J0.
X-71.4 Z-4.114 I1.1 J0.
X-73.6 Z-4.222 I-1.1 J0.
X-71.4 Z-4.33 I1.1 J0.
X-73.6 Z-4.438 I-1.1 J0.
X-71.4 Z-4.547 I1.1 J0.
X-73.6 Z-4.655 I-1.1 J0.
X-71.4 Z-4.763 I1.1 J0.
X-73.6 Z-4.871 I-1.1 J0.
X-71.4 Z-4.98 I1.1 J0.
X-71.585 Y0.611 Z-5. I-1.1 J0.
X-73.415 Y-0.611 I-0.915 J-0.611
X-71.585 Y0.611 I0.915 J0.611
X-72.14 Y0.721 I-0.333 J-0.222
G1 X-72.307 Y0.61
X-72.371 Y0.567 Z-4.992
X-72.434 Y0.525 Z-4.97
X-72.491 Y0.487 Z-4.933
X-72.542 Y0.453 Z-4.883
X-72.583 Y0.426 Z-4.822
X-72.614 Y0.405 Z-4.753
X-72.633 Y0.392 Z-4.678
X-72.639 Y0.388 Z-4.6
Z5.
Z15.
X-71.9 Y-0.4
Z2.
Z0.4
G18 G2 X-71.5 Z0. I0.4 K0.
G1 X-71.3
G17 G3 X-70.9 Y0. I0. J0.4
X-74.1 Z-0.126 I-1.6 J0.
X-70.9 Z-0.251 I1.6 J0.
X-74.1 Z-0.377 I-1.6 J0.
X-70.9 Z-0.503 I1.6 J0.
X-74.1 Z-0.629 I-1.6 J0.
X-70.9 Z-0.754 I1.6 J0.
X-74.1 Z-0.88 I-1.6 J0.
X-70.9 Z-1.006 I1.6 J0.
X-74.1 Z-1.131 I-1.6 J0.
X-70.9 Z-1.257 I1.6 J0.
X-74.1 Z-1.383 I-1.6 J0.
X-70.9 Z-1.509 I1.6 J0.
X-74.1 Z-1.634 I-1.6 J0.
X-70.9 Z-1.76 I1.6 J0.
X-74.1 Z-1.886 I-1.6 J0.
X-70.9 Z-2.011 I1.6 J0.
X-74.1 Z-2.137 I-1.6 J0.
X-70.9 Z-2.263 I1.6 J0.
X-74.1 Z-2.389 I-1.6 J0.
X-70.9 Z-2.514 I1.6 J0.
X-74.1 Z-2.64 I-1.6 J0.
X-70.9 Z-2.766 I1.6 J0.
X-74.1 Z-2.891 I-1.6 J0.
X-70.9 Z-3.017 I1.6 J0.
X-74.1 Z-3.143 I-1.6 J0.
X-70.9 Z-3.269 I1.6 J0.
X-74.1 Z-3.394 I-1.6 J0.
X-70.9 Z-3.52 I1.6 J0.
X-74.1 Z-3.646 I-1.6 J0.
X-70.9 Z-3.771 I1.6 J0.
X-74.1 Z-3.897 I-1.6 J0.
X-70.9 Z-4.023 I1.6 J0.
X-74.1 Z-4.149 I-1.6 J0.
X-70.9 Z-4.274 I1.6 J0.
X-74.1 Z-4.4 I-1.6 J0.
X-70.9 Z-4.526 I1.6 J0.
X-74.1 Z-4.651 I-1.6 J0.
X-70.9 Z-4.777 I1.6 J0.
X-74.1 Z-4.903 I-1.6 J0.
X-71.291 Y-1.048 Z-5. I1.6 J0.
X-73.709 Y1.048 I-1.209 J1.048
X-71.291 Y-1.048 I1.209 J-1.048
X-71.331 Y-0.484 I-0.302 J0.262
G1 X-71.482 Y-0.353
X-71.541 Y-0.302 Z-4.992
X-71.598 Y-0.253 Z-4.97
X-71.65 Y-0.207 Z-4.933
X-71.696 Y-0.168 Z-4.883
X-71.734 Y-0.135 Z-4.822
X-71.762 Y-0.111 Z-4.753
X-71.779 Y-0.096 Z-4.678
X-71.785 Y-0.091 Z-4.6
Z5.
Z15.
X-71.5 Y-0.4
Z-3.
Z-4.6
G18 G2 X-71.1 Z-5. I0.4 K0.
G1 X-70.9
G17 G3 X-70.5 Y0. I0. J0.4
X-74.5 I-2. J0.
X-70.5 I2. J0.
X-70.9 Y0.4 I-0.4 J0.
G1 X-71.1
G18 G3 X-71.5 Z-4.6 I0. K0.4
G1 Z5.
X72.6 Y-0.4
Z2.
Z0.4
G2 X73. Z0. I0.4 K0.
G1 X73.2
G17 G3 X73.6 Y0. I0. J0.4
X71.4 Z-0.108 I-1.1 J0.
X73.6 Z-0.217 I1.1 J0.
X71.4 Z-0.325 I-1.1 J0.
X73.6 Z-0.433 I1.1 J0.
X71.4 Z-0.541 I-1.1 J0.
X73.6 Z-0.65 I1.1 J0.
X71.4 Z-0.758 I-1.1 J0.
X73.6 Z-0.866 I1.1 J0.
X71.4 Z-0.974 I-1.1 J0.
X73.6 Z-1.083 I1.1 J0.
X71.4 Z-1.191 I-1.1 J0.
X73.6 Z-1.299 I1.1 J0.
X71.4 Z-1.407 I-1.1 J0.
X73.6 Z-1.516 I1.1 J0.
X71.4 Z-1.624 I-1.1 J0.
X73.6 Z-1.732 I1.1 J0.
X71.4 Z-1.84 I-1.1 J0.
X73.6 Z-1.949 I1.1 J0.
X71.4 Z-2.057 I-1.1 J0.
X73.6 Z-2.165 I1.1 J0.
X71.4 Z-2.273 I-1.1 J0.
X73.6 Z-2.382 I1.1 J0.
X71.4 Z-2.49 I-1.1 J0.
X73.6 Z-2.598 I1.1 J0.
X71.4 Z-2.706 I-1.1 J0.
X73.6 Z-2.815 I1.1 J0.
X71.4 Z-2.923 I-1.1 J0.
X73.6 Z-3.031 I1.1 J0.
X71.4 Z-3.139 I-1.1 J0.
X73.6 Z-3.248 I1.1 J0.
X71.4 Z-3.356 I-1.1 J0.
X73.6 Z-3.464 I1.1 J0.
X71.4 Z-3.572 I-1.1 J0.
X73.6 Z-3.681 I1.1 J0.
X71.4 Z-3.789 I-1.1 J0.
X73.6 Z-3.897 I1.1 J0.
X71.4 Z-4.005 I-1.1 J0.
X73.6 Z-4.114 I1.1 J0.
X71.4 Z-4.222 I-1.1 J0.
X73.6 Z-4.33 I1.1 J0.
X71.4 Z-4.438 I-1.1 J0.
X73.6 Z-4.547 I1.1 J0.
X71.4 Z-4.655 I-1.1 J0.
X73.6 Z-4.763 I1.1 J0.
X71.4 Z-4.871 I-1.1 J0.
X73.6 Z-4.98 I1.1 J0.
X73.415 Y0.611 Z-5. I-1.1 J0.
X71.585 Y-0.611 I-0.915 J-0.611
X73.415 Y0.611 I0.915 J0.611
X72.86 Y0.721 I-0.333 J-0.222
G1 X72.693 Y0.61
X72.629 Y0.567 Z-4.992
X72.566 Y0.525 Z-4.97
X72.509 Y0.487 Z-4.933
X72.458 Y0.453 Z-4.883
X72.417 Y0.426 Z-4.822
X72.386 Y0.405 Z-4.753
X72.367 Y0.392 Z-4.678
X72.361 Y0.388 Z-4.6
Z5.
X73.1 Y-0.4
Z2.
Z0.4
G18 G2 X73.5 Z0. I0.4 K0.
G1 X73.7
G17 G3 X74.1 Y0. I0. J0.4
X70.9 Z-0.126 I-1.6 J0.
X74.1 Z-0.251 I1.6 J0.
X70.9 Z-0.377 I-1.6 J0.
X74.1 Z-0.503 I1.6 J0.
X70.9 Z-0.629 I-1.6 J0.
X74.1 Z-0.754 I1.6 J0.
X70.9 Z-0.88 I-1.6 J0.
X74.1 Z-1.006 I1.6 J0.
X70.9 Z-1.131 I-1.6 J0.
X74.1 Z-1.257 I1.6 J0.
X70.9 Z-1.383 I-1.6 J0.
X74.1 Z-1.509 I1.6 J0.
X70.9 Z-1.634 I-1.6 J0.
X74.1 Z-1.76 I1.6 J0.
X70.9 Z-1.886 I-1.6 J0.
X74.1 Z-2.011 I1.6 J0.
X70.9 Z-2.137 I-1.6 J0.
X74.1 Z-2.263 I1.6 J0.
X70.9 Z-2.389 I-1.6 J0.
X74.1 Z-2.514 I1.6 J0.
X70.9 Z-2.64 I-1.6 J0.
X74.1 Z-2.766 I1.6 J0.
X70.9 Z-2.891 I-1.6 J0.
X74.1 Z-3.017 I1.6 J0.
X70.9 Z-3.143 I-1.6 J0.
X74.1 Z-3.269 I1.6 J0.
X70.9 Z-3.394 I-1.6 J0.
X74.1 Z-3.52 I1.6 J0.
X70.9 Z-3.646 I-1.6 J0.
X74.1 Z-3.771 I1.6 J0.
X70.9 Z-3.897 I-1.6 J0.
X74.1 Z-4.023 I1.6 J0.
X70.9 Z-4.149 I-1.6 J0.
X74.1 Z-4.274 I1.6 J0.
X70.9 Z-4.4 I-1.6 J0.
X74.1 Z-4.526 I1.6 J0.
X70.9 Z-4.651 I-1.6 J0.
X74.1 Z-4.777 I1.6 J0.
X70.9 Z-4.903 I-1.6 J0.
X73.709 Y-1.048 Z-5. I1.6 J0.
X71.291 Y1.048 I-1.209 J1.048
X73.709 Y-1.048 I1.209 J-1.048
X73.669 Y-0.484 I-0.302 J0.262
G1 X73.518 Y-0.353
X73.459 Y-0.302 Z-4.992
X73.402 Y-0.253 Z-4.97
X73.35 Y-0.207 Z-4.933
X73.304 Y-0.168 Z-4.883
X73.266 Y-0.135 Z-4.822
X73.238 Y-0.111 Z-4.753
X73.221 Y-0.096 Z-4.678
X73.215 Y-0.091 Z-4.6
Z5.
X73.5 Y-0.4
Z-3.
Z-4.6
G18 G2 X73.9 Z-5. I0.4 K0.
G1 X74.1
G17 G3 X74.5 Y0. I0. J0.4
X70.5 I-2. J0.
X74.5 I2. J0.
X74.1 Y0.4 I-0.4 J0.
G1 X73.9
G18 G3 X73.5 Z-4.6 I0. K0.4
G1 Z15.
G17
(WHEN USING FUSION FOR PERSONAL USE, THE FEEDRATE OF RAPID)
(MOVES IS REDUCED TO MATCH THE FEEDRATE OF CUTTING MOVES,)
(WHICH CAN INCREASE MACHINING TIME. UNRESTRICTED RAPID MOVES)
(ARE AVAILABLE WITH A FUSION SUBSCRIPTION.)

(2D CONTOUR - ROUGHING)
G0 X73.792 Y14.097
G1 Z15. F300.
Z5.
Z2.9 F100.
X73.791 Y14.089 Z2.822 F300.
X73.788 Y14.066 Z2.747
X73.784 Y14.03 Z2.678
X73.778 Y13.98 Z2.617
X73.77 Y13.92 Z2.567
X73.762 Y13.851 Z2.53
X73.753 Y13.777 Z2.508
X73.744 Y13.699 Z2.5
X73.696 Y13.302
G3 X74.046 Y12.857 I0.397 J-0.048
G2 X83.507 Y6.822 Z2.484 I-1.546 J-12.857 F100.
X83.95 Y5.268 Z2.482 I-2.507 J-1.554
G1 Y-5.268 Z2.468
G2 X83.507 Y-6.822 Z2.466 I-2.95 J0.
X72.5 Y-12.95 Z2.448 I-11.007 J6.822
G1 X-72.5 Z2.252
G2 X-83.507 Y-6.822 Z2.234 I0. J12.95
X-83.95 Y-5.268 Z2.232 I2.507 J1.554
G1 Y5.268 Z2.218
G2 X-83.507 Y6.822 Z2.216 I2.95 J0.
X-72.5 Y12.95 Z2.198 I11.007 J-6.822
G1 X72.5 Z2.002
G2 X83.507 Y6.822 Z1.984 I0. J-12.95
X83.95 Y5.268 Z1.982 I-2.507 J-1.554
G1 Y-5.268 Z1.968
G2 X83.507 Y-6.822 Z1.966 I-2.95 J0.
X72.5 Y-12.95 Z1.948 I-11.007 J6.822
G1 X-72.5 Z1.752
G2 X-83.507 Y-6.822 Z1.734 I0. J12.95
X-83.95 Y-5.268 Z1.732 I2.507 J1.554
G1 Y5.268 Z1.718
G2 X-83.507 Y6.822 Z1.716 I2.95 J0.
X-72.5 Y12.95 Z1.698 I11.007 J-6.822
G1 X72.5 Z1.502
G2 X83.507 Y6.822 Z1.484 I0. J-12.95
X83.95 Y5.268 Z1.482 I-2.507 J-1.554
G1 Y-5.268 Z1.468
G2 X83.507 Y-6.822 Z1.466 I-2.95 J0.
X72.5 Y-12.95 Z1.448 I-11.007 J6.822
G1 X-72.5 Z1.252
G2 X-83.507 Y-6.822 Z1.234 I0. J12.95
X-83.95 Y-5.268 Z1.232 I2.507 J1.554
G1 Y5.268 Z1.218
G2 X-83.507 Y6.822 Z1.216 I2.95 J0.
X-72.5 Y12.95 Z1.198 I11.007 J-6.822
G1 X72.5 Z1.002
G2 X83.507 Y6.822 Z0.984 I0. J-12.95
X83.95 Y5.268 Z0.982 I-2.507 J-1.554
G1 Y-5.268 Z0.968
G2 X83.507 Y-6.822 Z0.966 I-2.95 J0.
X72.5 Y-12.95 Z0.948 I-11.007 J6.822
G1 X-72.5 Z0.752
G2 X-83.507 Y-6.822 Z0.734 I0. J12.95
X-83.95 Y-5.268 Z0.732 I2.507 J1.554
G1 Y5.268 Z0.718
G2 X-83.507 Y6.822 Z0.716 I2.95 J0.
X-72.5 Y12.95 Z0.698 I11.007 J-6.822
G1 X72.5 Z0.502
G2 X83.507 Y6.822 Z0.484 I0. J-12.95
X83.95 Y5.268 Z0.482 I-2.507 J-1.554
G1 Y-5.268 Z0.468
G2 X83.507 Y-6.822 Z0.466 I-2.95 J0.
X72.5 Y-12.95 Z0.448 I-11.007 J6.822
G1 X-72.5 Z0.252
G2 X-83.507 Y-6.822 Z0.234 I0. J12.95
X-83.95 Y-5.268 Z0.232 I2.507 J1.554
G1 Y5.268 Z0.218
G2 X-83.507 Y6.822 Z0.216 I2.95 J0.
X-72.5 Y12.95 Z0.198 I11.007 J-6.822
G1 X72.5 Z0.002
G2 X83.507 Y6.822 Z-0.016 I0. J-12.95
X83.95 Y5.268 Z-0.018 I-2.507 J-1.554
G1 Y-5.268 Z-0.032
G2 X83.507 Y-6.822 Z-0.034 I-2.95 J0.
X72.5 Y-12.95 Z-0.052 I-11.007 J6.822
G1 X-72.5 Z-0.248
G2 X-83.507 Y-6.822 Z-0.266 I0. J12.95
X-83.95 Y-5.268 Z-0.268 I2.507 J1.554
G1 Y5.268 Z-0.282
G2 X-83.507 Y6.822 Z-0.284 I2.95 J0.
X-72.5 Y12.95 Z-0.302 I11.007 J-6.822
G1 X72.5 Z-0.498
G2 X83.507 Y6.822 Z-0.516 I0. J-12.95
X83.95 Y5.268 Z-0.518 I-2.507 J-1.554
G1 Y-5.268 Z-0.532
G2 X83.507 Y-6.822 Z-0.534 I-2.95 J0.
X72.5 Y-12.95 Z-0.552 I-11.007 J6.822
G1 X-72.5 Z-0.748
G2 X-83.507 Y-6.822 Z-0.766 I0. J12.95
X-83.95 Y-5.268 Z-0.768 I2.507 J1.554
G1 Y5.268 Z-0.782
G2 X-83.507 Y6.822 Z-0.784 I2.95 J0.
X-72.5 Y12.95 Z-0.802 I11.007 J-6.822
G1 X72.5 Z-0.998
G2 X83.507 Y6.822 Z-1.016 I0. J-12.95
X83.95 Y5.268 Z-1.018 I-2.507 J-1.554
G1 Y-5.268 Z-1.032
G2 X83.507 Y-6.822 Z-1.034 I-2.95 J0.
X72.5 Y-12.95 Z-1.052 I-11.007 J6.822
G1 X-72.5 Z-1.248
G2 X-83.507 Y-6.822 Z-1.266 I0. J12.95
X-83.95 Y-5.268 Z-1.268 I2.507 J1.554
G1 Y5.268 Z-1.282
G2 X-83.507 Y6.822 Z-1.284 I2.95 J0.
X-72.5 Y12.95 Z-1.302 I11.007 J-6.822
G1 X72.5 Z-1.498
G2 X83.507 Y6.822 Z-1.516 I0. J-12.95
X83.95 Y5.268 Z-1.518 I-2.507 J-1.554
G1 Y-5.268 Z-1.532
G2 X83.507 Y-6.822 Z-1.534 I-2.95 J0.
X72.5 Y-12.95 Z-1.552 I-11.007 J6.822
G1 X-72.5 Z-1.748
G2 X-83.507 Y-6.822 Z-1.766 I0. J12.95
X-83.95 Y-5.268 Z-1.768 I2.507 J1.554
G1 Y5.268 Z-1.782
G2 X-83.507 Y6.822 Z-1.784 I2.95 J0.
X-72.5 Y12.95 Z-1.802 I11.007 J-6.822
G1 X72.5 Z-1.998
G2 X83.507 Y6.822 Z-2.016 I0. J-12.95
X83.95 Y5.268 Z-2.018 I-2.507 J-1.554
G1 Y-5.268 Z-2.032
G2 X83.507 Y-6.822 Z-2.034 I-2.95 J0.
X72.5 Y-12.95 Z-2.052 I-11.007 J6.822
G1 X-72.5 Z-2.248
G2 X-83.507 Y-6.822 Z-2.266 I0. J12.95
X-83.95 Y-5.268 Z-2.268 I2.507 J1.554
G1 Y5.268 Z-2.282
G2 X-83.507 Y6.822 Z-2.284 I2.95 J0.
X-72.5 Y12.95 Z-2.302 I11.007 J-6.822
G1 X72.5 Z-2.498
G2 X83.507 Y6.822 Z-2.516 I0. J-12.95
X83.95 Y5.268 Z-2.518 I-2.507 J-1.554
G1 Y-5.268 Z-2.532
G2 X83.507 Y-6.822 Z-2.534 I-2.95 J0.
X72.5 Y-12.95 Z-2.552 I-11.007 J6.822
G1 X-72.5 Z-2.748
G2 X-83.507 Y-6.822 Z-2.766 I0. J12.95
X-83.95 Y-5.268 Z-2.768 I2.507 J1.554
G1 Y5.268 Z-2.782
G2 X-83.507 Y6.822 Z-2.784 I2.95 J0.
X-72.5 Y12.95 Z-2.802 I11.007 J-6.822
G1 X72.5 Z-2.998
G2 X83.507 Y6.822 Z-3.016 I0. J-12.95
X83.95 Y5.268 Z-3.018 I-2.507 J-1.554
G1 Y-5.268 Z-3.032
G2 X83.507 Y-6.822 Z-3.034 I-2.95 J0.
X72.5 Y-12.95 Z-3.052 I-11.007 J6.822
G1 X-72.5 Z-3.248
G2 X-83.507 Y-6.822 Z-3.266 I0. J12.95
X-83.95 Y-5.268 Z-3.268 I2.507 J1.554
G1 Y5.268 Z-3.282
G2 X-83.507 Y6.822 Z-3.284 I2.95 J0.
X-72.5 Y12.95 Z-3.302 I11.007 J-6.822
G1 X72.5 Z-3.498
G2 X83.507 Y6.822 Z-3.516 I0. J-12.95
X83.95 Y5.268 Z-3.518 I-2.507 J-1.554
G1 Y-5.268 Z-3.532
G2 X83.507 Y-6.822 Z-3.534 I-2.95 J0.
X72.5 Y-12.95 Z-3.552 I-11.007 J6.822
G1 X-72.5 Z-3.748
G2 X-83.507 Y-6.822 Z-3.766 I0. J12.95
X-83.95 Y-5.268 Z-3.768 I2.507 J1.554
G1 Y5.268 Z-3.782
G2 X-83.507 Y6.822 Z-3.784 I2.95 J0.
X-72.5 Y12.95 Z-3.802 I11.007 J-6.822
G1 X0. Z-3.9
X72.5 F300.
G2 X83.507 Y6.822 I0. J-12.95
X83.95 Y5.268 I-2.507 J-1.554
G1 Y-5.268
G2 X83.507 Y-6.822 I-2.95 J0.
X72.5 Y-12.95 I-11.007 J6.822
G1 X-72.5
G2 X-83.507 Y-6.822 I0. J12.95
X-83.95 Y-5.268 I2.507 J1.554
G1 Y5.268
G2 X-83.507 Y6.822 I2.95 J0.
X-72.5 Y12.95 I11.007 J-6.822
G1 X0.
G2 X0.338 Y12.725 I0. J-0.366
G3 X0.675 Y12.5 I0.338 J0.141
G1 X72.5
G2 X83.125 Y6.585 I0. J-12.5
X83.5 Y5.268 I-2.125 J-1.317
G1 Y-5.268
G2 X83.125 Y-6.585 I-2.5 J0.
X72.5 Y-12.5 I-10.625 J6.585
G1 X-72.5
G2 X-83.125 Y-6.585 I0. J12.5
X-83.5 Y-5.268 I2.125 J1.317
G1 Y5.268
G2 X-83.125 Y6.585 I2.5 J0.
X-72.5 Y12.5 I10.625 J-6.585
G1 X0.675
G2 X0.975 Y12.3 I0. J-0.325
G3 X1.275 Y12.1 I0.3 J0.125
G1 X72.5
G2 X82.785 Y6.374 I0. J-12.1
X83.1 Y5.268 I-1.785 J-1.106
G1 Y-5.268
G2 X82.785 Y-6.374 I-2.1 J0.
X72.5 Y-12.1 I-10.285 J6.374
G1 X-72.5
G2 X-82.785 Y-6.374 I0. J12.1
X-83.1 Y-5.268 I1.785 J1.106
G1 Y5.268
G2 X-82.785 Y6.374 I2.1 J0.
X-72.5 Y12.1 I10.285 J-6.374
G1 X1.275
G3 X1.675 Y12.5 I0. J0.4
G1 Y12.9
G19 G3 Y13.3 Z-3.5 J0. K0.4
G1 Z15.
G17

M5
G28 G91 Z0.
G90
G28 G91 X0. Y0.
G90
M30
