(1001-ROBBIKEBRACKET-PART3)
(MACHINE)
(  VENDOR HOMEMADE)
(  DESCRIPTION GENERIC 3-AXIS)
(T1 D=4. CR=0. - ZMIN=-5. - FLAT END MILL)
G90 G94 G91.1 G40 G49 G17
G21
(WHEN USING FUSION FOR PERSONAL USE, THE FEEDRATE OF RAPID)
(MOVES IS REDUCED TO MATCH THE FEEDRATE OF CUTTING MOVES,)
(WHICH CAN INCREASE MACHINING TIME. UNRESTRICTED RAPID MOVES)
(ARE AVAILABLE WITH A FUSION SUBSCRIPTION.)
G28 G91 Z0.
G90

(2D CONTOUR - FINISHING 3)
T1 M6
S5000 M3
G17 G90 G94
G54
G0 X-84.6 Y-0.4
G43 Z15. H1
G1 Z5. F300.
Z0.8 F100.
Z-0.6
G18 G2 X-84.2 Z-1. I0.4 K0. F300.
G1 X-83.8
G17 G3 X-83.4 Y0. I0. J0.4
G1 Y5.268
G2 X-83.04 Y6.532 I2.4 J0.
X-72.5 Y12.4 I10.54 J-6.532
G1 X72.5
G2 X83.04 Y6.532 I0. J-12.4
X83.4 Y5.268 I-2.04 J-1.264
G1 Y-5.268
G2 X83.04 Y-6.532 I-2.4 J0.
X72.5 Y-12.4 I-10.54 J6.532
G1 X-72.5
G2 X-83.04 Y-6.532 I0. J12.4
X-83.4 Y-5.268 I2.04 J1.264
G1 Y0.
G3 X-83.8 Y0.4 I-0.4 J0.
G1 X-84.2
G18 G3 X-84.6 Z-0.6 I0. K0.4
G1 Z5.
Y-0.4
Z-0.2 F100.
Z-1.6
G2 X-84.2 Z-2. I0.4 K0. F300.
G1 X-83.8
G17 G3 X-83.4 Y0. I0. J0.4
G1 Y5.268
G2 X-83.04 Y6.532 I2.4 J0.
X-72.5 Y12.4 I10.54 J-6.532
G1 X72.5
G2 X83.04 Y6.532 I0. J-12.4
X83.4 Y5.268 I-2.04 J-1.264
G1 Y-5.268
G2 X83.04 Y-6.532 I-2.4 J0.
X72.5 Y-12.4 I-10.54 J6.532
G1 X-72.5
G2 X-83.04 Y-6.532 I0. J12.4
X-83.4 Y-5.268 I2.04 J1.264
G1 Y0.
G3 X-83.8 Y0.4 I-0.4 J0.
G1 X-84.2
G18 G3 X-84.6 Z-1.6 I0. K0.4
G1 Z5.
Y-0.4
Z-1.2 F100.
Z-2.6
G2 X-84.2 Z-3. I0.4 K0. F300.
G1 X-83.8
G17 G3 X-83.4 Y0. I0. J0.4
G1 Y5.268
G2 X-83.04 Y6.532 I2.4 J0.
X-72.5 Y12.4 I10.54 J-6.532
G1 X72.5
G2 X83.04 Y6.532 I0. J-12.4
X83.4 Y5.268 I-2.04 J-1.264
G1 Y-5.268
G2 X83.04 Y-6.532 I-2.4 J0.
X72.5 Y-12.4 I-10.54 J6.532
G1 X-72.5
G2 X-83.04 Y-6.532 I0. J12.4
X-83.4 Y-5.268 I2.04 J1.264
G1 Y0.
G3 X-83.8 Y0.4 I-0.4 J0.
G1 X-84.2
G18 G3 X-84.6 Z-2.6 I0. K0.4
G1 Z5.
Y-0.4
Z-2.2 F100.
Z-3.6
G2 X-84.2 Z-4. I0.4 K0. F300.
G1 X-83.8
G17 G3 X-83.4 Y0. I0. J0.4
G1 Y5.268
G2 X-83.04 Y6.532 I2.4 J0.
X-72.5 Y12.4 I10.54 J-6.532
G1 X72.5
G2 X83.04 Y6.532 I0. J-12.4
X83.4 Y5.268 I-2.04 J-1.264
G1 Y-5.268
G2 X83.04 Y-6.532 I-2.4 J0.
X72.5 Y-12.4 I-10.54 J6.532
G1 X-72.5
G2 X-83.04 Y-6.532 I0. J12.4
X-83.4 Y-5.268 I2.04 J1.264
G1 Y0.
G3 X-83.8 Y0.4 I-0.4 J0.
G1 X-84.2
G18 G3 X-84.6 Z-3.6 I0. K0.4
G1 Z5.
Y-0.4
Z-3.2 F100.
Z-4.
X-84.2 F300.
X-83.8
G17 G3 X-83.4 Y0. I0. J0.4
G1 Y1.842
Z-5. F100.
Y5.268 F300.
G2 X-83.04 Y6.532 I2.4 J0.
X-72.5 Y12.4 I10.54 J-6.532
G1 X-58.915
Z-4.
X-50.915
Z-5. F100.
X-23.743 F300.
Z-4.
X-15.743
Z-5. F100.
X11.428 F300.
Z-4.
X19.428
Z-5. F100.
X46.599 F300.
Z-4.
X54.599
Z-5. F100.
X72.5 F300.
G2 X83.04 Y6.532 I0. J-12.4
X83.229 Y6.158 I-2.04 J-1.264
G1 Z-4.
G2 X83.4 Y5.268 I-2.229 J-0.89
G1 Y-1.842
Z-5. F100.
Y-5.268 F300.
G2 X83.04 Y-6.532 I-2.4 J0.
X72.5 Y-12.4 I-10.54 J6.532
G1 X58.915
Z-4.
X50.915
Z-5. F100.
X23.743 F300.
Z-4.
X15.743
Z-5. F100.
X-11.428 F300.
Z-4.
X-19.428
Z-5. F100.
X-46.599 F300.
Z-4.
X-54.599
Z-5. F100.
X-72.5 F300.
G2 X-83.04 Y-6.532 I0. J12.4
X-83.229 Y-6.158 I2.04 J1.264
G1 Z-4.
G2 X-83.4 Y-5.268 I2.229 J0.89
G1 Y0.
G3 X-83.8 Y0.4 I-0.4 J0.
G1 X-84.6
Z5.
X-84.2 Y-0.4
Z-3.2 F100.
Z-4.
X-83.8 F300.
X-83.4
G3 X-83. Y0. I0. J0.4
G1 Y1.842
Z-5. F100.
Y5.268 F300.
G2 X-82.7 Y6.321 I2. J0.
X-72.5 Y12. I10.2 J-6.321
G1 X-58.915
Z-4.
X-50.915
Z-5. F100.
X-23.743 F300.
Z-4.
X-15.743
Z-5. F100.
X11.428 F300.
Z-4.
X19.428
Z-5. F100.
X46.599 F300.
Z-4.
X54.599
Z-5. F100.
X72.5 F300.
G2 X82.7 Y6.321 I0. J-12.
G1 X82.747 Y6.241
X82.791 Y6.158
Z-4.
G2 X83. Y5.268 I-1.791 J-0.89
G1 Y-1.842
Z-5. F100.
Y-5.268 F300.
G2 X82.7 Y-6.321 I-2. J0.
X72.5 Y-12. I-10.2 J6.321
G1 X58.915
Z-4.
X50.915
Z-5. F100.
X23.743 F300.
Z-4.
X15.743
Z-5. F100.
X-11.428 F300.
Z-4.
X-19.428
Z-5. F100.
X-46.599 F300.
Z-4.
X-54.599
Z-5. F100.
X-72.5 F300.
G2 X-82.7 Y-6.321 I0. J12.
G1 X-82.747 Y-6.241
X-82.791 Y-6.158
Z-4.
G2 X-83. Y-5.268 I1.791 J0.89
G1 Y0.
G3 X-83.4 Y0.4 I-0.4 J0.
G1 X-84.2
Z15.

M5
G28 G91 Z0.
G90
G28 G91 X0. Y0.
G90
M30
