(1001)
(MACHINE)
(  VENDOR HOMEMADE)
(  DESCRIPTION GENERIC 3-AXIS)
(T2  D=3. CR=0. - ZMIN=0. - FLAT END MILL)
G90 G94 G91.1 G40 G49 G17
G21
G28 G91 Z0.
G90

(DRILL1)
M5
T2 M6
S5000 M3
G54
G0 X20. Y4.
G43 Z11. H2
G98 G81 X20. Y4. Z0. R10. F20.
X19.999 Y16.005
X20. Y28.
Y40.
Y52.
X40. Y85.
X25. Y105.
X40. Y110.
G80
Z11.
(WHEN USING FUSION 360 FOR PERSONAL USE, THE FEEDRATE OF)
(RAPID MOVES IS REDUCED TO MATCH THE FEEDRATE OF CUTTING)
(MOVES, WHICH CAN INCREASE MACHINING TIME. UNRESTRICTED RAPID)
(MOVES ARE AVAILABLE WITH A FUSION 360 SUBSCRIPTION.)

(BORE1)
G0 Z21.
X20.15 Y4.3
G1 Z7. F25.
Z5.3
G18 G3 X19.85 Z5. I-0.3 K0.
G1 X19.7
G17 G3 X19.4 Y4. I0. J-0.3
X20.6 Z4.927 I0.6 J0.
X19.4 Z4.853 I-0.6 J0.
X20.6 Z4.78 I0.6 J0.
X19.4 Z4.707 I-0.6 J0.
X20.6 Z4.633 I0.6 J0.
X19.4 Z4.56 I-0.6 J0.
X20.6 Z4.487 I0.6 J0.
X19.4 Z4.413 I-0.6 J0.
X20.6 Z4.34 I0.6 J0.
X19.4 Z4.267 I-0.6 J0.
X20.6 Z4.193 I0.6 J0.
X19.4 Z4.12 I-0.6 J0.
X20.6 Z4.047 I0.6 J0.
X19.4 Z3.973 I-0.6 J0.
X20.6 Z3.9 I0.6 J0.
X19.4 Z3.827 I-0.6 J0.
X20.6 Z3.753 I0.6 J0.
X19.4 Z3.68 I-0.6 J0.
X20.6 Z3.607 I0.6 J0.
X19.4 Z3.533 I-0.6 J0.
X20.6 Z3.46 I0.6 J0.
X19.4 Z3.387 I-0.6 J0.
X20.6 Z3.313 I0.6 J0.
X19.4 Z3.24 I-0.6 J0.
X20.6 Z3.167 I0.6 J0.
X19.4 Z3.093 I-0.6 J0.
X20.6 Z3.02 I0.6 J0.
X19.4 Z2.947 I-0.6 J0.
X20.6 Z2.873 I0.6 J0.
X19.4 Z2.8 I-0.6 J0.
X20.6 Z2.727 I0.6 J0.
X19.4 Z2.653 I-0.6 J0.
X20.6 Z2.58 I0.6 J0.
X19.4 Z2.507 I-0.6 J0.
X20.6 Z2.433 I0.6 J0.
X19.4 Z2.36 I-0.6 J0.
X20.6 Z2.287 I0.6 J0.
X19.4 Z2.213 I-0.6 J0.
X20.6 Z2.14 I0.6 J0.
X19.4 Z2.067 I-0.6 J0.
X20.6 Z1.993 I0.6 J0.
X19.4 Z1.92 I-0.6 J0.
X20.6 Z1.847 I0.6 J0.
X19.4 Z1.773 I-0.6 J0.
X20.6 Z1.7 I0.6 J0.
X19.4 Z1.627 I-0.6 J0.
X20.6 Z1.553 I0.6 J0.
X19.4 Z1.48 I-0.6 J0.
X20.6 Z1.407 I0.6 J0.
X19.4 Z1.333 I-0.6 J0.
X20.6 Z1.26 I0.6 J0.
X19.4 Z1.187 I-0.6 J0.
X20.6 Z1.113 I0.6 J0.
X19.4 Z1.04 I-0.6 J0.
X20.6 Z0.967 I0.6 J0.
X19.4 Z0.893 I-0.6 J0.
X20.6 Z0.82 I0.6 J0.
X19.4 Z0.747 I-0.6 J0.
X20.6 Z0.673 I0.6 J0.
X19.4 Z0.6 I-0.6 J0.
X20.6 Z0.527 I0.6 J0.
X19.4 Z0.453 I-0.6 J0.
X20.6 Z0.38 I0.6 J0.
X19.4 Z0.307 I-0.6 J0.
X20.6 Z0.233 I0.6 J0.
X19.4 Z0.16 I-0.6 J0.
X20.6 Z0.087 I0.6 J0.
X19.4 Z0.013 I-0.6 J0.
X19.495 Y3.676 Z0. I0.6 J0.
X20.505 Y4.324 I0.505 J0.324
X19.495 Y3.676 I-0.505 J-0.324
X19.909 Y3.586 I0.253 J0.162
G1 X20.036 Y3.666
X20.092 Y3.703 Z0.008
X20.145 Y3.737 Z0.03
X20.193 Y3.767 Z0.065
X20.233 Y3.793 Z0.113
X20.263 Y3.812 Z0.17
X20.282 Y3.824 Z0.233
X20.288 Y3.828 Z0.3
Z11.
X20.149 Y16.305
Z7.
Z5.3
G18 G3 X19.849 Z5. I-0.3 K0.
G1 X19.699
G17 G3 X19.399 Y16.005 I0. J-0.3
X20.599 Z4.927 I0.6 J0.
X19.399 Z4.853 I-0.6 J0.
X20.599 Z4.78 I0.6 J0.
X19.399 Z4.707 I-0.6 J0.
X20.599 Z4.633 I0.6 J0.
X19.399 Z4.56 I-0.6 J0.
X20.599 Z4.487 I0.6 J0.
X19.399 Z4.413 I-0.6 J0.
X20.599 Z4.34 I0.6 J0.
X19.399 Z4.267 I-0.6 J0.
X20.599 Z4.193 I0.6 J0.
X19.399 Z4.12 I-0.6 J0.
X20.599 Z4.047 I0.6 J0.
X19.399 Z3.973 I-0.6 J0.
X20.599 Z3.9 I0.6 J0.
X19.399 Z3.827 I-0.6 J0.
X20.599 Z3.753 I0.6 J0.
X19.399 Z3.68 I-0.6 J0.
X20.599 Z3.607 I0.6 J0.
X19.399 Z3.533 I-0.6 J0.
X20.599 Z3.46 I0.6 J0.
X19.399 Z3.387 I-0.6 J0.
X20.599 Z3.313 I0.6 J0.
X19.399 Z3.24 I-0.6 J0.
X20.599 Z3.167 I0.6 J0.
X19.399 Z3.093 I-0.6 J0.
X20.599 Z3.02 I0.6 J0.
X19.399 Z2.947 I-0.6 J0.
X20.599 Z2.873 I0.6 J0.
X19.399 Z2.8 I-0.6 J0.
X20.599 Z2.727 I0.6 J0.
X19.399 Z2.653 I-0.6 J0.
X20.599 Z2.58 I0.6 J0.
X19.399 Z2.507 I-0.6 J0.
X20.599 Z2.433 I0.6 J0.
X19.399 Z2.36 I-0.6 J0.
X20.599 Z2.287 I0.6 J0.
X19.399 Z2.213 I-0.6 J0.
X20.599 Z2.14 I0.6 J0.
X19.399 Z2.067 I-0.6 J0.
X20.599 Z1.993 I0.6 J0.
X19.399 Z1.92 I-0.6 J0.
X20.599 Z1.847 I0.6 J0.
X19.399 Z1.773 I-0.6 J0.
X20.599 Z1.7 I0.6 J0.
X19.399 Z1.627 I-0.6 J0.
X20.599 Z1.553 I0.6 J0.
X19.399 Z1.48 I-0.6 J0.
X20.599 Z1.407 I0.6 J0.
X19.399 Z1.333 I-0.6 J0.
X20.599 Z1.26 I0.6 J0.
X19.399 Z1.187 I-0.6 J0.
X20.599 Z1.113 I0.6 J0.
X19.399 Z1.04 I-0.6 J0.
X20.599 Z0.967 I0.6 J0.
X19.399 Z0.893 I-0.6 J0.
X20.599 Z0.82 I0.6 J0.
X19.399 Z0.747 I-0.6 J0.
X20.599 Z0.673 I0.6 J0.
X19.399 Z0.6 I-0.6 J0.
X20.599 Z0.527 I0.6 J0.
X19.399 Z0.453 I-0.6 J0.
X20.599 Z0.38 I0.6 J0.
X19.399 Z0.307 I-0.6 J0.
X20.599 Z0.233 I0.6 J0.
X19.399 Z0.16 I-0.6 J0.
X20.599 Z0.087 I0.6 J0.
X19.399 Z0.013 I-0.6 J0.
X19.494 Y15.681 Z0. I0.6 J0.
X20.504 Y16.329 I0.505 J0.324
X19.494 Y15.681 I-0.505 J-0.324
X19.908 Y15.591 I0.253 J0.162
G1 X20.034 Y15.672
X20.091 Y15.708 Z0.008
X20.144 Y15.742 Z0.03
X20.192 Y15.773 Z0.065
X20.232 Y15.798 Z0.113
X20.262 Y15.818 Z0.17
X20.281 Y15.83 Z0.233
X20.287 Y15.834 Z0.3
Z11.
X20.15 Y28.3
Z7.
Z5.3
G18 G3 X19.85 Z5. I-0.3 K0.
G1 X19.7
G17 G3 X19.4 Y28. I0. J-0.3
X20.6 Z4.927 I0.6 J0.
X19.4 Z4.853 I-0.6 J0.
X20.6 Z4.78 I0.6 J0.
X19.4 Z4.707 I-0.6 J0.
X20.6 Z4.633 I0.6 J0.
X19.4 Z4.56 I-0.6 J0.
X20.6 Z4.487 I0.6 J0.
X19.4 Z4.413 I-0.6 J0.
X20.6 Z4.34 I0.6 J0.
X19.4 Z4.267 I-0.6 J0.
X20.6 Z4.193 I0.6 J0.
X19.4 Z4.12 I-0.6 J0.
X20.6 Z4.047 I0.6 J0.
X19.4 Z3.973 I-0.6 J0.
X20.6 Z3.9 I0.6 J0.
X19.4 Z3.827 I-0.6 J0.
X20.6 Z3.753 I0.6 J0.
X19.4 Z3.68 I-0.6 J0.
X20.6 Z3.607 I0.6 J0.
X19.4 Z3.533 I-0.6 J0.
X20.6 Z3.46 I0.6 J0.
X19.4 Z3.387 I-0.6 J0.
X20.6 Z3.313 I0.6 J0.
X19.4 Z3.24 I-0.6 J0.
X20.6 Z3.167 I0.6 J0.
X19.4 Z3.093 I-0.6 J0.
X20.6 Z3.02 I0.6 J0.
X19.4 Z2.947 I-0.6 J0.
X20.6 Z2.873 I0.6 J0.
X19.4 Z2.8 I-0.6 J0.
X20.6 Z2.727 I0.6 J0.
X19.4 Z2.653 I-0.6 J0.
X20.6 Z2.58 I0.6 J0.
X19.4 Z2.507 I-0.6 J0.
X20.6 Z2.433 I0.6 J0.
X19.4 Z2.36 I-0.6 J0.
X20.6 Z2.287 I0.6 J0.
X19.4 Z2.213 I-0.6 J0.
X20.6 Z2.14 I0.6 J0.
X19.4 Z2.067 I-0.6 J0.
X20.6 Z1.993 I0.6 J0.
X19.4 Z1.92 I-0.6 J0.
X20.6 Z1.847 I0.6 J0.
X19.4 Z1.773 I-0.6 J0.
X20.6 Z1.7 I0.6 J0.
X19.4 Z1.627 I-0.6 J0.
X20.6 Z1.553 I0.6 J0.
X19.4 Z1.48 I-0.6 J0.
X20.6 Z1.407 I0.6 J0.
X19.4 Z1.333 I-0.6 J0.
X20.6 Z1.26 I0.6 J0.
X19.4 Z1.187 I-0.6 J0.
X20.6 Z1.113 I0.6 J0.
X19.4 Z1.04 I-0.6 J0.
X20.6 Z0.967 I0.6 J0.
X19.4 Z0.893 I-0.6 J0.
X20.6 Z0.82 I0.6 J0.
X19.4 Z0.747 I-0.6 J0.
X20.6 Z0.673 I0.6 J0.
X19.4 Z0.6 I-0.6 J0.
X20.6 Z0.527 I0.6 J0.
X19.4 Z0.453 I-0.6 J0.
X20.6 Z0.38 I0.6 J0.
X19.4 Z0.307 I-0.6 J0.
X20.6 Z0.233 I0.6 J0.
X19.4 Z0.16 I-0.6 J0.
X20.6 Z0.087 I0.6 J0.
X19.4 Z0.013 I-0.6 J0.
X19.495 Y27.676 Z0. I0.6 J0.
X20.505 Y28.324 I0.505 J0.324
X19.495 Y27.676 I-0.505 J-0.324
X19.909 Y27.586 I0.253 J0.162
G1 X20.036 Y27.666
X20.092 Y27.703 Z0.008
X20.145 Y27.737 Z0.03
X20.193 Y27.767 Z0.065
X20.233 Y27.793 Z0.113
X20.263 Y27.812 Z0.17
X20.282 Y27.824 Z0.233
X20.288 Y27.828 Z0.3
Z11.
X20.15 Y40.3
Z7.
Z5.3
G18 G3 X19.85 Z5. I-0.3 K0.
G1 X19.7
G17 G3 X19.4 Y40. I0. J-0.3
X20.6 Z4.927 I0.6 J0.
X19.4 Z4.853 I-0.6 J0.
X20.6 Z4.78 I0.6 J0.
X19.4 Z4.707 I-0.6 J0.
X20.6 Z4.633 I0.6 J0.
X19.4 Z4.56 I-0.6 J0.
X20.6 Z4.487 I0.6 J0.
X19.4 Z4.413 I-0.6 J0.
X20.6 Z4.34 I0.6 J0.
X19.4 Z4.267 I-0.6 J0.
X20.6 Z4.193 I0.6 J0.
X19.4 Z4.12 I-0.6 J0.
X20.6 Z4.047 I0.6 J0.
X19.4 Z3.973 I-0.6 J0.
X20.6 Z3.9 I0.6 J0.
X19.4 Z3.827 I-0.6 J0.
X20.6 Z3.753 I0.6 J0.
X19.4 Z3.68 I-0.6 J0.
X20.6 Z3.607 I0.6 J0.
X19.4 Z3.533 I-0.6 J0.
X20.6 Z3.46 I0.6 J0.
X19.4 Z3.387 I-0.6 J0.
X20.6 Z3.313 I0.6 J0.
X19.4 Z3.24 I-0.6 J0.
X20.6 Z3.167 I0.6 J0.
X19.4 Z3.093 I-0.6 J0.
X20.6 Z3.02 I0.6 J0.
X19.4 Z2.947 I-0.6 J0.
X20.6 Z2.873 I0.6 J0.
X19.4 Z2.8 I-0.6 J0.
X20.6 Z2.727 I0.6 J0.
X19.4 Z2.653 I-0.6 J0.
X20.6 Z2.58 I0.6 J0.
X19.4 Z2.507 I-0.6 J0.
X20.6 Z2.433 I0.6 J0.
X19.4 Z2.36 I-0.6 J0.
X20.6 Z2.287 I0.6 J0.
X19.4 Z2.213 I-0.6 J0.
X20.6 Z2.14 I0.6 J0.
X19.4 Z2.067 I-0.6 J0.
X20.6 Z1.993 I0.6 J0.
X19.4 Z1.92 I-0.6 J0.
X20.6 Z1.847 I0.6 J0.
X19.4 Z1.773 I-0.6 J0.
X20.6 Z1.7 I0.6 J0.
X19.4 Z1.627 I-0.6 J0.
X20.6 Z1.553 I0.6 J0.
X19.4 Z1.48 I-0.6 J0.
X20.6 Z1.407 I0.6 J0.
X19.4 Z1.333 I-0.6 J0.
X20.6 Z1.26 I0.6 J0.
X19.4 Z1.187 I-0.6 J0.
X20.6 Z1.113 I0.6 J0.
X19.4 Z1.04 I-0.6 J0.
X20.6 Z0.967 I0.6 J0.
X19.4 Z0.893 I-0.6 J0.
X20.6 Z0.82 I0.6 J0.
X19.4 Z0.747 I-0.6 J0.
X20.6 Z0.673 I0.6 J0.
X19.4 Z0.6 I-0.6 J0.
X20.6 Z0.527 I0.6 J0.
X19.4 Z0.453 I-0.6 J0.
X20.6 Z0.38 I0.6 J0.
X19.4 Z0.307 I-0.6 J0.
X20.6 Z0.233 I0.6 J0.
X19.4 Z0.16 I-0.6 J0.
X20.6 Z0.087 I0.6 J0.
X19.4 Z0.013 I-0.6 J0.
X19.495 Y39.676 Z0. I0.6 J0.
X20.505 Y40.324 I0.505 J0.324
X19.495 Y39.676 I-0.505 J-0.324
X19.909 Y39.586 I0.253 J0.162
G1 X20.036 Y39.667
X20.092 Y39.703 Z0.008
X20.145 Y39.737 Z0.03
X20.193 Y39.767 Z0.065
X20.233 Y39.793 Z0.113
X20.263 Y39.812 Z0.17
X20.282 Y39.824 Z0.233
X20.288 Y39.828 Z0.3
Z11.
X20.15 Y52.3
Z7.
Z5.3
G18 G3 X19.85 Z5. I-0.3 K0.
G1 X19.7
G17 G3 X19.4 Y52. I0. J-0.3
X20.6 Z4.927 I0.6 J0.
X19.4 Z4.853 I-0.6 J0.
X20.6 Z4.78 I0.6 J0.
X19.4 Z4.707 I-0.6 J0.
X20.6 Z4.633 I0.6 J0.
X19.4 Z4.56 I-0.6 J0.
X20.6 Z4.487 I0.6 J0.
X19.4 Z4.413 I-0.6 J0.
X20.6 Z4.34 I0.6 J0.
X19.4 Z4.267 I-0.6 J0.
X20.6 Z4.193 I0.6 J0.
X19.4 Z4.12 I-0.6 J0.
X20.6 Z4.047 I0.6 J0.
X19.4 Z3.973 I-0.6 J0.
X20.6 Z3.9 I0.6 J0.
X19.4 Z3.827 I-0.6 J0.
X20.6 Z3.753 I0.6 J0.
X19.4 Z3.68 I-0.6 J0.
X20.6 Z3.607 I0.6 J0.
X19.4 Z3.533 I-0.6 J0.
X20.6 Z3.46 I0.6 J0.
X19.4 Z3.387 I-0.6 J0.
X20.6 Z3.313 I0.6 J0.
X19.4 Z3.24 I-0.6 J0.
X20.6 Z3.167 I0.6 J0.
X19.4 Z3.093 I-0.6 J0.
X20.6 Z3.02 I0.6 J0.
X19.4 Z2.947 I-0.6 J0.
X20.6 Z2.873 I0.6 J0.
X19.4 Z2.8 I-0.6 J0.
X20.6 Z2.727 I0.6 J0.
X19.4 Z2.653 I-0.6 J0.
X20.6 Z2.58 I0.6 J0.
X19.4 Z2.507 I-0.6 J0.
X20.6 Z2.433 I0.6 J0.
X19.4 Z2.36 I-0.6 J0.
X20.6 Z2.287 I0.6 J0.
X19.4 Z2.213 I-0.6 J0.
X20.6 Z2.14 I0.6 J0.
X19.4 Z2.067 I-0.6 J0.
X20.6 Z1.993 I0.6 J0.
X19.4 Z1.92 I-0.6 J0.
X20.6 Z1.847 I0.6 J0.
X19.4 Z1.773 I-0.6 J0.
X20.6 Z1.7 I0.6 J0.
X19.4 Z1.627 I-0.6 J0.
X20.6 Z1.553 I0.6 J0.
X19.4 Z1.48 I-0.6 J0.
X20.6 Z1.407 I0.6 J0.
X19.4 Z1.333 I-0.6 J0.
X20.6 Z1.26 I0.6 J0.
X19.4 Z1.187 I-0.6 J0.
X20.6 Z1.113 I0.6 J0.
X19.4 Z1.04 I-0.6 J0.
X20.6 Z0.967 I0.6 J0.
X19.4 Z0.893 I-0.6 J0.
X20.6 Z0.82 I0.6 J0.
X19.4 Z0.747 I-0.6 J0.
X20.6 Z0.673 I0.6 J0.
X19.4 Z0.6 I-0.6 J0.
X20.6 Z0.527 I0.6 J0.
X19.4 Z0.453 I-0.6 J0.
X20.6 Z0.38 I0.6 J0.
X19.4 Z0.307 I-0.6 J0.
X20.6 Z0.233 I0.6 J0.
X19.4 Z0.16 I-0.6 J0.
X20.6 Z0.087 I0.6 J0.
X19.4 Z0.013 I-0.6 J0.
X19.495 Y51.676 Z0. I0.6 J0.
X20.505 Y52.324 I0.505 J0.324
X19.495 Y51.676 I-0.505 J-0.324
X19.909 Y51.586 I0.253 J0.162
G1 X20.036 Y51.667
X20.092 Y51.703 Z0.008
X20.145 Y51.737 Z0.03
X20.193 Y51.767 Z0.065
X20.233 Y51.793 Z0.113
X20.263 Y51.812 Z0.17
X20.282 Y51.824 Z0.233
X20.288 Y51.828 Z0.3
Z11.
X25.15 Y105.3
Z7.
Z5.3
G18 G3 X24.85 Z5. I-0.3 K0.
G1 X24.7
G17 G3 X24.4 Y105. I0. J-0.3
X25.6 Z4.927 I0.6 J0.
X24.4 Z4.853 I-0.6 J0.
X25.6 Z4.78 I0.6 J0.
X24.4 Z4.707 I-0.6 J0.
X25.6 Z4.633 I0.6 J0.
X24.4 Z4.56 I-0.6 J0.
X25.6 Z4.487 I0.6 J0.
X24.4 Z4.413 I-0.6 J0.
X25.6 Z4.34 I0.6 J0.
X24.4 Z4.267 I-0.6 J0.
X25.6 Z4.193 I0.6 J0.
X24.4 Z4.12 I-0.6 J0.
X25.6 Z4.047 I0.6 J0.
X24.4 Z3.973 I-0.6 J0.
X25.6 Z3.9 I0.6 J0.
X24.4 Z3.827 I-0.6 J0.
X25.6 Z3.753 I0.6 J0.
X24.4 Z3.68 I-0.6 J0.
X25.6 Z3.607 I0.6 J0.
X24.4 Z3.533 I-0.6 J0.
X25.6 Z3.46 I0.6 J0.
X24.4 Z3.387 I-0.6 J0.
X25.6 Z3.313 I0.6 J0.
X24.4 Z3.24 I-0.6 J0.
X25.6 Z3.167 I0.6 J0.
X24.4 Z3.093 I-0.6 J0.
X25.6 Z3.02 I0.6 J0.
X24.4 Z2.947 I-0.6 J0.
X25.6 Z2.873 I0.6 J0.
X24.4 Z2.8 I-0.6 J0.
X25.6 Z2.727 I0.6 J0.
X24.4 Z2.653 I-0.6 J0.
X25.6 Z2.58 I0.6 J0.
X24.4 Z2.507 I-0.6 J0.
X25.6 Z2.433 I0.6 J0.
X24.4 Z2.36 I-0.6 J0.
X25.6 Z2.287 I0.6 J0.
X24.4 Z2.213 I-0.6 J0.
X25.6 Z2.14 I0.6 J0.
X24.4 Z2.067 I-0.6 J0.
X25.6 Z1.993 I0.6 J0.
X24.4 Z1.92 I-0.6 J0.
X25.6 Z1.847 I0.6 J0.
X24.4 Z1.773 I-0.6 J0.
X25.6 Z1.7 I0.6 J0.
X24.4 Z1.627 I-0.6 J0.
X25.6 Z1.553 I0.6 J0.
X24.4 Z1.48 I-0.6 J0.
X25.6 Z1.407 I0.6 J0.
X24.4 Z1.333 I-0.6 J0.
X25.6 Z1.26 I0.6 J0.
X24.4 Z1.187 I-0.6 J0.
X25.6 Z1.113 I0.6 J0.
X24.4 Z1.04 I-0.6 J0.
X25.6 Z0.967 I0.6 J0.
X24.4 Z0.893 I-0.6 J0.
X25.6 Z0.82 I0.6 J0.
X24.4 Z0.747 I-0.6 J0.
X25.6 Z0.673 I0.6 J0.
X24.4 Z0.6 I-0.6 J0.
X25.6 Z0.527 I0.6 J0.
X24.4 Z0.453 I-0.6 J0.
X25.6 Z0.38 I0.6 J0.
X24.4 Z0.307 I-0.6 J0.
X25.6 Z0.233 I0.6 J0.
X24.4 Z0.16 I-0.6 J0.
X25.6 Z0.087 I0.6 J0.
X24.4 Z0.013 I-0.6 J0.
X24.495 Y104.676 Z0. I0.6 J0.
X25.505 Y105.324 I0.505 J0.324
X24.495 Y104.676 I-0.505 J-0.324
X24.909 Y104.586 I0.253 J0.162
G1 X25.036 Y104.666
X25.092 Y104.703 Z0.008
X25.145 Y104.737 Z0.03
X25.193 Y104.767 Z0.065
X25.233 Y104.793 Z0.113
X25.263 Y104.812 Z0.17
X25.282 Y104.824 Z0.233
X25.288 Y104.828 Z0.3
Z21.
(WHEN USING FUSION 360 FOR PERSONAL USE, THE FEEDRATE OF)
(RAPID MOVES IS REDUCED TO MATCH THE FEEDRATE OF CUTTING)
(MOVES, WHICH CAN INCREASE MACHINING TIME. UNRESTRICTED RAPID)
(MOVES ARE AVAILABLE WITH A FUSION 360 SUBSCRIPTION.)

(BORE2)
G0 X40.175 Y110.275
G1 Z21. F25.
Z7.
Z5.3
G18 G3 X39.875 Z5. I-0.3 K0.
G1 X39.725
G17 G3 X39.45 Y110. I0. J-0.275
X40.55 Z4.928 I0.55 J0.
X39.45 Z4.857 I-0.55 J0.
X40.55 Z4.785 I0.55 J0.
X39.45 Z4.714 I-0.55 J0.
X40.55 Z4.642 I0.55 J0.
X39.45 Z4.57 I-0.55 J0.
X40.55 Z4.499 I0.55 J0.
X39.45 Z4.427 I-0.55 J0.
X40.55 Z4.356 I0.55 J0.
X39.45 Z4.284 I-0.55 J0.
X40.55 Z4.213 I0.55 J0.
X39.45 Z4.141 I-0.55 J0.
X40.55 Z4.069 I0.55 J0.
X39.45 Z3.998 I-0.55 J0.
X40.55 Z3.926 I0.55 J0.
X39.45 Z3.855 I-0.55 J0.
X40.55 Z3.783 I0.55 J0.
X39.45 Z3.711 I-0.55 J0.
X40.55 Z3.64 I0.55 J0.
X39.45 Z3.568 I-0.55 J0.
X40.55 Z3.497 I0.55 J0.
X39.45 Z3.425 I-0.55 J0.
X40.55 Z3.353 I0.55 J0.
X39.45 Z3.282 I-0.55 J0.
X40.55 Z3.21 I0.55 J0.
X39.45 Z3.139 I-0.55 J0.
X40.55 Z3.067 I0.55 J0.
X39.45 Z2.996 I-0.55 J0.
X40.55 Z2.924 I0.55 J0.
X39.45 Z2.852 I-0.55 J0.
X40.55 Z2.781 I0.55 J0.
X39.45 Z2.709 I-0.55 J0.
X40.55 Z2.638 I0.55 J0.
X39.45 Z2.566 I-0.55 J0.
X40.55 Z2.494 I0.55 J0.
X39.45 Z2.423 I-0.55 J0.
X40.55 Z2.351 I0.55 J0.
X39.45 Z2.28 I-0.55 J0.
X40.55 Z2.208 I0.55 J0.
X39.45 Z2.136 I-0.55 J0.
X40.55 Z2.065 I0.55 J0.
X39.45 Z1.993 I-0.55 J0.
X40.55 Z1.922 I0.55 J0.
X39.45 Z1.85 I-0.55 J0.
X40.55 Z1.779 I0.55 J0.
X39.45 Z1.707 I-0.55 J0.
X40.55 Z1.635 I0.55 J0.
X39.45 Z1.564 I-0.55 J0.
X40.55 Z1.492 I0.55 J0.
X39.45 Z1.421 I-0.55 J0.
X40.55 Z1.349 I0.55 J0.
X39.45 Z1.277 I-0.55 J0.
X40.55 Z1.206 I0.55 J0.
X39.45 Z1.134 I-0.55 J0.
X40.55 Z1.063 I0.55 J0.
X39.45 Z0.991 I-0.55 J0.
X40.55 Z0.92 I0.55 J0.
X39.45 Z0.848 I-0.55 J0.
X40.55 Z0.776 I0.55 J0.
X39.45 Z0.705 I-0.55 J0.
X40.55 Z0.633 I0.55 J0.
X39.45 Z0.562 I-0.55 J0.
X40.55 Z0.49 I0.55 J0.
X39.45 Z0.418 I-0.55 J0.
X40.55 Z0.347 I0.55 J0.
X39.45 Z0.275 I-0.55 J0.
X40.55 Z0.204 I0.55 J0.
X39.45 Z0.132 I-0.55 J0.
X40.55 Z0.06 I0.55 J0.
X39.514 Y110.258 Z0. I-0.55 J0.
X40.486 Y109.742 I0.486 J-0.258
X39.514 Y110.258 I-0.486 J0.258
X39.628 Y109.886 I0.243 J-0.129
G1 X39.761 Y109.816
X39.82 Y109.784 Z0.008
X39.876 Y109.755 Z0.03
X39.926 Y109.728 Z0.065
X39.968 Y109.706 Z0.113
X39.999 Y109.689 Z0.17
X40.019 Y109.679 Z0.233
X40.025 Y109.675 Z0.3
Z11.
X40.175 Y85.275
Z7.
Z5.3
G18 G3 X39.875 Z5. I-0.3 K0.
G1 X39.725
G17 G3 X39.45 Y85. I0. J-0.275
X40.55 Z4.928 I0.55 J0.
X39.45 Z4.857 I-0.55 J0.
X40.55 Z4.785 I0.55 J0.
X39.45 Z4.714 I-0.55 J0.
X40.55 Z4.642 I0.55 J0.
X39.45 Z4.57 I-0.55 J0.
X40.55 Z4.499 I0.55 J0.
X39.45 Z4.427 I-0.55 J0.
X40.55 Z4.356 I0.55 J0.
X39.45 Z4.284 I-0.55 J0.
X40.55 Z4.213 I0.55 J0.
X39.45 Z4.141 I-0.55 J0.
X40.55 Z4.069 I0.55 J0.
X39.45 Z3.998 I-0.55 J0.
X40.55 Z3.926 I0.55 J0.
X39.45 Z3.855 I-0.55 J0.
X40.55 Z3.783 I0.55 J0.
X39.45 Z3.711 I-0.55 J0.
X40.55 Z3.64 I0.55 J0.
X39.45 Z3.568 I-0.55 J0.
X40.55 Z3.497 I0.55 J0.
X39.45 Z3.425 I-0.55 J0.
X40.55 Z3.353 I0.55 J0.
X39.45 Z3.282 I-0.55 J0.
X40.55 Z3.21 I0.55 J0.
X39.45 Z3.139 I-0.55 J0.
X40.55 Z3.067 I0.55 J0.
X39.45 Z2.996 I-0.55 J0.
X40.55 Z2.924 I0.55 J0.
X39.45 Z2.852 I-0.55 J0.
X40.55 Z2.781 I0.55 J0.
X39.45 Z2.709 I-0.55 J0.
X40.55 Z2.638 I0.55 J0.
X39.45 Z2.566 I-0.55 J0.
X40.55 Z2.494 I0.55 J0.
X39.45 Z2.423 I-0.55 J0.
X40.55 Z2.351 I0.55 J0.
X39.45 Z2.28 I-0.55 J0.
X40.55 Z2.208 I0.55 J0.
X39.45 Z2.136 I-0.55 J0.
X40.55 Z2.065 I0.55 J0.
X39.45 Z1.993 I-0.55 J0.
X40.55 Z1.922 I0.55 J0.
X39.45 Z1.85 I-0.55 J0.
X40.55 Z1.779 I0.55 J0.
X39.45 Z1.707 I-0.55 J0.
X40.55 Z1.635 I0.55 J0.
X39.45 Z1.564 I-0.55 J0.
X40.55 Z1.492 I0.55 J0.
X39.45 Z1.421 I-0.55 J0.
X40.55 Z1.349 I0.55 J0.
X39.45 Z1.277 I-0.55 J0.
X40.55 Z1.206 I0.55 J0.
X39.45 Z1.134 I-0.55 J0.
X40.55 Z1.063 I0.55 J0.
X39.45 Z0.991 I-0.55 J0.
X40.55 Z0.92 I0.55 J0.
X39.45 Z0.848 I-0.55 J0.
X40.55 Z0.776 I0.55 J0.
X39.45 Z0.705 I-0.55 J0.
X40.55 Z0.633 I0.55 J0.
X39.45 Z0.562 I-0.55 J0.
X40.55 Z0.49 I0.55 J0.
X39.45 Z0.418 I-0.55 J0.
X40.55 Z0.347 I0.55 J0.
X39.45 Z0.275 I-0.55 J0.
X40.55 Z0.204 I0.55 J0.
X39.45 Z0.132 I-0.55 J0.
X40.55 Z0.06 I0.55 J0.
X39.514 Y85.258 Z0. I-0.55 J0.
X40.486 Y84.742 I0.486 J-0.258
X39.514 Y85.258 I-0.486 J0.258
X39.628 Y84.886 I0.243 J-0.129
G1 X39.761 Y84.816
X39.82 Y84.784 Z0.008
X39.876 Y84.755 Z0.03
X39.926 Y84.728 Z0.065
X39.968 Y84.706 Z0.113
X39.999 Y84.689 Z0.17
X40.019 Y84.679 Z0.233
X40.025 Y84.675 Z0.3
Z21.
(WHEN USING FUSION 360 FOR PERSONAL USE, THE FEEDRATE OF)
(RAPID MOVES IS REDUCED TO MATCH THE FEEDRATE OF CUTTING)
(MOVES, WHICH CAN INCREASE MACHINING TIME. UNRESTRICTED RAPID)
(MOVES ARE AVAILABLE WITH A FUSION 360 SUBSCRIPTION.)

(2D CONTOUR1)
G0 X-2.4 Y140.3
G1 Z11. F20.
Z7.25
Z6.05
G18 G2 X-2.1 Z5.75 I0.3 K0. F25.
G1 X-1.8
G17 G2 X-1.5 Y140. I0. J-0.3
G1 Y0.
G3 X0. Y-1.5 I1.5 J0.
G1 X50.
G3 X51.5 Y0. I0. J1.5
G1 Y109.957
G3 X50.773 Y111.243 I-1.5 J0.
G1 X0.773 Y141.286
G3 X-1.5 Y140. I-0.773 J-1.286
G2 X-1.8 Y139.7 I-0.3 J0.
G1 X-2.1
G18 G3 X-2.4 Z6.05 I0. K0.3
G1 Z11.
Y140.3
Z7. F20.
Z5.8
G2 X-2.1 Z5.5 I0.3 K0. F25.
G1 X-1.8
G17 G2 X-1.5 Y140. I0. J-0.3
G1 Y0.
G3 X0. Y-1.5 I1.5 J0.
G1 X50.
G3 X51.5 Y0. I0. J1.5
G1 Y109.957
G3 X50.773 Y111.243 I-1.5 J0.
G1 X0.773 Y141.286
G3 X-1.5 Y140. I-0.773 J-1.286
G2 X-1.8 Y139.7 I-0.3 J0.
G1 X-2.1
G18 G3 X-2.4 Z5.8 I0. K0.3
G1 Z11.
Y140.3
Z6.75 F20.
Z5.55
G2 X-2.1 Z5.25 I0.3 K0. F25.
G1 X-1.8
G17 G2 X-1.5 Y140. I0. J-0.3
G1 Y0.
G3 X0. Y-1.5 I1.5 J0.
G1 X50.
G3 X51.5 Y0. I0. J1.5
G1 Y109.957
G3 X50.773 Y111.243 I-1.5 J0.
G1 X0.773 Y141.286
G3 X-1.5 Y140. I-0.773 J-1.286
G2 X-1.8 Y139.7 I-0.3 J0.
G1 X-2.1
G18 G3 X-2.4 Z5.55 I0. K0.3
G1 Z11.
Y140.3
Z6.5 F20.
Z5.3
G2 X-2.1 Z5. I0.3 K0. F25.
G1 X-1.8
G17 G2 X-1.5 Y140. I0. J-0.3
G1 Y0.
G3 X0. Y-1.5 I1.5 J0.
G1 X50.
G3 X51.5 Y0. I0. J1.5
G1 Y109.957
G3 X50.773 Y111.243 I-1.5 J0.
G1 X0.773 Y141.286
G3 X-1.5 Y140. I-0.773 J-1.286
G2 X-1.8 Y139.7 I-0.3 J0.
G1 X-2.1
G18 G3 X-2.4 Z5.3 I0. K0.3
G1 Z11.
Y140.3
Z6.25 F20.
Z5.05
G2 X-2.1 Z4.75 I0.3 K0. F25.
G1 X-1.8
G17 G2 X-1.5 Y140. I0. J-0.3
G1 Y0.
G3 X0. Y-1.5 I1.5 J0.
G1 X50.
G3 X51.5 Y0. I0. J1.5
G1 Y109.957
G3 X50.773 Y111.243 I-1.5 J0.
G1 X0.773 Y141.286
G3 X-1.5 Y140. I-0.773 J-1.286
G2 X-1.8 Y139.7 I-0.3 J0.
G1 X-2.1
G18 G3 X-2.4 Z5.05 I0. K0.3
G1 Z11.
Y140.3
Z6. F20.
Z4.8
G2 X-2.1 Z4.5 I0.3 K0. F25.
G1 X-1.8
G17 G2 X-1.5 Y140. I0. J-0.3
G1 Y0.
G3 X0. Y-1.5 I1.5 J0.
G1 X50.
G3 X51.5 Y0. I0. J1.5
G1 Y109.957
G3 X50.773 Y111.243 I-1.5 J0.
G1 X0.773 Y141.286
G3 X-1.5 Y140. I-0.773 J-1.286
G2 X-1.8 Y139.7 I-0.3 J0.
G1 X-2.1
G18 G3 X-2.4 Z4.8 I0. K0.3
G1 Z11.
Y140.3
Z5.75 F20.
Z4.55
G2 X-2.1 Z4.25 I0.3 K0. F25.
G1 X-1.8
G17 G2 X-1.5 Y140. I0. J-0.3
G1 Y0.
G3 X0. Y-1.5 I1.5 J0.
G1 X50.
G3 X51.5 Y0. I0. J1.5
G1 Y109.957
G3 X50.773 Y111.243 I-1.5 J0.
G1 X0.773 Y141.286
G3 X-1.5 Y140. I-0.773 J-1.286
G2 X-1.8 Y139.7 I-0.3 J0.
G1 X-2.1
G18 G3 X-2.4 Z4.55 I0. K0.3
G1 Z11.
Y140.3
Z5.5 F20.
Z4.3
G2 X-2.1 Z4. I0.3 K0. F25.
G1 X-1.8
G17 G2 X-1.5 Y140. I0. J-0.3
G1 Y0.
G3 X0. Y-1.5 I1.5 J0.
G1 X50.
G3 X51.5 Y0. I0. J1.5
G1 Y109.957
G3 X50.773 Y111.243 I-1.5 J0.
G1 X0.773 Y141.286
G3 X-1.5 Y140. I-0.773 J-1.286
G2 X-1.8 Y139.7 I-0.3 J0.
G1 X-2.1
G18 G3 X-2.4 Z4.3 I0. K0.3
G1 Z11.
Y140.3
Z5.25 F20.
Z4.05
G2 X-2.1 Z3.75 I0.3 K0. F25.
G1 X-1.8
G17 G2 X-1.5 Y140. I0. J-0.3
G1 Y0.
G3 X0. Y-1.5 I1.5 J0.
G1 X50.
G3 X51.5 Y0. I0. J1.5
G1 Y109.957
G3 X50.773 Y111.243 I-1.5 J0.
G1 X0.773 Y141.286
G3 X-1.5 Y140. I-0.773 J-1.286
G2 X-1.8 Y139.7 I-0.3 J0.
G1 X-2.1
G18 G3 X-2.4 Z4.05 I0. K0.3
G1 Z11.
Y140.3
Z5. F20.
Z3.8
G2 X-2.1 Z3.5 I0.3 K0. F25.
G1 X-1.8
G17 G2 X-1.5 Y140. I0. J-0.3
G1 Y0.
G3 X0. Y-1.5 I1.5 J0.
G1 X50.
G3 X51.5 Y0. I0. J1.5
G1 Y109.957
G3 X50.773 Y111.243 I-1.5 J0.
G1 X0.773 Y141.286
G3 X-1.5 Y140. I-0.773 J-1.286
G2 X-1.8 Y139.7 I-0.3 J0.
G1 X-2.1
G18 G3 X-2.4 Z3.8 I0. K0.3
G1 Z11.
Y140.3
Z4.75 F20.
Z3.55
G2 X-2.1 Z3.25 I0.3 K0. F25.
G1 X-1.8
G17 G2 X-1.5 Y140. I0. J-0.3
G1 Y0.
G3 X0. Y-1.5 I1.5 J0.
G1 X50.
G3 X51.5 Y0. I0. J1.5
G1 Y109.957
G3 X50.773 Y111.243 I-1.5 J0.
G1 X0.773 Y141.286
G3 X-1.5 Y140. I-0.773 J-1.286
G2 X-1.8 Y139.7 I-0.3 J0.
G1 X-2.1
G18 G3 X-2.4 Z3.55 I0. K0.3
G1 Z11.
Y140.3
Z4.5 F20.
Z3.3
G2 X-2.1 Z3. I0.3 K0. F25.
G1 X-1.8
G17 G2 X-1.5 Y140. I0. J-0.3
G1 Y0.
G3 X0. Y-1.5 I1.5 J0.
G1 X50.
G3 X51.5 Y0. I0. J1.5
G1 Y109.957
G3 X50.773 Y111.243 I-1.5 J0.
G1 X0.773 Y141.286
G3 X-1.5 Y140. I-0.773 J-1.286
G2 X-1.8 Y139.7 I-0.3 J0.
G1 X-2.1
G18 G3 X-2.4 Z3.3 I0. K0.3
G1 Z11.
Y140.3
Z4.25 F20.
Z3.05
G2 X-2.1 Z2.75 I0.3 K0. F25.
G1 X-1.8
G17 G2 X-1.5 Y140. I0. J-0.3
G1 Y0.
G3 X0. Y-1.5 I1.5 J0.
G1 X50.
G3 X51.5 Y0. I0. J1.5
G1 Y109.957
G3 X50.773 Y111.243 I-1.5 J0.
G1 X0.773 Y141.286
G3 X-1.5 Y140. I-0.773 J-1.286
G2 X-1.8 Y139.7 I-0.3 J0.
G1 X-2.1
G18 G3 X-2.4 Z3.05 I0. K0.3
G1 Z11.
Y140.3
Z4. F20.
Z2.8
G2 X-2.1 Z2.5 I0.3 K0. F25.
G1 X-1.8
G17 G2 X-1.5 Y140. I0. J-0.3
G1 Y0.
G3 X0. Y-1.5 I1.5 J0.
G1 X50.
G3 X51.5 Y0. I0. J1.5
G1 Y109.957
G3 X50.773 Y111.243 I-1.5 J0.
G1 X0.773 Y141.286
G3 X-1.5 Y140. I-0.773 J-1.286
G2 X-1.8 Y139.7 I-0.3 J0.
G1 X-2.1
G18 G3 X-2.4 Z2.8 I0. K0.3
G1 Z11.
Y140.3
Z3.75 F20.
Z2.55
G2 X-2.1 Z2.25 I0.3 K0. F25.
G1 X-1.8
G17 G2 X-1.5 Y140. I0. J-0.3
G1 Y0.
G3 X0. Y-1.5 I1.5 J0.
G1 X50.
G3 X51.5 Y0. I0. J1.5
G1 Y109.957
G3 X50.773 Y111.243 I-1.5 J0.
G1 X0.773 Y141.286
G3 X-1.5 Y140. I-0.773 J-1.286
G2 X-1.8 Y139.7 I-0.3 J0.
G1 X-2.1
G18 G3 X-2.4 Z2.55 I0. K0.3
G1 Z11.
Y140.3
Z3.5 F20.
Z2.3
G2 X-2.1 Z2. I0.3 K0. F25.
G1 X-1.8
G17 G2 X-1.5 Y140. I0. J-0.3
G1 Y0.
G3 X0. Y-1.5 I1.5 J0.
G1 X50.
G3 X51.5 Y0. I0. J1.5
G1 Y109.957
G3 X50.773 Y111.243 I-1.5 J0.
G1 X0.773 Y141.286
G3 X-1.5 Y140. I-0.773 J-1.286
G2 X-1.8 Y139.7 I-0.3 J0.
G1 X-2.1
G18 G3 X-2.4 Z2.3 I0. K0.3
G1 Z11.
Y140.3
Z3.25 F20.
Z2.05
G2 X-2.1 Z1.75 I0.3 K0. F25.
G1 X-1.8
G17 G2 X-1.5 Y140. I0. J-0.3
G1 Y0.
G3 X0. Y-1.5 I1.5 J0.
G1 X50.
G3 X51.5 Y0. I0. J1.5
G1 Y109.957
G3 X50.773 Y111.243 I-1.5 J0.
G1 X0.773 Y141.286
G3 X-1.5 Y140. I-0.773 J-1.286
G2 X-1.8 Y139.7 I-0.3 J0.
G1 X-2.1
G18 G3 X-2.4 Z2.05 I0. K0.3
G1 Z11.
Y140.3
Z3. F20.
Z1.8
G2 X-2.1 Z1.5 I0.3 K0. F25.
G1 X-1.8
G17 G2 X-1.5 Y140. I0. J-0.3
G1 Y0.
G3 X0. Y-1.5 I1.5 J0.
G1 X50.
G3 X51.5 Y0. I0. J1.5
G1 Y109.957
G3 X50.773 Y111.243 I-1.5 J0.
G1 X0.773 Y141.286
G3 X-1.5 Y140. I-0.773 J-1.286
G2 X-1.8 Y139.7 I-0.3 J0.
G1 X-2.1
G18 G3 X-2.4 Z1.8 I0. K0.3
G1 Z11.
Y140.3
Z2.75 F20.
Z1.55
G2 X-2.1 Z1.25 I0.3 K0. F25.
G1 X-1.8
G17 G2 X-1.5 Y140. I0. J-0.3
G1 Y0.
G3 X0. Y-1.5 I1.5 J0.
G1 X50.
G3 X51.5 Y0. I0. J1.5
G1 Y109.957
G3 X50.773 Y111.243 I-1.5 J0.
G1 X0.773 Y141.286
G3 X-1.5 Y140. I-0.773 J-1.286
G2 X-1.8 Y139.7 I-0.3 J0.
G1 X-2.1
G18 G3 X-2.4 Z1.55 I0. K0.3
G1 Z11.
Y140.3
Z2.5 F20.
Z1.3
G2 X-2.1 Z1. I0.3 K0. F25.
G1 X-1.8
G17 G2 X-1.5 Y140. I0. J-0.3
G1 Y0.
G3 X0. Y-1.5 I1.5 J0.
G1 X50.
G3 X51.5 Y0. I0. J1.5
G1 Y109.957
G3 X50.773 Y111.243 I-1.5 J0.
G1 X0.773 Y141.286
G3 X-1.5 Y140. I-0.773 J-1.286
G2 X-1.8 Y139.7 I-0.3 J0.
G1 X-2.1
G18 G3 X-2.4 Z1.3 I0. K0.3
G1 Z11.
Y140.3
Z2.25 F20.
Z1.05
G2 X-2.1 Z0.75 I0.3 K0. F25.
G1 X-1.8
G17 G2 X-1.5 Y140. I0. J-0.3
G1 Y0.
G3 X0. Y-1.5 I1.5 J0.
G1 X50.
G3 X51.5 Y0. I0. J1.5
G1 Y109.957
G3 X50.773 Y111.243 I-1.5 J0.
G1 X0.773 Y141.286
G3 X-1.5 Y140. I-0.773 J-1.286
G2 X-1.8 Y139.7 I-0.3 J0.
G1 X-2.1
G18 G3 X-2.4 Z1.05 I0. K0.3
G1 Z11.
Y140.3
Z2. F20.
Z0.8
G2 X-2.1 Z0.5 I0.3 K0. F25.
G1 X-1.8
G17 G2 X-1.5 Y140. I0. J-0.3
G1 Y0.
G3 X0. Y-1.5 I1.5 J0.
G1 X50.
G3 X51.5 Y0. I0. J1.5
G1 Y109.957
G3 X50.773 Y111.243 I-1.5 J0.
G1 X0.773 Y141.286
G3 X-1.5 Y140. I-0.773 J-1.286
G2 X-1.8 Y139.7 I-0.3 J0.
G1 X-2.1
G18 G3 X-2.4 Z0.8 I0. K0.3
G1 Z11.
Y140.3
Z1.75 F20.
Z0.55
G2 X-2.1 Z0.25 I0.3 K0. F25.
G1 X-1.8
G17 G2 X-1.5 Y140. I0. J-0.3
G1 Y0.
G3 X0. Y-1.5 I1.5 J0.
G1 X50.
G3 X51.5 Y0. I0. J1.5
G1 Y109.957
G3 X50.773 Y111.243 I-1.5 J0.
G1 X0.773 Y141.286
G3 X-1.5 Y140. I-0.773 J-1.286
G2 X-1.8 Y139.7 I-0.3 J0.
G1 X-2.1
G18 G3 X-2.4 Z0.55 I0. K0.3
G1 Z11.
Y140.3
Z1.5 F20.
Z0.3
G2 X-2.1 Z0. I0.3 K0. F25.
G1 X-1.8
G17 G2 X-1.5 Y140. I0. J-0.3
G1 Y0.
G3 X0. Y-1.5 I1.5 J0.
G1 X50.
G3 X51.5 Y0. I0. J1.5
G1 Y109.957
G3 X50.773 Y111.243 I-1.5 J0.
G1 X0.773 Y141.286
G3 X-1.5 Y140. I-0.773 J-1.286
G2 X-1.8 Y139.7 I-0.3 J0.
G1 X-2.1
G18 G3 X-2.4 Z0.3 I0. K0.3
G1 Z11.
G17

G28 G91 Z0.
G90
G28 G91 X0. Y0.
G90
M30
