(1002)
(MACHINE)
(  VENDOR HOMEMADE)
(  DESCRIPTION GENERIC 3-AXIS)
(T1  D=3. CR=0. - ZMIN=-3.5 - FLAT END MILL)
G90 G94 G91.1 G40 G49 G17
G21
(WHEN USING FUSION 360 FOR PERSONAL USE, THE FEEDRATE OF)
(RAPID MOVES IS REDUCED TO MATCH THE FEEDRATE OF CUTTING)
(MOVES, WHICH CAN INCREASE MACHINING TIME. UNRESTRICTED RAPID)
(MOVES ARE AVAILABLE WITH A FUSION 360 SUBSCRIPTION.)
G28 G91 Z0.
G90

(ADAPTIVE1)
M5
T1 M6
S5000 M3
G54
G0 X-25.803 Y23.632
G43 Z6. H1
G1 Z5. F25.
Z3.5
G2 X-25.514 Y26.239 Z3.391 I0.957 J1.213 F15.
X-23.303 Y24.834 Z3.281 I0.667 J-1.392
X-25.536 Y23.469 Z3.172 I-1.542 J0.014
X-25.778 Y26.071 Z3.063 I0.69 J1.376
X-23.338 Y25.144 Z2.953 I0.931 J-1.224
X-25.242 Y23.364 Z2.844 I-1.507 J-0.297
X-26.001 Y25.854 Z2.734 I0.397 J1.482
X-23.434 Y25.44 Z2.625 I1.154 J-1.007
X-24.934 Y23.32 Z2.516 I-1.411 J-0.592
X-26.176 Y25.598 Z2.406 I0.089 J1.526
X-23.588 Y25.709 Z2.297 I1.329 J-0.751
X-24.626 Y23.339 Z2.188 I-1.258 J-0.861
X-26.294 Y25.312 Z2.078 I-0.219 J1.507
X-23.791 Y25.941 Z1.969 I1.448 J-0.466
X-24.328 Y23.42 Z1.859 I-1.054 J-1.093
X-26.353 Y25.01 Z1.75 I-0.517 J1.426
X-24.037 Y26.127 Z1.641 I1.506 J-0.164
X-24.054 Y23.559 Z1.531 I-0.809 J-1.279
X-26.349 Y24.703 Z1.422 I-0.791 J1.288
X-24.314 Y26.258 Z1.313 I1.502 J0.143
X-23.814 Y23.749 Z1.203 I-0.532 J-1.41
X-26.284 Y24.405 Z1.094 I-1.03 J1.097
X-24.61 Y26.331 Z0.984 I1.437 J0.442
X-23.619 Y23.983 Z0.875 I-0.236 J-1.483
X-26.16 Y24.126 Z0.766 I-1.226 J0.864
X-24.914 Y26.342 Z0.656 I1.314 J0.72
X-23.475 Y24.251 Z0.547 I0.068 J-1.494
X-25.983 Y23.88 Z0.438 I-1.37 J0.596
X-25.213 Y26.292 Z0.328 I1.137 J0.966
X-23.388 Y24.541 Z0.219 I0.366 J-1.444
X-25.761 Y23.675 Z0.109 I-1.456 J0.307
X-25.494 Y26.183 Z0. I0.915 J1.171
X-23.362 Y24.841 Z-0.109 I0.648 J-1.336
X-25.503 Y23.519 Z-0.219 I-1.482 J0.007
X-25.747 Y26.02 Z-0.328 I0.658 J1.326
X-23.397 Y25.139 Z-0.437 I0.9 J-1.173
X-25.22 Y23.42 Z-0.547 I-1.448 J-0.292
X-25.961 Y25.811 Z-0.656 I0.375 J1.426
X-23.491 Y25.423 Z-0.766 I1.114 J-0.964
X-24.925 Y23.379 Z-0.875 I-1.354 J-0.575
X-26.127 Y25.563 Z-0.984 I0.079 J1.467
X-23.64 Y25.681 Z-1.094 I1.28 J-0.716
X-24.628 Y23.399 Z-1.203 I-1.205 J-0.833
X-26.24 Y25.288 Z-1.312 I-0.217 J1.447
X-23.837 Y25.903 Z-1.422 I1.393 J-0.441
X-24.342 Y23.478 Z-1.531 I-1.008 J-1.055
X-26.295 Y24.997 Z-1.641 I-0.503 J1.368
X-24.074 Y26.08 Z-1.75 I1.448 J-0.151
X-24.079 Y23.613 Z-1.859 I-0.772 J-1.232
X-26.289 Y24.702 Z-1.969 I-0.765 J1.234
X-24.34 Y26.205 Z-2.078 I1.443 J0.144
X-23.85 Y23.797 Z-2.187 I-0.505 J-1.357
X-26.225 Y24.416 Z-2.297 I-0.995 J1.05
X-24.626 Y26.273 Z-2.406 I1.379 J0.43
X-23.663 Y24.023 Z-2.516 I-0.22 J-1.425
X-26.105 Y24.149 Z-2.625 I-1.181 J0.824
X-24.918 Y26.283 Z-2.734 I1.259 J0.697
X-23.527 Y24.28 Z-2.844 I0.071 J-1.435
X-25.934 Y23.913 Z-2.953 I-1.318 J0.567
X-25.204 Y26.233 Z-3.062 I1.088 J0.933
X-23.445 Y24.559 Z-3.172 I0.358 J-1.385
X-25.72 Y23.718 Z-3.281 I-1.4 J0.288
X-25.474 Y26.127 Z-3.391 I0.874 J1.128
X-23.421 Y24.848 Z-3.5 I0.627 J-1.28
X-26.272 I-1.425 J0.
X-23.421 I1.425 J0.
G1 X-23.387 Y24.126 F25.
X-23.37 Y24.038
X-23.362 Y23.888
X-23.382 Y23.739
X-23.424 Y23.595
X-23.486 Y23.459
X-23.564 Y23.331
X-23.657 Y23.213
X-23.761 Y23.105
X-23.876 Y23.008
X-23.999 Y22.922
X-24.129 Y22.848
X-24.266 Y22.786
X-24.407 Y22.735
X-24.552 Y22.696
X-24.703 Y22.669
X-24.859 Y22.653
X-25.019 Y22.649
X-25.181 Y22.659
X-25.344 Y22.682
X-25.506 Y22.718
X-25.667 Y22.768
X-25.825 Y22.831
X-25.979 Y22.908
X-26.127 Y22.997
X-26.269 Y23.099
X-26.403 Y23.212
X-26.528 Y23.336
X-26.643 Y23.471
X-26.748 Y23.615
X-26.841 Y23.767
X-26.921 Y23.927
X-26.989 Y24.094
X-27.043 Y24.266
X-27.084 Y24.442
X-27.11 Y24.62
X-27.122 Y24.801
X-27.119 Y24.983
X-27.102 Y25.164
X-27.07 Y25.343
X-27.024 Y25.519
X-26.964 Y25.691
X-26.89 Y25.858
X-26.803 Y26.018
X-26.703 Y26.171
X-26.592 Y26.316
X-26.469 Y26.451
X-26.335 Y26.576
X-26.192 Y26.689
X-26.04 Y26.791
X-25.88 Y26.881
X-25.714 Y26.957
X-25.542 Y27.02
X-25.366 Y27.069
X-25.186 Y27.104
X-25.004 Y27.124
X-24.821 Y27.129
X-24.638 Y27.12
X-24.456 Y27.096
X-24.277 Y27.057
X-24.102 Y27.004
X-23.931 Y26.938
X-23.766 Y26.857
X-23.608 Y26.764
X-23.459 Y26.659
X-23.318 Y26.542
X-23.187 Y26.413
X-23.066 Y26.275
X-22.958 Y26.128
X-22.856 Y25.965
X-22.746 Y25.749
X-22.613 Y25.43
X-22.503 Y25.093
X-22.438 Y24.823
X-22.402 Y24.585
X-22.385 Y24.365
X-22.387 Y24.151
X-22.405 Y23.943
X-22.438 Y23.746
X-22.486 Y23.557
X-22.549 Y23.372
X-22.627 Y23.191
X-22.721 Y23.016
X-22.828 Y22.849
X-22.949 Y22.69
X-23.083 Y22.54
X-23.23 Y22.4
X-23.39 Y22.27
X-23.563 Y22.152
X-23.747 Y22.047
X-23.942 Y21.955
X-24.147 Y21.878
X-24.361 Y21.817
X-24.581 Y21.773
X-24.807 Y21.746
X-25.038 Y21.738
X-25.271 Y21.748
X-25.504 Y21.777
X-25.737 Y21.825
X-25.967 Y21.892
X-26.193 Y21.978
X-26.413 Y22.083
X-26.625 Y22.205
X-26.827 Y22.346
X-27.019 Y22.503
X-27.199 Y22.675
X-27.365 Y22.863
X-27.516 Y23.064
X-27.65 Y23.277
X-27.768 Y23.501
X-27.868 Y23.735
X-27.949 Y23.977
X-27.98 Y24.102
X-27.991 Y24.157
X-27.998 Y24.214
X-28. Y24.27
Y24.915
X-27.981 Y25.297
X-27.951 Y25.524
X-27.902 Y25.752
X-27.834 Y25.979
X-27.747 Y26.203
X-27.641 Y26.422
X-27.516 Y26.635
X-27.373 Y26.838
X-27.213 Y27.031
X-27.036 Y27.212
X-26.846 Y27.378
X-26.641 Y27.53
X-26.424 Y27.665
X-26.196 Y27.782
X-25.959 Y27.881
X-25.715 Y27.961
X-25.633 Y27.981
X-25.579 Y27.991
X-25.524 Y27.998
X-25.47 Y28.
G2 X-25.18 Y27.69 Z-3.3 I-0.01 J-0.3
G1 X-25.189 Y27.627
X-25.211 Y27.567
X-25.246 Y27.513
X-25.297 Y27.449
X-27.456 Y24.75
X-27.466 Y24.738
G2 X-27.69 Y24.626 I-0.234 J0.187
X-28. Y24.915 Z-3.5 I-0.01 J0.3
G1 Y26.644
X-27.993 Y26.794
X-27.971 Y26.943
X-27.935 Y27.088
X-27.886 Y27.232
X-27.82 Y27.387
X-27.733 Y27.55
X-27.63 Y27.711
X-27.622 Y27.722
X-27.468 Y27.872
X-27.276 Y27.967
X-27.064 Y28.
G2 X-26.774 Y27.69 Z-3.3 I-0.01 J-0.3
G1 X-26.78 Y27.64
X-26.795 Y27.591
X-26.817 Y27.546
X-26.879 Y27.441
X-27.443 Y26.501
G2 X-27.69 Y26.355 I-0.257 J0.154
X-28. Y26.644 Z-3.5 I-0.01 J0.3
G1 Y27.702
X-27.995 Y27.743
X-27.984 Y27.784
X-27.966 Y27.824
X-27.941 Y27.865
X-27.903 Y27.908
X-27.865 Y27.941
X-27.824 Y27.966
X-27.784 Y27.984
X-27.743 Y27.995
X-27.702 Y28.
X-24.751
X-24.397 Y27.982
X-24.171 Y27.953
X-23.942 Y27.904
X-23.714 Y27.835
X-23.489 Y27.748
X-23.269 Y27.641
X-23.057 Y27.516
X-22.852 Y27.372
X-22.653 Y27.207
X-22.464 Y27.022
X-22.27 Y26.8
X-22.077 Y26.54
X-21.903 Y26.26
X-21.752 Y25.967
X-21.627 Y25.667
X-21.528 Y25.365
X-21.455 Y25.062
X-21.408 Y24.76
X-21.386 Y24.462
X-21.388 Y24.168
X-21.403 Y23.993
X-21.441 Y23.818
X-21.522 Y23.658
X-21.642 Y23.525
X-22.128 Y23.103
X-22.297 Y22.948
X-22.457 Y22.784
X-23.604 Y21.535
X-23.711 Y21.429
X-23.825 Y21.333
X-23.956 Y21.241
X-24.098 Y21.158
X-24.26 Y21.079
X-24.444 Y21.008
X-24.638 Y20.95
X-24.85 Y20.905
X-25.081 Y20.875
X-25.326 Y20.863
X-25.579 Y20.87
X-25.838 Y20.899
X-26.105 Y20.951
X-26.378 Y21.027
X-26.651 Y21.128
X-26.923 Y21.253
X-27.188 Y21.403
X-27.446 Y21.576
X-27.691 Y21.773
X-27.779 Y21.855
X-27.899 Y22.003
X-27.974 Y22.177
X-28. Y22.365
Y24.27
X-27.99 Y24.337 Z-3.471
X-27.966 Y24.399 Z-3.443
X-27.928 Y24.455 Z-3.414
X-27.753 Y24.659 Z-3.3
X-27.574 Y24.866
X-25.292 Y27.519
X-25.114 Y27.726
X-24.968 Y27.896 Z-3.395
X-24.923 Y27.938 Z-3.421
X-24.87 Y27.971 Z-3.447
X-24.812 Y27.991 Z-3.474
X-24.751 Y28. Z-3.5
X-23.022
X-22.872 Y27.993
X-22.724 Y27.968
X-22.577 Y27.93
X-22.429 Y27.878
X-22.259 Y27.803
X-22.091 Y27.711
X-21.907 Y27.591
X-21.72 Y27.447
X-21.533 Y27.277
X-21.342 Y27.072
X-21.156 Y26.838
X-20.986 Y26.584
X-20.828 Y26.302
X-20.687 Y25.995
X-20.567 Y25.668
X-20.473 Y25.327
X-20.414 Y25.017
X-20.411 Y24.991
X-20.423 Y24.767
X-20.504 Y24.558
X-20.648 Y24.385
X-21.642 Y23.525
G2 X-22.064 Y23.569 Z-3.3 I-0.188 J0.233
G1 X-22.096 Y23.618
X-22.118 Y23.672
X-22.163 Y23.822
X-23.242 Y27.426
X-23.299 Y27.614
X-23.307 Y27.652
X-23.311 Y27.69
G2 X-23.022 Y28. Z-3.5 I0.3 J0.01
G1 X-21.874
X-21.725 Y27.993
X-21.576 Y27.971
X-21.431 Y27.933
X-21.29 Y27.883
X-21.135 Y27.813
X-20.982 Y27.728
X-20.812 Y27.615
X-20.645 Y27.484
X-20.469 Y27.321
X-20.289 Y27.125
X-20.12 Y26.909
X-19.952 Y26.654
X-19.796 Y26.37
X-19.691 Y26.138
X-19.607 Y25.9
X-19.587 Y25.826
X-19.563 Y25.627
X-19.597 Y25.43
X-19.685 Y25.25
X-19.82 Y25.103
X-20.648 Y24.385
G2 X-21.07 Y24.43 Z-3.3 I-0.188 J0.233
G1 X-21.1 Y24.475
X-21.121 Y24.524
X-21.174 Y24.682
X-22.089 Y27.428
X-22.149 Y27.605
X-22.159 Y27.647
X-22.164 Y27.69
G2 X-21.874 Y28. Z-3.5 I0.3 J0.01
G1 X-20.727
X-20.577 Y27.993
X-20.43 Y27.964
X-20.286 Y27.921
X-20.144 Y27.864
X-20.001 Y27.792
X-19.841 Y27.695
X-19.684 Y27.582
X-19.52 Y27.443
X-19.358 Y27.28
X-19.214 Y27.11
X-19.096 Y26.947
X-18.989 Y26.771
X-18.914 Y26.62
X-18.849 Y26.459
X-18.838 Y26.425
X-18.806 Y26.205
X-18.845 Y25.987
X-18.95 Y25.791
X-19.111 Y25.638
G2 X-19.506 Y25.705 Z-3.314 I-0.161 J0.253
G1 X-19.527 Y25.73 Z-3.3
X-19.697 Y25.944
X-20.9 Y27.449
X-20.951 Y27.513
X-20.985 Y27.567
X-21.007 Y27.627
X-21.016 Y27.69
G2 X-20.727 Y28. Z-3.5 I0.3 J0.01
G1 X-19.67
X-19.52 Y27.993
X-19.372 Y27.965
X-19.229 Y27.921
X-19.091 Y27.864
X-18.958 Y27.794
X-18.83 Y27.713
X-18.701 Y27.615
X-18.589 Y27.516
X-18.485 Y27.407
X-18.385 Y27.283
X-18.3 Y27.16
X-18.227 Y27.029
X-18.196 Y26.961
X-18.142 Y26.774
Y26.58
X-18.195 Y26.393
X-18.297 Y26.228
X-18.44 Y26.097
G2 X-18.837 Y26.166 Z-3.313 I-0.161 J0.253
G1 X-18.855 Y26.189 Z-3.3
X-19.024 Y26.404
X-19.843 Y27.449
X-19.895 Y27.515
X-19.929 Y27.568
X-19.95 Y27.628
X-19.959 Y27.69
G2 X-19.67 Y28. Z-3.5 I0.3 J0.01
G1 X-18.686
X-18.536 Y27.993
X-18.39 Y27.96
X-18.249 Y27.909
X-18.115 Y27.841
X-17.99 Y27.758
X-17.875 Y27.662
X-17.771 Y27.554
X-17.68 Y27.435
X-17.673 Y27.423
X-17.592 Y27.228
X-17.573 Y27.017
X-17.618 Y26.811
X-17.722 Y26.627
X-17.877 Y26.482
G2 X-18.288 Y26.57 Z-3.302 I-0.161 J0.253
G1 X-18.291 Y26.575 Z-3.3
X-18.442 Y26.803
X-18.866 Y27.444
X-18.926 Y27.535
X-18.952 Y27.583
X-18.969 Y27.635
X-18.976 Y27.69
G2 X-18.686 Y28. Z-3.5 I0.3 J0.01
G1 X-17.9
X-17.75 Y27.993
X-17.604 Y27.954
X-17.428 Y27.839
X-17.294 Y27.677
X-17.215 Y27.482
X-17.197 Y27.272
X-17.242 Y27.066
X-17.346 Y26.884
X-17.5 Y26.74
G2 X-17.914 Y26.833 Z-3.3 I-0.161 J0.253
G1 X-17.933 Y26.866
X-17.946 Y26.901
X-18.007 Y27.089
X-18.116 Y27.427
X-18.175 Y27.608
X-18.185 Y27.648
X-18.189 Y27.69
G2 X-17.9 Y28. Z-3.5 I0.3 J0.01
G1 X-17.375
X-17.225 Y27.993
X-17.052 Y27.89
X-16.926 Y27.732
X-16.865 Y27.539
X-16.877 Y27.338
X-16.96 Y27.154
X-17.103 Y27.012
G2 X-17.377 Y26.938 Z-3.378 I-0.255 J0.403
G1 X-17.468 Y26.949 Z-3.339
X-17.555 Y26.976 Z-3.3
G2 X-17.78 Y27.79 I0.199 J0.493
X-17.375 Y28. Z-3.5 I0.423 J-0.321
G1 X-16.998
X-16.848 Y27.993
X-16.719 Y27.91
X-16.627 Y27.787
X-16.584 Y27.64
X-16.596 Y27.487
X-16.66 Y27.348
X-16.769 Y27.24
X-16.835 Y27.206 Z-3.469
X-16.906 Y27.185 Z-3.437
X-16.98 Y27.178 Z-3.406
X-17.042 Y27.182 Z-3.379
X-17.102 Y27.195 Z-3.353
X-17.16 Y27.218 Z-3.326
X-17.214 Y27.249 Z-3.3
G2 X-17.363 Y27.746 I0.231 J0.34
X-16.998 Y28. Z-3.5 I0.38 J-0.156
G1 X-16.674
X-16.637
X-16.596 Y27.995
X-16.573 Y27.988
X-16.54 Y27.976
X-16.508 Y27.961
X-16.477 Y27.944
G2 X-16.753 Y27.618 I-0.138 J-0.163
X-16.795 Y27.897 I0.138 J0.163
G1 X-16.757 Y27.941
X-16.709 Y27.973
X-16.654 Y27.992
X-16.596 Y27.995
X-16.555 Y27.984
X-16.516 Y27.968
X-16.477 Y27.944
X-16.455 Y27.926
X-16.432 Y27.905
X-16.399 Y27.865
X-16.391 Y27.855
X-16.369 Y27.817
X-16.353 Y27.778
X-16.343 Y27.74
X-16.339 Y27.702
Y27.661
X-16.345 Y27.62
X-16.357 Y27.579
X-16.377 Y27.538
X-16.391 Y27.514
X-16.41 Y27.49
X-16.432 Y27.466
X-16.473 Y27.434
X-16.57 Y27.374
X-16.719 Y27.274
X-19.21 Y25.571
X-19.67 Y25.226
X-19.82 Y25.103
G2 X-20.065 Y25.04 Z-3.389 I-0.19 J0.232
G1 X-20.117 Y25.045 Z-3.367
X-20.169 Y25.041 Z-3.344
X-20.22 Y25.029 Z-3.322
X-20.268 Y25.007 Z-3.3
X-20.322 Y24.968
X-20.475 Y24.83
X-23.165 Y22.401
X-23.207 Y22.354
X-23.238 Y22.299
X-23.257 Y22.24
G2 X-23.355 Y21.933 I-1.549 J0.324
X-23.604 Y21.535 Z-3.5 I-1.451 J0.631
G1 X-24.413 Y20.653
X-24.527 Y20.54
X-24.642 Y20.444
X-24.767 Y20.36
X-24.899 Y20.289
X-25.04 Y20.228
X-25.201 Y20.172
X-25.383 Y20.126
X-25.577 Y20.093
X-25.8 Y20.073
X-26.032 Y20.071
X-26.282 Y20.089
X-26.553 Y20.13
X-26.838 Y20.198
X-27.123 Y20.29
X-27.413 Y20.41
X-27.647 Y20.53
X-27.668 Y20.543
X-27.806 Y20.654
X-27.911 Y20.797
X-27.977 Y20.962
X-28. Y21.138
Y22.365
G2 X-27.69 Y22.655 Z-3.3 I0.3 J-0.01
G1 X-27.627 Y22.646
X-27.568 Y22.624
X-27.436 Y22.559
X-24.686 Y21.205
X-24.508 Y21.117
X-24.476 Y21.099
X-24.446 Y21.076
G2 X-24.413 Y20.653 Z-3.5 I-0.195 J-0.228
G1 X-24.712 Y20.325
X-24.751 Y20.279
X-25.026 Y19.91
X-25.121 Y19.794
X-25.231 Y19.692
X-25.352 Y19.603
X-25.481 Y19.527
X-25.618 Y19.463
X-25.766 Y19.408
X-25.94 Y19.359
X-26.13 Y19.321
X-26.337 Y19.297
X-26.573 Y19.288
X-26.816 Y19.299
X-27.059 Y19.33
X-27.269 Y19.373
X-27.464 Y19.431
X-27.551 Y19.464
X-27.733 Y19.568
X-27.877 Y19.721
X-27.968 Y19.91
X-28. Y20.118
Y21.138
G2 X-27.69 Y21.427 Z-3.3 I0.3 J-0.01
G1 X-27.635 Y21.42
X-27.581 Y21.403
X-27.433 Y21.339
X-25.35 Y20.441
X-25.154 Y20.356
X-25.102 Y20.327
G2 X-25.026 Y19.91 Z-3.5 I-0.171 J-0.247
G1 X-25.203 Y19.67
X-25.571 Y19.163
X-25.665 Y19.047
X-25.77 Y18.94
X-25.888 Y18.847
X-26.015 Y18.767
X-26.148 Y18.699
X-26.294 Y18.64
X-26.449 Y18.591
X-26.622 Y18.551
X-26.794 Y18.526
X-26.957 Y18.516
X-27.133 Y18.519
X-27.283 Y18.533
X-27.431 Y18.559
X-27.481 Y18.573
X-27.689 Y18.667
X-27.855 Y18.823
X-27.963 Y19.024
X-28. Y19.249
G2 X-27.715 Y19.538 Z-3.311 I0.3 J-0.01
G1 X-27.69 Y19.539 Z-3.3
X-27.417 Y19.553
X-25.915 Y19.627
X-25.834 Y19.631
X-25.77 Y19.627
X-25.708 Y19.61
X-25.651 Y19.58
G2 X-25.571 Y19.163 Z-3.5 I-0.168 J-0.249
G1 X-26.156 Y18.358
X-26.25 Y18.242
X-26.359 Y18.139
X-26.481 Y18.051
X-26.611 Y17.978
X-26.749 Y17.918
X-26.892 Y17.873
X-27.039 Y17.843
X-27.188 Y17.826
X-27.338
X-27.373 Y17.829
X-27.571 Y17.88
X-27.746 Y17.986
X-27.883 Y18.138
X-27.97 Y18.323
X-28. Y18.526
G2 X-27.703 Y18.815 Z-3.305 I0.3 J-0.01
G1 X-27.69 Z-3.3
X-27.416 Y18.818
X-26.5 Y18.825
X-26.407 Y18.826
X-26.347 Y18.821
X-26.289 Y18.803
X-26.236 Y18.775
G2 X-26.156 Y18.358 Z-3.5 I-0.168 J-0.249
G1 X-26.658 Y17.667
X-26.752 Y17.55
X-26.865 Y17.451
X-26.993 Y17.374
X-27.132 Y17.317
X-27.138 Y17.315
X-27.347 Y17.298
X-27.552 Y17.343
X-27.734 Y17.447
X-27.877 Y17.6
X-27.969 Y17.789
X-28. Y17.996
G2 X-27.69 Y18.286 Z-3.3 I0.3 J-0.01
G1 X-27.644 Y18.28
X-27.421 Y18.238
X-27. Y18.158
X-26.851 Y18.129
X-26.792 Y18.112
X-26.739 Y18.083
G2 X-26.658 Y17.667 Z-3.5 I-0.168 J-0.249
G1 X-26.751 Y17.539
X-26.861 Y17.375
X-26.989 Y17.172
X-27.075 Y17.049
X-27.237 Y16.966
X-27.417 Y16.938
X-27.597 Y16.966
X-27.76 Y17.049
X-27.889 Y17.178
X-27.971 Y17.34
X-28. Y17.52
G2 X-27.91 Y17.779 Z-3.382 I0.462 J-0.016
G1 X-27.869 Y17.828 Z-3.355
X-27.822 Y17.872 Z-3.327
X-27.771 Y17.911 Z-3.3
G2 X-26.942 Y17.626 I0.305 J-0.46
X-26.989 Y17.172 Z-3.5 I-0.523 J-0.176
G1 X-27.067 Y17.047
X-27.175 Y16.856
X-27.255 Y16.729
X-27.41 Y16.656
X-27.58 Y16.643
X-27.744 Y16.692
X-27.88 Y16.796
X-27.969 Y16.942
X-28. Y17.11
X-27.992 Y17.176 Z-3.472
X-27.972 Y17.24 Z-3.443
X-27.941 Y17.299 Z-3.415
G2 X-27.737 Y17.47 Z-3.3 I0.373 J-0.239
X-27.198 Y17.305 I0.169 J-0.41
X-27.175 Y16.856 Z-3.5 I-0.37 J-0.244
G1 X-27.345 Y16.555
X-27.425 Y16.429
X-27.575 Y16.377
X-27.734 Y16.392
X-27.872 Y16.47
X-27.967 Y16.598
X-28. Y16.754
X-27.994 Y16.806
X-27.978 Y16.857
X-27.954 Y16.904
G2 X-27.345 Y16.555 I0.298 J-0.187
G1 X-27.374 Y16.504
X-27.44 Y16.391
X-27.461 Y16.365
X-27.489 Y16.339
X-27.513 Y16.32
X-27.538 Y16.305
X-27.579 Y16.287
X-27.62 Y16.275
X-27.661 Y16.269
X-27.702
X-27.743 Y16.275
X-27.784 Y16.286
X-27.824 Y16.304
X-27.865 Y16.331
X-27.898 Y16.359
X-27.93 Y16.391
X-27.959 Y16.432
X-27.979 Y16.473
X-27.992 Y16.514
X-27.999 Y16.555
X-28. Y16.719
Y20.118
G2 X-27.701 Y20.407 I0.3 J-0.01
G1 X-27.7
X-27.676 Y20.406
X-27.626 Y20.389 Z-3.495
X-27.577 Y20.372 Z-3.481
X-27.532 Y20.356 Z-3.458
X-27.499 Y20.319 Z-3.421
X-27.472 Y20.289 Z-3.374
X-27.452 Y20.267 Z-3.32
X-27.44 Y20.253 Z-3.262
X-27.435 Y20.248 Z-3.2
Z5.
X-25.803 Y-26.059
Z3.5
G2 X-25.514 Y-23.452 Z3.391 I0.957 J1.213 F15.
X-23.303 Y-24.858 Z3.281 I0.667 J-1.392
X-25.535 Y-26.222 Z3.172 I-1.542 J0.014
X-25.777 Y-23.62 Z3.063 I0.69 J1.376
X-23.338 Y-24.547 Z2.953 I0.931 J-1.224
X-25.242 Y-26.328 Z2.844 I-1.507 J-0.297
X-26.001 Y-23.837 Z2.734 I0.397 J1.482
X-23.434 Y-24.252 Z2.625 I1.154 J-1.007
X-24.934 Y-26.371 Z2.516 I-1.411 J-0.592
X-26.175 Y-24.094 Z2.406 I0.089 J1.526
X-23.587 Y-23.982 Z2.297 I1.329 J-0.751
X-24.625 Y-26.352 Z2.188 I-1.258 J-0.861
X-26.294 Y-24.379 Z2.078 I-0.219 J1.507
X-23.791 Y-23.75 Z1.969 I1.448 J-0.466
X-24.328 Y-26.271 Z1.859 I-1.054 J-1.093
X-26.353 Y-24.682 Z1.75 I-0.517 J1.426
X-24.037 Y-23.565 Z1.641 I1.506 J-0.164
X-24.054 Y-26.133 Z1.531 I-0.809 J-1.279
X-26.349 Y-24.988 Z1.422 I-0.791 J1.288
X-24.313 Y-23.433 Z1.313 I1.502 J0.143
X-23.814 Y-25.942 Z1.203 I-0.532 J-1.41
X-26.283 Y-25.287 Z1.094 I-1.03 J1.097
X-24.61 Y-23.361 Z0.984 I1.437 J0.442
X-23.618 Y-25.708 Z0.875 I-0.236 J-1.483
X-26.16 Y-25.565 Z0.766 I-1.226 J0.864
X-24.914 Y-23.35 Z0.656 I1.314 J0.72
X-23.475 Y-25.441 Z0.547 I0.068 J-1.494
X-25.983 Y-25.812 Z0.438 I-1.37 J0.596
X-25.213 Y-23.4 Z0.328 I1.137 J0.966
X-23.388 Y-25.151 Z0.219 I0.366 J-1.444
X-25.761 Y-26.017 Z0.109 I-1.456 J0.307
X-25.494 Y-23.509 Z0. I0.915 J1.171
X-23.362 Y-24.851 Z-0.109 I0.648 J-1.336
X-25.503 Y-26.172 Z-0.219 I-1.482 J0.007
X-25.747 Y-23.671 Z-0.328 I0.658 J1.326
X-23.397 Y-24.552 Z-0.437 I0.9 J-1.173
X-25.22 Y-26.272 Z-0.547 I-1.448 J-0.292
X-25.961 Y-23.881 Z-0.656 I0.375 J1.426
X-23.491 Y-24.269 Z-0.766 I1.114 J-0.964
X-24.924 Y-26.313 Z-0.875 I-1.354 J-0.575
X-26.127 Y-24.129 Z-0.984 I0.079 J1.467
X-23.64 Y-24.01 Z-1.094 I1.28 J-0.716
X-24.627 Y-26.293 Z-1.203 I-1.205 J-0.833
X-26.24 Y-24.404 Z-1.312 I-0.217 J1.447
X-23.837 Y-23.788 Z-1.422 I1.393 J-0.441
X-24.342 Y-26.214 Z-1.531 I-1.008 J-1.055
X-26.294 Y-24.694 Z-1.641 I-0.503 J1.368
X-24.074 Y-23.612 Z-1.75 I1.448 J-0.151
X-24.079 Y-26.079 Z-1.859 I-0.772 J-1.232
X-26.289 Y-24.989 Z-1.969 I-0.765 J1.234
X-24.34 Y-23.487 Z-2.078 I1.443 J0.144
X-23.85 Y-25.895 Z-2.187 I-0.505 J-1.357
X-26.225 Y-25.276 Z-2.297 I-0.995 J1.05
X-24.625 Y-23.418 Z-2.406 I1.379 J0.43
X-23.663 Y-25.669 Z-2.516 I-0.22 J-1.425
X-26.105 Y-25.542 Z-2.625 I-1.181 J0.824
X-24.917 Y-23.409 Z-2.734 I1.259 J0.697
X-23.526 Y-25.411 Z-2.844 I0.071 J-1.435
X-25.934 Y-25.778 Z-2.953 I-1.318 J0.567
X-25.204 Y-23.459 Z-3.062 I1.088 J0.933
X-23.445 Y-25.133 Z-3.172 I0.358 J-1.385
X-25.719 Y-25.974 Z-3.281 I-1.4 J0.288
X-25.474 Y-23.565 Z-3.391 I0.874 J1.128
X-23.421 Y-24.844 Z-3.5 I0.627 J-1.28
X-26.272 I-1.425 J0.
X-23.421 I1.425 J0.
G1 X-23.386 Y-25.565 F25.
X-23.37 Y-25.654
X-23.362 Y-25.804
X-23.381 Y-25.952
X-23.424 Y-26.096
X-23.486 Y-26.233
X-23.564 Y-26.361
X-23.657 Y-26.479
X-23.761 Y-26.587
X-23.875 Y-26.684
X-23.999 Y-26.769
X-24.129 Y-26.843
X-24.265 Y-26.906
X-24.407 Y-26.956
X-24.552 Y-26.995
X-24.703 Y-27.023
X-24.859 Y-27.039
X-25.019 Y-27.042
X-25.181 Y-27.033
X-25.344 Y-27.01
X-25.506 Y-26.973
X-25.667 Y-26.924
X-25.825 Y-26.86
X-25.979 Y-26.784
X-26.127 Y-26.695
X-26.269 Y-26.593
X-26.403 Y-26.48
X-26.528 Y-26.355
X-26.643 Y-26.221
X-26.748 Y-26.077
X-26.841 Y-25.924
X-26.921 Y-25.764
X-26.989 Y-25.598
X-27.043 Y-25.426
X-27.084 Y-25.25
X-27.11 Y-25.071
X-27.122 Y-24.89
X-27.119 Y-24.709
X-27.102 Y-24.528
X-27.07 Y-24.349
X-27.024 Y-24.173
X-26.964 Y-24.001
X-26.89 Y-23.834
X-26.803 Y-23.674
X-26.703 Y-23.521
X-26.591 Y-23.376
X-26.468 Y-23.241
X-26.335 Y-23.116
X-26.192 Y-23.002
X-26.04 Y-22.9
X-25.88 Y-22.811
X-25.714 Y-22.734
X-25.542 Y-22.671
X-25.366 Y-22.623
X-25.186 Y-22.588
X-25.004 Y-22.568
X-24.821 Y-22.563
X-24.638 Y-22.572
X-24.456 Y-22.596
X-24.277 Y-22.635
X-24.101 Y-22.687
X-23.931 Y-22.754
X-23.766 Y-22.834
X-23.608 Y-22.927
X-23.458 Y-23.033
X-23.318 Y-23.15
X-23.187 Y-23.278
X-23.066 Y-23.416
X-22.957 Y-23.564
X-22.856 Y-23.727
X-22.745 Y-23.942
X-22.612 Y-24.262
X-22.503 Y-24.599
X-22.438 Y-24.869
X-22.401 Y-25.106
X-22.385 Y-25.327
X-22.387 Y-25.541
X-22.405 Y-25.748
X-22.438 Y-25.946
X-22.486 Y-26.135
X-22.549 Y-26.32
X-22.627 Y-26.5
X-22.72 Y-26.675
X-22.828 Y-26.843
X-22.948 Y-27.002
X-23.083 Y-27.152
X-23.23 Y-27.292
X-23.39 Y-27.421
X-23.563 Y-27.539
X-23.747 Y-27.645
X-23.942 Y-27.736
X-24.147 Y-27.813
X-24.36 Y-27.874
X-24.581 Y-27.919
X-24.807 Y-27.945
X-25.038 Y-27.954
X-25.27 Y-27.944
X-25.504 Y-27.915
X-25.737 Y-27.867
X-25.967 Y-27.8
X-26.193 Y-27.714
X-26.413 Y-27.609
X-26.625 Y-27.486
X-26.827 Y-27.346
X-27.019 Y-27.189
X-27.199 Y-27.016
X-27.364 Y-26.829
X-27.515 Y-26.628
X-27.65 Y-26.415
X-27.768 Y-26.19
X-27.868 Y-25.957
X-27.948 Y-25.715
X-27.98 Y-25.589
X-27.991 Y-25.533
X-27.998 Y-25.477
X-28. Y-25.421
Y-24.751
X-27.982 Y-24.398
X-27.952 Y-24.17
X-27.904 Y-23.941
X-27.835 Y-23.714
X-27.748 Y-23.49
X-27.642 Y-23.27
X-27.516 Y-23.057
X-27.373 Y-22.854
X-27.213 Y-22.661
X-27.037 Y-22.48
X-26.846 Y-22.314
X-26.641 Y-22.162
X-26.424 Y-22.027
X-26.196 Y-21.91
X-25.959 Y-21.81
X-25.715 Y-21.731
X-25.464 Y-21.67
X-25.209 Y-21.631
X-24.951 Y-21.611
X-24.692 Y-21.613
X-24.434 Y-21.635
X-24.179 Y-21.678
X-23.927 Y-21.741
X-23.682 Y-21.825
X-23.444 Y-21.928
X-23.214 Y-22.049
X-23.092 Y-22.127
X-23.042 Y-22.162
X-22.996 Y-22.201
X-22.953 Y-22.244
X-22.456 Y-22.785
X-22.23 Y-23.041
X-22.058 Y-23.271
X-21.897 Y-23.526
X-21.755 Y-23.796
X-21.636 Y-24.076
X-21.54 Y-24.363
X-21.468 Y-24.654
X-21.421 Y-24.945
X-21.397 Y-25.235
Y-25.523
X-21.419 Y-25.808
X-21.464 Y-26.088
X-21.532 Y-26.362
X-21.62 Y-26.629
X-21.73 Y-26.888
X-21.86 Y-27.137
X-22.01 Y-27.376
X-22.18 Y-27.602
X-22.321 Y-27.763
X-22.471 Y-27.891
X-22.651 Y-27.972
X-22.846 Y-28.
X-26.644
X-26.794 Y-27.993
X-26.942 Y-27.967
X-27.087 Y-27.929
X-27.238 Y-27.875
X-27.395 Y-27.804
X-27.564 Y-27.712
X-27.731 Y-27.601
X-27.876 Y-27.448
X-27.968 Y-27.258
X-28. Y-27.049
G2 X-27.69 Y-26.76 Z-3.3 I0.3 J-0.01
G1 X-27.639 Y-26.766
X-27.59 Y-26.781
X-27.543 Y-26.804
X-27.442 Y-26.866
X-26.498 Y-27.444
G2 X-26.355 Y-27.69 I-0.157 J-0.256
X-26.644 Y-28. Z-3.5 I-0.3 J-0.01
G1 X-27.668
X-27.702
X-27.743 Y-27.995
X-27.784 Y-27.984
X-27.824 Y-27.966
X-27.865 Y-27.941
X-27.903 Y-27.908
X-27.941 Y-27.865
X-27.966 Y-27.824
X-27.984 Y-27.784
X-27.995 Y-27.743
X-28. Y-27.702
Y-25.421
G2 X-27.831 Y-25.161 Z-3.362 I0.3 J-0.01
G1 X-27.7 Y-25.098 Z-3.3
X-27.453 Y-24.979
X-23.137 Y-22.897
X-22.891 Y-22.778
X-22.794 Y-22.732 Z-3.346
G2 X-22.456 Y-22.785 Z-3.5 I0.13 J-0.27
G1 X-22.292 Y-22.953
X-22.118 Y-23.112
X-21.234 Y-23.878
X-21.121 Y-23.986
X-21.021 Y-24.098
X-20.931 Y-24.22
X-20.84 Y-24.364
X-20.758 Y-24.523
X-20.679 Y-24.712
X-20.613 Y-24.912
X-20.558 Y-25.136
X-20.518 Y-25.385
X-20.498 Y-25.648
X-20.499 Y-25.921
X-20.523 Y-26.21
X-20.573 Y-26.511
X-20.649 Y-26.818
X-20.753 Y-27.127
X-20.879 Y-27.42
X-21.009 Y-27.668
X-21.014 Y-27.675
X-21.126 Y-27.81
X-21.268 Y-27.913
X-21.431 Y-27.978
X-21.605 Y-28.
X-22.846
G2 X-23.136 Y-27.69 Z-3.3 I0.01 J0.3
G1 X-23.129 Y-27.639
X-23.115 Y-27.59
X-23.052 Y-27.431
X-21.768 Y-24.171
X-21.701 Y-24.002
X-21.681 Y-23.961
X-21.655 Y-23.923
G2 X-21.234 Y-23.878 Z-3.5 I0.233 J-0.189
G1 X-20.271 Y-24.712
X-20.163 Y-24.816
X-20.067 Y-24.932
X-19.984 Y-25.057
X-19.909 Y-25.195
X-19.843 Y-25.343
X-19.78 Y-25.521
X-19.73 Y-25.712
X-19.691 Y-25.929
X-19.667 Y-26.172
X-19.663 Y-26.424
X-19.681 Y-26.703
X-19.723 Y-26.994
X-19.776 Y-27.226
X-19.845 Y-27.447
X-19.892 Y-27.563
X-19.997 Y-27.741
X-20.15 Y-27.88
X-20.336 Y-27.969
X-20.541 Y-28.
X-21.605
G2 X-21.894 Y-27.69 Z-3.3 I0.01 J0.3
G1 X-21.888 Y-27.637
X-21.872 Y-27.586
X-21.808 Y-27.432
X-20.808 Y-25.005
X-20.737 Y-24.832
X-20.717 Y-24.793
X-20.693 Y-24.757
G2 X-20.271 Y-24.712 Z-3.5 I0.233 J-0.189
G1 X-19.834 Y-25.091
X-19.67 Y-25.226
X-19.506 Y-25.349
X-19.391 Y-25.445
X-19.288 Y-25.554
X-19.198 Y-25.674
X-19.121 Y-25.803
X-19.053 Y-25.943
X-18.992 Y-26.096
X-18.939 Y-26.273
X-18.899 Y-26.459
X-18.872 Y-26.66
X-18.862 Y-26.854
X-18.868 Y-27.048
X-18.887 Y-27.23
X-18.917 Y-27.382
X-18.945 Y-27.486
X-19.04 Y-27.692
X-19.196 Y-27.857
X-19.396 Y-27.963
X-19.62 Y-28.
G2 X-19.909 Y-27.71 Z-3.308 I0.01 J0.3
G1 X-19.91 Y-27.69 Z-3.3
X-19.919 Y-27.416
X-19.975 Y-25.685
X-19.978 Y-25.604
X-19.973 Y-25.54
X-19.955 Y-25.479
X-19.923 Y-25.423
G2 X-19.506 Y-25.349 Z-3.5 I0.246 J-0.172
G1 X-19.21 Y-25.571
X-18.731 Y-25.898
X-18.612 Y-25.989
X-18.506 Y-26.096
X-18.414 Y-26.214
X-18.335 Y-26.342
X-18.269 Y-26.476
X-18.215 Y-26.616
X-18.173 Y-26.76
X-18.144 Y-26.908
X-18.128 Y-27.057
X-18.124 Y-27.207
X-18.134 Y-27.356
X-18.143 Y-27.413
X-18.202 Y-27.601
X-18.31 Y-27.765
X-18.46 Y-27.892
X-18.639 Y-27.972
X-18.834 Y-28.
G2 X-19.123 Y-27.713 Z-3.31 I0.01 J0.3
G1 X-19.124 Y-27.69 Z-3.3
X-19.136 Y-27.417
X-19.187 Y-26.256
X-19.191 Y-26.165
X-19.188 Y-26.104
X-19.172 Y-26.046
X-19.145 Y-25.991
G2 X-18.731 Y-25.898 Z-3.5 I0.253 J-0.161
G1 X-18.012 Y-26.39
X-17.892 Y-26.481
X-17.784 Y-26.585
X-17.693 Y-26.704
X-17.618 Y-26.834
X-17.561 Y-26.973
X-17.521 Y-27.117
X-17.5 Y-27.266
X-17.499 Y-27.281
X-17.529 Y-27.502
X-17.626 Y-27.702
X-17.782 Y-27.862
X-17.979 Y-27.965
X-18.199 Y-28.
G2 X-18.489 Y-27.696 Z-3.302 I0.01 J0.3
G1 Y-27.69 Z-3.3
X-18.484 Y-27.416
X-18.474 Y-26.748
X-18.472 Y-26.639
X-18.467 Y-26.584
X-18.451 Y-26.532
X-18.426 Y-26.483
G2 X-18.012 Y-26.39 Z-3.5 I0.253 J-0.161
G1 X-17.375 Y-26.826
X-17.256 Y-26.917
X-17.157 Y-27.03
X-17.09 Y-27.211
X-17.079 Y-27.404
X-17.125 Y-27.592
X-17.224 Y-27.758
X-17.366 Y-27.888
X-17.541 Y-27.972
X-17.732 Y-28.
G2 X-18.022 Y-27.69 Z-3.3 I0.01 J0.3
G1 X-18.018 Y-27.652
X-18.009 Y-27.614
X-17.953 Y-27.426
X-17.878 Y-27.176
X-17.823 Y-26.993
X-17.808 Y-26.955
X-17.789 Y-26.918
G2 X-17.375 Y-26.826 Z-3.5 I0.253 J-0.161
G1 X-16.963 Y-27.107
X-16.844 Y-27.198
X-16.771 Y-27.368
X-16.762 Y-27.552
X-16.819 Y-27.728
X-16.933 Y-27.872
X-17.092 Y-27.967
X-17.273 Y-28.
G2 X-17.52 Y-27.913 Z-3.387 I0.015 J0.435
G1 X-17.572 Y-27.868 Z-3.358
X-17.616 Y-27.816 Z-3.329
X-17.654 Y-27.759 Z-3.3
G2 X-17.414 Y-27.069 I0.429 J0.238
X-16.963 Y-27.107 Z-3.5 I0.189 J-0.452
G1 X-16.719 Y-27.274
X-16.674 Y-27.304
X-16.554 Y-27.394
X-16.497 Y-27.551
X-16.511 Y-27.718
X-16.592 Y-27.865
X-16.727 Y-27.965
X-16.891 Y-28.
X-16.956 Y-27.992
X-17.02 Y-27.972
X-17.078 Y-27.941
G2 X-16.674 Y-27.304 I0.206 J0.316
G1 X-16.555 Y-27.383
X-16.473 Y-27.434
X-16.432 Y-27.466
X-16.41 Y-27.49
X-16.391 Y-27.514
X-16.377 Y-27.538
X-16.357 Y-27.579
X-16.345 Y-27.62
X-16.339 Y-27.661
Y-27.702
X-16.343 Y-27.74
X-16.353 Y-27.778
X-16.369 Y-27.817
X-16.391 Y-27.855
X-16.399 Y-27.865
X-16.432 Y-27.905
X-16.455 Y-27.926
X-16.477 Y-27.944
X-16.516 Y-27.968
X-16.555 Y-27.984
X-16.596 Y-27.995
X-16.637 Y-28.
X-20.541
X-20.594 Y-27.993 Z-3.477
X-20.645 Y-27.977 Z-3.455
X-20.981 Y-27.839 Z-3.3
X-21.234 Y-27.734
X-27.444 Y-25.171
X-27.697 Y-25.067
X-27.815 Y-25.018 Z-3.354
G2 X-28. Y-24.751 Z-3.5 I0.114 J0.277
G1 Y-23.022
X-27.993 Y-22.872
X-27.968 Y-22.724
X-27.93 Y-22.579
X-27.877 Y-22.431
X-27.808 Y-22.276
X-27.716 Y-22.111
X-27.609 Y-21.948
X-27.478 Y-21.781
X-27.321 Y-21.61
X-27.145 Y-21.447
X-26.949 Y-21.293
X-26.727 Y-21.146
X-26.483 Y-21.011
X-26.219 Y-20.891
X-25.938 Y-20.79
X-25.644 Y-20.71
X-25.339 Y-20.653
X-25.026 Y-20.621
X-24.772 Y-20.615
X-24.576 Y-20.638
X-24.393 Y-20.716
X-24.24 Y-20.841
X-22.953 Y-22.244
G2 X-22.985 Y-22.667 Z-3.3 I-0.228 J-0.195
G1 X-23.033 Y-22.7
X-23.086 Y-22.724
X-23.143 Y-22.737
X-23.241 Y-22.749
X-27.418 Y-23.278
X-27.663 Y-23.309
X-27.69 Y-23.311
G2 X-28. Y-23.022 Z-3.5 I-0.01 J0.3
G1 Y-21.874
X-27.993 Y-21.725
X-27.965 Y-21.577
X-27.922 Y-21.433
X-27.866 Y-21.294
X-27.797 Y-21.156
X-27.706 Y-21.005
X-27.595 Y-20.853
X-27.463 Y-20.697
X-27.301 Y-20.536
X-27.122 Y-20.383
X-26.912 Y-20.232
X-26.671 Y-20.086
X-26.406 Y-19.954
X-26.122 Y-19.84
X-25.852 Y-19.755
X-25.687 Y-19.718
X-25.487 Y-19.702
X-25.29 Y-19.744
X-25.113 Y-19.841
X-24.971 Y-19.983
X-24.751 Y-20.279
X-24.712 Y-20.325
X-24.413 Y-20.653
X-24.24 Y-20.841
G2 X-24.273 Y-21.264 Z-3.3 I-0.228 J-0.195
G1 X-24.33 Y-21.302
X-24.394 Y-21.327
X-24.526 Y-21.361
X-27.424 Y-22.103
X-27.626 Y-22.155
X-27.69 Y-22.164
G2 X-28. Y-21.874 Z-3.5 I-0.01 J0.3
G1 Y-20.817
X-27.993 Y-20.667
X-27.963 Y-20.52
X-27.918 Y-20.377
X-27.859 Y-20.239
X-27.788 Y-20.103
X-27.693 Y-19.953
X-27.583 Y-19.807
X-27.442 Y-19.649
X-27.284 Y-19.496
X-27.1 Y-19.347
X-26.912 Y-19.216
X-26.718 Y-19.104
X-26.541 Y-19.02
X-26.381 Y-18.959
X-26.307 Y-18.938
X-26.095 Y-18.91
X-25.885 Y-18.948
X-25.696 Y-19.047
X-25.545 Y-19.199
G2 X-25.613 Y-19.606 Z-3.307 I-0.249 J-0.168
G1 X-25.626 Y-19.615 Z-3.3
X-25.844 Y-19.78
X-27.448 Y-20.992
X-27.519 Y-21.046
X-27.572 Y-21.078
X-27.629 Y-21.098
X-27.69 Y-21.107
G2 X-28. Y-20.817 Z-3.5 I-0.01 J0.3
G1 Y-19.834
X-27.993 Y-19.684
X-27.968 Y-19.536
X-27.926 Y-19.392
X-27.871 Y-19.252
X-27.803 Y-19.119
X-27.719 Y-18.984
X-27.621 Y-18.851
X-27.511 Y-18.725
X-27.4 Y-18.616
X-27.271 Y-18.509
X-27.141 Y-18.417
X-27.011 Y-18.341
X-26.876 Y-18.276
X-26.859 Y-18.27
X-26.636 Y-18.224
X-26.41 Y-18.253
X-26.205 Y-18.353
X-26.044 Y-18.512
G2 X-26.103 Y-18.913 Z-3.311 I-0.249 J-0.168
G1 X-26.124 Y-18.93 Z-3.3
X-26.336 Y-19.102
X-27.449 Y-20.006
X-27.511 Y-20.056
X-27.565 Y-20.091
X-27.626 Y-20.114
X-27.69 Y-20.123
G2 X-28. Y-19.834 Z-3.5 I-0.01 J0.3
G1 Y-18.85
X-27.993 Y-18.7
X-27.965 Y-18.553
X-27.919 Y-18.41
X-27.856 Y-18.274
X-27.78 Y-18.145
X-27.689 Y-18.026
X-27.586 Y-17.916
X-27.473 Y-17.818
X-27.418 Y-17.78
X-27.224 Y-17.687
X-27.011 Y-17.657
X-26.798 Y-17.694
X-26.607 Y-17.793
X-26.455 Y-17.946
G2 X-26.527 Y-18.356 Z-3.305 I-0.249 J-0.168
G1 X-26.536 Y-18.362 Z-3.3
X-26.757 Y-18.523
X-27.447 Y-19.026
X-27.523 Y-19.082
X-27.575 Y-19.112
X-27.631 Y-19.132
X-27.69 Y-19.14
G2 X-28. Y-18.85 Z-3.5 I-0.01 J0.3
G1 Y-18.031
X-27.993 Y-17.881
X-27.96 Y-17.734
X-27.904 Y-17.595
X-27.9 Y-17.589
X-27.749 Y-17.419
X-27.553 Y-17.307
X-27.331 Y-17.263
X-27.106 Y-17.293
X-26.903 Y-17.392
X-26.742 Y-17.551
G2 X-26.823 Y-17.968 Z-3.3 I-0.249 J-0.168
G1 X-26.873 Y-17.995
X-27.072 Y-18.08
X-27.432 Y-18.232
X-27.583 Y-18.296
X-27.635 Y-18.313
X-27.69 Y-18.32
G2 X-28. Y-18.031 Z-3.5 I-0.01 J0.3
G1 Y-17.449
X-27.993 Y-17.299
X-27.903 Y-17.142
X-27.769 Y-17.021
X-27.604 Y-16.948
X-27.425 Y-16.93
X-27.249 Y-16.968
X-27.093 Y-17.06
X-26.974 Y-17.195
G2 X-26.91 Y-17.459 Z-3.383 I-0.408 J-0.238
G1 X-26.918 Y-17.524 Z-3.356
X-26.933 Y-17.587 Z-3.328
X-26.955 Y-17.649 Z-3.3
G2 X-27.795 Y-17.856 I-0.5 J0.219
X-28. Y-17.449 Z-3.5 I0.34 J0.427
G1 Y-17.08
X-27.993 Y-16.93
X-27.901 Y-16.786
X-27.763 Y-16.684
X-27.597 Y-16.641
X-27.427 Y-16.661
X-27.276 Y-16.742
X-27.165 Y-16.873
X-27.139 Y-16.934 Z-3.472
X-27.124 Y-16.999 Z-3.444
X-27.118 Y-17.064 Z-3.416
Y-17.065 Z-3.415
G2 X-27.199 Y-17.32 Z-3.3 I-0.441 J0.
X-27.758 Y-17.459 I-0.36 J0.255
X-28. Y-17.08 Z-3.5 I0.199 J0.394
G1 Y-16.752
X-27.993 Y-16.603
X-27.895 Y-16.474
X-27.752 Y-16.399
X-27.59 Y-16.393
X-27.442 Y-16.455
X-27.334 Y-16.575
X-27.317 Y-16.611
X-27.305 Y-16.649
G2 X-27.595 Y-17.09 I-0.342 J-0.091
X-28. Y-16.752 I-0.052 J0.35
G1 X-27.999 Y-16.555
X-27.992 Y-16.514
X-27.979 Y-16.473
X-27.959 Y-16.432
X-27.93 Y-16.391
X-27.898 Y-16.359
X-27.865 Y-16.331
X-27.824 Y-16.304
X-27.784 Y-16.286
X-27.743 Y-16.275
X-27.702 Y-16.269
X-27.661
X-27.62 Y-16.275
X-27.579 Y-16.287
X-27.538 Y-16.305
X-27.513 Y-16.32
X-27.489 Y-16.339
X-27.461 Y-16.365
X-27.44 Y-16.391
X-27.374 Y-16.504
X-27.067 Y-17.047
X-26.882 Y-17.341
X-26.861 Y-17.375
X-26.751 Y-17.539
X-25.203 Y-19.67
X-25.02 Y-19.918
X-24.971 Y-19.983
G2 X-25.06 Y-20.408 I-0.247 J-0.171
G1 X-25.11 Y-20.424 Z-3.495
X-25.159 Y-20.439 Z-3.481
X-25.205 Y-20.453 Z-3.458
X-25.218 Y-20.454 Z-3.449
X-25.262 Y-20.444 Z-3.412
X-25.298 Y-20.436 Z-3.366
X-25.325 Y-20.43 Z-3.315
X-25.341 Y-20.426 Z-3.259
X-25.347 Y-20.425 Z-3.2
Z5.
X-0.957 Y-1.213
Z3.5
G2 X-0.668 Y1.394 Z3.391 I0.957 J1.213 F15.
X1.543 Y-0.012 Z3.281 I0.667 J-1.392
X-0.69 Y-1.376 Z3.172 I-1.542 J0.014
X-0.932 Y1.226 Z3.063 I0.69 J1.376
X1.508 Y0.298 Z2.953 I0.931 J-1.224
X-0.396 Y-1.482 Z2.844 I-1.507 J-0.297
X-1.155 Y1.009 Z2.734 I0.397 J1.482
X1.412 Y0.594 Z2.625 I1.154 J-1.007
X-0.089 Y-1.525 Z2.516 I-1.411 J-0.592
X-1.33 Y0.752 Z2.406 I0.089 J1.526
X1.258 Y0.864 Z2.297 I1.329 J-0.751
X0.22 Y-1.506 Z2.188 I-1.258 J-0.861
X-1.449 Y0.467 Z2.078 I-0.219 J1.507
X1.054 Y1.096 Z1.969 I1.448 J-0.466
X0.518 Y-1.426 Z1.859 I-1.054 J-1.093
X-1.507 Y0.164 Z1.75 I-0.517 J1.426
X0.809 Y1.281 Z1.641 I1.506 J-0.164
X0.792 Y-1.287 Z1.531 I-0.809 J-1.279
X-1.503 Y-0.143 Z1.422 I-0.791 J1.288
X0.532 Y1.412 Z1.313 I1.502 J0.143
X1.032 Y-1.097 Z1.203 I-0.532 J-1.41
X-1.438 Y-0.441 Z1.094 I-1.03 J1.097
X0.236 Y1.485 Z0.984 I1.437 J0.442
X1.227 Y-0.863 Z0.875 I-0.236 J-1.483
X-1.314 Y-0.719 Z0.766 I-1.226 J0.864
X-0.068 Y1.496 Z0.656 I1.314 J0.72
X1.371 Y-0.595 Z0.547 I0.068 J-1.494
X-1.137 Y-0.966 Z0.438 I-1.37 J0.596
X-0.367 Y1.446 Z0.328 I1.137 J0.966
X1.457 Y-0.305 Z0.219 I0.366 J-1.444
X-0.915 Y-1.171 Z0.109 I-1.456 J0.307
X-0.648 Y1.337 Z0. I0.915 J1.171
X1.483 Y-0.005 Z-0.109 I0.648 J-1.336
X-0.657 Y-1.326 Z-0.219 I-1.482 J0.007
X-0.901 Y1.174 Z-0.328 I0.658 J1.326
X1.449 Y0.293 Z-0.437 I0.9 J-1.173
X-0.375 Y-1.426 Z-0.547 I-1.448 J-0.292
X-1.115 Y0.965 Z-0.656 I0.375 J1.426
X1.355 Y0.577 Z-0.766 I1.114 J-0.964
X-0.079 Y-1.467 Z-0.875 I-1.354 J-0.575
X-1.281 Y0.717 Z-0.984 I0.079 J1.467
X1.206 Y0.835 Z-1.094 I1.28 J-0.716
X0.218 Y-1.447 Z-1.203 I-1.205 J-0.833
X-1.394 Y0.442 Z-1.312 I-0.217 J1.447
X1.009 Y1.057 Z-1.422 I1.393 J-0.441
X0.504 Y-1.368 Z-1.531 I-1.008 J-1.055
X-1.449 Y0.151 Z-1.641 I-0.503 J1.368
X0.772 Y1.234 Z-1.75 I1.448 J-0.151
X0.767 Y-1.233 Z-1.859 I-0.772 J-1.232
X-1.444 Y-0.143 Z-1.969 I-0.765 J1.234
X0.505 Y1.359 Z-2.078 I1.443 J0.144
X0.996 Y-1.049 Z-2.187 I-0.505 J-1.357
X-1.379 Y-0.43 Z-2.297 I-0.995 J1.05
X0.22 Y1.428 Z-2.406 I1.379 J0.43
X1.182 Y-0.823 Z-2.516 I-0.22 J-1.425
X-1.259 Y-0.697 Z-2.625 I-1.181 J0.824
X-0.072 Y1.437 Z-2.734 I1.259 J0.697
X1.319 Y-0.566 Z-2.844 I0.071 J-1.435
X-1.088 Y-0.932 Z-2.953 I-1.318 J0.567
X-0.359 Y1.387 Z-3.062 I1.088 J0.933
X1.401 Y-0.287 Z-3.172 I0.358 J-1.385
X-0.874 Y-1.128 Z-3.281 I-1.4 J0.288
X-0.628 Y1.281 Z-3.391 I0.874 J1.128
X1.424 Y0.002 Z-3.5 I0.627 J-1.28
X-1.426 I-1.425 J0.
X1.424 I1.425 J0.
G1 X1.459 Y-0.719 F25.
X1.476 Y-0.808
X1.484 Y-0.958
X1.464 Y-1.107
X1.422 Y-1.25
X1.36 Y-1.387
X1.281 Y-1.515
X1.189 Y-1.633
X1.085 Y-1.741
X0.97 Y-1.838
X0.847 Y-1.924
X0.717 Y-1.998
X0.58 Y-2.06
X0.439 Y-2.111
X0.294 Y-2.149
X0.142 Y-2.177
X-0.014 Y-2.193
X-0.173 Y-2.196
X-0.335 Y-2.187
X-0.498 Y-2.164
X-0.661 Y-2.128
X-0.822 Y-2.078
X-0.98 Y-2.014
X-1.133 Y-1.938
X-1.282 Y-1.849
X-1.423 Y-1.747
X-1.557 Y-1.634
X-1.682 Y-1.51
X-1.797 Y-1.375
X-1.902 Y-1.231
X-1.995 Y-1.078
X-2.076 Y-0.918
X-2.143 Y-0.752
X-2.198 Y-0.58
X-2.238 Y-0.404
X-2.264 Y-0.225
X-2.276 Y-0.045
X-2.273 Y0.137
X-2.256 Y0.318
X-2.224 Y0.497
X-2.178 Y0.673
X-2.118 Y0.845
X-2.044 Y1.012
X-1.957 Y1.172
X-1.857 Y1.325
X-1.746 Y1.47
X-1.623 Y1.605
X-1.489 Y1.73
X-1.346 Y1.844
X-1.194 Y1.946
X-1.035 Y2.035
X-0.868 Y2.112
X-0.696 Y2.174
X-0.52 Y2.223
X-0.34 Y2.258
X-0.158 Y2.278
X0.025 Y2.283
X0.208 Y2.274
X0.39 Y2.25
X0.569 Y2.211
X0.744 Y2.159
X0.915 Y2.092
X1.08 Y2.012
X1.237 Y1.918
X1.387 Y1.813
X1.528 Y1.696
X1.659 Y1.568
X1.779 Y1.429
X1.888 Y1.282
X1.99 Y1.119
X2.1 Y0.904
X2.233 Y0.584
X2.343 Y0.247
X2.407 Y-0.023
X2.444 Y-0.261
X2.46 Y-0.481
X2.459 Y-0.695
X2.441 Y-0.902
X2.407 Y-1.1
X2.359 Y-1.289
X2.297 Y-1.474
X2.218 Y-1.655
X2.125 Y-1.829
X2.018 Y-1.997
X1.897 Y-2.156
X1.763 Y-2.306
X1.616 Y-2.446
X1.456 Y-2.576
X1.283 Y-2.694
X1.099 Y-2.799
X0.904 Y-2.891
X0.699 Y-2.967
X0.485 Y-3.028
X0.265 Y-3.073
X0.038 Y-3.1
X-0.192 Y-3.108
X-0.425 Y-3.098
X-0.659 Y-3.069
X-0.892 Y-3.021
X-1.122 Y-2.954
X-1.347 Y-2.868
X-1.567 Y-2.763
X-1.779 Y-2.64
X-1.982 Y-2.5
X-2.173 Y-2.343
X-2.353 Y-2.17
X-2.519 Y-1.983
X-2.67 Y-1.782
X-2.805 Y-1.569
X-2.922 Y-1.344
X-3.022 Y-1.111
X-3.103 Y-0.869
X-3.164 Y-0.621
X-3.205 Y-0.369
X-3.226 Y-0.113
X-3.227 Y0.144
X-3.206 Y0.4
X-3.165 Y0.655
X-3.104 Y0.905
X-3.023 Y1.15
X-2.922 Y1.388
X-2.802 Y1.618
X-2.665 Y1.837
X-2.51 Y2.045
X-2.339 Y2.239
X-2.152 Y2.419
X-1.952 Y2.584
X-1.739 Y2.732
X-1.515 Y2.863
X-1.28 Y2.975
X-1.038 Y3.069
X-0.789 Y3.142
X-0.535 Y3.195
X-0.277 Y3.228
X-0.017 Y3.24
X0.243 Y3.231
X0.501 Y3.201
X0.756 Y3.15
X1.006 Y3.079
X1.25 Y2.989
X1.485 Y2.879
X1.711 Y2.75
X1.927 Y2.604
X2.13 Y2.44
X2.329 Y2.252
X2.531 Y2.027
X2.725 Y1.774
X2.904 Y1.495
X3.064 Y1.197
X3.197 Y0.892
X3.302 Y0.586
X3.381 Y0.28
X3.433 Y-0.024
X3.46 Y-0.323
X3.462 Y-0.618
X3.442 Y-0.909
X3.398 Y-1.194
X3.333 Y-1.473
X3.245 Y-1.744
X3.137 Y-2.006
X3.008 Y-2.259
X2.859 Y-2.5
X2.69 Y-2.73
X2.503 Y-2.946
X2.299 Y-3.147
X2.077 Y-3.333
X1.839 Y-3.501
X1.586 Y-3.651
X1.319 Y-3.782
X1.041 Y-3.892
X0.752 Y-3.979
X0.454 Y-4.044
X0.15 Y-4.085
X-0.159 Y-4.102
X-0.471 Y-4.094
X-0.783 Y-4.06
X-1.093 Y-4.001
X-1.4 Y-3.917
X-1.701 Y-3.808
X-1.994 Y-3.674
X-2.277 Y-3.517
X-2.548 Y-3.336
X-2.804 Y-3.133
X-3.045 Y-2.909
X-3.267 Y-2.666
X-3.471 Y-2.404
X-3.653 Y-2.126
X-3.813 Y-1.833
X-3.949 Y-1.528
X-4.06 Y-1.212
X-4.146 Y-0.887
X-4.206 Y-0.555
X-4.239 Y-0.22
X-4.245 Y0.118
X-4.224 Y0.456
X-4.176 Y0.792
X-4.101 Y1.123
X-3.999 Y1.447
X-3.872 Y1.762
X-3.72 Y2.066
X-3.543 Y2.357
X-3.344 Y2.633
X-3.123 Y2.893
X-2.882 Y3.134
X-2.622 Y3.355
X-2.345 Y3.554
X-2.053 Y3.731
X-1.748 Y3.884
X-1.431 Y4.012
X-1.105 Y4.114
X-0.772 Y4.189
X-0.433 Y4.238
X-0.092 Y4.259
X0.249 Y4.253
X0.59 Y4.219
X0.926 Y4.158
X1.256 Y4.07
X1.579 Y3.956
X1.891 Y3.817
X2.195 Y3.651
X2.491 Y3.456
X2.781 Y3.231
X3.059 Y2.976
X3.324 Y2.692
X3.569 Y2.382
X3.79 Y2.05
X3.984 Y1.702
X4.149 Y1.34
X4.283 Y0.97
X4.386 Y0.593
X4.458 Y0.212
X4.499 Y-0.169
X4.509 Y-0.549
X4.488 Y-0.926
X4.438 Y-1.297
X4.358 Y-1.662
X4.25 Y-2.017
X4.114 Y-2.362
X3.951 Y-2.694
X3.762 Y-3.013
X3.547 Y-3.315
X3.308 Y-3.6
X3.047 Y-3.866
X2.763 Y-4.111
X2.459 Y-4.334
X2.137 Y-4.533
X1.798 Y-4.706
X1.443 Y-4.853
X1.076 Y-4.971
X0.698 Y-5.06
X0.312 Y-5.118
X-0.08 Y-5.146
X-0.475 Y-5.142
X-0.871 Y-5.106
X-1.264 Y-5.038
X-1.653 Y-4.938
X-2.035 Y-4.807
X-2.407 Y-4.644
X-2.766 Y-4.452
X-3.11 Y-4.23
X-3.436 Y-3.981
X-3.743 Y-3.705
X-4.027 Y-3.404
X-4.287 Y-3.08
X-4.521 Y-2.736
X-4.728 Y-2.372
X-4.904 Y-1.993
X-5.05 Y-1.6
X-5.165 Y-1.195
X-5.246 Y-0.782
X-5.294 Y-0.362
X-5.309 Y0.06
X-5.289 Y0.483
X-5.236 Y0.903
X-5.149 Y1.318
X-5.029 Y1.726
X-4.876 Y2.122
X-4.692 Y2.506
X-4.477 Y2.873
X-4.234 Y3.223
X-3.963 Y3.552
X-3.666 Y3.858
X-3.346 Y4.139
X-3.004 Y4.395
X-2.643 Y4.621
X-2.264 Y4.819
X-1.871 Y4.985
X-1.465 Y5.119
X-1.05 Y5.22
X-0.629 Y5.288
X-0.203 Y5.321
X0.225
X0.651 Y5.285
X1.072 Y5.216
X1.488 Y5.113
X1.896 Y4.977
X2.295 Y4.806
X2.684 Y4.602
X3.061 Y4.363
X3.424 Y4.09
X3.77 Y3.784
X4.096 Y3.445
X4.396 Y3.077
X4.668 Y2.684
X4.908 Y2.27
X5.113 Y1.838
X5.283 Y1.392
X5.416 Y0.936
X5.511 Y0.473
X5.569 Y0.007
X5.589 Y-0.46
X5.571 Y-0.924
X5.516 Y-1.384
X5.425 Y-1.836
X5.299 Y-2.278
X5.138 Y-2.707
X4.943 Y-3.122
X4.715 Y-3.519
X4.456 Y-3.898
X4.167 Y-4.255
X3.849 Y-4.589
X3.504 Y-4.897
X3.135 Y-5.177
X2.743 Y-5.428
X2.329 Y-5.647
X1.898 Y-5.834
X1.451 Y-5.986
X0.991 Y-6.102
X0.52 Y-6.182
X0.043 Y-6.223
X-0.439 Y-6.226
X-0.921 Y-6.19
X-1.401 Y-6.116
X-1.876 Y-6.002
X-2.342 Y-5.85
X-2.796 Y-5.661
X-3.235 Y-5.435
X-3.656 Y-5.173
X-4.056 Y-4.877
X-4.433 Y-4.549
X-4.783 Y-4.191
X-5.103 Y-3.805
X-5.393 Y-3.394
X-5.649 Y-2.959
X-5.87 Y-2.504
X-6.054 Y-2.032
X-6.2 Y-1.546
X-6.307 Y-1.049
X-6.373 Y-0.545
X-6.399 Y-0.035
X-6.384 Y0.475
X-6.328 Y0.983
X-6.231 Y1.485
X-6.094 Y1.978
X-5.918 Y2.46
X-5.704 Y2.925
X-5.452 Y3.373
X-5.166 Y3.799
X-4.846 Y4.201
X-4.495 Y4.576
X-4.114 Y4.921
X-3.707 Y5.235
X-3.276 Y5.516
X-2.824 Y5.761
X-2.353 Y5.969
X-1.867 Y6.139
X-1.369 Y6.269
X-0.862 Y6.359
X-0.35 Y6.408
X0.165 Y6.415
X0.679 Y6.381
X1.19 Y6.306
X1.695 Y6.19
X2.191 Y6.033
X2.677 Y5.835
X3.151 Y5.596
X3.609 Y5.316
X4.049 Y4.997
X4.466 Y4.639
X4.857 Y4.245
X5.218 Y3.818
X5.545 Y3.362
X5.835 Y2.879
X6.085 Y2.375
X6.294 Y1.853
X6.46 Y1.316
X6.582 Y0.77
X6.659 Y0.218
X6.692 Y-0.337
X6.68 Y-0.891
X6.624 Y-1.44
X6.524 Y-1.981
X6.382 Y-2.512
X6.197 Y-3.029
X5.972 Y-3.528
X5.708 Y-4.008
X5.405 Y-4.466
X5.067 Y-4.898
X4.694 Y-5.303
X4.289 Y-5.677
X3.854 Y-6.019
X3.392 Y-6.325
X2.904 Y-6.594
X2.395 Y-6.824
X1.867 Y-7.014
X1.323 Y-7.161
X0.768 Y-7.264
X0.203 Y-7.322
X-0.367 Y-7.335
X-0.938 Y-7.302
X-1.507 Y-7.223
X-2.07 Y-7.099
X-2.623 Y-6.928
X-3.162 Y-6.714
X-3.685 Y-6.456
X-4.186 Y-6.155
X-4.663 Y-5.815
X-5.112 Y-5.436
X-5.531 Y-5.021
X-5.916 Y-4.573
X-6.265 Y-4.095
X-6.574 Y-3.589
X-6.843 Y-3.058
X-7.069 Y-2.507
X-7.25 Y-1.939
X-7.385 Y-1.357
X-7.472 Y-0.765
X-7.513 Y-0.167
X-7.505 Y0.433
X-7.449 Y1.03
X-7.345 Y1.622
X-7.193 Y2.204
X-6.996 Y2.773
X-6.753 Y3.324
X-6.467 Y3.854
X-6.138 Y4.36
X-5.771 Y4.838
X-5.365 Y5.285
X-4.925 Y5.698
X-4.454 Y6.075
X-3.953 Y6.412
X-3.427 Y6.709
X-2.878 Y6.962
X-2.311 Y7.171
X-1.729 Y7.333
X-1.135 Y7.449
X-0.534 Y7.516
X0.071 Y7.535
X0.676 Y7.505
X1.278 Y7.426
X1.875 Y7.299
X2.462 Y7.124
X3.037 Y6.9
X3.598 Y6.629
X4.138 Y6.311
X4.656 Y5.948
X5.147 Y5.541
X5.607 Y5.093
X6.032 Y4.607
X6.418 Y4.086
X6.762 Y3.534
X7.061 Y2.955
X7.313 Y2.354
X7.515 Y1.736
X7.667 Y1.105
X7.768 Y0.464
X7.816 Y-0.18
X7.813 Y-0.825
X7.758 Y-1.465
X7.652 Y-2.098
X7.496 Y-2.72
X7.291 Y-3.326
X7.038 Y-3.913
X6.739 Y-4.478
X6.395 Y-5.018
X6.009 Y-5.528
X5.582 Y-6.007
X5.117 Y-6.451
X4.618 Y-6.856
X4.086 Y-7.222
X3.524 Y-7.544
X2.937 Y-7.821
X2.328 Y-8.051
X1.7 Y-8.232
X1.057 Y-8.362
X0.404 Y-8.441
X-0.255 Y-8.466
X-0.917 Y-8.439
X-1.577 Y-8.359
X-2.23 Y-8.225
X-2.872 Y-8.039
X-3.499 Y-7.801
X-4.107 Y-7.513
X-4.692 Y-7.176
X-5.249 Y-6.792
X-5.775 Y-6.363
X-6.265 Y-5.893
X-6.718 Y-5.384
X-7.129 Y-4.839
X-7.495 Y-4.261
X-7.815 Y-3.655
X-8.085 Y-3.024
X-8.305 Y-2.373
X-8.471 Y-1.705
X-8.583 Y-1.025
X-8.641 Y-0.338
X-8.643 Y0.353
X-8.59 Y1.042
X-8.482 Y1.725
X-8.318 Y2.398
X-8.102 Y3.056
X-7.833 Y3.695
X-7.513 Y4.31
X-7.145 Y4.898
X-6.731 Y5.455
X-6.273 Y5.977
X-5.775 Y6.461
X-5.239 Y6.904
X-4.669 Y7.302
X-4.069 Y7.653
X-3.443 Y7.955
X-2.794 Y8.206
X-2.127 Y8.404
X-1.447 Y8.547
X-0.757 Y8.636
X-0.061 Y8.669
X0.636 Y8.646
X1.331 Y8.567
X2.019 Y8.433
X2.697 Y8.242
X3.362 Y7.996
X4.009 Y7.696
X4.634 Y7.342
X5.232 Y6.937
X5.795 Y6.486
X6.321 Y5.991
X6.806 Y5.456
X7.247 Y4.885
X7.643 Y4.281
X7.989 Y3.648
X8.286 Y2.989
X8.53 Y2.31
X8.72 Y1.613
X8.855 Y0.904
X8.934 Y0.186
X8.957 Y-0.535
X8.923 Y-1.256
X8.831 Y-1.973
X8.684 Y-2.679
X8.481 Y-3.372
X8.224 Y-4.047
X7.914 Y-4.699
X7.554 Y-5.325
X7.145 Y-5.92
X6.69 Y-6.481
X6.192 Y-7.004
X5.655 Y-7.486
X5.081 Y-7.924
X4.475 Y-8.316
X3.839 Y-8.659
X3.179 Y-8.951
X2.498 Y-9.192
X1.801 Y-9.378
X1.091 Y-9.51
X0.373 Y-9.587
X-0.349 Y-9.608
X-1.07 Y-9.573
X-1.786 Y-9.483
X-2.493 Y-9.338
X-3.187 Y-9.138
X-3.864 Y-8.886
X-4.519 Y-8.584
X-5.15 Y-8.233
X-5.753 Y-7.835
X-6.324 Y-7.393
X-6.86 Y-6.909
X-7.358 Y-6.387
X-7.816 Y-5.829
X-8.232 Y-5.238
X-8.602 Y-4.619
X-8.925 Y-3.973
X-9.2 Y-3.305
X-9.424 Y-2.619
X-9.596 Y-1.918
X-9.713 Y-1.205
X-9.778 Y-0.486
X-9.788 Y0.236
X-9.746 Y0.956
X-9.65 Y1.672
X-9.502 Y2.379
X-9.303 Y3.073
X-9.053 Y3.75
X-8.754 Y4.407
X-8.408 Y5.041
X-8.017 Y5.648
X-7.581 Y6.224
X-7.104 Y6.765
X-6.587 Y7.269
X-6.034 Y7.733
X-5.448 Y8.155
X-4.833 Y8.534
X-4.192 Y8.866
X-3.529 Y9.151
X-2.846 Y9.386
X-2.148 Y9.571
X-1.439 Y9.705
X-0.721 Y9.786
X0. Y9.814
X0.722 Y9.788
X1.439 Y9.707
X2.149 Y9.575
X2.847 Y9.391
X3.53 Y9.157
X4.195 Y8.875
X4.837 Y8.546
X5.455 Y8.173
X6.046 Y7.757
X6.605 Y7.3
X7.129 Y6.804
X7.616 Y6.271
X8.065 Y5.705
X8.473 Y5.11
X8.84 Y4.488
X9.163 Y3.842
X9.44 Y3.176
X9.672 Y2.492
X9.855 Y1.793
X9.988 Y1.084
X10.069 Y0.366
X10.1 Y-0.355
X10.081 Y-1.077
X10.012 Y-1.796
X9.894 Y-2.508
X9.726 Y-3.21
X9.51 Y-3.899
X9.246 Y-4.571
X8.934 Y-5.222
X8.576 Y-5.849
X8.174 Y-6.449
X7.732 Y-7.019
X7.251 Y-7.558
X6.734 Y-8.062
X6.183 Y-8.529
X5.601 Y-8.957
X4.991 Y-9.343
X4.355 Y-9.683
X3.696 Y-9.978
X3.018 Y-10.227
X2.324 Y-10.428
X1.619 Y-10.581
X0.905 Y-10.686
X0.185 Y-10.743
X-0.537 Y-10.751
X-1.258 Y-10.708
X-1.974 Y-10.615
X-2.681 Y-10.471
X-3.377 Y-10.279
X-4.059 Y-10.041
X-4.723 Y-9.757
X-5.366 Y-9.429
X-5.986 Y-9.06
X-6.581 Y-8.65
X-7.146 Y-8.201
X-7.68 Y-7.715
X-8.178 Y-7.192
X-8.641 Y-6.638
X-9.065 Y-6.054
X-9.451 Y-5.443
X-9.795 Y-4.809
X-10.097 Y-4.153
X-10.355 Y-3.479
X-10.568 Y-2.789
X-10.734 Y-2.086
X-10.85 Y-1.374
X-10.917 Y-0.655
X-10.937 Y0.067
X-10.909 Y0.788
X-10.834 Y1.507
X-10.713 Y2.218
X-10.545 Y2.921
X-10.333 Y3.611
X-10.076 Y4.285
X-9.773 Y4.941
X-9.428 Y5.575
X-9.041 Y6.184
X-8.614 Y6.767
X-8.149 Y7.319
X-7.65 Y7.84
X-7.117 Y8.328
X-6.553 Y8.779
X-5.962 Y9.193
X-5.344 Y9.566
X-4.702 Y9.897
X-4.039 Y10.184
X-3.36 Y10.427
X-2.665 Y10.626
X-1.96 Y10.779
X-1.246 Y10.886
X-0.526 Y10.947
X0.195 Y10.96
X0.917 Y10.925
X1.634 Y10.841
X2.343 Y10.708
X3.043 Y10.53
X3.73 Y10.306
X4.4 Y10.04
X5.053 Y9.731
X5.685 Y9.382
X6.294 Y8.994
X6.877 Y8.568
X7.431 Y8.105
X7.953 Y7.606
X8.442 Y7.075
X8.896 Y6.513
X9.314 Y5.925
X9.694 Y5.311
X10.037 Y4.675
X10.339 Y4.02
X10.602 Y3.347
X10.822 Y2.66
X10.998 Y1.959
X11.127 Y1.249
X11.21 Y0.532
X11.247 Y-0.189
X11.24 Y-0.911
X11.187 Y-1.631
X11.091 Y-2.347
X10.95 Y-3.055
X10.766 Y-3.753
X10.539 Y-4.438
X10.268 Y-5.107
X9.953 Y-5.757
X9.596 Y-6.385
X9.2 Y-6.989
X8.767 Y-7.566
X8.299 Y-8.116
X7.798 Y-8.636
X7.266 Y-9.124
X6.705 Y-9.578
X6.117 Y-9.997
X5.503 Y-10.377
X4.865 Y-10.715
X4.207 Y-11.012
X3.531 Y-11.267
X2.841 Y-11.48
X2.14 Y-11.65
X1.429 Y-11.777
X0.712 Y-11.86
X-0.009 Y-11.9
X-0.731 Y-11.896
X-1.451 Y-11.847
X-2.167 Y-11.75
X-2.875 Y-11.608
X-3.573 Y-11.423
X-4.258 Y-11.195
X-4.928 Y-10.926
X-5.58 Y-10.617
X-6.213 Y-10.27
X-6.825 Y-9.886
X-7.412 Y-9.466
X-7.973 Y-9.011
X-8.504 Y-8.522
X-9.002 Y-8.
X-9.469 Y-7.449
X-9.901 Y-6.87
X-10.298 Y-6.267
X-10.659 Y-5.642
X-10.982 Y-4.996
X-11.266 Y-4.333
X-11.511 Y-3.653
X-11.715 Y-2.961
X-11.875 Y-2.257
X-11.99 Y-1.544
X-12.061 Y-0.825
X-12.088 Y-0.104
X-12.073 Y0.618
X-12.015 Y1.338
X-11.914 Y2.053
X-11.773 Y2.761
X-11.59 Y3.459
X-11.367 Y4.146
X-11.103 Y4.818
X-10.798 Y5.472
X-10.453 Y6.106
X-10.07 Y6.718
X-9.651 Y7.306
X-9.198 Y7.869
X-8.712 Y8.403
X-8.196 Y8.908
X-7.651 Y9.381
X-7.08 Y9.822
X-6.483 Y10.229
X-5.863 Y10.598
X-5.22 Y10.928
X-4.559 Y11.218
X-3.882 Y11.468
X-3.191 Y11.678
X-2.489 Y11.848
X-1.779 Y11.976
X-1.062 Y12.062
X-0.341 Y12.107
X0.381 Y12.108
X1.101 Y12.067
X1.818 Y11.979
X2.528 Y11.848
X3.229 Y11.675
X3.919 Y11.461
X4.595 Y11.208
X5.255 Y10.916
X5.898 Y10.587
X6.521 Y10.222
X7.122 Y9.823
X7.699 Y9.389
X8.25 Y8.922
X8.771 Y8.422
X9.261 Y7.892
X9.72 Y7.334
X10.146 Y6.752
X10.539 Y6.146
X10.898 Y5.52
X11.222 Y4.874
X11.509 Y4.212
X11.759 Y3.534
X11.97 Y2.844
X12.14 Y2.142
X12.268 Y1.432
X12.353 Y0.715
X12.397 Y-0.006
X12.4 Y-0.728
X12.362 Y-1.449
X12.284 Y-2.167
X12.166 Y-2.879
X12.009 Y-3.584
X11.812 Y-4.278
X11.576 Y-4.961
X11.3 Y-5.628
X10.984 Y-6.277
X10.63 Y-6.906
X10.24 Y-7.514
X9.816 Y-8.098
X9.36 Y-8.658
X8.873 Y-9.191
X8.357 Y-9.696
X7.814 Y-10.171
X7.245 Y-10.616
X6.652 Y-11.028
X6.035 Y-11.403
X5.397 Y-11.741
X4.74 Y-12.041
X4.067 Y-12.302
X3.381 Y-12.526
X2.683 Y-12.71
X1.975 Y-12.856
X1.261 Y-12.963
X0.543 Y-13.031
X-0.179 Y-13.059
X-0.901 Y-13.046
X-1.621 Y-12.991
X-2.336 Y-12.894
X-3.044 Y-12.754
X-3.744 Y-12.575
X-4.432 Y-12.358
X-5.108 Y-12.103
X-5.768 Y-11.811
X-6.412 Y-11.484
X-7.037 Y-11.123
X-7.641 Y-10.728
X-8.224 Y-10.301
X-8.781 Y-9.842
X-9.31 Y-9.351
X-9.81 Y-8.83
X-10.281 Y-8.282
X-10.721 Y-7.71
X-11.129 Y-7.114
X-11.504 Y-6.498
X-11.846 Y-5.862
X-12.153 Y-5.208
X-12.425 Y-4.539
X-12.661 Y-3.857
X-12.858 Y-3.162
X-13.014 Y-2.458
X-13.13 Y-1.745
X-13.205 Y-1.027
X-13.241 Y-0.306
X-13.237 Y0.416
X-13.195 Y1.137
X-13.114 Y1.855
X-12.995 Y2.567
X-12.839 Y3.272
X-12.645 Y3.967
X-12.415 Y4.651
X-12.147 Y5.322
X-11.84 Y5.975
X-11.497 Y6.611
X-11.119 Y7.226
X-10.709 Y7.82
X-10.267 Y8.391
X-9.795 Y8.937
X-9.294 Y9.457
X-8.766 Y9.95
X-8.213 Y10.414
X-7.636 Y10.848
X-7.036 Y11.249
X-6.414 Y11.616
X-5.772 Y11.946
X-5.113 Y12.241
X-4.438 Y12.499
X-3.751 Y12.721
X-3.053 Y12.905
X-2.347 Y13.053
X-1.633 Y13.163
X-0.915 Y13.234
X-0.193 Y13.268
X0.529 Y13.262
X1.249 Y13.215
X1.966 Y13.127
X2.676 Y12.999
X3.379 Y12.833
X4.071 Y12.629
X4.752 Y12.388
X5.419 Y12.113
X6.072 Y11.803
X6.707 Y11.459
X7.323 Y11.084
X7.919 Y10.676
X8.493 Y10.238
X9.041 Y9.768
X9.562 Y9.268
X10.056 Y8.741
X10.52 Y8.189
X10.956 Y7.613
X11.361 Y7.015
X11.735 Y6.397
X12.077 Y5.762
X12.386 Y5.109
X12.663 Y4.442
X12.904 Y3.762
X13.11 Y3.07
X13.277 Y2.367
X13.405 Y1.657
X13.494 Y0.94
X13.546 Y0.22
X13.56 Y-0.502
X13.537 Y-1.223
X13.477 Y-1.943
X13.381 Y-2.658
X13.248 Y-3.368
X13.079 Y-4.07
X12.874 Y-4.762
X12.633 Y-5.443
X12.354 Y-6.109
X12.039 Y-6.758
X11.689 Y-7.39
X11.306 Y-8.002
X10.892 Y-8.593
X10.447 Y-9.162
X9.974 Y-9.708
X9.474 Y-10.228
X8.948 Y-10.723
X8.398 Y-11.19
X7.824 Y-11.628
X7.228 Y-12.036
X6.61 Y-12.409
X5.973 Y-12.748
X5.318 Y-13.052
X4.648 Y-13.322
X3.965 Y-13.557
X3.272 Y-13.757
X2.568 Y-13.921
X1.858 Y-14.05
X1.142 Y-14.142
X0.422 Y-14.199
X-0.299 Y-14.219
X-1.021 Y-14.202
X-1.741 Y-14.144
X-2.456 Y-14.048
X-3.166 Y-13.914
X-3.867 Y-13.743
X-4.559 Y-13.536
X-5.24 Y-13.295
X-5.907 Y-13.021
X-6.561 Y-12.713
X-7.198 Y-12.373
X-7.817 Y-12.002
X-8.417 Y-11.601
X-8.997 Y-11.17
X-9.552 Y-10.709
X-10.081 Y-10.218
X-10.585 Y-9.7
X-11.061 Y-9.158
X-11.509 Y-8.592
X-11.929 Y-8.004
X-12.319 Y-7.396
X-12.678 Y-6.77
X-13.007 Y-6.127
X-13.303 Y-5.469
X-13.567 Y-4.797
X-13.797 Y-4.113
X-13.991 Y-3.417
X-14.146 Y-2.712
X-14.265 Y-2.
X-14.346 Y-1.282
X-14.392 Y-0.562
X-14.401 Y0.16
X-14.375 Y0.882
X-14.313 Y1.601
X-14.217 Y2.316
X-14.085 Y3.026
X-13.92 Y3.729
X-13.72 Y4.423
X-13.485 Y5.106
X-13.215 Y5.775
X-12.91 Y6.429
X-12.571 Y7.067
X-12.201 Y7.687
X-11.8 Y8.287
X-11.369 Y8.867
X-10.911 Y9.425
X-10.425 Y9.959
X-9.915 Y10.47
X-9.38 Y10.954
X-8.821 Y11.412
X-8.241 Y11.842
X-7.64 Y12.241
X-7.017 Y12.607
X-6.377 Y12.941
X-5.721 Y13.242
X-5.05 Y13.51
X-4.368 Y13.744
X-3.674 Y13.945
X-2.971 Y14.111
X-2.262 Y14.243
X-1.546 Y14.341
X-0.827 Y14.403
X-0.105 Y14.431
X0.616 Y14.421
X1.337 Y14.372
X2.054 Y14.287
X2.765 Y14.164
X3.47 Y14.006
X4.166 Y13.814
X4.851 Y13.588
X5.525 Y13.329
X6.186 Y13.038
X6.832 Y12.715
X7.462 Y12.363
X8.075 Y11.981
X8.668 Y11.569
X9.24 Y11.128
X9.788 Y10.658
X10.311 Y10.161
X10.809 Y9.638
X11.281 Y9.092
X11.726 Y8.524
X12.144 Y7.935
X12.534 Y7.327
X12.894 Y6.701
X13.225 Y6.06
X13.526 Y5.403
X13.796 Y4.733
X14.033 Y4.052
X14.236 Y3.359
X14.403 Y2.656
X14.534 Y1.946
X14.631 Y1.231
X14.692 Y0.511
X14.719 Y-0.21
X14.712 Y-0.932
X14.67 Y-1.653
X14.595 Y-2.371
X14.486 Y-3.085
X14.344 Y-3.792
X14.169 Y-4.493
X13.96 Y-5.184
X13.716 Y-5.864
X13.438 Y-6.53
X13.126 Y-7.181
X12.783 Y-7.816
X12.409 Y-8.434
X12.005 Y-9.032
X11.574 Y-9.611
X11.116 Y-10.169
X10.632 Y-10.705
X10.123 Y-11.217
X9.591 Y-11.706
X9.037 Y-12.168
X8.461 Y-12.603
X7.863 Y-13.009
X7.246 Y-13.383
X6.61 Y-13.726
X5.959 Y-14.038
X5.293 Y-14.317
X4.615 Y-14.565
X3.926 Y-14.78
X3.228 Y-14.963
X2.522 Y-15.114
X1.809 Y-15.231
X1.092 Y-15.315
X0.372 Y-15.366
X-0.35 Y-15.383
X-1.072 Y-15.363
X-1.791 Y-15.307
X-2.507 Y-15.215
X-3.218 Y-15.088
X-3.922 Y-14.928
X-4.618 Y-14.735
X-5.304 Y-14.509
X-5.978 Y-14.252
X-6.64 Y-13.964
X-7.289 Y-13.646
X-7.922 Y-13.299
X-8.538 Y-12.923
X-9.137 Y-12.519
X-9.714 Y-12.086
X-10.27 Y-11.625
X-10.802 Y-11.137
X-11.311 Y-10.624
X-11.794 Y-10.088
X-12.252 Y-9.53
X-12.684 Y-8.952
X-13.09 Y-8.354
X-13.467 Y-7.739
X-13.816 Y-7.107
X-14.136 Y-6.46
X-14.427 Y-5.799
X-14.687 Y-5.125
X-14.914 Y-4.44
X-15.107 Y-3.744
X-15.266 Y-3.04
X-15.39 Y-2.329
X-15.481 Y-1.612
X-15.539 Y-0.893
X-15.563 Y-0.171
X-15.554 Y0.551
X-15.512 Y1.272
X-15.438 Y1.99
X-15.331 Y2.704
X-15.193 Y3.413
X-15.023 Y4.114
X-14.82 Y4.807
X-14.584 Y5.49
X-14.315 Y6.16
X-14.014 Y6.816
X-13.683 Y7.457
X-13.322 Y8.082
X-12.932 Y8.69
X-12.515 Y9.28
X-12.071 Y9.849
X-11.602 Y10.398
X-11.109 Y10.925
X-10.592 Y11.43
X-10.053 Y11.91
X-9.493 Y12.366
X-8.912 Y12.794
X-8.31 Y13.193
X-7.69 Y13.563
X-7.053 Y13.903
X-6.401 Y14.212
X-5.735 Y14.492
X-5.057 Y14.74
X-4.369 Y14.958
X-3.671 Y15.144
X-2.966 Y15.299
X-2.255 Y15.422
X-1.538 Y15.513
X-0.819 Y15.571
X-0.097 Y15.595
X0.625 Y15.585
X1.345 Y15.539
X2.063 Y15.458
X2.776 Y15.345
X3.483 Y15.198
X4.182 Y15.019
X4.873 Y14.809
X5.553 Y14.568
X6.223 Y14.296
X6.879 Y13.996
X7.522 Y13.667
X8.149 Y13.31
X8.76 Y12.925
X9.352 Y12.512
X9.924 Y12.071
X10.475 Y11.604
X11.003 Y11.112
X11.508 Y10.596
X11.989 Y10.057
X12.445 Y9.498
X12.877 Y8.919
X13.283 Y8.322
X13.662 Y7.708
X14.014 Y7.077
X14.339 Y6.433
X14.635 Y5.774
X14.903 Y5.104
X15.138 Y4.421
X15.342 Y3.728
X15.513 Y3.027
X15.651 Y2.318
X15.757 Y1.604
X15.831 Y0.886
X15.873 Y0.165
X15.883 Y-0.557
X15.861 Y-1.279
X15.808 Y-1.999
X15.724 Y-2.716
X15.608 Y-3.428
X15.462 Y-4.135
X15.284 Y-4.835
X15.074 Y-5.526
X14.831 Y-6.206
X14.557 Y-6.874
X14.252 Y-7.528
X13.918 Y-8.168
X13.555 Y-8.792
X13.165 Y-9.4
X12.748 Y-9.989
X12.305 Y-10.56
X11.839 Y-11.11
X11.348 Y-11.64
X10.835 Y-12.149
X10.301 Y-12.634
X9.745 Y-13.095
X9.168 Y-13.529
X8.572 Y-13.936
X7.957 Y-14.315
X7.326 Y-14.665
X6.679 Y-14.986
X6.019 Y-15.278
X5.346 Y-15.54
X4.663 Y-15.773
X3.97 Y-15.976
X3.269 Y-16.149
X2.561 Y-16.291
X1.848 Y-16.403
X1.13 Y-16.484
X0.41 Y-16.533
X-0.312 Y-16.548
X-1.034 Y-16.53
X-1.754 Y-16.479
X-2.471 Y-16.395
X-3.184 Y-16.279
X-3.89 Y-16.132
X-4.59 Y-15.954
X-5.281 Y-15.745
X-5.963 Y-15.507
X-6.634 Y-15.24
X-7.293 Y-14.945
X-7.938 Y-14.622
X-8.57 Y-14.272
X-9.185 Y-13.895
X-9.783 Y-13.49
X-10.362 Y-13.058
X-10.92 Y-12.6
X-11.458 Y-12.118
X-11.974 Y-11.613
X-12.467 Y-11.086
X-12.936 Y-10.537
X-13.382 Y-9.97
X-13.803 Y-9.383
X-14.199 Y-8.779
X-14.569 Y-8.159
X-14.913 Y-7.525
X-15.23 Y-6.876
X-15.519 Y-6.214
X-15.777 Y-5.54
X-16.005 Y-4.855
X-16.202 Y-4.16
X-16.368 Y-3.457
X-16.502 Y-2.748
X-16.605 Y-2.033
X-16.676 Y-1.315
X-16.717 Y-0.594
X-16.727 Y0.128
X-16.707 Y0.849
X-16.656 Y1.57
X-16.575 Y2.287
X-16.464 Y3.001
X-16.324 Y3.709
X-16.152 Y4.41
X-15.949 Y5.103
X-15.716 Y5.786
X-15.453 Y6.458
X-15.16 Y7.118
X-14.838 Y7.765
X-14.489 Y8.397
X-14.112 Y9.013
X-13.71 Y9.612
X-13.283 Y10.194
X-12.832 Y10.758
X-12.357 Y11.302
X-11.86 Y11.825
X-11.341 Y12.328
X-10.801 Y12.807
X-10.241 Y13.262
X-9.66 Y13.692
X-9.061 Y14.095
X-8.445 Y14.471
X-7.813 Y14.82
X-7.167 Y15.141
X-6.507 Y15.435
X-5.835 Y15.699
X-5.153 Y15.935
X-4.461 Y16.143
X-3.761 Y16.321
X-3.055 Y16.47
X-2.343 Y16.589
X-1.626 Y16.678
X-0.907 Y16.735
X-0.185 Y16.76
X0.537 Y16.753
X1.258 Y16.714
X1.976 Y16.643
X2.691 Y16.54
X3.401 Y16.408
X4.104 Y16.245
X4.8 Y16.052
X5.487 Y15.831
X6.165 Y15.581
X6.831 Y15.304
X7.486 Y14.999
X8.127 Y14.668
X8.754 Y14.31
X9.365 Y13.925
X9.958 Y13.513
X10.533 Y13.076
X11.088 Y12.615
X11.623 Y12.13
X12.137 Y11.623
X12.629 Y11.094
X13.099 Y10.546
X13.545 Y9.979
X13.968 Y9.394
X14.367 Y8.792
X14.741 Y8.174
X15.09 Y7.542
X15.413 Y6.896
X15.709 Y6.238
X15.976 Y5.567
X16.214 Y4.885
X16.422 Y4.194
X16.601 Y3.494
X16.75 Y2.788
X16.868 Y2.076
X16.957 Y1.359
X17.016 Y0.64
X17.046 Y-0.082
X17.045 Y-0.804
X17.016 Y-1.525
X16.957 Y-2.245
X16.869 Y-2.961
X16.752 Y-3.674
X16.605 Y-4.381
X16.427 Y-5.08
X16.22 Y-5.772
X15.983 Y-6.454
X15.716 Y-7.125
X15.422 Y-7.784
X15.099 Y-8.43
X14.75 Y-9.062
X14.375 Y-9.679
X13.974 Y-10.28
X13.549 Y-10.863
X13.101 Y-11.429
X12.63 Y-11.977
X12.138 Y-12.505
X11.624 Y-13.012
X11.089 Y-13.497
X10.534 Y-13.958
X9.959 Y-14.396
X9.367 Y-14.808
X8.757 Y-15.194
X8.131 Y-15.554
X7.491 Y-15.888
X6.837 Y-16.194
X6.171 Y-16.474
X5.494 Y-16.725
X4.808 Y-16.949
X4.113 Y-17.145
X3.411 Y-17.313
X2.703 Y-17.453
X1.989 Y-17.563
X1.272 Y-17.644
X0.551 Y-17.694
X-0.17 Y-17.714
X-0.892 Y-17.702
X-1.613 Y-17.66
X-2.331 Y-17.588
X-3.046 Y-17.486
X-3.756 Y-17.354
X-4.46 Y-17.194
X-5.157 Y-17.005
X-5.845 Y-16.788
X-6.525 Y-16.543
X-7.194 Y-16.272
X-7.851 Y-15.974
X-8.497 Y-15.65
X-9.128 Y-15.3
X-9.744 Y-14.923
X-10.344 Y-14.521
X-10.926 Y-14.095
X-11.491 Y-13.644
X-12.036 Y-13.171
X-12.561 Y-12.675
X-13.065 Y-12.158
X-13.548 Y-11.622
X-14.009 Y-11.066
X-14.447 Y-10.492
X-14.863 Y-9.902
X-15.254 Y-9.295
X-15.622 Y-8.674
X-15.965 Y-8.038
X-16.281 Y-7.389
X-16.57 Y-6.728
X-16.832 Y-6.055
X-17.065 Y-5.372
X-17.27 Y-4.68
X-17.446 Y-3.979
X-17.593 Y-3.272
X-17.71 Y-2.56
X-17.799 Y-1.843
X-17.859 Y-1.124
X-17.89 Y-0.403
X-17.893 Y0.319
X-17.867 Y1.041
X-17.813 Y1.761
X-17.73 Y2.478
X-17.619 Y3.191
X-17.478 Y3.9
X-17.309 Y4.602
X-17.111 Y5.296
X-16.885 Y5.982
X-16.631 Y6.657
X-16.349 Y7.322
X-16.04 Y7.975
X-15.705 Y8.614
X-15.345 Y9.24
X-14.96 Y9.851
X-14.551 Y10.445
X-14.118 Y11.024
X-13.664 Y11.585
X-13.187 Y12.127
X-12.69 Y12.65
X-12.171 Y13.153
X-11.632 Y13.633
X-11.074 Y14.092
X-10.498 Y14.526
X-9.904 Y14.937
X-9.294 Y15.323
X-8.669 Y15.684
X-8.029 Y16.019
X-7.377 Y16.328
X-6.713 Y16.611
X-6.038 Y16.868
X-5.353 Y17.097
X-4.66 Y17.3
X-3.96 Y17.475
X-3.253 Y17.623
X-2.541 Y17.742
X-1.825 Y17.832
X-1.105 Y17.892
X-0.384 Y17.923
X0.338 Y17.924
X1.06 Y17.895
X1.779 Y17.837
X2.496 Y17.75
X3.209 Y17.634
X3.916 Y17.489
X4.617 Y17.317
X5.311 Y17.118
X5.997 Y16.891
X6.673 Y16.638
X7.339 Y16.359
X7.993 Y16.054
X8.635 Y15.723
X9.263 Y15.367
X9.876 Y14.986
X10.473 Y14.58
X11.053 Y14.15
X11.616 Y13.698
X12.16 Y13.223
X12.684 Y12.727
X13.189 Y12.211
X13.673 Y11.675
X14.136 Y11.121
X14.578 Y10.55
X14.997 Y9.962
X15.393 Y9.358
X15.766 Y8.74
X16.115 Y8.108
X16.439 Y7.463
X16.737 Y6.805
X17.009 Y6.136
X17.254 Y5.457
X17.471 Y4.769
X17.661 Y4.072
X17.824 Y3.369
X17.958 Y2.659
X18.064 Y1.945
X18.143 Y1.227
X18.194 Y0.507
X18.217 Y-0.214
X18.212 Y-0.936
X18.18 Y-1.658
X18.12 Y-2.377
X18.032 Y-3.094
X17.917 Y-3.807
X17.773 Y-4.514
X17.6 Y-5.215
X17.4 Y-5.909
X17.173 Y-6.594
X16.918 Y-7.27
X16.636 Y-7.934
X16.329 Y-8.588
X15.996 Y-9.228
X15.638 Y-9.855
X15.256 Y-10.468
X14.851 Y-11.066
X14.423 Y-11.647
X13.973 Y-12.212
X13.502 Y-12.759
X13.01 Y-13.287
X12.497 Y-13.795
X11.965 Y-14.283
X11.413 Y-14.749
X10.844 Y-15.193
X10.257 Y-15.614
X9.654 Y-16.011
X9.036 Y-16.384
X8.403 Y-16.732
X7.758 Y-17.056
X7.1 Y-17.354
X6.432 Y-17.626
X5.753 Y-17.873
X5.066 Y-18.094
X4.371 Y-18.288
X3.668 Y-18.456
X2.96 Y-18.596
X2.247 Y-18.709
X1.53 Y-18.793
X0.81 Y-18.85
X0.089 Y-18.878
X-0.633 Y-18.877
X-1.355 Y-18.848
X-2.075 Y-18.791
X-2.791 Y-18.705
X-3.505 Y-18.592
X-4.213 Y-18.451
X-4.915 Y-18.284
X-5.611 Y-18.09
X-6.298 Y-17.87
X-6.977 Y-17.624
X-7.646 Y-17.352
X-8.304 Y-17.055
X-8.95 Y-16.733
X-9.583 Y-16.387
X-10.203 Y-16.015
X-10.807 Y-15.621
X-11.396 Y-15.203
X-11.968 Y-14.762
X-12.522 Y-14.299
X-13.058 Y-13.816
X-13.576 Y-13.312
X-14.073 Y-12.789
X-14.551 Y-12.248
X-15.008 Y-11.689
X-15.444 Y-11.113
X-15.858 Y-10.522
X-16.249 Y-9.915
X-16.617 Y-9.294
X-16.961 Y-8.659
X-17.281 Y-8.012
X-17.576 Y-7.353
X-17.845 Y-6.682
X-18.087 Y-6.003
X-18.304 Y-5.314
X-18.493 Y-4.617
X-18.656 Y-3.914
X-18.791 Y-3.204
X-18.899 Y-2.491
X-18.981 Y-1.773
X-19.035 Y-1.053
X-19.062 Y-0.332
X-19.063 Y0.39
X-19.036 Y1.112
X-18.982 Y1.832
X-18.902 Y2.549
X-18.794 Y3.263
X-18.658 Y3.972
X-18.496 Y4.676
X-18.308 Y5.373
X-18.092 Y6.062
X-17.85 Y6.742
X-17.583 Y7.413
X-17.29 Y8.073
X-16.972 Y8.721
X-16.63 Y9.357
X-16.264 Y9.979
X-15.875 Y10.588
X-15.464 Y11.181
X-15.031 Y11.759
X-14.576 Y12.32
X-14.101 Y12.863
X-13.605 Y13.388
X-13.09 Y13.894
X-12.556 Y14.38
X-12.004 Y14.844
X-11.434 Y15.288
X-10.847 Y15.709
X-10.245 Y16.107
X-9.628 Y16.483
X-8.998 Y16.834
X-8.354 Y17.162
X-7.699 Y17.465
X-7.033 Y17.743
X-6.357 Y17.997
X-5.672 Y18.225
X-4.979 Y18.428
X-4.279 Y18.604
X-3.572 Y18.754
X-2.861 Y18.877
X-2.145 Y18.973
X-1.427 Y19.041
X-0.706 Y19.082
X0.016 Y19.095
X0.738 Y19.081
X1.459 Y19.038
X2.177 Y18.969
X2.893 Y18.872
X3.604 Y18.749
X4.311 Y18.599
X5.011 Y18.424
X5.704 Y18.222
X6.389 Y17.995
X7.066 Y17.743
X7.732 Y17.465
X8.388 Y17.163
X9.032 Y16.837
X9.664 Y16.487
X10.282 Y16.113
X10.885 Y15.717
X11.473 Y15.298
X12.045 Y14.857
X12.599 Y14.395
X13.137 Y13.912
X13.656 Y13.41
X14.156 Y12.89
X14.636 Y12.351
X15.097 Y11.795
X15.538 Y11.223
X15.957 Y10.635
X16.354 Y10.032
X16.729 Y9.415
X17.081 Y8.785
X17.41 Y8.142
X17.715 Y7.488
X17.995 Y6.823
X18.251 Y6.147
X18.481 Y5.463
X18.686 Y4.771
X18.864 Y4.071
X19.017 Y3.365
X19.144 Y2.655
X19.244 Y1.94
X19.319 Y1.222
X19.367 Y0.501
X19.389 Y-0.221
X19.385 Y-0.942
X19.354 Y-1.664
X19.297 Y-2.384
X19.213 Y-3.101
X19.103 Y-3.814
X18.967 Y-4.523
X18.805 Y-5.227
X18.616 Y-5.924
X18.402 Y-6.613
X18.161 Y-7.294
X17.896 Y-7.965
X17.606 Y-8.627
X17.292 Y-9.277
X16.954 Y-9.915
X16.593 Y-10.54
X16.209 Y-11.152
X15.803 Y-11.749
X15.376 Y-12.331
X14.927 Y-12.896
X14.458 Y-13.445
X13.97 Y-13.977
X13.462 Y-14.49
X12.935 Y-14.984
X12.391 Y-15.458
X11.829 Y-15.912
X11.251 Y-16.344
X10.657 Y-16.754
X10.048 Y-17.142
X9.425 Y-17.508
X8.79 Y-17.85
X8.142 Y-18.169
X7.483 Y-18.464
X6.814 Y-18.735
X6.135 Y-18.982
X5.448 Y-19.203
X4.753 Y-19.399
X4.052 Y-19.57
X3.344 Y-19.716
X2.632 Y-19.835
X1.916 Y-19.929
X1.198 Y-19.995
X0.477 Y-20.036
X-0.245 Y-20.05
X-0.967 Y-20.037
X-1.688 Y-19.997
X-2.407 Y-19.932
X-3.123 Y-19.84
X-3.835 Y-19.722
X-4.543 Y-19.579
X-5.245 Y-19.41
X-5.94 Y-19.215
X-6.628 Y-18.996
X-7.308 Y-18.752
X-7.978 Y-18.484
X-8.638 Y-18.192
X-9.288 Y-17.876
X-9.925 Y-17.537
X-10.55 Y-17.175
X-11.161 Y-16.79
X-11.758 Y-16.384
X-12.339 Y-15.956
X-12.905 Y-15.507
X-13.454 Y-15.039
X-13.985 Y-14.55
X-14.499 Y-14.043
X-14.995 Y-13.518
X-15.471 Y-12.975
X-15.928 Y-12.416
X-16.364 Y-11.841
X-16.78 Y-11.25
X-17.174 Y-10.646
X-17.546 Y-10.027
X-17.897 Y-9.396
X-18.224 Y-8.752
X-18.528 Y-8.097
X-18.808 Y-7.432
X-19.064 Y-6.757
X-19.295 Y-6.073
X-19.501 Y-5.381
X-19.682 Y-4.682
X-19.838 Y-3.977
X-19.968 Y-3.267
X-20.073 Y-2.552
X-20.153 Y-1.835
X-20.206 Y-1.115
X-20.234 Y-0.393
X-20.236 Y0.329
X-20.213 Y1.05
X-20.164 Y1.771
X-20.089 Y2.489
X-19.989 Y3.204
X-19.864 Y3.915
X-19.713 Y4.621
X-19.537 Y5.321
X-19.336 Y6.015
X-19.11 Y6.7
X-18.86 Y7.378
X-18.585 Y8.045
X-18.287 Y8.703
X-17.966 Y9.349
X-17.622 Y9.984
X-17.255 Y10.606
X-16.867 Y11.215
X-16.457 Y11.809
X-16.026 Y12.388
X-15.575 Y12.952
X-15.104 Y13.499
X-14.614 Y14.029
X-14.105 Y14.542
X-13.578 Y15.036
X-13.034 Y15.51
X-12.473 Y15.965
X-11.897 Y16.4
X-11.305 Y16.813
X-10.698 Y17.205
X-10.078 Y17.575
X-9.446 Y17.923
X-8.801 Y18.248
X-8.145 Y18.55
X-7.479 Y18.828
X-6.804 Y19.083
X-6.119 Y19.313
X-5.427 Y19.519
X-4.729 Y19.701
X-4.024 Y19.858
X-3.314 Y19.989
X-2.6 Y20.096
X-1.882 Y20.176
X-1.162 Y20.231
X-0.441 Y20.26
X0.281 Y20.263
X1.003 Y20.24
X1.723 Y20.192
X2.441 Y20.117
X3.156 Y20.018
X3.867 Y19.893
X4.574 Y19.743
X5.274 Y19.568
X5.968 Y19.368
X6.654 Y19.144
X7.332 Y18.896
X8.001 Y18.625
X8.661 Y18.33
X9.309 Y18.013
X9.946 Y17.673
X10.57 Y17.31
X11.182 Y16.926
X11.779 Y16.521
X12.362 Y16.094
X12.929 Y15.648
X13.48 Y15.181
X14.015 Y14.696
X14.532 Y14.192
X15.032 Y13.671
X15.512 Y13.132
X15.974 Y12.577
X16.416 Y12.007
X16.839 Y11.421
X17.24 Y10.821
X17.621 Y10.208
X17.981 Y9.582
X18.319 Y8.944
X18.634 Y8.294
X18.927 Y7.634
X19.197 Y6.965
X19.443 Y6.286
X19.665 Y5.599
X19.863 Y4.905
X20.037 Y4.204
X20.186 Y3.497
X20.311 Y2.786
X20.411 Y2.071
X20.486 Y1.353
X20.535 Y0.633
X20.56 Y-0.089
Y-0.811
X20.535 Y-1.532
X20.485 Y-2.253
X20.41 Y-2.971
X20.311 Y-3.686
X20.187 Y-4.397
X20.038 Y-5.103
X19.864 Y-5.804
X19.666 Y-6.499
X19.444 Y-7.186
X19.198 Y-7.864
X18.928 Y-8.534
X18.636 Y-9.194
X18.32 Y-9.843
X17.982 Y-10.481
X17.621 Y-11.107
X17.239 Y-11.719
X16.836 Y-12.318
X16.412 Y-12.903
X15.969 Y-13.473
X15.506 Y-14.027
X15.024 Y-14.565
X14.524 Y-15.086
X14.007 Y-15.589
X13.472 Y-16.074
X12.92 Y-16.539
X12.352 Y-16.986
X11.77 Y-17.412
X11.172 Y-17.818
X10.561 Y-18.202
X9.937 Y-18.565
X9.301 Y-18.907
X8.653 Y-19.225
X7.995 Y-19.521
X7.326 Y-19.795
X6.649 Y-20.044
X5.964 Y-20.271
X5.271 Y-20.474
X4.571 Y-20.652
X3.866 Y-20.807
X3.156 Y-20.938
X2.442 Y-21.044
X1.724 Y-21.126
X1.005 Y-21.182
X0.283 Y-21.214
X-0.439 Y-21.22
X-1.16 Y-21.202
X-1.881 Y-21.159
X-2.6 Y-21.091
X-3.316 Y-20.998
X-4.028 Y-20.88
X-4.736 Y-20.738
X-5.439 Y-20.571
X-6.135 Y-20.381
X-6.825 Y-20.166
X-7.506 Y-19.929
X-8.18 Y-19.668
X-8.844 Y-19.385
X-9.498 Y-19.08
X-10.141 Y-18.752
X-10.773 Y-18.403
X-11.393 Y-18.032
X-11.999 Y-17.64
X-12.592 Y-17.228
X-13.17 Y-16.796
X-13.733 Y-16.344
X-14.281 Y-15.873
X-14.812 Y-15.384
X-15.326 Y-14.877
X-15.822 Y-14.353
X-16.3 Y-13.812
X-16.76 Y-13.255
X-17.2 Y-12.683
X-17.621 Y-12.096
X-18.022 Y-11.496
X-18.403 Y-10.882
X-18.763 Y-10.256
X-19.101 Y-9.619
X-19.418 Y-8.97
X-19.712 Y-8.311
X-19.984 Y-7.642
X-20.233 Y-6.964
X-20.459 Y-6.278
X-20.661 Y-5.585
X-20.84 Y-4.886
X-20.994 Y-4.18
X-21.125 Y-3.47
X-21.23 Y-2.756
X-21.312 Y-2.039
X-21.369 Y-1.319
X-21.402 Y-0.598
X-21.411 Y0.124
X-21.395 Y0.846
X-21.355 Y1.567
X-21.292 Y2.286
X-21.204 Y3.003
X-21.092 Y3.716
X-20.956 Y4.425
X-20.796 Y5.129
X-20.613 Y5.828
X-20.406 Y6.519
X-20.176 Y7.204
X-19.923 Y7.88
X-19.647 Y8.547
X-19.349 Y9.205
X-19.028 Y9.851
X-18.686 Y10.487
X-18.322 Y11.111
X-17.937 Y11.722
X-17.532 Y12.319
X-17.107 Y12.903
X-16.663 Y13.472
X-16.2 Y14.026
X-15.719 Y14.565
X-15.22 Y15.086
X-14.703 Y15.591
X-14.17 Y16.078
X-13.621 Y16.547
X-13.057 Y16.997
X-12.477 Y17.427
X-11.883 Y17.838
X-11.276 Y18.228
X-10.656 Y18.598
X-10.023 Y18.946
X-9.379 Y19.272
X-8.724 Y19.577
X-8.06 Y19.859
X-7.386 Y20.119
X-6.704 Y20.356
X-6.015 Y20.571
X-5.319 Y20.762
X-4.616 Y20.93
X-3.909 Y21.074
X-3.197 Y21.194
X-2.482 Y21.291
X-1.763 Y21.363
X-1.043 Y21.411
X-0.321 Y21.435
X0.401 Y21.434
X1.122 Y21.409
X1.843 Y21.36
X2.561 Y21.286
X3.276 Y21.187
X3.987 Y21.065
X4.694 Y20.918
X5.396 Y20.748
X6.092 Y20.555
X6.781 Y20.339
X7.462 Y20.1
X8.135 Y19.839
X8.799 Y19.556
X9.454 Y19.25
X10.097 Y18.924
X10.73 Y18.576
X11.351 Y18.207
X11.959 Y17.818
X12.554 Y17.409
X13.135 Y16.981
X13.701 Y16.533
X14.252 Y16.066
X14.787 Y15.581
X15.306 Y15.079
X15.808 Y14.56
X16.292 Y14.024
X16.758 Y13.473
X17.206 Y12.907
X17.635 Y12.326
X18.045 Y11.732
X18.436 Y11.125
X18.806 Y10.505
X19.157 Y9.874
X19.486 Y9.231
X19.794 Y8.578
X20.081 Y7.916
X20.346 Y7.244
X20.588 Y6.564
X20.808 Y5.876
X21.005 Y5.182
X21.179 Y4.481
X21.329 Y3.775
X21.456 Y3.064
X21.559 Y2.349
X21.638 Y1.632
X21.694 Y0.912
X21.727 Y0.191
X21.736 Y-0.531
X21.721 Y-1.253
X21.683 Y-1.974
X21.621 Y-2.694
X21.536 Y-3.411
X21.428 Y-4.124
X21.296 Y-4.834
X21.141 Y-5.539
X20.962 Y-6.239
X20.761 Y-6.932
X20.537 Y-7.619
X20.29 Y-8.297
X20.021 Y-8.967
X19.729 Y-9.627
X19.416 Y-10.278
X19.081 Y-10.917
X18.725 Y-11.546
X18.348 Y-12.162
X17.952 Y-12.765
X17.536 Y-13.355
X17.101 Y-13.932
X16.648 Y-14.494
X16.176 Y-15.04
X15.687 Y-15.571
X15.181 Y-16.086
X14.658 Y-16.584
X14.119 Y-17.065
X13.565 Y-17.527
X12.996 Y-17.971
X12.412 Y-18.396
X11.815 Y-18.801
X11.204 Y-19.187
X10.581 Y-19.551
X9.946 Y-19.895
X9.3 Y-20.217
X8.644 Y-20.519
X7.978 Y-20.798
X7.304 Y-21.056
X6.621 Y-21.292
X5.931 Y-21.505
X5.235 Y-21.696
X4.533 Y-21.865
X3.826 Y-22.01
X3.114 Y-22.133
X2.399 Y-22.232
X1.681 Y-22.308
X0.961 Y-22.361
X0.24 Y-22.39
X-0.482 Y-22.395
X-1.204 Y-22.376
X-1.925 Y-22.334
X-2.644 Y-22.267
X-3.36 Y-22.177
X-4.073 Y-22.064
X-4.782 Y-21.928
X-5.486 Y-21.768
X-6.185 Y-21.586
X-6.877 Y-21.381
X-7.563 Y-21.154
X-8.24 Y-20.906
X-8.91 Y-20.635
X-9.57 Y-20.344
X-10.221 Y-20.031
X-10.862 Y-19.697
X-11.491 Y-19.344
X-12.108 Y-18.969
X-12.713 Y-18.576
X-13.305 Y-18.162
X-13.884 Y-17.73
X-14.447 Y-17.279
X-14.996 Y-16.809
X-15.529 Y-16.322
X-16.046 Y-15.818
X-16.546 Y-15.298
X-17.03 Y-14.762
X-17.496 Y-14.21
X-17.944 Y-13.644
X-18.374 Y-13.064
X-18.785 Y-12.471
X-19.178 Y-11.865
X-19.55 Y-11.246
X-19.903 Y-10.616
X-20.236 Y-9.976
X-20.547 Y-9.324
X-20.838 Y-8.664
X-21.108 Y-7.994
X-21.355 Y-7.316
X-21.581 Y-6.63
X-21.783 Y-5.937
X-21.963 Y-5.238
X-22.121 Y-4.533
X-22.255 Y-3.823
X-22.367 Y-3.11
X-22.455 Y-2.394
X-22.521 Y-1.675
X-22.563 Y-0.954
X-22.583 Y-0.232
X-22.579 Y0.49
X-22.553 Y1.211
X-22.504 Y1.932
X-22.432 Y2.65
X-22.337 Y3.366
X-22.22 Y4.078
X-22.08 Y4.787
X-21.918 Y5.49
X-21.733 Y6.188
X-21.525 Y6.88
X-21.296 Y7.564
X-21.044 Y8.241
X-20.77 Y8.909
X-20.475 Y9.568
X-20.159 Y10.217
X-19.823 Y10.856
X-19.466 Y11.483
X-19.089 Y12.099
X-18.693 Y12.703
X-18.278 Y13.294
X-17.844 Y13.871
X-17.392 Y14.434
X-16.923 Y14.983
X-16.436 Y15.516
X-15.933 Y16.034
X-15.414 Y16.535
X-14.878 Y17.02
X-14.328 Y17.487
X-13.763 Y17.936
X-13.183 Y18.367
X-12.59 Y18.779
X-11.984 Y19.171
X-11.366 Y19.543
X-10.736 Y19.896
X-10.095 Y20.228
X-9.443 Y20.54
X-8.782 Y20.83
X-8.112 Y21.1
X-7.434 Y21.348
X-6.749 Y21.574
X-6.056 Y21.779
X-5.358 Y21.962
X-4.654 Y22.122
X-3.945 Y22.261
X-3.233 Y22.376
X-2.517 Y22.469
X-1.798 Y22.54
X-1.078 Y22.587
X-0.356 Y22.61
X0.366
X1.087 Y22.587
X1.808 Y22.541
X2.527 Y22.471
X3.243 Y22.379
X3.955 Y22.264
X4.664 Y22.126
X5.368 Y21.966
X6.067 Y21.783
X6.759 Y21.579
X7.445 Y21.353
X8.123 Y21.106
X8.793 Y20.837
X9.455 Y20.548
X10.107 Y20.238
X10.749 Y19.908
X11.381 Y19.558
X12.001 Y19.188
X12.609 Y18.799
X13.204 Y18.39
X13.786 Y17.963
X14.354 Y17.517
X14.907 Y17.053
X15.446 Y16.572
X15.969 Y16.075
X16.476 Y15.561
X16.967 Y15.032
X17.441 Y14.487
X17.898 Y13.928
X18.338 Y13.355
X18.759 Y12.769
X19.163 Y12.17
X19.547 Y11.559
X19.913 Y10.937
X20.259 Y10.303
X20.585 Y9.659
X20.892 Y9.005
X21.177 Y8.342
X21.442 Y7.67
X21.685 Y6.991
X21.907 Y6.303
X22.106 Y5.61
X22.284 Y4.91
X22.44 Y4.205
X22.574 Y3.495
X22.685 Y2.782
X22.774 Y2.066
X22.841 Y1.347
X22.885 Y0.626
X22.907 Y-0.096
Y-0.818
X22.884 Y-1.539
X22.839 Y-2.26
X22.772 Y-2.979
X22.728 Y-3.333
X22.723 Y-3.363
X22.364 Y-5.245
X22.259 Y-5.737
X22.214 Y-5.901
X21.522 Y-8.032
X21.347 Y-8.524
X21.309 Y-8.619
X20.274 Y-10.818
X20.194 Y-10.982
X19.998 Y-11.318
X19.901 Y-11.474
X18.964 Y-12.949
X18.645 Y-13.441
X18.531 Y-13.605
X16.883 Y-15.596
X16.719 Y-15.783
X14.675 Y-17.703
X14.588 Y-17.767
X14.229 Y-18.031
X12.458 Y-19.317
X11.966 Y-19.609
X11.861 Y-19.67
X9.999 Y-20.693
X9.835 Y-20.779
X9.671 Y-20.855
X7.212 Y-21.829
X7.048 Y-21.885
X6.393 Y-22.054
X4.754 Y-22.475
X4.59 Y-22.512
X4.262 Y-22.584
X4.098 Y-22.615
X1.967 Y-22.885
X1.406 Y-22.948
X1.311 Y-22.951
X-1.311
X-1.406 Y-22.948
X-1.967 Y-22.885
X-4.098 Y-22.615
X-4.262 Y-22.584
X-4.59 Y-22.512
X-4.754 Y-22.475
X-6.884 Y-21.927
X-7.048 Y-21.885
X-7.212 Y-21.829
X-9.671 Y-20.855
X-9.835 Y-20.779
X-9.999 Y-20.693
X-11.861 Y-19.67
X-11.966 Y-19.609
X-12.458 Y-19.317
X-14.261 Y-18.008
X-14.588 Y-17.767
X-14.675 Y-17.703
X-16.719 Y-15.783
X-16.883 Y-15.596
X-18.531 Y-13.605
X-18.645 Y-13.441
X-18.964 Y-12.949
X-19.901 Y-11.474
X-20.002 Y-11.31
X-20.194 Y-10.982
X-20.274 Y-10.818
X-21.309 Y-8.619
X-21.347 Y-8.524
X-21.522 Y-8.032
X-22.214 Y-5.901
X-22.259 Y-5.737
X-22.364 Y-5.245
X-22.77 Y-3.114
X-22.784 Y-3.037
X-22.826 Y-2.623
X-22.841 Y-2.459
X-22.975 Y-0.328
X-22.978 Y-0.164
Y0.164
X-22.975 Y0.328
X-22.841 Y2.459
X-22.809 Y2.787
X-22.784 Y3.037
X-22.77 Y3.114
X-22.364 Y5.245
X-22.259 Y5.737
X-22.214 Y5.901
X-21.522 Y8.032
X-21.347 Y8.524
X-21.309 Y8.619
X-20.274 Y10.818
X-20.194 Y10.982
X-19.998 Y11.318
X-19.901 Y11.474
X-18.964 Y12.949
X-18.645 Y13.441
X-18.531 Y13.605
X-16.883 Y15.596
X-16.719 Y15.783
X-14.675 Y17.703
X-14.588 Y17.767
X-14.229 Y18.031
X-12.458 Y19.317
X-11.966 Y19.609
X-11.861 Y19.67
X-9.999 Y20.693
X-9.835 Y20.779
X-9.671 Y20.855
X-7.212 Y21.829
X-7.048 Y21.885
X-6.393 Y22.054
X-4.754 Y22.475
X-4.59 Y22.512
X-4.262 Y22.584
X-4.098 Y22.615
X-1.967 Y22.885
X-1.406 Y22.948
X-1.311 Y22.951
X1.311
X1.406 Y22.948
X1.967 Y22.885
X4.098 Y22.615
X4.262 Y22.584
X4.59 Y22.512
X4.754 Y22.475
X6.884 Y21.927
X7.048 Y21.885
X7.212 Y21.829
X9.671 Y20.855
X9.835 Y20.779
X9.999 Y20.693
X11.861 Y19.67
X11.966 Y19.609
X12.458 Y19.317
X14.261 Y18.008
X14.588 Y17.767
X14.675 Y17.703
X16.719 Y15.783
X16.883 Y15.596
X18.531 Y13.605
X18.645 Y13.441
X18.964 Y12.949
X19.901 Y11.474
X20.002 Y11.31
X20.194 Y10.982
X20.274 Y10.818
X21.309 Y8.619
X21.347 Y8.524
X21.522 Y8.032
X22.214 Y5.901
X22.259 Y5.737
X22.364 Y5.245
X22.77 Y3.114
X22.784 Y3.037
X22.826 Y2.623
X22.841 Y2.459
X22.975 Y0.328
X22.978 Y0.164
Y-0.164
X22.975 Y-0.328
X22.841 Y-2.459
X22.809 Y-2.787
X22.784 Y-3.037
X22.77 Y-3.114
X22.723 Y-3.363
G2 X22.35 Y-3.585 I-0.293 J0.066
G1 X22.305 Y-3.559 Z-3.495
X22.26 Y-3.533 Z-3.481
X22.219 Y-3.509 Z-3.458
X22.193 Y-3.467 Z-3.421
X22.172 Y-3.432 Z-3.374
X22.157 Y-3.406 Z-3.32
X22.147 Y-3.39 Z-3.262
X22.144 Y-3.385 Z-3.2
Z5.
X23.877 Y-26.047
Z3.5
G2 X24.166 Y-23.441 Z3.391 I0.957 J1.213 F15.
X26.377 Y-24.846 Z3.281 I0.667 J-1.392
X24.144 Y-26.21 Z3.172 I-1.542 J0.014
X23.902 Y-23.609 Z3.063 I0.69 J1.376
X26.342 Y-24.536 Z2.953 I0.931 J-1.224
X24.438 Y-26.316 Z2.844 I-1.507 J-0.297
X23.679 Y-23.825 Z2.734 I0.397 J1.482
X26.246 Y-24.24 Z2.625 I1.154 J-1.007
X24.746 Y-26.36 Z2.516 I-1.411 J-0.592
X23.504 Y-24.082 Z2.406 I0.089 J1.526
X26.092 Y-23.97 Z2.297 I1.329 J-0.751
X25.054 Y-26.34 Z2.188 I-1.258 J-0.861
X23.386 Y-24.367 Z2.078 I-0.219 J1.507
X25.889 Y-23.739 Z1.969 I1.448 J-0.466
X25.352 Y-26.26 Z1.859 I-1.054 J-1.093
X23.327 Y-24.67 Z1.75 I-0.517 J1.426
X25.643 Y-23.553 Z1.641 I1.506 J-0.164
X25.626 Y-26.121 Z1.531 I-0.809 J-1.279
X23.331 Y-24.977 Z1.422 I-0.791 J1.288
X25.366 Y-23.422 Z1.313 I1.502 J0.143
X25.866 Y-25.931 Z1.203 I-0.532 J-1.41
X23.396 Y-25.275 Z1.094 I-1.03 J1.097
X25.07 Y-23.349 Z0.984 I1.437 J0.442
X26.061 Y-25.697 Z0.875 I-0.236 J-1.483
X23.52 Y-25.553 Z0.766 I-1.226 J0.864
X24.766 Y-23.338 Z0.656 I1.314 J0.72
X26.205 Y-25.429 Z0.547 I0.068 J-1.494
X23.697 Y-25.8 Z0.438 I-1.37 J0.596
X24.467 Y-23.388 Z0.328 I1.137 J0.966
X26.292 Y-25.139 Z0.219 I0.366 J-1.444
X23.919 Y-26.005 Z0.109 I-1.456 J0.307
X24.186 Y-23.497 Z0. I0.915 J1.171
X26.318 Y-24.839 Z-0.109 I0.648 J-1.336
X24.177 Y-26.16 Z-0.219 I-1.482 J0.007
X23.933 Y-23.66 Z-0.328 I0.658 J1.326
X26.283 Y-24.541 Z-0.437 I0.9 J-1.173
X24.459 Y-26.26 Z-0.547 I-1.448 J-0.292
X23.719 Y-23.869 Z-0.656 I0.375 J1.426
X26.189 Y-24.257 Z-0.766 I1.114 J-0.964
X24.755 Y-26.301 Z-0.875 I-1.354 J-0.575
X23.553 Y-24.117 Z-0.984 I0.079 J1.467
X26.04 Y-23.999 Z-1.094 I1.28 J-0.716
X25.052 Y-26.281 Z-1.203 I-1.205 J-0.833
X23.44 Y-24.392 Z-1.312 I-0.217 J1.447
X25.843 Y-23.777 Z-1.422 I1.393 J-0.441
X25.338 Y-26.202 Z-1.531 I-1.008 J-1.055
X23.385 Y-24.683 Z-1.641 I-0.503 J1.368
X25.606 Y-23.6 Z-1.75 I1.448 J-0.151
X25.601 Y-26.067 Z-1.859 I-0.772 J-1.232
X23.391 Y-24.977 Z-1.969 I-0.765 J1.234
X25.339 Y-23.475 Z-2.078 I1.443 J0.144
X25.83 Y-25.883 Z-2.187 I-0.505 J-1.357
X23.455 Y-25.264 Z-2.297 I-0.995 J1.05
X25.054 Y-23.406 Z-2.406 I1.379 J0.43
X26.017 Y-25.657 Z-2.516 I-0.22 J-1.425
X23.575 Y-25.531 Z-2.625 I-1.181 J0.824
X24.762 Y-23.397 Z-2.734 I1.259 J0.697
X26.153 Y-25.4 Z-2.844 I0.071 J-1.435
X23.746 Y-25.767 Z-2.953 I-1.318 J0.567
X24.476 Y-23.447 Z-3.062 I1.088 J0.933
X26.235 Y-25.121 Z-3.172 I0.358 J-1.385
X23.96 Y-25.962 Z-3.281 I-1.4 J0.288
X24.206 Y-23.553 Z-3.391 I0.874 J1.128
X26.259 Y-24.832 Z-3.5 I0.627 J-1.28
X23.408 I-1.425 J0.
X26.259 I1.425 J0.
G1 X26.293 Y-25.553 F25.
X26.31 Y-25.642
X26.318 Y-25.792
X26.298 Y-25.941
X26.256 Y-26.084
X26.194 Y-26.221
X26.116 Y-26.349
X26.023 Y-26.467
X25.919 Y-26.575
X25.804 Y-26.672
X25.681 Y-26.758
X25.551 Y-26.832
X25.414 Y-26.894
X25.273 Y-26.945
X25.128 Y-26.984
X24.977 Y-27.011
X24.821 Y-27.027
X24.661 Y-27.03
X24.499 Y-27.021
X24.336 Y-26.998
X24.174 Y-26.962
X24.013 Y-26.912
X23.855 Y-26.848
X23.701 Y-26.772
X23.553 Y-26.683
X23.411 Y-26.581
X23.277 Y-26.468
X23.152 Y-26.344
X23.037 Y-26.209
X22.932 Y-26.065
X22.839 Y-25.913
X22.759 Y-25.753
X22.691 Y-25.586
X22.637 Y-25.414
X22.596 Y-25.238
X22.57 Y-25.059
X22.558 Y-24.879
X22.561 Y-24.697
X22.578 Y-24.516
X22.61 Y-24.337
X22.656 Y-24.161
X22.716 Y-23.989
X22.79 Y-23.822
X22.877 Y-23.662
X22.977 Y-23.509
X23.088 Y-23.364
X23.211 Y-23.229
X23.345 Y-23.104
X23.488 Y-22.99
X23.64 Y-22.888
X23.8 Y-22.799
X23.966 Y-22.722
X24.138 Y-22.66
X24.314 Y-22.611
X24.494 Y-22.576
X24.676 Y-22.556
X24.859 Y-22.551
X25.042 Y-22.56
X25.224 Y-22.584
X25.403 Y-22.623
X25.578 Y-22.676
X25.749 Y-22.742
X25.914 Y-22.822
X26.072 Y-22.916
X26.221 Y-23.021
X26.362 Y-23.138
X26.493 Y-23.266
X26.614 Y-23.405
X26.722 Y-23.552
X26.824 Y-23.715
X26.934 Y-23.931
X27.067 Y-24.25
X27.177 Y-24.587
X27.242 Y-24.857
X27.278 Y-25.095
X27.295 Y-25.315
X27.293 Y-25.529
X27.275 Y-25.736
X27.242 Y-25.934
X27.194 Y-26.123
X27.131 Y-26.308
X27.052 Y-26.489
X26.959 Y-26.663
X26.852 Y-26.831
X26.731 Y-26.99
X26.597 Y-27.14
X26.45 Y-27.28
X26.29 Y-27.41
X26.117 Y-27.528
X25.933 Y-27.633
X25.738 Y-27.725
X25.533 Y-27.802
X25.319 Y-27.863
X25.099 Y-27.907
X24.873 Y-27.934
X24.642 Y-27.942
X24.409 Y-27.932
X24.176 Y-27.903
X23.943 Y-27.855
X23.712 Y-27.788
X23.487 Y-27.702
X23.267 Y-27.597
X23.055 Y-27.474
X22.853 Y-27.334
X22.661 Y-27.177
X22.481 Y-27.005
X22.315 Y-26.817
X22.164 Y-26.616
X22.03 Y-26.403
X21.912 Y-26.179
X21.812 Y-25.945
X21.731 Y-25.703
X21.67 Y-25.455
X21.629 Y-25.203
X21.608 Y-24.947
Y-24.69
X21.628 Y-24.434
X21.669 Y-24.179
X21.73 Y-23.929
X21.811 Y-23.684
X21.912 Y-23.446
X22.032 Y-23.216
X22.106 Y-23.098
X22.137 Y-23.052
X22.172 Y-23.009
X22.211 Y-22.969
X22.738 Y-22.456
X22.942 Y-22.277
X23.129 Y-22.138
X23.329 Y-22.012
X23.543 Y-21.901
X23.767 Y-21.806
X24.002 Y-21.728
X24.243 Y-21.669
X24.491 Y-21.63
X24.743 Y-21.61
X24.996 Y-21.611
X25.25 Y-21.632
X25.502 Y-21.673
X25.751 Y-21.735
X25.995 Y-21.816
X26.231 Y-21.917
X26.46 Y-22.037
X26.678 Y-22.176
X26.886 Y-22.332
X27.089 Y-22.512
X27.287 Y-22.718
X27.478 Y-22.952
X27.666 Y-23.224
X27.835 Y-23.516
X27.932 Y-23.72
X27.97 Y-23.817
X27.992 Y-23.918
X28. Y-24.021
Y-25.898
X27.986 Y-26.179
X27.961 Y-26.37
X27.918 Y-26.569
X27.856 Y-26.775
X27.775 Y-26.985
X27.674 Y-27.193
X27.554 Y-27.397
X27.414 Y-27.596
X27.289 Y-27.747
X27.137 Y-27.883
X26.952 Y-27.97
X26.75 Y-28.
G2 X26.461 Y-27.69 Z-3.3 I0.01 J0.3
G1 X26.471 Y-27.623
X26.495 Y-27.561
X26.56 Y-27.438
X27.435 Y-25.77
G2 X27.69 Y-25.609 I0.266 J-0.139
G1 X27.699 Z-3.304
X27.7
G2 X28. Y-25.898 Z-3.5 I0. J-0.3
G1 Y-27.464
Y-27.504
Y-27.538
X27.992 Y-27.687
X27.934 Y-27.813
X27.839 Y-27.913
X27.717 Y-27.977
X27.581 Y-28.
G2 X27.273 Y-27.875 Z-3.356 I0.016 J0.482
G1 X27.228 Y-27.828 Z-3.328
X27.19 Y-27.774 Z-3.3
G2 X27.756 Y-27.162 I0.375 J0.221
X28. Y-27.538 Z-3.5 I-0.191 J-0.391
G1 Y-27.702
X27.995 Y-27.743
X27.984 Y-27.784
X27.966 Y-27.824
X27.941 Y-27.865
X27.903 Y-27.908
X27.865 Y-27.941
X27.824 Y-27.966
X27.784 Y-27.984
X27.743 Y-27.995
X27.702 Y-28.
X23.112
X22.951 Y-27.992
X22.802 Y-27.972
X22.656 Y-27.939
X22.512 Y-27.893
X22.352 Y-27.828
X22.191 Y-27.746
X22.025 Y-27.645
X21.851 Y-27.518
X21.683 Y-27.373
X21.518 Y-27.207
X21.356 Y-27.014
X21.201 Y-26.798
X21.059 Y-26.561
X20.934 Y-26.308
X20.827 Y-26.038
X20.738 Y-25.751
X20.672 Y-25.45
X20.629 Y-25.139
X20.61 Y-24.82
X20.611 Y-24.791
X20.643 Y-24.592
X20.729 Y-24.411
X20.861 Y-24.259
X21.051 Y-24.095
X22.211 Y-22.969
G2 X22.634 Y-22.99 Z-3.3 I0.201 J-0.222
G1 X22.669 Y-23.036
X22.694 Y-23.089
X22.709 Y-23.146
X22.723 Y-23.243
X23.362 Y-27.419
X23.398 Y-27.655
X23.401 Y-27.69
G2 X23.112 Y-28. Z-3.5 I-0.3 J-0.01
G1 X21.874
X21.725 Y-27.993
X21.577 Y-27.963
X21.434 Y-27.919
X21.295 Y-27.862
X21.146 Y-27.786
X20.999 Y-27.696
X20.841 Y-27.58
X20.683 Y-27.442
X20.527 Y-27.284
X20.367 Y-27.093
X20.215 Y-26.878
X20.075 Y-26.642
X19.943 Y-26.374
X19.826 Y-26.077
X19.751 Y-25.832
X19.712 Y-25.653
X19.698 Y-25.456
X19.738 Y-25.264
X19.831 Y-25.09
X19.969 Y-24.949
X20.817 Y-24.295
X20.861 Y-24.259
G2 X21.281 Y-24.32 Z-3.3 I0.18 J-0.24
G1 X21.311 Y-24.37
X21.331 Y-24.425
X21.37 Y-24.576
X22.103 Y-27.424
X22.154 Y-27.625
X22.164 Y-27.69
G2 X21.874 Y-28. Z-3.5 I-0.3 J-0.01
G1 X20.817
X20.667 Y-27.993
X20.52 Y-27.963
X20.378 Y-27.917
X20.24 Y-27.858
X20.101 Y-27.784
X19.953 Y-27.69
X19.804 Y-27.577
X19.644 Y-27.434
X19.492 Y-27.275
X19.342 Y-27.091
X19.209 Y-26.896
X19.097 Y-26.701
X19.011 Y-26.519
X18.95 Y-26.357
X18.935 Y-26.305
X18.908 Y-26.099
X18.942 Y-25.893
X19.036 Y-25.707
X19.18 Y-25.557
X19.969 Y-24.949
G2 X20.387 Y-25.018 Z-3.3 I0.175 J-0.244
G1 X20.415 Y-25.065
X20.433 Y-25.116
X20.476 Y-25.275
X21.044 Y-27.424
X21.097 Y-27.623
X21.107 Y-27.69
G2 X20.817 Y-28. Z-3.5 I-0.3 J-0.01
G1 X19.834
X19.684 Y-27.993
X19.536 Y-27.968
X19.392 Y-27.926
X19.253 Y-27.87
X19.119 Y-27.802
X18.983 Y-27.717
X18.85 Y-27.619
X18.721 Y-27.507
X18.613 Y-27.396
X18.506 Y-27.268
X18.415 Y-27.139
X18.339 Y-27.01
X18.302 Y-26.933
X18.244 Y-26.752
X18.237 Y-26.562
X18.281 Y-26.378
X18.373 Y-26.212
X18.506 Y-26.077
G2 X18.912 Y-26.129 Z-3.309 I0.175 J-0.244
G1 X18.925 Y-26.145 Z-3.3
X19.1 Y-26.356
X20.006 Y-27.45
X20.054 Y-27.509
X20.09 Y-27.564
X20.114 Y-27.625
X20.123 Y-27.69
G2 X19.834 Y-28. Z-3.5 I-0.3 J-0.01
G1 X18.85
X18.7 Y-27.993
X18.553 Y-27.965
X18.41 Y-27.919
X18.274 Y-27.857
X18.145 Y-27.779
X18.026 Y-27.688
X17.917 Y-27.585
X17.82 Y-27.471
X17.795 Y-27.434
X17.7 Y-27.231
X17.674 Y-27.008
X17.72 Y-26.788
X17.833 Y-26.594
X18.002 Y-26.446
G2 X18.399 Y-26.535 Z-3.31 I0.15 J-0.26
G1 X18.413 Y-26.555 Z-3.3
X18.568 Y-26.78
X19.028 Y-27.445
X19.086 Y-27.53
X19.114 Y-27.579
X19.132 Y-27.633
X19.14 Y-27.69
G2 X18.85 Y-28. Z-3.5 I-0.3 J-0.01
G1 X18.031
X17.881 Y-27.993
X17.735 Y-27.959
X17.596 Y-27.9
X17.573 Y-27.885
X17.423 Y-27.752
X17.317 Y-27.583
X17.263 Y-27.39
X17.265 Y-27.191
X17.324 Y-27.
X17.435 Y-26.833
X17.588 Y-26.705
G2 X17.997 Y-26.816 Z-3.3 I0.149 J-0.26
G1 X18.017 Y-26.857
X18.099 Y-27.07
X18.238 Y-27.43
X18.3 Y-27.592
X18.314 Y-27.64
X18.32 Y-27.69
G2 X18.031 Y-28. Z-3.5 I-0.3 J-0.01
G1 X17.449
X17.299 Y-27.993
X17.135 Y-27.902
X17.008 Y-27.764
X16.931 Y-27.593
X16.913 Y-27.407
X16.954 Y-27.224
X17.051 Y-27.064
X17.194 Y-26.942
G2 X17.453 Y-26.881 Z-3.386 I0.238 J-0.428
G1 X17.52 Y-26.888 Z-3.357
X17.585 Y-26.903 Z-3.329
X17.649 Y-26.925 Z-3.3
G2 X17.859 Y-27.799 I-0.219 J-0.515
X17.449 Y-28. Z-3.5 I-0.43 J0.358
G1 X17.047
X16.897 Y-27.993
X16.756 Y-27.896
X16.658 Y-27.755
X16.616 Y-27.589
X16.636 Y-27.419
X16.716 Y-27.267
X16.844 Y-27.153
X16.91 Y-27.124 Z-3.469
X16.98 Y-27.108 Z-3.439
X17.052 Y-27.104 Z-3.408
G2 X17.29 Y-27.186 Z-3.3 I-0.02 J-0.448
X17.428 Y-27.761 I-0.258 J-0.366
X17.047 Y-28. Z-3.5 I-0.396 J0.209
G1 X16.719
X16.569 Y-27.993
X16.444 Y-27.894
X16.372 Y-27.753
X16.365 Y-27.594
X16.424 Y-27.446
X16.54 Y-27.337
X16.591 Y-27.314
X16.646 Y-27.299
X16.702 Y-27.294
G2 X16.719 Y-28. I0.005 J-0.353
G1 X16.555
X16.514 Y-27.997
X16.473 Y-27.989
X16.432 Y-27.974
X16.391 Y-27.952
X16.343 Y-27.918
X16.316 Y-27.892
X16.294 Y-27.865
X16.269 Y-27.824
X16.252 Y-27.784
X16.242 Y-27.743
X16.237 Y-27.702
X16.238 Y-27.661
X16.245 Y-27.62
X16.258 Y-27.579
X16.278 Y-27.538
X16.302 Y-27.503
X16.335 Y-27.467
X16.363 Y-27.445
X16.391 Y-27.426
X17.566 Y-26.718
X18.091 Y-26.39
X18.195 Y-26.317
X19.18 Y-25.557
G2 X19.427 Y-25.502 Z-3.389 I0.183 J-0.238
G1 X19.479 Y-25.508 Z-3.367
X19.531 Y-25.506 Z-3.344
X19.582 Y-25.495 Z-3.322
X19.631 Y-25.475 Z-3.3
X19.684 Y-25.439
X19.845 Y-25.305
X22.254 Y-23.292
X22.297 Y-23.249
X22.33 Y-23.197
X22.352 Y-23.14
G2 X22.467 Y-22.839 I1.528 J-0.412
X22.738 Y-22.456 Z-3.5 I1.413 J-0.713
G1 X23.276 Y-21.934
X23.44 Y-21.773
X23.573 Y-21.637
X23.768 Y-21.407
X23.869 Y-21.297
X23.982 Y-21.199
X24.105 Y-21.113
X24.237 Y-21.038
X24.379 Y-20.972
X24.544 Y-20.91
X24.726 Y-20.858
X24.921 Y-20.82
X25.139 Y-20.794
X25.372 Y-20.786
X25.611 Y-20.797
X25.865 Y-20.829
X26.131 Y-20.884
X26.403 Y-20.964
X26.677 Y-21.07
X26.948 Y-21.2
X27.218 Y-21.356
X27.487 Y-21.543
X27.755 Y-21.764
X27.786 Y-21.794
X27.902 Y-21.941
X27.975 Y-22.113
X28. Y-22.298
Y-24.021
G2 X27.69 Y-24.31 Z-3.3 I-0.3 J0.01
G1 X27.636 Y-24.303
X27.584 Y-24.287
X27.536 Y-24.261
X27.444 Y-24.201
X24.052 Y-21.979
X23.841 Y-21.841
X23.823 Y-21.828
G2 X23.768 Y-21.407 Z-3.5 I0.183 J0.238
G1 X24.423 Y-20.606
X24.524 Y-20.495
X24.635 Y-20.394
X24.757 Y-20.307
X24.888 Y-20.233
X25.024 Y-20.171
X25.182 Y-20.113
X25.35 Y-20.067
X25.543 Y-20.031
X25.755 Y-20.008
X25.978 Y-20.002
X26.228 Y-20.016
X26.493 Y-20.052
X26.763 Y-20.111
X27.052 Y-20.199
X27.358 Y-20.319
X27.599 Y-20.438
X27.658 Y-20.472
X27.8 Y-20.584
X27.908 Y-20.728
X27.977 Y-20.895
X28. Y-21.074
Y-22.298
G2 X27.69 Y-22.587 Z-3.3 I-0.3 J0.01
G1 X27.627 Y-22.578
X27.567 Y-22.556
X27.436 Y-22.491
X24.723 Y-21.152
X24.529 Y-21.057
X24.48 Y-21.027
G2 X24.423 Y-20.606 Z-3.5 I0.182 J0.239
G1 X25.055 Y-19.834
X25.156 Y-19.722
X25.266 Y-19.62
X25.387 Y-19.533
X25.517 Y-19.458
X25.654 Y-19.395
X25.81 Y-19.338
X25.975 Y-19.293
X26.17 Y-19.256
X26.376 Y-19.234
X26.608 Y-19.228
X26.858 Y-19.242
X27.085 Y-19.273
X27.3 Y-19.32
X27.485 Y-19.376
X27.557 Y-19.404
X27.737 Y-19.509
X27.879 Y-19.662
X27.969 Y-19.849
X28. Y-20.055
Y-21.074
G2 X27.69 Y-21.363 Z-3.3 I-0.3 J0.01
G1 X27.634 Y-21.356
X27.58 Y-21.339
X27.433 Y-21.274
X25.359 Y-20.371
X25.174 Y-20.29
X25.142 Y-20.274
X25.112 Y-20.254
G2 X25.055 Y-19.834 Z-3.5 I0.182 J0.239
G1 X25.724 Y-19.014
X25.82 Y-18.899
X25.936 Y-18.804
X26.062 Y-18.722
X26.195 Y-18.653
X26.336 Y-18.595
X26.486 Y-18.546
X26.653 Y-18.507
X26.817 Y-18.482
X26.975 Y-18.471
X27.145 Y-18.473
X27.294 Y-18.487
X27.442 Y-18.512
X27.479 Y-18.522
X27.688 Y-18.616
X27.855 Y-18.772
X27.963 Y-18.974
X28. Y-19.199
G2 X27.7 Y-19.489 Z-3.304 I-0.3 J0.01
G1 X27.69 Y-19.488 Z-3.3
X27.416
X26.061 Y-19.486
X25.97
X25.91 Y-19.479
X25.852 Y-19.461
X25.799 Y-19.432
G2 X25.724 Y-19.014 Z-3.5 I0.172 J0.246
G1 X25.971 Y-18.686
X26.182 Y-18.358
X26.269 Y-18.236
X26.374 Y-18.129
X26.492 Y-18.036
X26.62 Y-17.958
X26.756 Y-17.894
X26.898 Y-17.846
X27.044 Y-17.813
X27.193 Y-17.794
X27.343 Y-17.792
X27.367 Y-17.794
X27.567 Y-17.844
X27.743 Y-17.95
X27.882 Y-18.102
X27.97 Y-18.288
X28. Y-18.491
G2 X27.708 Y-18.781 Z-3.307 I-0.3 J0.01
G1 X27.69 Z-3.3
X27.416 Y-18.788
X26.552 Y-18.809
X26.447 Y-18.812
X26.391 Y-18.808
X26.337 Y-18.794
X26.286 Y-18.769
G2 X26.182 Y-18.358 Z-3.5 I0.153 J0.258
G1 X26.635 Y-17.653
X26.723 Y-17.531
X26.833 Y-17.429
X26.959 Y-17.348
X27.096 Y-17.287
X27.119 Y-17.281
X27.331 Y-17.258
X27.54 Y-17.299
X27.726 Y-17.402
X27.873 Y-17.556
X27.968 Y-17.746
X28. Y-17.957
G2 X27.69 Y-18.246 Z-3.3 I-0.3 J0.01
G1 X27.649 Y-18.242
X27.42 Y-18.202
X27.004 Y-18.13
X26.842 Y-18.102
X26.789 Y-18.088
X26.74 Y-18.064
G2 X26.635 Y-17.653 Z-3.5 I0.153 J0.258
G1 X26.951 Y-17.161
X27.039 Y-17.039
X27.153 Y-16.943
X27.343 Y-16.887
X27.54 Y-16.897
X27.723 Y-16.973
X27.871 Y-17.104
X27.967 Y-17.277
X28. Y-17.472
G2 X27.918 Y-17.744 Z-3.378 I-0.559 J0.02
G1 X27.864 Y-17.818 Z-3.339
X27.799 Y-17.883 Z-3.3
G2 X26.897 Y-17.616 I-0.362 J0.433
X26.951 Y-17.161 Z-3.5 I0.54 J0.166
G1 X27.194 Y-16.784
X27.281 Y-16.662
X27.434 Y-16.598
X27.599 Y-16.592
X27.757 Y-16.643
X27.886 Y-16.747
X27.971 Y-16.889
X28. Y-17.052
X27.99 Y-17.127 Z-3.468
X27.966 Y-17.197 Z-3.436
X27.929 Y-17.262 Z-3.405
X27.876 Y-17.324 Z-3.37
X27.812 Y-17.376 Z-3.335
X27.739 Y-17.414 Z-3.3
G2 X27.194 Y-17.233 I-0.168 J0.405
Y-16.784 Z-3.5 I0.377 J0.224
G1 X27.374 Y-16.504
X27.396 Y-16.47
X27.412 Y-16.446
X27.436 Y-16.414
X27.477 Y-16.367
X27.525 Y-16.328
X27.579 Y-16.298
G2 X27.914 Y-16.401 Z-3.343 I0.082 J-0.329
G1 X27.945 Y-16.442 Z-3.322
X27.968 Y-16.487 Z-3.3
G2 X27.498 Y-16.866 I-0.289 J-0.123
X27.412 Y-16.446 Z-3.5 I0.182 J0.256
G1 X27.448 Y-16.391
X27.468 Y-16.369
X27.493 Y-16.347
X27.515 Y-16.33
X27.538 Y-16.317
X27.579 Y-16.298
X27.62 Y-16.286
X27.661 Y-16.28
X27.702
X27.743 Y-16.286
X27.784 Y-16.297
X27.824 Y-16.316
X27.865 Y-16.342
X27.921 Y-16.391
X27.953 Y-16.432
X27.975 Y-16.473
X27.989 Y-16.514
X27.998 Y-16.555
X28. Y-16.719
Y-20.055
G2 X27.701 Y-20.345 I-0.3 J0.01
G1 X27.7
X27.676 Y-20.344
X27.626 Y-20.326 Z-3.495
X27.577 Y-20.309 Z-3.481
X27.532 Y-20.293 Z-3.458
X27.499 Y-20.257 Z-3.421
X27.472 Y-20.227 Z-3.374
X27.452 Y-20.204 Z-3.32
X27.44 Y-20.19 Z-3.262
X27.435 Y-20.186 Z-3.2
Z5.
X23.877 Y23.621
Z3.5
G2 X24.166 Y26.228 Z3.391 I0.957 J1.213 F15.
X26.376 Y24.822 Z3.281 I0.667 J-1.392
X24.144 Y23.458 Z3.172 I-1.542 J0.014
X23.902 Y26.06 Z3.063 I0.69 J1.376
X26.342 Y25.133 Z2.953 I0.931 J-1.224
X24.438 Y23.352 Z2.844 I-1.507 J-0.297
X23.678 Y25.843 Z2.734 I0.397 J1.482
X26.245 Y25.428 Z2.625 I1.154 J-1.007
X24.745 Y23.309 Z2.516 I-1.411 J-0.592
X23.504 Y25.586 Z2.406 I0.089 J1.526
X26.092 Y25.698 Z2.297 I1.329 J-0.751
X25.054 Y23.328 Z2.188 I-1.258 J-0.861
X23.385 Y25.301 Z2.078 I-0.219 J1.507
X25.888 Y25.93 Z1.969 I1.448 J-0.466
X25.352 Y23.409 Z1.859 I-1.054 J-1.093
X23.327 Y24.998 Z1.75 I-0.517 J1.426
X25.643 Y26.115 Z1.641 I1.506 J-0.164
X25.626 Y23.547 Z1.531 I-0.809 J-1.279
X23.331 Y24.691 Z1.422 I-0.791 J1.288
X25.366 Y26.246 Z1.313 I1.502 J0.143
X25.865 Y23.738 Z1.203 I-0.532 J-1.41
X23.396 Y24.393 Z1.094 I-1.03 J1.097
X25.07 Y26.319 Z0.984 I1.437 J0.442
X26.061 Y23.972 Z0.875 I-0.236 J-1.483
X23.52 Y24.115 Z0.766 I-1.226 J0.864
X24.766 Y26.33 Z0.656 I1.314 J0.72
X26.205 Y24.239 Z0.547 I0.068 J-1.494
X23.697 Y23.868 Z0.438 I-1.37 J0.596
X24.467 Y26.28 Z0.328 I1.137 J0.966
X26.291 Y24.529 Z0.219 I0.366 J-1.444
X23.919 Y23.663 Z0.109 I-1.456 J0.307
X24.185 Y26.171 Z0. I0.915 J1.171
X26.317 Y24.829 Z-0.109 I0.648 J-1.336
X24.176 Y23.508 Z-0.219 I-1.482 J0.007
X23.933 Y26.009 Z-0.328 I0.658 J1.326
X26.282 Y25.128 Z-0.437 I0.9 J-1.173
X24.459 Y23.408 Z-0.547 I-1.448 J-0.292
X23.719 Y25.799 Z-0.656 I0.375 J1.426
X26.188 Y25.411 Z-0.766 I1.114 J-0.964
X24.755 Y23.367 Z-0.875 I-1.354 J-0.575
X23.552 Y25.551 Z-0.984 I0.079 J1.467
X26.04 Y25.67 Z-1.094 I1.28 J-0.716
X25.052 Y23.387 Z-1.203 I-1.205 J-0.833
X23.44 Y25.276 Z-1.312 I-0.217 J1.447
X25.843 Y25.891 Z-1.422 I1.393 J-0.441
X25.338 Y23.466 Z-1.531 I-1.008 J-1.055
X23.385 Y24.986 Z-1.641 I-0.503 J1.368
X25.606 Y26.068 Z-1.75 I1.448 J-0.151
X25.6 Y23.601 Z-1.859 I-0.772 J-1.232
X23.39 Y24.691 Z-1.969 I-0.765 J1.234
X25.339 Y26.193 Z-2.078 I1.443 J0.144
X25.83 Y23.785 Z-2.187 I-0.505 J-1.357
X23.455 Y24.404 Z-2.297 I-0.995 J1.05
X25.054 Y26.262 Z-2.406 I1.379 J0.43
X26.016 Y24.011 Z-2.516 I-0.22 J-1.425
X23.575 Y24.138 Z-2.625 I-1.181 J0.824
X24.762 Y26.271 Z-2.734 I1.259 J0.697
X26.153 Y24.269 Z-2.844 I0.071 J-1.435
X23.746 Y23.902 Z-2.953 I-1.318 J0.567
X24.475 Y26.221 Z-3.062 I1.088 J0.933
X26.235 Y24.547 Z-3.172 I0.358 J-1.385
X23.96 Y23.706 Z-3.281 I-1.4 J0.288
X24.206 Y26.115 Z-3.391 I0.874 J1.128
X26.258 Y24.836 Z-3.5 I0.627 J-1.28
X23.408 I-1.425 J0.
X26.258 I1.425 J0.
G1 X26.293 Y24.115 F25.
X26.31 Y24.026
X26.318 Y23.876
X26.298 Y23.728
X26.255 Y23.584
X26.193 Y23.447
X26.115 Y23.319
X26.023 Y23.201
X25.919 Y23.093
X25.804 Y22.996
X25.681 Y22.911
X25.55 Y22.837
X25.414 Y22.774
X25.273 Y22.724
X25.127 Y22.685
X24.976 Y22.657
X24.82 Y22.641
X24.661 Y22.638
X24.499 Y22.647
X24.336 Y22.67
X24.173 Y22.707
X24.012 Y22.756
X23.854 Y22.82
X23.701 Y22.896
X23.552 Y22.985
X23.411 Y23.087
X23.277 Y23.2
X23.152 Y23.324
X23.036 Y23.459
X22.932 Y23.603
X22.839 Y23.756
X22.758 Y23.916
X22.69 Y24.082
X22.636 Y24.254
X22.596 Y24.43
X22.57 Y24.609
X22.558 Y24.79
X22.56 Y24.971
X22.578 Y25.152
X22.61 Y25.331
X22.656 Y25.507
X22.716 Y25.679
X22.79 Y25.846
X22.877 Y26.006
X22.976 Y26.159
X23.088 Y26.304
X23.211 Y26.439
X23.345 Y26.564
X23.488 Y26.678
X23.64 Y26.78
X23.799 Y26.869
X23.966 Y26.946
X24.137 Y27.009
X24.314 Y27.057
X24.494 Y27.092
X24.676 Y27.112
X24.859 Y27.117
X25.042 Y27.108
X25.223 Y27.084
X25.402 Y27.045
X25.578 Y26.993
X25.749 Y26.926
X25.913 Y26.846
X26.071 Y26.753
X26.221 Y26.647
X26.362 Y26.53
X26.493 Y26.402
X26.613 Y26.264
X26.722 Y26.116
X26.823 Y25.953
X26.934 Y25.738
X27.067 Y25.418
X27.177 Y25.081
X27.241 Y24.811
X27.278 Y24.574
X27.294 Y24.353
X27.293 Y24.139
X27.275 Y23.932
X27.241 Y23.734
X27.193 Y23.545
X27.13 Y23.36
X27.052 Y23.18
X26.959 Y23.005
X26.852 Y22.837
X26.731 Y22.678
X26.597 Y22.528
X26.45 Y22.388
X26.289 Y22.258
X26.117 Y22.141
X25.933 Y22.035
X25.737 Y21.943
X25.533 Y21.867
X25.319 Y21.806
X25.099 Y21.761
X24.872 Y21.735
X24.642 Y21.726
X24.409 Y21.736
X24.175 Y21.765
X23.942 Y21.813
X23.712 Y21.88
X23.486 Y21.966
X23.267 Y22.071
X23.055 Y22.194
X22.94 Y22.273
X22.909 Y22.296
X22.879 Y22.32
X22.851 Y22.347
X22.569 Y22.62
X22.345 Y22.861
X22.198 Y23.047
X22.064 Y23.248
X21.945 Y23.46
X21.843 Y23.684
X21.759 Y23.917
X21.693 Y24.158
X21.646 Y24.405
X21.619 Y24.656
X21.612 Y24.91
X21.626 Y25.164
X21.66 Y25.417
X21.715 Y25.667
X21.789 Y25.913
X21.883 Y26.152
X21.997 Y26.383
X22.128 Y26.605
X22.277 Y26.816
X22.443 Y27.014
X22.625 Y27.198
X22.82 Y27.368
X23.029 Y27.521
X23.25 Y27.657
X23.48 Y27.775
X23.72 Y27.874
X23.967 Y27.954
X24.084 Y27.981
X24.137 Y27.992
X24.19 Y27.998
X24.244 Y28.
X24.915
X25.262 Y27.983
X25.493 Y27.952
X25.725 Y27.903
X25.955 Y27.834
X26.182 Y27.745
X26.404 Y27.638
X26.618 Y27.512
X26.824 Y27.367
X27.023 Y27.202
X27.213 Y27.016
X27.408 Y26.793
X27.601 Y26.532
X27.776 Y26.251
X27.927 Y25.958
X27.946 Y25.914
X27.976 Y25.826
X27.994 Y25.736
X28. Y25.644
G2 X27.69 Y25.354 Z-3.3 I-0.3 J0.01
G1 X27.63 Y25.362
X27.574 Y25.382
X27.522 Y25.413
X27.447 Y25.468
X24.75 Y27.457
X24.747 Y27.459
G2 X24.626 Y27.69 I0.178 J0.241
X24.915 Y28. Z-3.5 I0.3 J0.01
G1 X26.644
X26.794 Y27.993
X26.942 Y27.969
X27.09 Y27.931
X27.238 Y27.88
X27.408 Y27.805
X27.575 Y27.715
X27.68 Y27.647
X27.813 Y27.535
X27.915 Y27.394
X27.978 Y27.232
X28. Y27.059
G2 X27.69 Y26.77 Z-3.3 I-0.3 J0.01
G1 X27.639 Y26.776
X27.591 Y26.79
X27.545 Y26.813
X27.442 Y26.875
X26.5 Y27.443
G2 X26.355 Y27.69 I0.155 J0.257
X26.644 Y28. Z-3.5 I0.3 J0.01
G1 X27.702
X27.743 Y27.995
X27.784 Y27.984
X27.824 Y27.966
X27.865 Y27.941
X27.903 Y27.908
X27.941 Y27.865
X27.966 Y27.824
X27.984 Y27.784
X27.995 Y27.743
X28. Y27.702
Y23.768
X27.986 Y23.49
X27.961 Y23.299
X27.918 Y23.099
X27.857 Y22.893
X27.775 Y22.683
X27.674 Y22.475
X27.554 Y22.271
X27.414 Y22.072
X27.253 Y21.878
X27.072 Y21.693
X26.872 Y21.518
X26.653 Y21.356
X26.417 Y21.209
X26.165 Y21.079
X25.899 Y20.968
X25.622 Y20.878
X25.334 Y20.809
X25.039 Y20.762
X24.737 Y20.74
X24.641
X24.439 Y20.771
X24.255 Y20.86
X24.103 Y20.997
X23.768 Y21.407
X23.573 Y21.637
X23.44 Y21.773
X23.112 Y22.093
X22.851 Y22.347
G2 X22.845 Y22.771 Z-3.3 I0.209 J0.215
X23.078 Y22.861 I0.215 J-0.209
G1 X23.093 Y22.86
X23.352 Y22.845
G2 X23.631 Y22.502 I-0.018 J-0.299
X23.264 Y22.254 I-0.297 J0.044
X22.96 Y22.36 I0.368 J1.539
X22.569 Y22.62 Z-3.5 I0.672 J1.433
G1 X21.345 Y23.81
X21.243 Y23.92
X21.152 Y24.039
X21.072 Y24.167
X21.003 Y24.302
X20.938 Y24.46
X20.881 Y24.636
X20.837 Y24.824
X20.804 Y25.036
X20.788 Y25.264
X20.79 Y25.498
X20.813 Y25.749
X20.858 Y26.012
X20.927 Y26.283
X21.021 Y26.555
X21.138 Y26.824
X21.28 Y27.09
X21.447 Y27.35
X21.639 Y27.601
X21.789 Y27.768
X21.938 Y27.893
X22.117 Y27.973
X22.31 Y28.
X24.244
G2 X24.534 Y27.69 Z-3.3 I-0.01 J-0.3
G1 X24.526 Y27.631
X24.506 Y27.574
X24.476 Y27.523
X24.42 Y27.447
X21.931 Y24.051
X21.788 Y23.855
X21.768 Y23.831
G2 X21.345 Y23.81 Z-3.5 I-0.222 J0.202
G1 X21.051 Y24.095
X20.861 Y24.259
X20.817 Y24.295
X20.602 Y24.461
X20.488 Y24.558
X20.388 Y24.671
X20.303 Y24.794
X20.23 Y24.925
X20.167 Y25.066
X20.114 Y25.217
X20.068 Y25.392
X20.034 Y25.584
X20.014 Y25.792
X20.01 Y26.026
X20.025 Y26.268
X20.063 Y26.526
X20.127 Y26.804
X20.218 Y27.094
X20.333 Y27.378
X20.456 Y27.621
X20.481 Y27.664
X20.593 Y27.803
X20.736 Y27.91
X20.902 Y27.977
X21.08 Y28.
X22.31
G2 X22.599 Y27.69 Z-3.3 I-0.01 J-0.3
G1 X22.59 Y27.625
X22.567 Y27.564
X22.502 Y27.437
X21.147 Y24.772
X21.044 Y24.569
X21.02 Y24.53
G2 X20.602 Y24.461 Z-3.5 I-0.244 J0.175
G1 X19.834 Y25.053
X19.72 Y25.151
X19.619 Y25.262
X19.532 Y25.384
X19.458 Y25.514
X19.396 Y25.651
X19.34 Y25.808
X19.294 Y25.976
X19.257 Y26.174
X19.236 Y26.379
X19.231 Y26.612
X19.245 Y26.863
X19.277 Y27.091
X19.324 Y27.304
X19.381 Y27.49
X19.409 Y27.559
X19.513 Y27.738
X19.666 Y27.879
X19.854 Y27.969
X20.059 Y28.
X21.08
G2 X21.369 Y27.69 Z-3.3 I-0.01 J-0.3
G1 X21.362 Y27.633
X21.344 Y27.579
X21.279 Y27.433
X20.368 Y25.369
X20.283 Y25.176
X20.252 Y25.122
G2 X19.834 Y25.053 Z-3.5 I-0.244 J0.175
G1 X19.081 Y25.634
X18.967 Y25.731
X18.863 Y25.839
X18.773 Y25.959
X18.696 Y26.088
X18.631 Y26.223
