(1005)
(TEST FEATURE FOR PLASTIC)
(MACHINE)
(  VENDOR HOMEMADE)
(  DESCRIPTION GENERIC 3-AXIS)
(T4  D=3. CR=0. - ZMIN=-5. - FLAT END MILL)
G90 G94 G91.1 G40 G49 G17
G21
(WHEN USING FUSION 360 FOR PERSONAL USE, THE FEEDRATE OF)
(RAPID MOVES IS REDUCED TO MATCH THE FEEDRATE OF CUTTING)
(MOVES, WHICH CAN INCREASE MACHINING TIME. UNRESTRICTED RAPID)
(MOVES ARE AVAILABLE WITH A FUSION 360 SUBSCRIPTION.)
G28 G91 Z0.
G90

(ADAPTIVE4)
M5
T4 M6
S5000 M3
G54
G0 X-25.132 Y3.725
G43 Z5. H4
G1 Z2.5 F300.
G2 X-24.318 Y1.376 Z2.397 I-0.375 J-1.445 F15.
X-26.796 Y1.532 Z2.295 I-1.187 J0.903
X-25.697 Y3.755 Z2.192 I1.289 J0.746
X-24.072 Y1.886 Z2.09 I0.19 J-1.476
X-26.421 Y1.109 Z1.987 I-1.433 J0.393
X-26.231 Y3.573 Z1.885 I0.915 J1.169
X-24.034 Y2.448 Z1.782 I0.724 J-1.294
X-25.918 Y0.857 Z1.679 I-1.471 J-0.168
X-26.657 Y3.206 Z1.577 I0.412 J1.42
X-24.208 Y2.982 Z1.474 I1.15 J-0.927
X-25.359 Y0.812 Z1.372 I-1.297 J-0.702
X-26.915 Y2.708 Z1.269 I-0.147 J1.466
X-24.567 Y3.411 Z1.167 I1.407 J-0.43
X-24.825 Y0.977 Z1.064 I-0.939 J-1.131
X-26.968 Y2.153 Z0.962 I-0.68 J1.301
X-25.059 Y3.674 Z0.859 I1.461 J0.125
X-24.393 Y1.328 Z0.756 I-0.448 J-1.394
X-26.811 Y1.619 Z0.654 I-1.112 J0.95
X-25.611 Y3.735 Z0.551 I1.304 J0.658
X-24.124 Y1.814 Z0.449 I0.104 J-1.455
X-26.467 Y1.185 Z0.346 I-1.381 J0.465
X-26.144 Y3.586 Z0.244 I0.961 J1.093
X-24.056 Y2.362 Z0.141 I0.637 J-1.307
X-25.988 Y0.91 Z0.038 I-1.45 J-0.083
X-26.581 Y3.251 Z-0.064 I0.483 J1.368
X-24.196 Y2.894 Z-0.167 I1.074 J-0.972
X-25.444 Y0.834 Z-0.269 I-1.309 J-0.615
X-26.861 Y2.778 Z-0.372 I-0.062 J1.443
X-24.524 Y3.335 Z-0.474 I1.354 J-0.5
X-24.912 Y0.967 Z-0.577 I-0.982 J-1.055
X-26.944 Y2.237 Z-0.679 I-0.593 J1.312
X-24.99 Y3.62 Z-0.782 I1.437 J0.041
X-24.47 Y1.286 Z-0.885 I-0.516 J-1.34
X-26.82 Y1.706 Z-0.987 I-1.035 J0.992
X-25.527 Y3.71 Z-1.09 I1.313 J0.572
X-24.179 Y1.746 Z-1.192 I0.02 J-1.43
X-26.508 Y1.262 Z-1.295 I-1.326 J0.533
X-26.057 Y3.594 Z-1.397 I1.002 J1.016
X-24.082 Y2.279 Z-1.5 I0.55 J-1.315
X-26.932 I-1.425 J0.
X-24.082 I1.425 J0.
G1 X-24.047 Y1.558 F300.
X-24.031 Y1.469
X-24.022 Y1.32
X-24.042 Y1.171
X-24.085 Y1.027
X-24.147 Y0.891
X-24.225 Y0.763
X-24.317 Y0.644
X-24.421 Y0.536
X-24.536 Y0.44
X-24.659 Y0.354
X-24.79 Y0.28
X-24.926 Y0.218
X-25.067 Y0.167
X-25.213 Y0.128
X-25.364 Y0.1
X-25.52 Y0.085
X-25.68 Y0.081
X-25.841 Y0.091
X-26.004 Y0.114
X-26.167 Y0.15
X-26.328 Y0.2
X-26.486 Y0.263
X-26.64 Y0.34
X-26.788 Y0.429
X-26.93 Y0.53
X-27.063 Y0.644
X-27.188 Y0.768
X-27.304 Y0.903
X-27.408 Y1.047
X-27.501 Y1.199
X-27.582 Y1.359
X-27.649 Y1.526
X-27.704 Y1.697
X-27.744 Y1.873
X-27.77 Y2.052
X-27.782 Y2.233
X-27.779 Y2.415
X-27.762 Y2.595
X-27.73 Y2.775
X-27.684 Y2.951
X-27.624 Y3.123
X-27.55 Y3.289
X-27.463 Y3.45
X-27.363 Y3.603
X-27.252 Y3.747
X-27.129 Y3.882
X-26.995 Y4.007
X-26.852 Y4.121
X-26.7 Y4.223
X-26.541 Y4.313
X-26.374 Y4.389
X-26.202 Y4.452
X-26.026 Y4.501
X-25.846 Y4.535
X-25.664 Y4.555
X-25.481 Y4.561
X-25.298 Y4.551
X-25.117 Y4.527
X-24.937 Y4.489
X-24.762 Y4.436
X-24.591 Y4.369
X-24.427 Y4.289
X-24.269 Y4.196
X-24.119 Y4.09
X-23.978 Y3.973
X-23.847 Y3.845
X-23.727 Y3.707
X-23.618 Y3.559
X-23.517 Y3.396
X-23.406 Y3.181
X-23.273 Y2.862
X-23.163 Y2.524
X-23.099 Y2.254
X-23.062 Y2.017
X-23.046 Y1.797
X-23.047 Y1.582
X-23.065 Y1.375
X-23.099 Y1.178
X-23.147 Y0.988
X-23.21 Y0.804
X-23.288 Y0.623
X-23.381 Y0.448
X-23.488 Y0.281
X-23.609 Y0.122
X-23.743 Y-0.028
X-23.891 Y-0.169
X-24.051 Y-0.298
X-24.223 Y-0.416
X-24.408 Y-0.521
X-24.603 Y-0.613
X-24.808 Y-0.69
X-25.021 Y-0.751
X-25.242 Y-0.795
X-25.468 Y-0.822
X-25.698 Y-0.83
X-25.931 Y-0.82
X-26.165 Y-0.791
X-26.398 Y-0.743
X-26.628 Y-0.676
X-26.854 Y-0.59
X-27.073 Y-0.485
X-27.285 Y-0.363
X-27.488 Y-0.222
X-27.68 Y-0.065
X-27.859 Y0.107
X-28.025 Y0.295
X-28.176 Y0.496
X-28.311 Y0.709
X-28.428 Y0.933
X-28.528 Y1.167
X-28.609 Y1.409
X-28.67 Y1.656
X-28.711 Y1.909
X-28.732 Y2.165
X-28.733 Y2.422
X-28.712 Y2.678
X-28.671 Y2.932
X-28.61 Y3.183
X-28.529 Y3.428
X-28.428 Y3.666
X-28.309 Y3.895
X-28.171 Y4.115
X-28.016 Y4.322
X-27.845 Y4.517
X-27.658 Y4.697
X-27.458 Y4.862
X-27.245 Y5.01
X-27.021 Y5.141
X-26.786 Y5.253
X-26.544 Y5.346
X-26.295 Y5.419
X-26.041 Y5.473
X-25.783 Y5.505
X-25.523 Y5.517
X-25.263 Y5.508
X-25.005 Y5.478
X-24.75 Y5.428
X-24.5 Y5.357
X-24.256 Y5.266
X-24.021 Y5.156
X-23.795 Y5.028
X-23.58 Y4.882
X-23.376 Y4.718
X-23.177 Y4.53
X-22.975 Y4.305
X-22.781 Y4.051
X-22.602 Y3.773
X-22.442 Y3.475
X-22.309 Y3.169
X-22.204 Y2.863
X-22.126 Y2.557
X-22.074 Y2.254
X-22.047 Y1.955
X-22.044 Y1.659
X-22.064 Y1.369
X-22.108 Y1.083
X-22.174 Y0.804
X-22.261 Y0.533
X-22.37 Y0.271
X-22.499 Y0.019
X-22.648 Y-0.223
X-22.816 Y-0.452
X-23.003 Y-0.668
X-23.208 Y-0.87
X-23.43 Y-1.055
X-23.668 Y-1.224
X-23.921 Y-1.374
X-24.187 Y-1.504
X-24.466 Y-1.614
X-24.754 Y-1.702
X-25.052 Y-1.767
X-25.356 Y-1.808
X-25.665 Y-1.824
X-25.977 Y-1.816
X-26.289 Y-1.783
X-26.6 Y-1.724
X-26.907 Y-1.64
X-27.207 Y-1.53
X-27.5 Y-1.397
X-27.783 Y-1.239
X-28.054 Y-1.058
X-28.31 Y-0.855
X-28.551 Y-0.631
X-28.774 Y-0.388
X-28.977 Y-0.126
X-29.159 Y0.152
X-29.319 Y0.444
X-29.455 Y0.75
X-29.567 Y1.066
X-29.653 Y1.391
X-29.712 Y1.722
X-29.745 Y2.058
X-29.751 Y2.396
X-29.73 Y2.734
X-29.682 Y3.069
X-29.607 Y3.4
X-29.505 Y3.724
X-29.378 Y4.04
X-29.225 Y4.344
X-29.049 Y4.635
X-28.85 Y4.911
X-28.629 Y5.171
X-28.388 Y5.412
X-28.128 Y5.633
X-27.851 Y5.832
X-27.559 Y6.009
X-27.254 Y6.161
X-26.937 Y6.289
X-26.611 Y6.391
X-26.278 Y6.467
X-25.939 Y6.515
X-25.598 Y6.536
X-25.257 Y6.53
X-24.916 Y6.496
X-24.58 Y6.435
X-24.249 Y6.348
X-23.927 Y6.234
X-23.615 Y6.094
X-23.311 Y5.928
X-23.015 Y5.734
X-22.726 Y5.509
X-22.447 Y5.254
X-22.182 Y4.969
X-21.937 Y4.659
X-21.716 Y4.327
X-21.522 Y3.979
X-21.357 Y3.618
X-21.223 Y3.247
X-21.12 Y2.87
X-21.048 Y2.49
X-21.008 Y2.108
X-20.998 Y1.728
X-21.018 Y1.351
X-21.069 Y0.98
X-21.148 Y0.615
X-21.256 Y0.26
X-21.392 Y-0.085
X-21.556 Y-0.417
X-21.745 Y-0.735
X-21.959 Y-1.038
X-22.198 Y-1.323
X-22.46 Y-1.589
X-22.743 Y-1.834
X-23.047 Y-2.057
X-23.369 Y-2.255
X-23.709 Y-2.429
X-24.063 Y-2.575
X-24.43 Y-2.693
X-24.808 Y-2.782
X-25.194 Y-2.84
X-25.586 Y-2.868
X-25.981 Y-2.864
X-26.377 Y-2.828
X-26.771 Y-2.76
X-27.16 Y-2.66
X-27.542 Y-2.529
X-27.913 Y-2.367
X-28.272 Y-2.174
X-28.616 Y-1.952
X-28.943 Y-1.703
X-29.249 Y-1.427
X-29.534 Y-1.126
X-29.794 Y-0.802
X-30.028 Y-0.458
X-30.234 Y-0.095
X-30.41 Y0.285
X-30.557 Y0.678
X-30.671 Y1.083
X-30.752 Y1.496
X-30.801 Y1.916
X-30.815 Y2.338
X-30.795 Y2.761
X-30.742 Y3.181
X-30.655 Y3.596
X-30.535 Y4.003
X-30.382 Y4.4
X-30.198 Y4.783
X-29.983 Y5.151
X-29.74 Y5.5
X-29.469 Y5.829
X-29.172 Y6.136
X-28.852 Y6.417
X-28.51 Y6.672
X-28.149 Y6.899
X-27.77 Y7.096
X-27.377 Y7.262
X-26.971 Y7.397
X-26.556 Y7.498
X-26.135 Y7.565
X-25.709 Y7.599
X-25.281 Y7.598
X-24.855 Y7.563
X-24.434 Y7.494
X-24.018 Y7.391
X-23.61 Y7.254
X-23.211 Y7.083
X-22.822 Y6.879
X-22.445 Y6.641
X-22.082 Y6.368
X-21.736 Y6.061
X-21.41 Y5.722
X-21.11 Y5.354
X-20.838 Y4.961
X-20.598 Y4.547
X-20.393 Y4.115
X-20.223 Y3.669
X-20.162 Y3.46
X-20.154 Y3.43
X-20.147 Y3.399
X-20.142 Y3.368
X-20.03 Y2.376
X-20.022 Y2.294
X-20.027 Y2.212
X-20.137 Y1.229
X-20.157 Y1.065
X-20.212 Y0.901
X-20.498 Y0.082
X-20.557 Y-0.082
X-20.562 Y-0.094
X-20.653 Y-0.246
X-21.168 Y-1.065
X-21.217 Y-1.14
X-21.304 Y-1.229
X-22.037 Y-1.962
X-22.091 Y-2.012
X-22.145 Y-2.048
X-23.102 Y-2.649
X-23.142 Y-2.669
X-23.183 Y-2.684
X-24.252 Y-3.058
X-24.291 Y-3.069
X-24.33 Y-3.075
X-25.477 Y-3.204
X-25.512 Y-3.205
X-25.548 Y-3.203
X-26.624 Y-3.082
X-26.706 Y-3.072
X-26.747 Y-3.063
X-27.855 Y-2.675
X-27.895 Y-2.658
X-27.935 Y-2.634
X-28.868 Y-2.048
X-28.918 Y-2.015
X-29.054 Y-1.884
X-29.737 Y-1.201
X-29.8 Y-1.133
X-29.845 Y-1.065
X-30.392 Y-0.193
X-30.456 Y-0.082
X-30.801 Y0.901
X-30.855 Y1.065
X-30.884 Y1.306
X-30.986 Y2.212
X-30.991 Y2.294
X-30.983 Y2.376
X-30.858 Y3.482
X-30.848 Y3.523
X-30.505 Y4.506
X-30.443 Y4.669
X-30.392 Y4.753
X-29.827 Y5.652
X-29.789 Y5.707
X-29.737 Y5.761
X-29.026 Y6.472
X-28.918 Y6.574
X-28.823 Y6.636
X-27.935 Y7.194
X-27.894 Y7.218
X-27.853 Y7.236
X-26.759 Y7.619
X-26.725 Y7.628
X-26.691 Y7.633
X-25.559 Y7.761
X-25.518 Y7.764
X-25.477
X-24.33 Y7.635
X-24.292 Y7.629
X-24.255 Y7.619
X-23.183 Y7.244
X-23.142 Y7.228
X-23.102 Y7.208
X-22.113 Y6.587
X-22.075 Y6.559
X-21.987 Y6.472
X-21.331 Y5.816
X-21.217 Y5.7
X-21.186 Y5.652
X-20.671 Y4.833
X-20.57 Y4.669
X-20.562 Y4.653
X-20.508 Y4.506
X-20.221 Y3.686
X-20.165 Y3.523
X-20.142 Y3.368
G2 X-20.42 Y3.035 I-0.298 J-0.034
G1 X-20.44 Y3.034 Z-1.499
X-20.492 Y3.048 Z-1.49
X-20.542 Y3.061 Z-1.472
X-20.587 Y3.073 Z-1.445
X-20.619 Y3.101 Z-1.407
X-20.646 Y3.124 Z-1.362
X-20.665 Y3.141 Z-1.312
X-20.677 Y3.152 Z-1.257
X-20.681 Y3.156 Z-1.2
Z5.
X-28.087 Y4.579
Z0.3
Z0.
X-28.092 Y4.584 Z-0.067
X-28.108 Y4.6 Z-0.13
X-28.133 Y4.626 Z-0.187
X-28.166 Y4.66 Z-0.235
X-28.206 Y4.7 Z-0.27
X-28.25 Y4.746 Z-0.292
X-28.297 Y4.793 Z-0.3
G2 X-29.317 Y6.09 I5.475 J5.356
G1 X-29.344 Y6.138
Y6.192
X-29.317 Y6.24
X-29. Y6.557
X-28.959 Y6.595
X-28.918 Y6.625
X-27.935 Y7.243
X-27.878 Y7.271
X-26.788 Y7.653
X-26.747 Y7.665
X-26.706 Y7.674
X-25.559 Y7.803
X-25.518 Y7.806
X-25.477
X-24.33 Y7.677
X-24.289 Y7.671
X-24.248 Y7.661
X-23.183 Y7.288
X-23.102 Y7.256
X-23.02 Y7.207
X-22.111 Y6.636
X-22.074 Y6.611
X-22.037 Y6.58
X-21.217 Y5.761
X-21.171 Y5.707
X-20.562 Y4.739
X-20.523 Y4.669
X-20.464 Y4.506
X-20.177 Y3.686
X-20.121 Y3.523
X-20.099 Y3.359
X-19.988 Y2.376
X-19.98 Y2.294
X-19.985 Y2.212
X-20.095 Y1.229
X-20.115 Y1.065
X-20.168 Y0.901
X-20.512 Y-0.082
X-20.532 Y-0.13
X-20.604 Y-0.246
X-21.162 Y-1.133
X-21.186 Y-1.167
X-21.217 Y-1.202
X-22.037 Y-2.021
X-22.068 Y-2.048
X-22.327 Y-2.212
X-23.02 Y-2.647
X-23.117 Y-2.703
X-23.183 Y-2.729
X-24.248 Y-3.101
X-24.289 Y-3.112
X-24.33 Y-3.117
X-25.477 Y-3.246
X-25.518 Y-3.247
X-25.559 Y-3.244
X-26.706 Y-3.114
X-26.747 Y-3.105
X-26.788 Y-3.093
X-27.771 Y-2.749
X-27.897 Y-2.703
X-27.935 Y-2.683
X-28.918 Y-2.066
X-28.943 Y-2.048
X-29.082 Y-1.915
X-29.768 Y-1.229
X-29.842 Y-1.147
X-30.46 Y-0.164
X-30.483 Y-0.123
X-30.501 Y-0.082
X-30.884 Y1.012
X-30.898 Y1.065
X-30.917 Y1.229
X-31.028 Y2.212
X-31.033 Y2.294
X-31.025 Y2.376
X-30.914 Y3.359
X-30.892 Y3.523
X-30.884 Y3.547
X-30.549 Y4.506
X-30.49 Y4.669
X-30.391 Y4.833
X-29.876 Y5.652
X-29.82 Y5.734
X-29.737 Y5.82
X-29.317 Y6.24
G2 X-28.883 Y6.214 I0.205 J-0.219
G1 X-28.861 Y6.167 Z-0.295
X-28.838 Y6.121 Z-0.281
X-28.818 Y6.077 Z-0.258
X-28.815 Y6.048 Z-0.237
X-28.812 Y6.02 Z-0.213
X-28.818 Y5.983 Z-0.168
X-28.822 Y5.956 Z-0.116
X-28.825 Y5.938 Z-0.059
Y5.933 Z0.
Z5.
X-27.374 Y-0.743
Z0.45
Z0.15
X-27.378 Y-0.749 Z0.083
X-27.391 Y-0.767 Z0.02
X-27.412 Y-0.796 Z-0.037
X-27.439 Y-0.834 Z-0.085
X-27.472 Y-0.881 Z-0.12
X-27.509 Y-0.932 Z-0.142
X-27.548 Y-0.987 Z-0.15
G2 X-28.646 Y-2.219 I-6.234 J4.45
G1 X-28.688 Y-2.254
X-28.743 Y-2.264
X-28.796 Y-2.245
X-29.082 Y-2.046
X-29.123 Y-2.016
X-29.164 Y-1.976
X-29.829 Y-1.311
X-29.866 Y-1.27
X-30.229 Y-0.722
X-30.321 Y-0.573
X-30.556 Y-0.187
X-30.587 Y-0.135
X-30.608 Y-0.082
X-30.981 Y0.983
X-30.993 Y1.024
X-31. Y1.065
X-31.121 Y2.13
X-31.124 Y2.171
X-31.123 Y2.212
X-31.088 Y2.703
X-31.071 Y2.867
X-31.034 Y3.195
X-31.012 Y3.359
X-30.88 Y3.85
X-30.828 Y4.014
X-30.713 Y4.342
X-30.653 Y4.506
X-30.392 Y5.013
X-30.305 Y5.161
X-30.065 Y5.543
X-29.992 Y5.652
X-29.716 Y5.98
X-29.556 Y6.144
X-29.228 Y6.472
X-29.082 Y6.607
X-28.831 Y6.799
X-28.049 Y7.291
X-27.935 Y7.354
X-27.771 Y7.416
X-26.87 Y7.731
X-26.829 Y7.745
X-26.788 Y7.754
X-26.296 Y7.821
X-26.133 Y7.84
X-25.805 Y7.877
X-25.641 Y7.892
X-25.15 Y7.867
X-24.986 Y7.852
X-24.658 Y7.815
X-24.494 Y7.795
X-24.003 Y7.675
X-23.839 Y7.625
X-23.183 Y7.395
X-23.102 Y7.364
X-22.856 Y7.22
X-22.692 Y7.12
X-22.182 Y6.799
X-22.037 Y6.675
X-21.709 Y6.386
X-21.621 Y6.308
X-21.545 Y6.232
X-21.381 Y6.059
X-21.154 Y5.816
X-21.054 Y5.708
X-21.017 Y5.652
X-20.502 Y4.833
X-20.426 Y4.669
X-20.359 Y4.506
X-20.299 Y4.342
X-20.185 Y4.014
X-20.132 Y3.85
X-20.001 Y3.359
X-19.978 Y3.195
X-19.904 Y2.54
X-19.894 Y2.376
X-19.889 Y2.212
X-19.901 Y2.048
X-20.013 Y1.065
X-20.019 Y1.024
X-20.032 Y0.983
X-20.404 Y-0.082
X-20.441 Y-0.164
X-20.485 Y-0.246
X-20.999 Y-1.065
X-21.054 Y-1.148
X-21.116 Y-1.229
X-21.217 Y-1.345
X-21.709 Y-1.836
X-21.762 Y-1.884
X-22.2 Y-2.25
X-22.528 Y-2.457
X-22.692 Y-2.56
X-22.856 Y-2.653
X-23.347 Y-2.892
X-23.511 Y-2.95
X-23.839 Y-3.065
X-24.003 Y-3.115
X-24.494 Y-3.235
X-24.658 Y-3.256
X-24.986 Y-3.293
X-25.15 Y-3.307
X-25.641 Y-3.332
X-25.805 Y-3.318
X-26.133 Y-3.281
X-26.296 Y-3.261
X-26.788 Y-3.194
X-26.829 Y-3.185
X-27.279 Y-3.028
X-27.443 Y-2.97
X-27.935 Y-2.793
X-27.974 Y-2.777
X-28.014 Y-2.753
X-28.426 Y-2.494
X-28.59 Y-2.388
X-28.796 Y-2.245
G2 X-28.847 Y-1.814 I0.18 J0.24
G1 X-28.804 Y-1.783 Z-0.145
X-28.762 Y-1.753 Z-0.131
X-28.723 Y-1.725 Z-0.108
X-28.681 Y-1.717 Z-0.076
X-28.644 Y-1.711 Z-0.037
X-28.615 Y-1.705 Z0.007
X-28.596 Y-1.706 Z0.053
X-28.584 Y-1.707 Z0.101
X-28.579 Z0.15
Z5.
X-25.131 Y3.725
Z1.
G2 X-24.317 Y1.376 Z0.897 I-0.375 J-1.445 F15.
X-26.796 Y1.532 Z0.795 I-1.187 J0.903
X-25.697 Y3.755 Z0.692 I1.289 J0.746
X-24.072 Y1.886 Z0.59 I0.19 J-1.476
X-26.421 Y1.109 Z0.487 I-1.433 J0.394
X-26.231 Y3.573 Z0.385 I0.915 J1.169
X-24.034 Y2.448 Z0.282 I0.724 J-1.294
X-25.917 Y0.858 Z0.179 I-1.471 J-0.168
X-26.657 Y3.206 Z0.077 I0.412 J1.42
X-24.208 Y2.982 Z-0.026 I1.15 J-0.927
X-25.358 Y0.812 Z-0.128 I-1.297 J-0.702
X-26.914 Y2.709 Z-0.231 I-0.147 J1.466
X-24.567 Y3.411 Z-0.333 I1.407 J-0.43
X-24.825 Y0.978 Z-0.436 I-0.939 J-1.131
X-26.967 Y2.153 Z-0.538 I-0.68 J1.301
X-25.058 Y3.674 Z-0.641 I1.461 J0.125
X-24.393 Y1.329 Z-0.744 I-0.448 J-1.394
X-26.81 Y1.62 Z-0.846 I-1.112 J0.95
X-25.61 Y3.735 Z-0.949 I1.304 J0.658
X-24.124 Y1.814 Z-1.051 I0.104 J-1.455
X-26.467 Y1.185 Z-1.154 I-1.381 J0.465
X-26.143 Y3.587 Z-1.256 I0.961 J1.093
X-24.055 Y2.362 Z-1.359 I0.637 J-1.307
X-25.988 Y0.91 Z-1.462 I-1.45 J-0.083
X-26.581 Y3.251 Z-1.564 I0.483 J1.367
X-24.196 Y2.895 Z-1.667 I1.074 J-0.972
X-25.443 Y0.835 Z-1.769 I-1.309 J-0.615
X-26.861 Y2.778 Z-1.872 I-0.062 J1.443
X-24.523 Y3.335 Z-1.974 I1.354 J-0.5
X-24.912 Y0.967 Z-2.077 I-0.982 J-1.055
X-26.944 Y2.237 Z-2.179 I-0.593 J1.312
X-24.99 Y3.62 Z-2.282 I1.437 J0.041
X-24.469 Y1.287 Z-2.385 I-0.516 J-1.34
X-26.82 Y1.707 Z-2.487 I-1.035 J0.992
X-25.527 Y3.71 Z-2.59 I1.313 J0.572
X-24.179 Y1.747 Z-2.692 I0.02 J-1.43
X-26.508 Y1.262 Z-2.795 I-1.326 J0.533
X-26.057 Y3.594 Z-2.897 I1.002 J1.016
X-24.082 Y2.28 Z-3. I0.55 J-1.315
X-26.932 I-1.425 J0.
X-24.082 I1.425 J0.
G1 X-24.047 Y1.558 F300.
X-24.03 Y1.47
X-24.022 Y1.32
X-24.042 Y1.171
X-24.084 Y1.027
X-24.146 Y0.891
X-24.224 Y0.763
X-24.317 Y0.645
X-24.421 Y0.537
X-24.536 Y0.44
X-24.659 Y0.354
X-24.789 Y0.28
X-24.926 Y0.218
X-25.067 Y0.167
X-25.212 Y0.128
X-25.364 Y0.101
X-25.52 Y0.085
X-25.679 Y0.082
X-25.841 Y0.091
X-26.004 Y0.114
X-26.166 Y0.15
X-26.327 Y0.2
X-26.485 Y0.264
X-26.639 Y0.34
X-26.787 Y0.429
X-26.929 Y0.531
X-27.063 Y0.644
X-27.188 Y0.768
X-27.303 Y0.903
X-27.408 Y1.047
X-27.501 Y1.2
X-27.581 Y1.36
X-27.649 Y1.526
X-27.703 Y1.698
X-27.744 Y1.874
X-27.77 Y2.053
X-27.782 Y2.233
X-27.779 Y2.415
X-27.762 Y2.596
X-27.73 Y2.775
X-27.684 Y2.951
X-27.624 Y3.123
X-27.55 Y3.29
X-27.463 Y3.45
X-27.363 Y3.603
X-27.251 Y3.748
X-27.128 Y3.883
X-26.995 Y4.008
X-26.852 Y4.122
X-26.7 Y4.224
X-26.54 Y4.313
X-26.374 Y4.389
X-26.202 Y4.452
X-26.026 Y4.501
X-25.846 Y4.536
X-25.664 Y4.556
X-25.481 Y4.561
X-25.298 Y4.552
X-25.116 Y4.528
X-24.937 Y4.489
X-24.762 Y4.436
X-24.591 Y4.37
X-24.426 Y4.289
X-24.268 Y4.196
X-24.119 Y4.091
X-23.978 Y3.974
X-23.847 Y3.845
X-23.726 Y3.707
X-23.618 Y3.56
X-23.516 Y3.397
X-23.406 Y3.181
X-23.272 Y2.862
X-23.163 Y2.525
X-23.098 Y2.255
X-23.062 Y2.017
X-23.045 Y1.797
X-23.047 Y1.583
X-23.065 Y1.375
X-23.098 Y1.178
X-23.146 Y0.989
X-23.209 Y0.804
X-23.288 Y0.623
X-23.381 Y0.448
X-23.488 Y0.281
X-23.609 Y0.122
X-23.743 Y-0.028
X-23.89 Y-0.168
X-24.05 Y-0.298
X-24.223 Y-0.416
X-24.407 Y-0.521
X-24.602 Y-0.613
X-24.807 Y-0.69
X-25.021 Y-0.751
X-25.241 Y-0.795
X-25.467 Y-0.822
X-25.698 Y-0.83
X-25.931 Y-0.82
X-26.165 Y-0.791
X-26.397 Y-0.743
X-26.628 Y-0.676
X-26.853 Y-0.59
X-27.073 Y-0.485
X-27.285 Y-0.362
X-27.487 Y-0.222
X-27.679 Y-0.065
X-27.859 Y0.108
X-28.025 Y0.295
X-28.176 Y0.496
X-28.31 Y0.709
X-28.428 Y0.934
X-28.528 Y1.167
X-28.608 Y1.409
X-28.67 Y1.657
X-28.711 Y1.909
X-28.732 Y2.165
Y2.422
X-28.712 Y2.678
X-28.671 Y2.933
X-28.61 Y3.183
X-28.529 Y3.428
X-28.428 Y3.666
X-28.308 Y3.896
X-28.17 Y4.115
X-28.015 Y4.323
X-27.844 Y4.517
X-27.658 Y4.697
X-27.457 Y4.862
X-27.244 Y5.01
X-27.02 Y5.141
X-26.786 Y5.253
X-26.544 Y5.346
X-26.294 Y5.42
X-26.04 Y5.473
X-25.782 Y5.506
X-25.523 Y5.517
X-25.263 Y5.508
X-25.005 Y5.479
X-24.75 Y5.428
X-24.5 Y5.357
X-24.256 Y5.267
X-24.02 Y5.157
X-23.794 Y5.028
X-23.579 Y4.882
X-23.375 Y4.718
X-23.177 Y4.53
X-22.974 Y4.305
X-22.781 Y4.051
X-22.601 Y3.773
X-22.442 Y3.475
X-22.309 Y3.17
X-22.203 Y2.863
X-22.125 Y2.557
X-22.073 Y2.254
X-22.046 Y1.955
X-22.043 Y1.66
X-22.064 Y1.369
X-22.107 Y1.084
X-22.173 Y0.805
X-22.261 Y0.534
X-22.369 Y0.271
X-22.498 Y0.019
X-22.647 Y-0.222
X-22.815 Y-0.452
X-23.002 Y-0.668
X-23.207 Y-0.869
X-23.429 Y-1.055
X-23.667 Y-1.223
X-23.92 Y-1.374
X-24.187 Y-1.504
X-24.465 Y-1.614
X-24.754 Y-1.701
X-25.052 Y-1.766
X-25.356 Y-1.807
X-25.665 Y-1.824
X-25.977 Y-1.816
X-26.289 Y-1.782
X-26.599 Y-1.723
X-26.906 Y-1.639
X-27.207 Y-1.53
X-27.5 Y-1.396
X-27.783 Y-1.239
X-28.054 Y-1.058
X-28.31 Y-0.855
X-28.551 Y-0.631
X-28.773 Y-0.387
X-28.976 Y-0.126
X-29.159 Y0.152
X-29.318 Y0.445
X-29.455 Y0.75
X-29.566 Y1.066
X-29.652 Y1.391
X-29.712 Y1.723
X-29.745 Y2.059
X-29.751 Y2.397
X-29.73 Y2.734
X-29.681 Y3.07
X-29.606 Y3.401
X-29.505 Y3.725
X-29.377 Y4.04
X-29.225 Y4.344
X-29.049 Y4.635
X-28.849 Y4.911
X-28.628 Y5.171
X-28.387 Y5.412
X-28.127 Y5.633
X-27.851 Y5.832
X-27.559 Y6.009
X-27.253 Y6.162
X-26.936 Y6.29
X-26.61 Y6.391
X-26.277 Y6.467
X-25.939 Y6.515
X-25.598 Y6.537
X-25.256 Y6.53
X-24.916 Y6.497
X-24.58 Y6.436
X-24.249 Y6.348
X-23.927 Y6.234
X-23.614 Y6.095
X-23.311 Y5.929
X-23.014 Y5.734
X-22.725 Y5.509
X-22.446 Y5.254
X-22.182 Y4.969
X-21.937 Y4.659
X-21.716 Y4.328
X-21.522 Y3.979
X-21.357 Y3.618
X-21.223 Y3.247
X-21.12 Y2.87
X-21.048 Y2.49
X-21.007 Y2.109
X-20.997 Y1.729
X-21.018 Y1.352
X-21.068 Y0.98
X-21.148 Y0.616
X-21.256 Y0.26
X-21.392 Y-0.084
X-21.555 Y-0.417
X-21.744 Y-0.735
X-21.959 Y-1.037
X-22.198 Y-1.323
X-22.459 Y-1.588
X-22.743 Y-1.834
X-23.047 Y-2.056
X-23.369 Y-2.255
X-23.708 Y-2.428
X-24.063 Y-2.575
X-24.43 Y-2.693
X-24.808 Y-2.782
X-25.194 Y-2.84
X-25.586 Y-2.868
X-25.981 Y-2.864
X-26.377 Y-2.828
X-26.77 Y-2.76
X-27.159 Y-2.66
X-27.541 Y-2.529
X-27.913 Y-2.366
X-28.272 Y-2.174
X-28.616 Y-1.952
X-28.942 Y-1.702
X-29.249 Y-1.426
X-29.533 Y-1.126
X-29.793 Y-0.802
X-30.027 Y-0.457
X-30.233 Y-0.094
X-30.41 Y0.285
X-30.556 Y0.679
X-30.67 Y1.083
X-30.752 Y1.497
X-30.8 Y1.916
X-30.815 Y2.338
X-30.795 Y2.761
X-30.742 Y3.181
X-30.654 Y3.597
X-30.534 Y4.004
X-30.381 Y4.4
X-30.197 Y4.784
X-29.983 Y5.151
X-29.739 Y5.501
X-29.468 Y5.83
X-29.172 Y6.136
X-28.852 Y6.418
X-28.51 Y6.673
X-28.148 Y6.899
X-27.77 Y7.097
X-27.376 Y7.263
X-26.971 Y7.397
X-26.556 Y7.498
X-26.134 Y7.566
X-25.708 Y7.599
X-25.281 Y7.598
X-24.855 Y7.563
X-24.433 Y7.494
X-24.018 Y7.391
X-23.61 Y7.254
X-23.21 Y7.084
X-22.821 Y6.879
X-22.445 Y6.641
X-22.082 Y6.368
X-21.735 Y6.061
X-21.41 Y5.722
X-21.109 Y5.355
X-20.838 Y4.962
X-20.598 Y4.547
X-20.392 Y4.115
X-20.223 Y3.67
X-20.163 Y3.464
X-20.155 Y3.433
X-20.148 Y3.403
X-20.142 Y3.372
X-20.03 Y2.376
X-20.022 Y2.294
X-20.027 Y2.212
X-20.137 Y1.229
X-20.157 Y1.065
X-20.212 Y0.901
X-20.498 Y0.082
X-20.557 Y-0.082
X-20.562 Y-0.094
X-20.653 Y-0.246
X-21.168 Y-1.065
X-21.217 Y-1.14
X-21.304 Y-1.229
X-22.037 Y-1.962
X-22.091 Y-2.012
X-22.145 Y-2.048
X-23.102 Y-2.649
X-23.142 Y-2.669
X-23.183 Y-2.684
X-24.252 Y-3.058
X-24.291 Y-3.069
X-24.33 Y-3.075
X-25.477 Y-3.204
X-25.512 Y-3.205
X-25.548 Y-3.203
X-26.624 Y-3.082
X-26.706 Y-3.072
X-26.747 Y-3.063
X-27.855 Y-2.675
X-27.895 Y-2.658
X-27.935 Y-2.634
X-28.868 Y-2.048
X-28.918 Y-2.015
X-29.054 Y-1.884
X-29.737 Y-1.201
X-29.8 Y-1.133
X-29.845 Y-1.065
X-30.392 Y-0.193
X-30.456 Y-0.082
X-30.801 Y0.901
X-30.855 Y1.065
X-30.884 Y1.306
X-30.986 Y2.212
X-30.991 Y2.294
X-30.983 Y2.376
X-30.858 Y3.482
X-30.848 Y3.523
X-30.505 Y4.506
X-30.443 Y4.669
X-30.392 Y4.753
X-29.827 Y5.652
X-29.789 Y5.707
X-29.737 Y5.761
X-29.026 Y6.472
X-28.918 Y6.574
X-28.823 Y6.636
X-27.935 Y7.194
X-27.894 Y7.218
X-27.853 Y7.236
X-26.759 Y7.619
X-26.725 Y7.628
X-26.691 Y7.633
X-25.559 Y7.761
X-25.518 Y7.764
X-25.477
X-24.33 Y7.635
X-24.292 Y7.629
X-24.255 Y7.619
X-23.183 Y7.244
X-23.142 Y7.228
X-23.102 Y7.208
X-22.113 Y6.587
X-22.075 Y6.559
X-21.987 Y6.472
X-21.331 Y5.816
X-21.217 Y5.7
X-21.186 Y5.652
X-20.671 Y4.833
X-20.57 Y4.669
X-20.562 Y4.653
X-20.508 Y4.506
X-20.221 Y3.686
X-20.165 Y3.523
X-20.142 Y3.372
G2 X-20.682 Y3.159 I-0.298 J-0.034
G1 X-20.721 Y3.213 Z-2.992
X-20.759 Y3.264 Z-2.97
X-20.793 Y3.309 Z-2.935
X-20.821 Y3.348 Z-2.887
X-20.842 Y3.376 Z-2.83
X-20.856 Y3.394 Z-2.767
X-20.86 Y3.4 Z-2.7
Z5.
(WHEN USING FUSION 360 FOR PERSONAL USE, THE FEEDRATE OF)
(RAPID MOVES IS REDUCED TO MATCH THE FEEDRATE OF CUTTING)
(MOVES, WHICH CAN INCREASE MACHINING TIME. UNRESTRICTED RAPID)
(MOVES ARE AVAILABLE WITH A FUSION 360 SUBSCRIPTION.)

(BORE1)
G0 X-25.038 Y25.036
G1 Z5. F100.
Z2.
Z0.3
G18 G2 X-24.738 Z0. I0.3 K0.
G1 X-24.588
G17 G2 X-24.288 Y24.736 I0. J-0.3
X-26.288 Z-0.087 I-1. J0.
X-24.288 Z-0.175 I1. J0.
X-26.288 Z-0.262 I-1. J0.
X-24.288 Z-0.349 I1. J0.
X-26.288 Z-0.437 I-1. J0.
X-24.288 Z-0.524 I1. J0.
X-26.288 Z-0.611 I-1. J0.
X-24.288 Z-0.698 I1. J0.
X-26.288 Z-0.786 I-1. J0.
X-24.288 Z-0.873 I1. J0.
X-26.288 Z-0.96 I-1. J0.
X-24.288 Z-1.048 I1. J0.
X-26.288 Z-1.135 I-1. J0.
X-24.288 Z-1.222 I1. J0.
X-26.288 Z-1.31 I-1. J0.
X-24.288 Z-1.397 I1. J0.
X-26.288 Z-1.484 I-1. J0.
X-24.288 Z-1.571 I1. J0.
X-26.288 Z-1.659 I-1. J0.
X-24.288 Z-1.746 I1. J0.
X-26.288 Z-1.833 I-1. J0.
X-24.288 Z-1.921 I1. J0.
X-26.288 Z-2.008 I-1. J0.
X-24.288 Z-2.095 I1. J0.
X-26.288 Z-2.183 I-1. J0.
X-24.288 Z-2.27 I1. J0.
X-26.288 Z-2.357 I-1. J0.
X-24.288 Z-2.444 I1. J0.
X-26.288 Z-2.532 I-1. J0.
X-24.288 Z-2.619 I1. J0.
X-26.288 Z-2.706 I-1. J0.
X-24.288 Z-2.794 I1. J0.
X-26.288 Z-2.881 I-1. J0.
X-24.288 Z-2.968 I1. J0.
X-26.288 Z-3.056 I-1. J0.
X-24.288 Z-3.143 I1. J0.
X-26.288 Z-3.23 I-1. J0.
X-24.288 Z-3.317 I1. J0.
X-26.288 Z-3.405 I-1. J0.
X-24.288 Z-3.492 I1. J0.
X-26.288 Z-3.579 I-1. J0.
X-24.288 Z-3.667 I1. J0.
X-26.288 Z-3.754 I-1. J0.
X-24.288 Z-3.841 I1. J0.
X-26.288 Z-3.929 I-1. J0.
X-24.288 Z-4.016 I1. J0.
X-26.288 Z-4.103 I-1. J0.
X-24.288 Z-4.19 I1. J0.
X-26.288 Z-4.278 I-1. J0.
X-24.288 Z-4.365 I1. J0.
X-26.288 Z-4.452 I-1. J0.
X-24.288 Z-4.54 I1. J0.
X-26.288 Z-4.627 I-1. J0.
X-24.288 Z-4.714 I1. J0.
X-26.288 Z-4.802 I-1. J0.
X-24.288 Z-4.889 I1. J0.
X-26.288 Z-4.976 I-1. J0.
X-25.943 Y25.491 Z-5. I1. J0.
X-24.633 Y23.981 I0.655 J-0.755
X-25.943 Y25.491 I-0.655 J0.755
X-25.52 Y25.462 I0.197 J-0.227
G1 X-25.422 Y25.348
X-25.378 Y25.298 Z-4.992
X-25.337 Y25.25 Z-4.97
X-25.299 Y25.207 Z-4.935
X-25.268 Y25.171 Z-4.887
X-25.245 Y25.144 Z-4.83
X-25.23 Y25.127 Z-4.767
X-25.225 Y25.122 Z-4.7
Z5.
(WHEN USING FUSION 360 FOR PERSONAL USE, THE FEEDRATE OF)
(RAPID MOVES IS REDUCED TO MATCH THE FEEDRATE OF CUTTING)
(MOVES, WHICH CAN INCREASE MACHINING TIME. UNRESTRICTED RAPID)
(MOVES ARE AVAILABLE WITH A FUSION 360 SUBSCRIPTION.)

(2D ADAPTIVE2)
G0 X-20.036 Y-21.484
G1 Z5. F300.
Z2.5
G2 X-21.377 Y-19.446 Z2.4 I0.037 J1.484 F15.
X-19. Y-18.906 Z2.3 I1.375 J-0.554
X-19.328 Y-21.318 Z2.2 I-1. J-1.092
X-21.469 Y-20.166 Z2.1 I-0.671 J1.318
X-19.642 Y-18.567 Z2. I1.468 J0.166
X-18.786 Y-20.836 Z1.9 I-0.359 J-1.431
X-21.209 Y-20.842 Z1.8 I-1.213 J0.837
X-20.365 Y-18.574 Z1.7 I1.208 J0.842
X-18.539 Y-20.157 Z1.6 I0.364 J-1.425
X-20.66 Y-21.311 Z1.5 I-1.46 J0.158
X-20.996 Y-18.923 Z1.4 I0.66 J1.31
X-18.645 Y-19.445 Z1.3 I0.995 J-1.076
X-19.957 Y-21.461 Z1.2 I-1.355 J-0.553
X-21.383 Y-19.528 Z1.1 I-0.043 J1.461
X-19.075 Y-18.871 Z1. I1.382 J-0.472
X-19.269 Y-21.26 Z0.9 I-0.925 J-1.127
X-21.436 Y-20.242 Z0.8 I-0.73 J1.26
X-19.724 Y-18.572 Z0.7 I1.435 J0.242
X-18.762 Y-20.758 Z0.6 I-0.277 J-1.426
X-21.143 Y-20.892 Z0.5 I-1.237 J0.758
X-20.435 Y-18.617 Z0.4 I1.143 J0.892
X-18.556 Y-20.077 Z0.3 I0.434 J-1.381
X-20.579 Y-21.324 Z0.2 I-1.444 J0.078
X-21.036 Y-18.994 Z0.1 I0.579 J1.323
X-18.697 Y-19.382 Z0. I1.035 J-1.005
X-19.88 Y-21.434 Z-0.1 I-1.302 J-0.616
X-21.385 Y-19.609 Z-0.2 I-0.12 J1.434
X-19.151 Y-18.841 Z-0.3 I1.383 J-0.39
X-19.215 Y-21.2 Z-0.4 I-0.849 J-1.157
X-21.398 Y-20.314 Z-0.5 I-0.785 J1.2
X-19.805 Y-18.582 Z-0.6 I1.397 J0.314
X-18.743 Y-20.679 Z-0.7 I-0.196 J-1.417
X-21.076 Y-20.938 Z-0.8 I-1.257 J0.68
X-20.501 Y-18.664 Z-0.9 I1.076 J0.937
X-18.576 Y-19.999 Z-1. I0.5 J-1.335
X-21.426 I-1.425 J0.
X-18.576 I1.425 J0.
G1 X-18.541 Y-20.72 F300.
X-18.525 Y-20.809
X-18.517 Y-20.958
X-18.536 Y-21.107
X-18.579 Y-21.251
X-18.641 Y-21.387
X-18.719 Y-21.515
X-18.811 Y-21.634
X-18.916 Y-21.741
X-19.03 Y-21.838
X-19.153 Y-21.924
X-19.284 Y-21.998
X-19.42 Y-22.06
X-19.562 Y-22.111
X-19.707 Y-22.15
X-19.858 Y-22.178
X-20.014 Y-22.193
X-20.174 Y-22.197
X-20.336 Y-22.187
X-20.499 Y-22.164
X-20.661 Y-22.128
X-20.822 Y-22.078
X-20.98 Y-22.015
X-21.134 Y-21.938
X-21.282 Y-21.849
X-21.424 Y-21.747
X-21.558 Y-21.634
X-21.683 Y-21.51
X-21.798 Y-21.375
X-21.902 Y-21.231
X-21.995 Y-21.079
X-22.076 Y-20.919
X-22.144 Y-20.752
X-22.198 Y-20.58
X-22.238 Y-20.405
X-22.265 Y-20.226
X-22.276 Y-20.045
X-22.274 Y-19.863
X-22.256 Y-19.682
X-22.225 Y-19.503
X-22.178 Y-19.327
X-22.118 Y-19.155
X-22.044 Y-18.989
X-21.957 Y-18.828
X-21.858 Y-18.675
X-21.746 Y-18.531
X-21.623 Y-18.396
X-21.489 Y-18.271
X-21.346 Y-18.157
X-21.194 Y-18.055
X-21.035 Y-17.965
X-20.869 Y-17.889
X-20.697 Y-17.826
X-20.52 Y-17.777
X-20.34 Y-17.743
X-20.158 Y-17.723
X-19.975 Y-17.717
X-19.792 Y-17.727
X-19.611 Y-17.751
X-19.432 Y-17.789
X-19.256 Y-17.842
X-19.086 Y-17.909
X-18.921 Y-17.989
X-18.763 Y-18.082
X-18.613 Y-18.188
X-18.472 Y-18.305
X-18.341 Y-18.433
X-18.221 Y-18.571
X-18.112 Y-18.719
X-18.011 Y-18.882
X-17.9 Y-19.097
X-17.767 Y-19.417
X-17.657 Y-19.754
X-17.593 Y-20.024
X-17.556 Y-20.261
X-17.54 Y-20.481
X-17.542 Y-20.696
X-17.56 Y-20.903
X-17.593 Y-21.1
X-17.641 Y-21.29
X-17.704 Y-21.475
X-17.782 Y-21.655
X-17.875 Y-21.83
X-17.983 Y-21.997
X-18.103 Y-22.156
X-18.238 Y-22.306
X-18.385 Y-22.447
X-18.545 Y-22.576
X-18.718 Y-22.694
X-18.902 Y-22.799
X-19.097 Y-22.891
X-19.302 Y-22.968
X-19.515 Y-23.029
X-19.736 Y-23.073
X-19.962 Y-23.1
X-20.193 Y-23.108
X-20.426 Y-23.098
X-20.659 Y-23.069
X-20.892 Y-23.021
X-21.122 Y-22.954
X-21.348 Y-22.868
X-21.568 Y-22.763
X-21.78 Y-22.641
X-21.982 Y-22.5
X-22.174 Y-22.343
X-22.353 Y-22.171
X-22.519 Y-21.983
X-22.67 Y-21.782
X-22.805 Y-21.569
X-22.923 Y-21.345
X-23.022 Y-21.111
X-23.103 Y-20.869
X-23.164 Y-20.621
X-23.206 Y-20.369
X-23.227 Y-20.113
Y-19.856
X-23.206 Y-19.6
X-23.166 Y-19.345
X-23.104 Y-19.095
X-23.023 Y-18.85
X-22.922 Y-18.612
X-22.803 Y-18.382
X-22.665 Y-18.163
X-22.51 Y-17.956
X-22.339 Y-17.761
X-22.152 Y-17.581
X-21.952 Y-17.416
X-21.739 Y-17.268
X-21.515 Y-17.137
X-21.281 Y-17.025
X-21.038 Y-16.932
X-20.789 Y-16.859
X-20.535 Y-16.805
X-20.277 Y-16.773
X-20.017 Y-16.761
X-19.758 Y-16.77
X-19.499 Y-16.8
X-19.244 Y-16.85
X-18.994 Y-16.921
X-18.75 Y-17.012
X-18.515 Y-17.122
X-18.289 Y-17.25
X-18.074 Y-17.396
X-17.87 Y-17.561
X-17.671 Y-17.748
X-17.469 Y-17.973
X-17.275 Y-18.227
X-17.096 Y-18.506
X-16.937 Y-18.803
X-16.803 Y-19.109
X-16.698 Y-19.415
X-16.62 Y-19.721
X-16.568 Y-20.024
X-16.541 Y-20.323
X-16.538 Y-20.619
X-16.559 Y-20.909
X-16.602 Y-21.195
X-16.668 Y-21.474
X-16.755 Y-21.745
X-16.864 Y-22.007
X-16.993 Y-22.259
X-17.142 Y-22.501
X-17.31 Y-22.73
X-17.497 Y-22.946
X-17.702 Y-23.148
X-17.924 Y-23.333
X-18.162 Y-23.502
X-18.415 Y-23.652
X-18.681 Y-23.782
X-18.96 Y-23.892
X-19.249 Y-23.98
X-19.546 Y-24.045
X-19.851 Y-24.086
X-20.16 Y-24.102
X-20.471 Y-24.094
X-20.783 Y-24.06
X-21.094 Y-24.002
X-21.401 Y-23.917
X-21.702 Y-23.808
X-21.995 Y-23.675
X-22.278 Y-23.517
X-22.548 Y-23.336
X-22.805 Y-23.133
X-23.045 Y-22.909
X-23.268 Y-22.666
X-23.471 Y-22.404
X-23.653 Y-22.126
X-23.813 Y-21.833
X-23.949 Y-21.528
X-24.061 Y-21.212
X-24.147 Y-20.887
X-24.207 Y-20.555
X-24.24 Y-20.22
X-24.246 Y-19.882
X-24.224 Y-19.544
X-24.176 Y-19.208
X-24.101 Y-18.878
X-23.999 Y-18.554
X-23.872 Y-18.238
X-23.72 Y-17.934
X-23.543 Y-17.643
X-23.344 Y-17.367
X-23.123 Y-17.107
X-22.882 Y-16.866
X-22.622 Y-16.645
X-22.345 Y-16.446
X-22.053 Y-16.269
X-21.748 Y-16.116
X-21.431 Y-15.989
X-21.105 Y-15.887
X-20.772 Y-15.811
X-20.433 Y-15.763
X-20.092 Y-15.742
X-19.751 Y-15.748
X-19.41 Y-15.782
X-19.074 Y-15.843
X-18.744 Y-15.93
X-18.421 Y-16.044
X-18.109 Y-16.184
X-17.806 Y-16.35
X-17.509 Y-16.544
X-17.22 Y-16.769
X-16.941 Y-17.025
X-16.677 Y-17.309
X-16.431 Y-17.619
X-16.21 Y-17.951
X-16.016 Y-18.299
X-15.852 Y-18.661
X-15.717 Y-19.031
X-15.614 Y-19.408
X-15.543 Y-19.788
X-15.502 Y-20.17
X-15.492 Y-20.55
X-15.513 Y-20.927
X-15.563 Y-21.298
X-15.643 Y-21.663
X-15.751 Y-22.018
X-15.887 Y-22.363
X-16.05 Y-22.695
X-16.239 Y-23.013
X-16.454 Y-23.316
X-16.692 Y-23.601
X-16.954 Y-23.867
X-17.238 Y-24.112
X-17.541 Y-24.335
X-17.864 Y-24.533
X-18.203 Y-24.707
X-18.558 Y-24.853
X-18.925 Y-24.971
X-19.303 Y-25.06
X-19.689 Y-25.118
X-20.081 Y-25.146
X-20.476 Y-25.142
X-20.871 Y-25.106
X-21.265 Y-25.038
X-21.654 Y-24.938
X-22.036 Y-24.807
X-22.408 Y-24.645
X-22.767 Y-24.452
X-23.111 Y-24.23
X-23.437 Y-23.981
X-23.744 Y-23.705
X-24.028 Y-23.404
X-24.288 Y-23.08
X-24.522 Y-22.736
X-24.728 Y-22.372
X-24.905 Y-21.993
X-25.051 Y-21.6
X-25.165 Y-21.195
X-25.247 Y-20.782
X-25.295 Y-20.362
X-25.309 Y-19.94
X-25.29 Y-19.517
X-25.236 Y-19.097
X-25.149 Y-18.682
X-25.029 Y-18.274
X-24.876 Y-17.878
X-24.692 Y-17.494
X-24.477 Y-17.127
X-24.234 Y-16.777
X-23.963 Y-16.449
X-23.666 Y-16.142
X-23.346 Y-15.861
X-23.004 Y-15.606
X-22.643 Y-15.379
X-22.264 Y-15.182
X-21.871 Y-15.016
X-21.465 Y-14.881
X-21.05 Y-14.78
X-20.629 Y-14.713
X-20.203 Y-14.679
X-19.775 Y-14.68
X-19.349 Y-14.715
X-18.928 Y-14.784
X-18.512 Y-14.887
X-18.104 Y-15.024
X-17.705 Y-15.195
X-17.316 Y-15.399
X-16.939 Y-15.637
X-16.576 Y-15.91
X-16.23 Y-16.217
X-15.904 Y-16.556
X-15.604 Y-16.924
X-15.332 Y-17.317
X-15.092 Y-17.731
X-14.887 Y-18.163
X-14.717 Y-18.609
X-14.584 Y-19.065
X-14.514 Y-19.405
X-14.506 Y-19.452
X-14.502 Y-19.499
X-14.5 Y-19.546
Y-20.735
X-14.525 Y-21.232
X-14.577 Y-21.626
X-14.663 Y-22.029
X-14.784 Y-22.434
X-14.941 Y-22.836
X-15.132 Y-23.23
X-15.356 Y-23.611
X-15.613 Y-23.977
X-15.901 Y-24.323
X-16.218 Y-24.648
X-16.562 Y-24.949
X-16.932 Y-25.223
X-17.208 Y-25.394
X-17.324 Y-25.452
X-17.449 Y-25.488
X-17.578 Y-25.5
G2 X-17.867 Y-25.19 Z-0.8 I0.01 J0.3
G1 X-17.861 Y-25.138
X-17.846 Y-25.088
X-17.822 Y-25.042
X-17.761 Y-24.942
X-15.055 Y-20.587
X-15.043 Y-20.57
G2 X-14.81 Y-20.445 I0.243 J-0.175 F100.
X-14.5 Y-20.735 Z-1. I0.01 J-0.3
G1 Y-23.193 F300.
X-14.509 Y-23.366
X-14.531 Y-23.539
X-14.575 Y-23.742
X-14.64 Y-23.961
X-14.735 Y-24.204
X-14.859 Y-24.46
X-15.028 Y-24.747
X-15.224 Y-25.026
X-15.408 Y-25.247
X-15.56 Y-25.383
X-15.744 Y-25.47
X-15.946 Y-25.5
G2 X-16.236 Y-25.19 Z-0.8 I0.01 J0.3
G1 X-16.23 Y-25.142
X-16.217 Y-25.096
X-16.197 Y-25.052
X-16.133 Y-24.94
X-15.061 Y-23.055
X-15.043 Y-23.028
G2 X-14.81 Y-22.904 I0.243 J-0.175 F100.
X-14.5 Y-23.193 Z-1. I0.01 J-0.3
G1 Y-24.759 F300.
X-14.507 Y-24.908
X-14.509 Y-24.916
X-14.568 Y-25.103
X-14.677 Y-25.266
X-14.826 Y-25.392
X-15.005 Y-25.473
X-15.199 Y-25.5
G2 X-15.488 Y-25.19 Z-0.8 I0.01 J0.3
G1 X-15.482 Y-25.138
X-15.467 Y-25.088
X-15.443 Y-25.041
X-15.411 Y-24.999
X-15.369 Y-24.952
X-15.045 Y-24.592
X-15.023 Y-24.568 F100.
X-14.978 Y-24.528
X-14.926 Y-24.497
X-14.87 Y-24.477
X-14.81 Y-24.469
G2 X-14.5 Y-24.759 Z-1. I0.01 J-0.3
G1 Y-25.203 F300.
X-14.506 Y-25.246
X-14.517 Y-25.285
X-14.533 Y-25.324
X-14.555 Y-25.359
X-14.582 Y-25.395
X-14.604 Y-25.418
X-14.626 Y-25.437
X-14.67 Y-25.465
X-14.698 Y-25.478
X-14.726 Y-25.488
X-14.753 Y-25.494
X-14.78 Y-25.498
X-14.834 Y-25.5
X-22.046
X-22.265 Y-25.489
X-22.49 Y-25.46
X-22.718 Y-25.411
X-22.982 Y-25.332
X-23.256 Y-25.225
X-23.544 Y-25.085
X-23.854 Y-24.903
X-24.171 Y-24.68
X-24.476 Y-24.427
X-24.779 Y-24.132
X-25.071 Y-23.796
X-25.347 Y-23.424
X-25.394 Y-23.348
X-25.452 Y-23.232
X-25.488 Y-23.107
X-25.5 Y-22.978
G2 X-25.19 Y-22.688 Z-0.8 I0.3 J-0.01
G1 X-25.133 Y-22.696
X-25.078 Y-22.714
X-25.028 Y-22.743
X-24.946 Y-22.8
X-21.884 Y-24.955
X-21.881 Y-24.957
G2 X-21.756 Y-25.19 I-0.175 J-0.243 F100.
X-22.046 Y-25.5 Z-1. I-0.3 J-0.01
G1 X-23.775 F300.
X-23.925 Y-25.493
X-24.075 Y-25.472
X-24.242 Y-25.435
X-24.433 Y-25.377
X-24.629 Y-25.3
X-24.857 Y-25.188
X-25.084 Y-25.053
X-25.205 Y-24.967
X-25.363 Y-24.812
X-25.465 Y-24.615
X-25.5 Y-24.396
G2 X-25.19 Y-24.107 Z-0.8 I0.3 J-0.01
G1 X-25.143 Y-24.112
X-25.097 Y-24.125
X-25.053 Y-24.145
X-24.94 Y-24.209
X-23.639 Y-24.939
X-23.61 Y-24.957
G2 X-23.486 Y-25.19 I-0.175 J-0.243 F100.
X-23.775 Y-25.5 Z-1. I-0.3 J-0.01
G1 X-25.086 F300.
X-25.127
X-25.16
X-25.169 Y-25.499
X-25.269 Y-25.479
X-25.36 Y-25.435
X-25.438 Y-25.37
G2 X-25.46 Y-25.046 Z-0.856 I0.28 J0.182
G1 X-25.426 Y-24.99 Z-0.828
X-25.381 Y-24.941 Z-0.8
G2 X-24.949 Y-24.953 I0.209 J-0.24
X-24.853 Y-25.2 I-0.222 J-0.229 F100.
X-25.16 Y-25.5 Z-1. I-0.318 J0.018
G1 X-25.215 Y-25.499 F300.
X-25.243 Y-25.495
X-25.271 Y-25.488
X-25.297 Y-25.479
X-25.324 Y-25.467
X-25.36 Y-25.445
X-25.395 Y-25.415
X-25.438 Y-25.37
X-25.454 Y-25.347
X-25.467 Y-25.324
X-25.479 Y-25.297
X-25.488 Y-25.271
X-25.495 Y-25.243
X-25.499 Y-25.215
X-25.5 Y-25.16
Y-17.784
X-25.491 Y-17.607
X-25.464 Y-17.399
X-25.419 Y-17.187
X-25.344 Y-16.937
X-25.246 Y-16.687
X-25.109 Y-16.404
X-24.935 Y-16.108
X-24.729 Y-15.816
X-24.476 Y-15.511
X-24.179 Y-15.206
X-23.841 Y-14.911
X-23.468 Y-14.635
X-23.421 Y-14.606
X-23.305 Y-14.548
X-23.18 Y-14.512
X-23.051 Y-14.5
G2 X-22.761 Y-14.81 Z-0.8 I-0.01 J-0.3
G1 X-22.769 Y-14.868
X-22.788 Y-14.924
X-22.818 Y-14.975
X-22.874 Y-15.054
X-24.957 Y-17.949
G2 X-25.19 Y-18.074 I-0.244 J0.175 F100.
X-25.5 Y-17.784 Z-1. I-0.01 J0.3
G1 Y-16.145 F300.
X-25.493 Y-15.995
X-25.471 Y-15.847
X-25.432 Y-15.676
X-25.375 Y-15.495
X-25.294 Y-15.295
X-25.185 Y-15.076
X-25.043 Y-14.844
X-25.004 Y-14.79
X-24.849 Y-14.634
X-24.654 Y-14.534
X-24.437 Y-14.5
G2 X-24.148 Y-14.81 Z-0.8 I-0.01 J-0.3
G1 X-24.153 Y-14.858
X-24.166 Y-14.904
X-24.186 Y-14.947
X-24.25 Y-15.06
X-24.939 Y-16.282
X-24.957 Y-16.31
G2 X-25.19 Y-16.434 I-0.243 J0.175 F100.
X-25.5 Y-16.145 Z-1. I-0.01 J0.3
G1 Y-14.908 F300.
Y-14.867
Y-14.834
X-25.498 Y-14.807
X-25.488 Y-14.743
X-25.467 Y-14.683
X-25.437 Y-14.626
G2 X-25.116 Y-14.539 Z-0.851 I0.229 J-0.212
G1 X-25.061 Y-14.563 Z-0.826
X-25.011 Y-14.597 Z-0.8
G2 X-24.958 Y-14.991 I-0.192 J-0.226
X-25.188 Y-15.12 I-0.245 J0.168 F100.
X-25.5 Y-14.834 Z-1. I-0.015 J0.297
G1 X-25.498 Y-14.78 F300.
X-25.494 Y-14.753
X-25.488 Y-14.726
X-25.478 Y-14.698
X-25.465 Y-14.67
X-25.437 Y-14.626
X-25.418 Y-14.604
X-25.395 Y-14.582
X-25.359 Y-14.555
X-25.324 Y-14.533
X-25.285 Y-14.517
X-25.246 Y-14.506
X-25.203 Y-14.5
X-17.784
X-17.582 Y-14.51
X-17.39 Y-14.535
X-17.159 Y-14.585
X-16.922 Y-14.656
X-16.644 Y-14.764
X-16.368 Y-14.898
X-16.059 Y-15.08
X-15.73 Y-15.311
X-15.415 Y-15.573
X-15.091 Y-15.888
X-14.772 Y-16.254
X-14.637 Y-16.436
X-14.562 Y-16.564
X-14.516 Y-16.705
X-14.5 Y-16.853
G2 X-14.81 Y-17.142 Z-0.8 I-0.3 J0.01
G1 X-14.866 Y-17.135
X-14.92 Y-17.117
X-14.97 Y-17.09
X-15.055 Y-17.031
X-17.944 Y-15.047
X-17.949 Y-15.043
G2 X-18.074 Y-14.81 I0.175 J0.243 F100.
X-17.784 Y-14.5 Z-1. I0.3 J0.01
G1 X-16.145 F300.
X-15.972 Y-14.509
X-15.823 Y-14.528
X-15.657 Y-14.564
X-15.463 Y-14.622
X-15.268 Y-14.698
X-15.035 Y-14.811
X-14.806 Y-14.946
X-14.798 Y-14.952
X-14.638 Y-15.107
X-14.535 Y-15.305
X-14.5 Y-15.524
G2 X-14.81 Y-15.814 Z-0.8 I-0.3 J0.01
G1 X-14.878 Y-15.804
X-14.941 Y-15.778
X-15.062 Y-15.714
X-16.276 Y-15.064
X-16.31 Y-15.043
G2 X-16.434 Y-14.81 I0.175 J0.243 F100.
X-16.145 Y-14.5 Z-1. I0.3 J0.01
G1 X-14.908 F300.
X-14.792 Y-14.501
X-14.751 Y-14.506
X-14.71 Y-14.517
X-14.67 Y-14.535
X-14.636 Y-14.556
X-14.602 Y-14.584
X-14.563 Y-14.627
X-14.535 Y-14.67
X-14.517 Y-14.71
X-14.506 Y-14.751
X-14.501 Y-14.792
X-14.5 Y-15.162
Y-19.546
G2 X-14.799 Y-19.836 I-0.3 J0.01
G1 X-14.8
X-14.824 Y-19.835
X-14.874 Y-19.817 Z-0.995
X-14.923 Y-19.8 Z-0.981
X-14.968 Y-19.785 Z-0.958
X-15.001 Y-19.748 Z-0.921
X-15.028 Y-19.718 Z-0.874
X-15.048 Y-19.695 Z-0.82
X-15.06 Y-19.682 Z-0.762
X-15.065 Y-19.677 Z-0.7
Z5.
X-20.037 Y-21.484
Z1.5
G2 X-21.377 Y-19.445 Z1.4 I0.037 J1.484 F15.
X-19.001 Y-18.906 Z1.3 I1.375 J-0.554
X-19.328 Y-21.318 Z1.2 I-1. J-1.092
X-21.47 Y-20.166 Z1.1 I-0.671 J1.318
X-19.643 Y-18.567 Z1. I1.468 J0.166
X-18.786 Y-20.836 Z0.9 I-0.359 J-1.431
X-21.209 Y-20.842 Z0.8 I-1.213 J0.837
X-20.366 Y-18.574 Z0.7 I1.208 J0.842
X-18.54 Y-20.157 Z0.6 I0.364 J-1.425
X-20.66 Y-21.311 Z0.5 I-1.46 J0.158
X-20.996 Y-18.923 Z0.4 I0.66 J1.31
X-18.645 Y-19.445 Z0.3 I0.995 J-1.076
X-19.957 Y-21.461 Z0.2 I-1.355 J-0.553
X-21.384 Y-19.528 Z0.1 I-0.043 J1.461
X-19.076 Y-18.871 Z0. I1.382 J-0.472
X-19.27 Y-21.26 Z-0.1 I-0.925 J-1.127
X-21.436 Y-20.242 Z-0.2 I-0.73 J1.26
X-19.725 Y-18.572 Z-0.3 I1.435 J0.242
X-18.762 Y-20.757 Z-0.4 I-0.277 J-1.426
X-21.144 Y-20.892 Z-0.5 I-1.237 J0.758
X-20.435 Y-18.617 Z-0.6 I1.143 J0.892
X-18.556 Y-20.077 Z-0.7 I0.434 J-1.381
X-20.579 Y-21.323 Z-0.8 I-1.444 J0.078
X-21.037 Y-18.994 Z-0.9 I0.579 J1.323
X-18.698 Y-19.382 Z-1. I1.035 J-1.005
X-19.88 Y-21.434 Z-1.1 I-1.302 J-0.616
X-21.385 Y-19.609 Z-1.2 I-0.12 J1.434
X-19.151 Y-18.841 Z-1.3 I1.383 J-0.39
X-19.215 Y-21.2 Z-1.4 I-0.849 J-1.157
X-21.399 Y-20.314 Z-1.5 I-0.785 J1.2
X-19.805 Y-18.581 Z-1.6 I1.397 J0.314
X-18.743 Y-20.679 Z-1.7 I-0.196 J-1.417
X-21.077 Y-20.937 Z-1.8 I-1.257 J0.68
X-20.501 Y-18.664 Z-1.9 I1.076 J0.937
X-18.577 Y-19.999 Z-2. I0.5 J-1.335
X-21.427 I-1.425 J0.
X-18.577 I1.425 J0.
G1 X-18.542 Y-20.72 F300.
X-18.525 Y-20.808
X-18.517 Y-20.958
X-18.537 Y-21.107
X-18.579 Y-21.251
X-18.641 Y-21.387
X-18.72 Y-21.515
X-18.812 Y-21.634
X-18.916 Y-21.741
X-19.031 Y-21.838
X-19.154 Y-21.924
X-19.284 Y-21.998
X-19.421 Y-22.06
X-19.562 Y-22.111
X-19.707 Y-22.15
X-19.859 Y-22.177
X-20.015 Y-22.193
X-20.174 Y-22.197
X-20.336 Y-22.187
X-20.499 Y-22.164
X-20.662 Y-22.128
X-20.822 Y-22.078
X-20.98 Y-22.015
X-21.134 Y-21.938
X-21.283 Y-21.849
X-21.424 Y-21.747
X-21.558 Y-21.634
X-21.683 Y-21.51
X-21.798 Y-21.375
X-21.903 Y-21.231
X-21.996 Y-21.079
X-22.076 Y-20.919
X-22.144 Y-20.752
X-22.198 Y-20.58
X-22.239 Y-20.404
X-22.265 Y-20.225
X-22.277 Y-20.045
X-22.274 Y-19.863
X-22.257 Y-19.682
X-22.225 Y-19.503
X-22.179 Y-19.327
X-22.119 Y-19.155
X-22.045 Y-18.988
X-21.958 Y-18.828
X-21.858 Y-18.675
X-21.746 Y-18.531
X-21.623 Y-18.395
X-21.49 Y-18.271
X-21.347 Y-18.157
X-21.195 Y-18.055
X-21.035 Y-17.965
X-20.869 Y-17.889
X-20.697 Y-17.826
X-20.521 Y-17.777
X-20.341 Y-17.743
X-20.159 Y-17.723
X-19.976 Y-17.717
X-19.793 Y-17.727
X-19.611 Y-17.751
X-19.432 Y-17.789
X-19.257 Y-17.842
X-19.086 Y-17.909
X-18.921 Y-17.989
X-18.763 Y-18.082
X-18.614 Y-18.188
X-18.473 Y-18.305
X-18.342 Y-18.433
X-18.221 Y-18.571
X-18.113 Y-18.719
X-18.011 Y-18.882
X-17.901 Y-19.097
X-17.768 Y-19.417
X-17.658 Y-19.754
X-17.594 Y-20.024
X-17.557 Y-20.261
X-17.541 Y-20.481
X-17.542 Y-20.696
X-17.56 Y-20.903
X-17.594 Y-21.1
X-17.642 Y-21.29
X-17.705 Y-21.474
X-17.783 Y-21.655
X-17.876 Y-21.83
X-17.983 Y-21.997
X-18.104 Y-22.156
X-18.238 Y-22.306
X-18.385 Y-22.446
X-18.546 Y-22.576
X-18.718 Y-22.694
X-18.902 Y-22.799
X-19.097 Y-22.891
X-19.302 Y-22.968
X-19.516 Y-23.029
X-19.736 Y-23.073
X-19.963 Y-23.1
X-20.193 Y-23.108
X-20.426 Y-23.098
X-20.66 Y-23.069
X-20.893 Y-23.021
X-21.123 Y-22.954
X-21.348 Y-22.868
X-21.568 Y-22.763
X-21.78 Y-22.64
X-21.983 Y-22.5
X-22.174 Y-22.343
X-22.354 Y-22.171
X-22.52 Y-21.983
X-22.671 Y-21.782
X-22.805 Y-21.569
X-22.923 Y-21.345
X-23.023 Y-21.111
X-23.104 Y-20.869
X-23.165 Y-20.621
X-23.206 Y-20.369
X-23.227 Y-20.113
Y-19.856
X-23.207 Y-19.6
X-23.166 Y-19.345
X-23.105 Y-19.095
X-23.024 Y-18.85
X-22.923 Y-18.612
X-22.803 Y-18.382
X-22.665 Y-18.163
X-22.51 Y-17.956
X-22.339 Y-17.761
X-22.153 Y-17.581
X-21.952 Y-17.416
X-21.739 Y-17.268
X-21.515 Y-17.137
X-21.281 Y-17.025
X-21.039 Y-16.932
X-20.789 Y-16.858
X-20.535 Y-16.805
X-20.277 Y-16.773
X-20.018 Y-16.761
X-19.758 Y-16.77
X-19.5 Y-16.8
X-19.245 Y-16.85
X-18.995 Y-16.921
X-18.751 Y-17.012
X-18.515 Y-17.122
X-18.289 Y-17.25
X-18.074 Y-17.396
X-17.87 Y-17.56
X-17.672 Y-17.748
X-17.469 Y-17.973
X-17.276 Y-18.227
X-17.096 Y-18.505
X-16.937 Y-18.803
X-16.804 Y-19.109
X-16.699 Y-19.415
X-16.62 Y-19.721
X-16.568 Y-20.024
X-16.541 Y-20.323
X-16.539 Y-20.619
X-16.559 Y-20.909
X-16.603 Y-21.195
X-16.668 Y-21.474
X-16.756 Y-21.745
X-16.864 Y-22.007
X-16.993 Y-22.259
X-17.142 Y-22.501
X-17.311 Y-22.73
X-17.498 Y-22.946
X-17.703 Y-23.147
X-17.925 Y-23.333
X-18.163 Y-23.502
X-18.415 Y-23.652
X-18.682 Y-23.782
X-18.96 Y-23.892
X-19.249 Y-23.98
X-19.547 Y-24.044
X-19.851 Y-24.086
X-20.16 Y-24.102
X-20.472 Y-24.094
X-20.784 Y-24.06
X-21.094 Y-24.002
X-21.401 Y-23.917
X-21.702 Y-23.808
X-21.995 Y-23.674
X-22.278 Y-23.517
X-22.549 Y-23.336
X-22.805 Y-23.133
X-23.046 Y-22.909
X-23.268 Y-22.666
X-23.472 Y-22.404
X-23.654 Y-22.126
X-23.814 Y-21.833
X-23.95 Y-21.528
X-24.061 Y-21.212
X-24.147 Y-20.887
X-24.207 Y-20.555
X-24.24 Y-20.22
X-24.246 Y-19.882
X-24.225 Y-19.544
X-24.177 Y-19.208
X-24.101 Y-18.877
X-24. Y-18.553
X-23.872 Y-18.238
X-23.72 Y-17.934
X-23.544 Y-17.643
X-23.344 Y-17.367
X-23.123 Y-17.107
X-22.882 Y-16.866
X-22.622 Y-16.645
X-22.346 Y-16.446
X-22.054 Y-16.269
X-21.748 Y-16.116
X-21.431 Y-15.989
X-21.105 Y-15.887
X-20.772 Y-15.811
X-20.434 Y-15.763
X-20.093 Y-15.742
X-19.751 Y-15.748
X-19.411 Y-15.782
X-19.075 Y-15.843
X-18.744 Y-15.93
X-18.422 Y-16.044
X-18.109 Y-16.184
X-17.806 Y-16.35
X-17.509 Y-16.544
X-17.22 Y-16.769
X-16.941 Y-17.024
X-16.677 Y-17.309
X-16.432 Y-17.619
X-16.211 Y-17.951
X-16.017 Y-18.299
X-15.852 Y-18.661
X-15.718 Y-19.031
X-15.615 Y-19.408
X-15.543 Y-19.788
X-15.502 Y-20.17
X-15.492 Y-20.55
X-15.513 Y-20.927
X-15.563 Y-21.298
X-15.643 Y-21.662
X-15.751 Y-22.018
X-15.887 Y-22.363
X-16.05 Y-22.695
X-16.24 Y-23.013
X-16.454 Y-23.316
X-16.693 Y-23.601
X-16.955 Y-23.867
X-17.238 Y-24.112
X-17.542 Y-24.335
X-17.864 Y-24.533
X-18.204 Y-24.706
X-18.558 Y-24.853
X-18.925 Y-24.971
X-19.303 Y-25.06
X-19.689 Y-25.118
X-20.081 Y-25.146
X-20.476 Y-25.142
X-20.872 Y-25.106
X-21.266 Y-25.038
X-21.655 Y-24.938
X-22.036 Y-24.807
X-22.408 Y-24.644
X-22.767 Y-24.452
X-23.111 Y-24.23
X-23.438 Y-23.981
X-23.744 Y-23.705
X-24.028 Y-23.404
X-24.288 Y-23.08
X-24.522 Y-22.736
X-24.728 Y-22.372
X-24.905 Y-21.993
X-25.051 Y-21.599
X-25.165 Y-21.195
X-25.247 Y-20.782
X-25.295 Y-20.362
X-25.31 Y-19.94
X-25.29 Y-19.517
X-25.237 Y-19.097
X-25.15 Y-18.682
X-25.029 Y-18.274
X-24.876 Y-17.878
X-24.692 Y-17.494
X-24.478 Y-17.127
X-24.234 Y-16.777
X-23.963 Y-16.448
X-23.667 Y-16.142
X-23.347 Y-15.861
X-23.005 Y-15.606
X-22.643 Y-15.379
X-22.265 Y-15.182
X-21.871 Y-15.015
X-21.466 Y-14.881
X-21.051 Y-14.78
X-20.629 Y-14.713
X-20.203 Y-14.679
X-19.776 Y-14.68
X-19.35 Y-14.715
X-18.928 Y-14.784
X-18.513 Y-14.887
X-18.105 Y-15.024
X-17.705 Y-15.194
X-17.316 Y-15.399
X-16.94 Y-15.637
X-16.577 Y-15.91
X-16.23 Y-16.217
X-15.905 Y-16.556
X-15.604 Y-16.924
X-15.333 Y-17.317
X-15.093 Y-17.731
X-14.887 Y-18.163
X-14.718 Y-18.609
X-14.585 Y-19.065
X-14.514 Y-19.407
X-14.506 Y-19.454
X-14.502 Y-19.501
X-14.5 Y-19.549
Y-20.735
X-14.525 Y-21.231
X-14.577 Y-21.625
X-14.663 Y-22.028
X-14.784 Y-22.434
X-14.941 Y-22.835
X-15.132 Y-23.229
X-15.356 Y-23.611
X-15.613 Y-23.976
X-15.901 Y-24.323
X-16.218 Y-24.648
X-16.563 Y-24.949
X-16.933 Y-25.223
X-17.209 Y-25.394
X-17.325 Y-25.452
X-17.449 Y-25.488
X-17.579 Y-25.5
G2 X-17.868 Y-25.19 Z-1.8 I0.01 J0.3
G1 X-17.862 Y-25.138
X-17.847 Y-25.088
X-17.823 Y-25.042
X-17.761 Y-24.942
X-15.055 Y-20.587
X-15.043 Y-20.57
G2 X-14.81 Y-20.445 I0.243 J-0.175 F100.
X-14.5 Y-20.735 Z-2. I0.01 J-0.3
G1 Y-23.193 F300.
X-14.509 Y-23.365
X-14.531 Y-23.539
X-14.575 Y-23.742
X-14.64 Y-23.961
X-14.735 Y-24.204
X-14.859 Y-24.459
X-15.028 Y-24.746
X-15.224 Y-25.025
X-15.408 Y-25.247
X-15.56 Y-25.383
X-15.745 Y-25.47
X-15.947 Y-25.5
G2 X-16.236 Y-25.19 Z-1.8 I0.01 J0.3
G1 X-16.23 Y-25.142
X-16.217 Y-25.096
X-16.197 Y-25.052
X-16.133 Y-24.94
X-15.061 Y-23.055
X-15.043 Y-23.028
G2 X-14.81 Y-22.904 I0.243 J-0.175 F100.
X-14.5 Y-23.193 Z-2. I0.01 J-0.3
G1 Y-24.759 F300.
X-14.507 Y-24.908
X-14.509 Y-24.916
X-14.568 Y-25.103
X-14.677 Y-25.266
X-14.826 Y-25.392
X-15.005 Y-25.473
X-15.199 Y-25.5
G2 X-15.488 Y-25.19 Z-1.8 I0.01 J0.3
G1 X-15.482 Y-25.138
X-15.467 Y-25.088
X-15.443 Y-25.041
X-15.411 Y-24.999
X-15.369 Y-24.952
X-15.045 Y-24.592
X-15.023 Y-24.568 F100.
X-14.978 Y-24.528
X-14.926 Y-24.497
X-14.87 Y-24.477
X-14.81 Y-24.469
G2 X-14.5 Y-24.759 Z-2. I0.01 J-0.3
G1 Y-25.203 F300.
X-14.506 Y-25.246
X-14.517 Y-25.285
X-14.533 Y-25.324
X-14.555 Y-25.359
X-14.582 Y-25.395
X-14.604 Y-25.418
X-14.626 Y-25.437
X-14.67 Y-25.465
X-14.698 Y-25.478
X-14.726 Y-25.488
X-14.753 Y-25.494
X-14.78 Y-25.498
X-14.834 Y-25.5
X-22.046
X-22.266 Y-25.489
X-22.49 Y-25.46
X-22.718 Y-25.411
X-22.982 Y-25.332
X-23.257 Y-25.225
X-23.545 Y-25.085
X-23.855 Y-24.903
X-24.172 Y-24.68
X-24.477 Y-24.427
X-24.779 Y-24.132
X-25.072 Y-23.796
X-25.347 Y-23.424
X-25.394 Y-23.348
X-25.452 Y-23.232
X-25.488 Y-23.108
X-25.5 Y-22.978
G2 X-25.19 Y-22.689 Z-1.8 I0.3 J-0.01
G1 X-25.133 Y-22.697
X-25.078 Y-22.715
X-25.028 Y-22.743
X-24.946 Y-22.801
X-21.884 Y-24.955
X-21.881 Y-24.957
G2 X-21.756 Y-25.19 I-0.175 J-0.243 F100.
X-22.046 Y-25.5 Z-2. I-0.3 J-0.01
G1 X-23.775 F300.
X-23.925 Y-25.493
X-24.075 Y-25.472
X-24.242 Y-25.435
X-24.433 Y-25.377
X-24.629 Y-25.3
X-24.857 Y-25.188
X-25.084 Y-25.053
X-25.205 Y-24.967
X-25.363 Y-24.812
X-25.465 Y-24.615
X-25.5 Y-24.396
G2 X-25.19 Y-24.107 Z-1.8 I0.3 J-0.01
G1 X-25.143 Y-24.112
X-25.097 Y-24.125
X-25.053 Y-24.145
X-24.94 Y-24.209
X-23.639 Y-24.939
X-23.61 Y-24.957
G2 X-23.486 Y-25.19 I-0.175 J-0.243 F100.
X-23.775 Y-25.5 Z-2. I-0.3 J-0.01
G1 X-25.086 F300.
X-25.127
X-25.16
X-25.169 Y-25.499
X-25.269 Y-25.479
X-25.36 Y-25.435
X-25.438 Y-25.37
G2 X-25.46 Y-25.046 Z-1.856 I0.28 J0.182
G1 X-25.426 Y-24.99 Z-1.828
X-25.381 Y-24.941 Z-1.8
G2 X-24.949 Y-24.953 I0.209 J-0.24
X-24.853 Y-25.2 I-0.222 J-0.229 F100.
X-25.16 Y-25.5 Z-2. I-0.318 J0.018
G1 X-25.215 Y-25.499 F300.
X-25.243 Y-25.495
X-25.271 Y-25.488
X-25.297 Y-25.479
X-25.324 Y-25.467
X-25.36 Y-25.445
X-25.395 Y-25.415
X-25.438 Y-25.37
X-25.454 Y-25.347
X-25.467 Y-25.324
X-25.479 Y-25.297
X-25.488 Y-25.271
X-25.495 Y-25.243
X-25.499 Y-25.215
X-25.5 Y-25.16
Y-17.784
X-25.491 Y-17.606
X-25.464 Y-17.398
X-25.419 Y-17.187
X-25.344 Y-16.936
X-25.246 Y-16.686
X-25.109 Y-16.403
X-24.935 Y-16.108
X-24.73 Y-15.815
X-24.476 Y-15.51
X-24.179 Y-15.205
X-23.841 Y-14.911
X-23.469 Y-14.635
X-23.421 Y-14.606
X-23.305 Y-14.548
X-23.18 Y-14.512
X-23.051 Y-14.5
G2 X-22.762 Y-14.81 Z-1.8 I-0.01 J-0.3
G1 X-22.77 Y-14.868
X-22.789 Y-14.924
X-22.818 Y-14.975
X-22.875 Y-15.054
X-24.957 Y-17.949
G2 X-25.19 Y-18.074 I-0.244 J0.175 F100.
X-25.5 Y-17.784 Z-2. I-0.01 J0.3
G1 Y-16.145 F300.
X-25.493 Y-15.995
X-25.471 Y-15.847
X-25.433 Y-15.676
X-25.376 Y-15.495
X-25.295 Y-15.295
X-25.185 Y-15.077
X-25.044 Y-14.845
X-25.005 Y-14.79
X-24.85 Y-14.634
X-24.654 Y-14.534
X-24.437 Y-14.5
G2 X-24.148 Y-14.81 Z-1.8 I-0.01 J-0.3
G1 X-24.153 Y-14.858
X-24.166 Y-14.904
X-24.186 Y-14.947
X-24.25 Y-15.06
X-24.939 Y-16.282
X-24.957 Y-16.31
G2 X-25.19 Y-16.434 I-0.243 J0.175 F100.
X-25.5 Y-16.145 Z-2. I-0.01 J0.3
G1 Y-14.908 F300.
Y-14.867
Y-14.834
X-25.498 Y-14.807
X-25.488 Y-14.743
X-25.467 Y-14.683
X-25.437 Y-14.626
G2 X-25.116 Y-14.539 Z-1.851 I0.229 J-0.212
G1 X-25.061 Y-14.563 Z-1.826
X-25.011 Y-14.597 Z-1.8
G2 X-24.958 Y-14.991 I-0.192 J-0.226
X-25.188 Y-15.12 I-0.245 J0.168 F100.
X-25.5 Y-14.834 Z-2. I-0.015 J0.297
G1 X-25.498 Y-14.78 F300.
X-25.494 Y-14.753
X-25.488 Y-14.726
X-25.478 Y-14.698
X-25.465 Y-14.67
X-25.437 Y-14.626
X-25.418 Y-14.604
X-25.395 Y-14.582
X-25.359 Y-14.555
X-25.324 Y-14.533
X-25.285 Y-14.517
X-25.246 Y-14.506
X-25.203 Y-14.5
X-17.784
X-17.583 Y-14.51
X-17.391 Y-14.535
X-17.159 Y-14.585
X-16.923 Y-14.656
X-16.644 Y-14.764
X-16.368 Y-14.898
X-16.059 Y-15.08
X-15.731 Y-15.311
X-15.415 Y-15.573
X-15.092 Y-15.888
X-14.773 Y-16.254
X-14.637 Y-16.437
X-14.562 Y-16.565
X-14.516 Y-16.706
X-14.5 Y-16.853
G2 X-14.81 Y-17.143 Z-1.8 I-0.3 J0.01
G1 X-14.866 Y-17.135
X-14.92 Y-17.118
X-14.97 Y-17.09
X-15.055 Y-17.032
X-17.944 Y-15.047
X-17.949 Y-15.043
G2 X-18.074 Y-14.81 I0.175 J0.243 F100.
X-17.784 Y-14.5 Z-2. I0.3 J0.01
G1 X-16.145 F300.
X-15.973 Y-14.509
X-15.823 Y-14.528
X-15.658 Y-14.564
X-15.463 Y-14.622
X-15.269 Y-14.698
X-15.036 Y-14.811
X-14.806 Y-14.946
X-14.798 Y-14.952
X-14.638 Y-15.107
X-14.535 Y-15.305
X-14.5 Y-15.525
G2 X-14.81 Y-15.814 Z-1.8 I-0.3 J0.01
G1 X-14.878 Y-15.804
X-14.941 Y-15.779
X-15.062 Y-15.714
X-16.276 Y-15.064
X-16.31 Y-15.043
G2 X-16.434 Y-14.81 I0.175 J0.243 F100.
X-16.145 Y-14.5 Z-2. I0.3 J0.01
G1 X-14.908 F300.
X-14.792 Y-14.501
X-14.751 Y-14.506
X-14.71 Y-14.517
X-14.67 Y-14.535
X-14.636 Y-14.556
X-14.602 Y-14.584
X-14.563 Y-14.627
X-14.535 Y-14.67
X-14.517 Y-14.71
X-14.506 Y-14.751
X-14.501 Y-14.792
X-14.5 Y-15.162
Y-19.549
G2 X-14.799 Y-19.838 I-0.3 J0.01
G1 X-14.8
X-14.824 Y-19.837
X-14.874 Y-19.82 Z-1.995
X-14.923 Y-19.803 Z-1.981
X-14.968 Y-19.787 Z-1.958
X-15.001 Y-19.75 Z-1.921
X-15.028 Y-19.72 Z-1.874
X-15.048 Y-19.698 Z-1.82
X-15.06 Y-19.684 Z-1.762
X-15.065 Y-19.679 Z-1.7
Z5.
X-20.141 Y-18.531
Z0.5
G2 X-18.579 Y-20.399 Z0.4 I0.141 J-1.469 F15.
X-20.882 Y-21.18 Z0.3 I-1.419 J0.399
X-20.778 Y-18.753 Z0.2 I0.883 J1.178
X-18.555 Y-19.726 Z0.1 I0.778 J-1.248
X-20.264 Y-21.445 Z0. I-1.443 J-0.274
X-21.248 Y-19.233 Z-0.1 I0.265 J1.443
X-18.833 Y-19.115 Z-0.2 I1.248 J-0.768
X-19.594 Y-21.407 Z-0.3 I-1.166 J-0.885
X-21.454 Y-19.87 Z-0.4 I-0.404 J1.405
X-19.352 Y-18.693 Z-0.5 I1.454 J-0.131
X-19.014 Y-21.076 Z-0.6 I-0.647 J-1.307
X-21.355 Y-20.53 Z-0.7 I-0.984 J1.074
X-20.002 Y-18.547 Z-0.8 I1.355 J0.528
X-18.644 Y-20.523 Z-0.9 I0.003 J-1.453
X-20.974 Y-21.075 Z-1. I-1.354 J0.522
X-20.647 Y-18.706 Z-1.1 I0.975 J1.073
X-18.558 Y-19.865 Z-1.2 I0.647 J-1.295
X-20.392 Y-21.392 Z-1.3 I-1.44 J-0.136
X-21.152 Y-19.133 Z-1.4 I0.393 J1.39
X-18.774 Y-19.24 Z-1.5 I1.152 J-0.868
X-19.732 Y-21.416 Z-1.6 I-1.224 J-0.76
X-21.413 Y-19.739 Z-1.7 I-0.266 J1.414
X-19.244 Y-18.779 Z-1.8 I1.413 J-0.263
X-19.133 Y-21.145 Z-1.9 I-0.755 J-1.221
X-21.377 Y-20.395 Z-2. I-0.865 J1.144
X-19.868 Y-18.576 Z-2.1 I1.377 J0.393
X-18.719 Y-20.637 Z-2.2 I-0.131 J-1.424
X-21.053 Y-20.964 Z-2.3 I-1.279 J0.636
X-20.515 Y-18.672 Z-2.4 I1.054 J0.962
X-18.575 Y-20.001 Z-2.5 I0.515 J-1.329
X-21.425 I-1.425 J0.
X-18.575 I1.425 J0.
G1 X-18.54 Y-20.722 F300.
X-18.523 Y-20.81
X-18.515 Y-20.96
X-18.535 Y-21.109
X-18.577 Y-21.253
X-18.639 Y-21.389
X-18.718 Y-21.517
X-18.81 Y-21.636
X-18.914 Y-21.743
X-19.029 Y-21.84
X-19.152 Y-21.926
X-19.282 Y-22.
X-19.419 Y-22.062
X-19.56 Y-22.113
X-19.705 Y-22.152
X-19.857 Y-22.179
X-20.013 Y-22.195
X-20.172 Y-22.199
X-20.334 Y-22.189
X-20.497 Y-22.166
X-20.66 Y-22.13
X-20.821 Y-22.08
X-20.979 Y-22.017
X-21.132 Y-21.94
X-21.281 Y-21.851
X-21.422 Y-21.749
X-21.556 Y-21.636
X-21.681 Y-21.512
X-21.796 Y-21.377
X-21.901 Y-21.233
X-21.994 Y-21.081
X-22.074 Y-20.921
X-22.142 Y-20.754
X-22.197 Y-20.582
X-22.237 Y-20.406
X-22.263 Y-20.227
X-22.275 Y-20.047
X-22.272 Y-19.865
X-22.255 Y-19.684
X-22.223 Y-19.505
X-22.177 Y-19.329
X-22.117 Y-19.157
X-22.043 Y-18.99
X-21.956 Y-18.83
X-21.856 Y-18.677
X-21.744 Y-18.533
X-21.621 Y-18.397
X-21.488 Y-18.272
X-21.345 Y-18.159
X-21.193 Y-18.057
X-21.033 Y-17.967
X-20.867 Y-17.891
X-20.695 Y-17.828
X-20.519 Y-17.779
X-20.339 Y-17.744
X-20.157 Y-17.724
X-19.974 Y-17.719
X-19.791 Y-17.728
X-19.609 Y-17.753
X-19.43 Y-17.791
X-19.255 Y-17.844
X-19.084 Y-17.911
X-18.919 Y-17.991
X-18.761 Y-18.084
X-18.612 Y-18.189
X-18.471 Y-18.307
X-18.34 Y-18.435
X-18.22 Y-18.573
X-18.111 Y-18.72
X-18.009 Y-18.884
X-17.899 Y-19.099
X-17.766 Y-19.418
X-17.656 Y-19.756
X-17.592 Y-20.026
X-17.555 Y-20.263
X-17.539 Y-20.483
X-17.54 Y-20.698
X-17.558 Y-20.905
X-17.592 Y-21.102
X-17.64 Y-21.292
X-17.703 Y-21.476
X-17.781 Y-21.657
X-17.874 Y-21.832
X-17.981 Y-21.999
X-18.102 Y-22.158
X-18.236 Y-22.308
X-18.383 Y-22.448
X-18.544 Y-22.578
X-18.716 Y-22.696
X-18.9 Y-22.801
X-19.095 Y-22.893
X-19.3 Y-22.97
X-19.514 Y-23.031
X-19.734 Y-23.075
X-19.961 Y-23.102
X-20.191 Y-23.11
X-20.424 Y-23.1
X-20.658 Y-23.071
X-20.891 Y-23.023
X-21.121 Y-22.956
X-21.346 Y-22.87
X-21.566 Y-22.765
X-21.778 Y-22.642
X-21.981 Y-22.502
X-22.172 Y-22.345
X-22.352 Y-22.173
X-22.518 Y-21.985
X-22.669 Y-21.784
X-22.804 Y-21.571
X-22.921 Y-21.347
X-23.021 Y-21.113
X-23.102 Y-20.871
X-23.163 Y-20.623
X-23.204 Y-20.371
X-23.225 Y-20.115
Y-19.858
X-23.205 Y-19.602
X-23.164 Y-19.347
X-23.103 Y-19.097
X-23.022 Y-18.852
X-22.921 Y-18.614
X-22.801 Y-18.384
X-22.663 Y-18.165
X-22.508 Y-17.958
X-22.337 Y-17.763
X-22.151 Y-17.583
X-21.951 Y-17.418
X-21.738 Y-17.27
X-21.513 Y-17.139
X-21.279 Y-17.027
X-21.037 Y-16.934
X-20.788 Y-16.86
X-20.533 Y-16.807
X-20.275 Y-16.775
X-20.016 Y-16.763
X-19.756 Y-16.772
X-19.498 Y-16.802
X-19.243 Y-16.852
X-18.993 Y-16.923
X-18.749 Y-17.014
X-18.513 Y-17.123
X-18.287 Y-17.252
X-18.072 Y-17.398
X-17.868 Y-17.562
X-17.67 Y-17.75
X-17.467 Y-17.975
X-17.274 Y-18.229
X-17.094 Y-18.507
X-16.935 Y-18.805
X-16.802 Y-19.111
X-16.697 Y-19.417
X-16.618 Y-19.723
X-16.566 Y-20.026
X-16.539 Y-20.325
X-16.537 Y-20.62
X-16.557 Y-20.911
X-16.601 Y-21.197
X-16.666 Y-21.475
X-16.754 Y-21.747
X-16.862 Y-22.009
X-16.991 Y-22.261
X-17.14 Y-22.503
X-17.309 Y-22.732
X-17.496 Y-22.948
X-17.701 Y-23.149
X-17.923 Y-23.335
X-18.161 Y-23.504
X-18.413 Y-23.654
X-18.68 Y-23.784
X-18.958 Y-23.894
X-19.247 Y-23.982
X-19.545 Y-24.046
X-19.849 Y-24.087
X-20.158 Y-24.104
X-20.47 Y-24.096
X-20.782 Y-24.062
X-21.092 Y-24.003
X-21.399 Y-23.919
X-21.7 Y-23.81
X-21.993 Y-23.676
X-22.276 Y-23.519
X-22.547 Y-23.338
X-22.803 Y-23.135
X-23.044 Y-22.911
X-23.266 Y-22.668
X-23.47 Y-22.406
X-23.652 Y-22.128
X-23.812 Y-21.835
X-23.948 Y-21.53
X-24.059 Y-21.214
X-24.145 Y-20.889
X-24.205 Y-20.557
X-24.238 Y-20.222
X-24.244 Y-19.884
X-24.223 Y-19.546
X-24.175 Y-19.21
X-24.099 Y-18.88
X-23.998 Y-18.555
X-23.871 Y-18.24
X-23.718 Y-17.936
X-23.542 Y-17.645
X-23.343 Y-17.369
X-23.122 Y-17.109
X-22.88 Y-16.868
X-22.621 Y-16.647
X-22.344 Y-16.448
X-22.052 Y-16.271
X-21.746 Y-16.118
X-21.43 Y-15.991
X-21.104 Y-15.889
X-20.77 Y-15.813
X-20.432 Y-15.765
X-20.091 Y-15.744
X-19.749 Y-15.75
X-19.409 Y-15.784
X-19.073 Y-15.844
X-18.742 Y-15.932
X-18.42 Y-16.046
X-18.107 Y-16.186
X-17.804 Y-16.351
X-17.507 Y-16.546
X-17.218 Y-16.771
X-16.94 Y-17.026
X-16.675 Y-17.311
X-16.43 Y-17.621
X-16.209 Y-17.952
X-16.015 Y-18.301
X-15.85 Y-18.662
X-15.716 Y-19.033
X-15.613 Y-19.41
X-15.541 Y-19.79
X-15.5 Y-20.171
X-15.491 Y-20.552
X-15.511 Y-20.928
X-15.561 Y-21.3
X-15.641 Y-21.664
X-15.749 Y-22.02
X-15.885 Y-22.365
X-16.048 Y-22.697
X-16.238 Y-23.015
X-16.452 Y-23.318
X-16.691 Y-23.603
X-16.952 Y-23.869
X-17.236 Y-24.114
X-17.54 Y-24.336
X-17.862 Y-24.535
X-18.202 Y-24.708
X-18.556 Y-24.855
X-18.923 Y-24.973
X-19.301 Y-25.062
X-19.687 Y-25.12
X-20.079 Y-25.148
X-20.474 Y-25.144
X-20.87 Y-25.108
X-21.264 Y-25.04
X-21.653 Y-24.94
X-22.034 Y-24.809
X-22.406 Y-24.646
X-22.765 Y-24.454
X-23.109 Y-24.232
X-23.436 Y-23.983
X-23.742 Y-23.707
X-24.026 Y-23.406
X-24.286 Y-23.082
X-24.52 Y-22.738
X-24.726 Y-22.374
X-24.903 Y-21.995
X-25.049 Y-21.602
X-25.164 Y-21.197
X-25.245 Y-20.784
X-25.293 Y-20.364
X-25.308 Y-19.942
X-25.288 Y-19.519
X-25.235 Y-19.099
X-25.148 Y-18.684
X-25.027 Y-18.276
X-24.875 Y-17.88
X-24.69 Y-17.496
X-24.476 Y-17.129
X-24.232 Y-16.779
X-23.962 Y-16.45
X-23.665 Y-16.144
X-23.345 Y-15.863
X-23.003 Y-15.608
X-22.641 Y-15.381
X-22.263 Y-15.184
X-21.869 Y-15.017
X-21.464 Y-14.883
X-21.049 Y-14.782
X-20.627 Y-14.715
X-20.201 Y-14.681
X-19.774 Y-14.682
X-19.348 Y-14.717
X-18.926 Y-14.786
X-18.511 Y-14.889
X-18.103 Y-15.026
X-17.703 Y-15.196
X-17.314 Y-15.401
X-16.938 Y-15.639
X-16.575 Y-15.912
X-16.228 Y-16.219
X-15.903 Y-16.558
X-15.602 Y-16.925
X-15.331 Y-17.318
X-15.091 Y-17.733
X-14.885 Y-18.165
X-14.716 Y-18.611
X-14.583 Y-19.067
X-14.514 Y-19.4
X-14.506 Y-19.446
X-14.502 Y-19.494
X-14.5 Y-19.541
Y-20.735
X-14.525 Y-21.239
X-14.577 Y-21.632
X-14.663 Y-22.034
X-14.784 Y-22.438
X-14.94 Y-22.839
X-15.131 Y-23.232
X-15.355 Y-23.614
X-15.612 Y-23.979
X-15.9 Y-24.325
X-16.217 Y-24.65
X-16.561 Y-24.951
X-16.931 Y-25.225
X-17.204 Y-25.394
X-17.32 Y-25.452
X-17.444 Y-25.488
X-17.574 Y-25.5
G2 X-17.863 Y-25.19 Z-2.3 I0.01 J0.3
G1 X-17.857 Y-25.138
X-17.842 Y-25.088
X-17.818 Y-25.042
X-17.756 Y-24.942
X-15.055 Y-20.587
X-15.043 Y-20.57
G2 X-14.81 Y-20.445 I0.243 J-0.175 F100.
X-14.5 Y-20.735 Z-2.5 I0.01 J-0.3
G1 Y-23.193 F300.
X-14.509 Y-23.37
X-14.532 Y-23.543
X-14.575 Y-23.746
X-14.64 Y-23.965
X-14.735 Y-24.207
X-14.859 Y-24.463
X-15.028 Y-24.75
X-15.224 Y-25.028
X-15.405 Y-25.247
X-15.557 Y-25.383
X-15.742 Y-25.47
X-15.944 Y-25.5
G2 X-16.233 Y-25.19 Z-2.3 I0.01 J0.3
G1 X-16.228 Y-25.142
X-16.215 Y-25.096
X-16.194 Y-25.052
X-16.13 Y-24.94
X-15.061 Y-23.056
X-15.043 Y-23.028
G2 X-14.81 Y-22.904 I0.243 J-0.175 F100.
X-14.5 Y-23.193 Z-2.5 I0.01 J-0.3
G1 Y-24.759 F300.
X-14.507 Y-24.908
X-14.509 Y-24.915
X-14.567 Y-25.102
X-14.676 Y-25.265
X-14.826 Y-25.392
X-15.005 Y-25.472
X-15.199 Y-25.5
G2 X-15.488 Y-25.19 Z-2.3 I0.01 J0.3
G1 X-15.482 Y-25.138
X-15.467 Y-25.088
X-15.443 Y-25.041
X-15.411 Y-24.999
X-15.369 Y-24.952
X-15.045 Y-24.592
X-15.023 Y-24.568 F100.
X-14.978 Y-24.528
X-14.926 Y-24.497
X-14.87 Y-24.477
X-14.81 Y-24.469
G2 X-14.5 Y-24.759 Z-2.5 I0.01 J-0.3
G1 Y-25.203 F300.
X-14.506 Y-25.246
X-14.517 Y-25.285
X-14.533 Y-25.324
X-14.555 Y-25.359
X-14.582 Y-25.395
X-14.604 Y-25.418
X-14.626 Y-25.437
X-14.67 Y-25.465
X-14.698 Y-25.478
X-14.726 Y-25.488
X-14.753 Y-25.494
X-14.78 Y-25.498
X-14.834 Y-25.5
X-22.046
X-22.267 Y-25.489
X-22.491 Y-25.46
X-22.719 Y-25.411
X-22.982 Y-25.332
X-23.257 Y-25.225
X-23.544 Y-25.086
X-23.854 Y-24.903
X-24.171 Y-24.681
X-24.476 Y-24.428
X-24.778 Y-24.133
X-25.07 Y-23.798
X-25.345 Y-23.426
X-25.394 Y-23.347
X-25.452 Y-23.231
X-25.488 Y-23.106
X-25.5 Y-22.977
G2 X-25.19 Y-22.688 Z-2.3 I0.3 J-0.01
G1 X-25.133 Y-22.695
X-25.078 Y-22.714
X-25.028 Y-22.742
X-24.946 Y-22.8
X-21.884 Y-24.955
X-21.881 Y-24.957
G2 X-21.756 Y-25.19 I-0.175 J-0.243 F100.
X-22.046 Y-25.5 Z-2.5 I-0.3 J-0.01
G1 X-23.775 F300.
X-23.925 Y-25.493
X-24.075 Y-25.472
X-24.242 Y-25.435
X-24.433 Y-25.377
X-24.629 Y-25.3
X-24.856 Y-25.188
X-25.083 Y-25.053
X-25.205 Y-24.967
X-25.363 Y-24.811
X-25.465 Y-24.615
X-25.5 Y-24.396
G2 X-25.19 Y-24.106 Z-2.3 I0.3 J-0.01
G1 X-25.143 Y-24.112
X-25.097 Y-24.125
X-25.053 Y-24.145
X-24.94 Y-24.209
X-23.639 Y-24.939
X-23.61 Y-24.957
G2 X-23.486 Y-25.19 I-0.175 J-0.243 F100.
X-23.775 Y-25.5 Z-2.5 I-0.3 J-0.01
G1 X-25.086 F300.
X-25.127
X-25.16
X-25.169 Y-25.499
X-25.269 Y-25.479
X-25.36 Y-25.435
X-25.438 Y-25.37
G2 X-25.46 Y-25.046 Z-2.356 I0.28 J0.182
G1 X-25.426 Y-24.99 Z-2.328
X-25.381 Y-24.941 Z-2.3
G2 X-24.949 Y-24.953 I0.209 J-0.24
X-24.853 Y-25.2 I-0.222 J-0.229 F100.
X-25.16 Y-25.5 Z-2.5 I-0.318 J0.018
G1 X-25.215 Y-25.499 F300.
X-25.243 Y-25.495
X-25.271 Y-25.488
X-25.297 Y-25.479
X-25.324 Y-25.467
X-25.36 Y-25.445
X-25.395 Y-25.415
X-25.438 Y-25.37
X-25.454 Y-25.347
X-25.467 Y-25.324
X-25.479 Y-25.297
X-25.488 Y-25.271
X-25.495 Y-25.243
X-25.499 Y-25.215
X-25.5 Y-25.16
Y-17.784
X-25.491 Y-17.611
X-25.464 Y-17.403
X-25.419 Y-17.191
X-25.344 Y-16.94
X-25.246 Y-16.69
X-25.108 Y-16.406
X-24.935 Y-16.111
X-24.729 Y-15.818
X-24.475 Y-15.513
X-24.178 Y-15.208
X-23.84 Y-14.913
X-23.467 Y-14.637
X-23.416 Y-14.606
X-23.3 Y-14.548
X-23.176 Y-14.512
X-23.046 Y-14.5
G2 X-22.757 Y-14.81 Z-2.3 I-0.01 J-0.3
G1 X-22.765 Y-14.868
X-22.784 Y-14.924
X-22.814 Y-14.975
X-22.87 Y-15.054
X-24.957 Y-17.949
G2 X-25.19 Y-18.074 I-0.243 J0.175 F100.
X-25.5 Y-17.784 Z-2.5 I-0.01 J0.3
G1 Y-16.145 F300.
X-25.493 Y-15.995
X-25.471 Y-15.847
X-25.432 Y-15.675
X-25.374 Y-15.494
X-25.292 Y-15.293
X-25.182 Y-15.075
X-25.04 Y-14.841
X-25.002 Y-14.789
X-24.847 Y-14.634
X-24.652 Y-14.534
X-24.435 Y-14.5
G2 X-24.146 Y-14.81 Z-2.3 I-0.01 J-0.3
G1 X-24.151 Y-14.858
X-24.164 Y-14.904
X-24.185 Y-14.947
X-24.248 Y-15.06
X-24.939 Y-16.282
X-24.957 Y-16.31
G2 X-25.19 Y-16.434 I-0.243 J0.175 F100.
X-25.5 Y-16.145 Z-2.5 I-0.01 J0.3
G1 Y-14.908 F300.
Y-14.867
Y-14.834
X-25.498 Y-14.807
X-25.488 Y-14.743
X-25.467 Y-14.683
X-25.437 Y-14.626
G2 X-25.116 Y-14.539 Z-2.351 I0.229 J-0.212
G1 X-25.061 Y-14.563 Z-2.326
X-25.011 Y-14.597 Z-2.3
G2 X-24.958 Y-14.991 I-0.192 J-0.226
X-25.188 Y-15.12 I-0.245 J0.168 F100.
X-25.5 Y-14.834 Z-2.5 I-0.015 J0.297
G1 X-25.498 Y-14.78 F300.
X-25.494 Y-14.753
X-25.488 Y-14.726
X-25.478 Y-14.698
X-25.465 Y-14.67
X-25.437 Y-14.626
X-25.418 Y-14.604
X-25.395 Y-14.582
X-25.359 Y-14.555
X-25.324 Y-14.533
X-25.285 Y-14.517
X-25.246 Y-14.506
X-25.203 Y-14.5
X-17.784
X-17.584 Y-14.51
X-17.391 Y-14.535
X-17.159 Y-14.585
X-16.923 Y-14.656
X-16.644 Y-14.764
X-16.368 Y-14.898
X-16.058 Y-15.081
X-15.73 Y-15.311
X-15.414 Y-15.573
X-15.09 Y-15.889
X-14.771 Y-16.255
X-14.637 Y-16.436
X-14.562 Y-16.564
X-14.516 Y-16.705
X-14.5 Y-16.852
G2 X-14.81 Y-17.142 Z-2.3 I-0.3 J0.01
G1 X-14.866 Y-17.134
X-14.92 Y-17.117
X-14.97 Y-17.089
X-15.055 Y-17.031
X-17.944 Y-15.047
X-17.949 Y-15.043
G2 X-18.074 Y-14.81 I0.175 J0.243 F100.
X-17.784 Y-14.5 Z-2.5 I0.3 J0.01
G1 X-16.145 F300.
X-15.973 Y-14.509
X-15.823 Y-14.528
X-15.657 Y-14.564
X-15.463 Y-14.622
X-15.268 Y-14.698
X-15.035 Y-14.811
X-14.805 Y-14.946
X-14.798 Y-14.951
X-14.638 Y-15.107
X-14.535 Y-15.304
X-14.5 Y-15.524
G2 X-14.81 Y-15.814 Z-2.3 I-0.3 J0.01
G1 X-14.878 Y-15.803
X-14.941 Y-15.778
X-15.062 Y-15.714
X-16.276 Y-15.064
X-16.31 Y-15.043
G2 X-16.434 Y-14.81 I0.175 J0.243 F100.
X-16.145 Y-14.5 Z-2.5 I0.3 J0.01
G1 X-14.908 F300.
X-14.792 Y-14.501
X-14.751 Y-14.506
X-14.71 Y-14.517
X-14.67 Y-14.535
X-14.636 Y-14.556
X-14.602 Y-14.584
X-14.563 Y-14.627
X-14.535 Y-14.67
X-14.517 Y-14.71
X-14.506 Y-14.751
X-14.501 Y-14.792
X-14.5 Y-15.162
Y-19.541
G2 X-14.799 Y-19.83 I-0.3 J0.01
G1 X-14.8
G2 X-15.065 Y-19.671 I0. J0.3
G1 X-15.096 Y-19.612 Z-2.492
X-15.126 Y-19.556 Z-2.47
X-15.153 Y-19.506 Z-2.435
X-15.175 Y-19.464 Z-2.387
X-15.192 Y-19.433 Z-2.33
X-15.202 Y-19.413 Z-2.267
X-15.206 Y-19.406 Z-2.2
Z5.
(WHEN USING FUSION 360 FOR PERSONAL USE, THE FEEDRATE OF)
(RAPID MOVES IS REDUCED TO MATCH THE FEEDRATE OF CUTTING)
(MOVES, WHICH CAN INCREASE MACHINING TIME. UNRESTRICTED RAPID)
(MOVES ARE AVAILABLE WITH A FUSION 360 SUBSCRIPTION.)

(2D POCKET3)
G0 X-0.336 Y-21.332
G1 Z5. F40.
Z2.8
X-0.322 Y-21.368 Z2.653 F15.
X-0.279 Y-21.464 Z2.544
X-0.208 Y-21.592 Z2.5
G3 X2.208 Y-20.08 Z2.344 I1.208 J0.756
X-0.208 Y-21.592 Z2.187 I-1.208 J-0.756
X2.208 Y-20.08 Z2.031 I1.208 J0.756
X-0.208 Y-21.592 Z1.875 I-1.208 J-0.756
X2.208 Y-20.08 Z1.718 I1.208 J0.756
X-0.208 Y-21.592 Z1.562 I-1.208 J-0.756
X2.208 Y-20.08 Z1.406 I1.208 J0.756
X-0.208 Y-21.592 Z1.249 I-1.208 J-0.756
X2.208 Y-20.08 Z1.093 I1.208 J0.756
X-0.208 Y-21.592 Z0.937 I-1.208 J-0.756
X2.208 Y-20.08 Z0.78 I1.208 J0.756
X-0.208 Y-21.592 Z0.624 I-1.208 J-0.756
X2.208 Y-20.08 Z0.468 I1.208 J0.756
X-0.208 Y-21.592 Z0.311 I-1.208 J-0.756
X2.208 Y-20.08 Z0.155 I1.208 J0.756
X-0.208 Y-21.592 Z-0.001 I-1.208 J-0.756
X2.208 Y-20.08 Z-0.158 I1.208 J0.756
X-0.208 Y-21.592 Z-0.314 I-1.208 J-0.756
X2.208 Y-20.08 Z-0.47 I1.208 J0.756
X-0.208 Y-21.592 Z-0.627 I-1.208 J-0.756
X2.208 Y-20.08 Z-0.783 I1.208 J0.756
X1. Y-19.411 Z-0.833 I-1.208 J-0.756
G1 X0.73 F300.
G3 X0.411 Y-19.73 I0. J-0.319
G1 Y-20.27
G3 X0.73 Y-20.589 I0.319 J0.
G1 X1.27
G3 X1.589 Y-20.27 I0. J0.319
G1 Y-19.73
G3 X1.27 Y-19.411 I-0.319 J0.
G1 X1.
G2 X0.134 Y-18.964 I0. J1.063
G3 X-0.795 Y-19.261 I-0.417 J-0.297
G1 Y-21.476
G3 X-0.476 Y-21.795 I0.319 J0.
G1 X2.476
G3 X2.795 Y-21.476 I0. J0.319
G1 Y-18.524
G3 X2.476 Y-18.205 I-0.319 J0.
G1 X-0.476
G3 X-0.795 Y-18.524 I0. J-0.319
G1 Y-19.261
G2 X-1.645 Y-20.536 I-1.381 J0.
G3 X-2.495 Y-21.811 I0.531 J-1.275
G1 Y-23.176
G3 X-2.176 Y-23.495 I0.319 J0.
G1 X4.176
G3 X4.495 Y-23.176 I0. J0.319
G1 Y-16.824
G3 X4.176 Y-16.505 I-0.319 J0.
G1 X-2.176
G3 X-2.495 Y-16.824 I0. J-0.319
G1 Y-21.811
G2 X-3.348 Y-23.089 I-1.385 J0.
G3 X-4.2 Y-24.368 I0.533 J-1.279
G1 Y-25.2
X6.2
Y-14.8
X-4.2
Y-24.368
G2 X-4.35 Y-24.593 I-0.244 J0.
G3 X-4.5 Y-24.818 I0.094 J-0.225
G1 Y-25.5
X6.5
Y-14.5
X-4.5
Y-24.818
G3 X-4.162 Y-24.963 I0.2 J0.
G1 X-0.538 Y-21.516
G2 X-0.228 Y-21.559 I0.138 J-0.145
G3 X2.228 Y-20.113 Z-0.99 I1.228 J0.723 F15.
X-0.228 Y-21.559 Z-1.146 I-1.228 J-0.723
X2.228 Y-20.113 Z-1.302 I1.228 J0.723
X-0.228 Y-21.559 Z-1.459 I-1.228 J-0.723
X2.228 Y-20.113 Z-1.615 I1.228 J0.723
X1. Y-19.411 Z-1.667 I-1.228 J-0.723
G1 X0.73 F300.
G3 X0.411 Y-19.73 I0. J-0.319
G1 Y-20.27
G3 X0.73 Y-20.589 I0.319 J0.
G1 X1.27
G3 X1.589 Y-20.27 I0. J0.319
G1 Y-19.73
G3 X1.27 Y-19.411 I-0.319 J0.
G1 X1.
G2 X0.134 Y-18.964 I0. J1.063
G3 X-0.795 Y-19.261 I-0.417 J-0.297
G1 Y-21.476
G3 X-0.476 Y-21.795 I0.319 J0.
G1 X2.476
G3 X2.795 Y-21.476 I0. J0.319
G1 Y-18.524
G3 X2.476 Y-18.205 I-0.319 J0.
G1 X-0.476
G3 X-0.795 Y-18.524 I0. J-0.319
G1 Y-19.261
G2 X-1.645 Y-20.536 I-1.381 J0.
G3 X-2.495 Y-21.811 I0.531 J-1.275
G1 Y-23.176
G3 X-2.176 Y-23.495 I0.319 J0.
G1 X4.176
G3 X4.495 Y-23.176 I0. J0.319
G1 Y-16.824
G3 X4.176 Y-16.505 I-0.319 J0.
G1 X-2.176
G3 X-2.495 Y-16.824 I0. J-0.319
G1 Y-21.811
G2 X-3.348 Y-23.089 I-1.385 J0.
G3 X-4.2 Y-24.368 I0.533 J-1.279
G1 Y-25.2
X6.2
Y-14.8
X-4.2
Y-24.368
G2 X-4.35 Y-24.593 I-0.244 J0.
G3 X-4.5 Y-24.818 I0.094 J-0.225
G1 Y-25.5
X6.5
Y-14.5
X-4.5
Y-24.818
G3 X-4.162 Y-24.963 I0.2 J0.
G1 X-0.538 Y-21.516
G2 X-0.228 Y-21.559 I0.138 J-0.145
G3 X2.228 Y-20.113 Z-1.823 I1.228 J0.723 F15.
X-0.228 Y-21.559 Z-1.979 I-1.228 J-0.723
X2.228 Y-20.113 Z-2.136 I1.228 J0.723
X-0.228 Y-21.559 Z-2.292 I-1.228 J-0.723
X2.228 Y-20.113 Z-2.448 I1.228 J0.723
X1. Y-19.411 Z-2.5 I-1.228 J-0.723
G1 X0.73 F300.
G3 X0.411 Y-19.73 I0. J-0.319
G1 Y-20.27
G3 X0.73 Y-20.589 I0.319 J0.
G1 X1.27
G3 X1.589 Y-20.27 I0. J0.319
G1 Y-19.73
G3 X1.27 Y-19.411 I-0.319 J0.
G1 X1.
G2 X0.134 Y-18.964 I0. J1.063
G3 X-0.795 Y-19.261 I-0.417 J-0.297
G1 Y-21.476
G3 X-0.476 Y-21.795 I0.319 J0.
G1 X2.476
G3 X2.795 Y-21.476 I0. J0.319
G1 Y-18.524
G3 X2.476 Y-18.205 I-0.319 J0.
G1 X-0.476
G3 X-0.795 Y-18.524 I0. J-0.319
G1 Y-19.261
G2 X-1.645 Y-20.536 I-1.381 J0.
G3 X-2.495 Y-21.811 I0.531 J-1.275
G1 Y-23.176
G3 X-2.176 Y-23.495 I0.319 J0.
G1 X4.176
G3 X4.495 Y-23.176 I0. J0.319
G1 Y-16.824
G3 X4.176 Y-16.505 I-0.319 J0.
G1 X-2.176
G3 X-2.495 Y-16.824 I0. J-0.319
G1 Y-21.811
G2 X-3.348 Y-23.089 I-1.385 J0.
G3 X-4.2 Y-24.368 I0.533 J-1.279
G1 Y-25.2
X6.2
Y-14.8
X-4.2
Y-24.368
G2 X-4.35 Y-24.593 I-0.244 J0.
G3 X-4.5 Y-24.818 I0.094 J-0.225
G1 Y-25.5
X6.5
Y-14.5
X-4.5
Y-24.818
X-4.495 Y-24.875 Z-2.489
X-4.478 Y-24.93 Z-2.477
X-4.457 Y-24.974 Z-2.445
X-4.428 Y-25.013 Z-2.412
X-4.381 Y-25.057 Z-2.315
X-4.362 Y-25.071 Z-2.2
Z5.
X1.251 Y-19.433
Z3.3 F40.
X1.218 Y-19.428 Z3.164 F15.
X1.129 Y-19.417 Z3.058
X1. Y-19.411 Z3.004
X0.962 Z3.
G3 X1.038 Y-22.261 Z2.844 I0.038 J-1.425
X0.962 Y-19.411 Z2.687 I-0.038 J1.425
X1.038 Y-22.261 Z2.531 I0.038 J-1.425
X0.962 Y-19.411 Z2.375 I-0.038 J1.425
X1.038 Y-22.261 Z2.218 I0.038 J-1.425
X0.962 Y-19.411 Z2.062 I-0.038 J1.425
X1.038 Y-22.261 Z1.906 I0.038 J-1.425
X0.962 Y-19.411 Z1.749 I-0.038 J1.425
X1.038 Y-22.261 Z1.593 I0.038 J-1.425
X0.962 Y-19.411 Z1.437 I-0.038 J1.425
X1.038 Y-22.261 Z1.28 I0.038 J-1.425
X0.962 Y-19.411 Z1.124 I-0.038 J1.425
X1.038 Y-22.261 Z0.968 I0.038 J-1.425
X0.962 Y-19.411 Z0.811 I-0.038 J1.425
X1.038 Y-22.261 Z0.655 I0.038 J-1.425
X1. Y-19.411 Z0.5 I-0.038 J1.425
G1 X0.73 F300.
G3 X0.411 Y-19.73 I0. J-0.319
G1 Y-20.27
G3 X0.73 Y-20.589 I0.319 J0.
G1 X1.27
G3 X1.589 Y-20.27 I0. J0.319
G1 Y-19.73
G3 X1.27 Y-19.411 I-0.319 J0.
G1 X1.
G2 X0.134 Y-18.964 I0. J1.063
G3 X-0.795 Y-19.261 I-0.417 J-0.297
G1 Y-21.476
G3 X-0.476 Y-21.795 I0.319 J0.
G1 X2.476
G3 X2.795 Y-21.476 I0. J0.319
G1 Y-18.524
G3 X2.476 Y-18.205 I-0.319 J0.
G1 X-0.476
G3 X-0.795 Y-18.524 I0. J-0.319
G1 Y-19.261
G2 X-1.645 Y-20.536 I-1.381 J0.
G3 X-2.495 Y-21.811 I0.531 J-1.275
G1 Y-23.176
G3 X-2.176 Y-23.495 I0.319 J0.
G1 X4.176
G3 X4.495 Y-23.176 I0. J0.319
G1 Y-16.824
G3 X4.176 Y-16.505 I-0.319 J0.
G1 X-2.176
G3 X-2.495 Y-16.824 I0. J-0.319
G1 Y-21.811
G2 X-3.348 Y-23.089 I-1.385 J0.
G3 X-4.2 Y-24.368 I0.533 J-1.279
G1 Y-25.2
X6.2
Y-14.8
X-4.2
Y-24.368
G2 X-4.35 Y-24.593 I-0.244 J0.
G3 X-4.5 Y-24.818 I0.094 J-0.225
G1 Y-25.5
X6.5
Y-14.5
X-4.5
Y-24.818
X-4.495 Y-24.875 Z0.511
X-4.478 Y-24.93 Z0.523
X-4.457 Y-24.974 Z0.555
X-4.428 Y-25.013 Z0.588
X-4.381 Y-25.057 Z0.685
X-4.362 Y-25.071 Z0.8
Z5.
(WHEN USING FUSION 360 FOR PERSONAL USE, THE FEEDRATE OF)
(RAPID MOVES IS REDUCED TO MATCH THE FEEDRATE OF CUTTING)
(MOVES, WHICH CAN INCREASE MACHINING TIME. UNRESTRICTED RAPID)
(MOVES ARE AVAILABLE WITH A FUSION 360 SUBSCRIPTION.)

(2D CONTOUR1)
G0 X-0.3 Y40.2
G1 Z5. F40.
Z2.
Z0.3
G19 G2 Y39.9 Z0. J-0.3 K0. F400.
G1 Y39.6
G17 G3 X0. Y39.3 I0.3 J0.
G1 X37.5
G2 X39.3 Y37.5 I0. J-1.8
G1 Y-37.5
G2 X37.5 Y-39.3 I-1.8 J0.
G1 X-37.5
G2 X-39.3 Y-37.5 I0. J1.8
G1 Y37.5
G2 X-37.5 Y39.3 I1.8 J0.
G1 X0.
G2 X0.225 Y39.15 I0. J-0.244
G3 X0.45 Y39. I0.225 J0.094
G1 X37.5
G2 X39. Y37.5 I0. J-1.5
G1 Y-37.5
G2 X37.5 Y-39. I-1.5 J0.
G1 X-37.5
G2 X-39. Y-37.5 I0. J1.5
G1 Y37.5
G2 X-37.5 Y39. I1.5 J0.
G1 X0.45
G3 X0.75 Y39.3 I0. J0.3
G1 Y39.6
G19 G3 Y39.9 Z0.3 J0. K0.3
G1 Z5.
G17

G28 G91 Z0.
G90
G28 G91 X0. Y0.
G90
M30
