(1005)
(TEST FEATURE FOR PLASTIC)
(MACHINE)
(  VENDOR HOMEMADE)
(  DESCRIPTION GENERIC 3-AXIS)
(T4  D=3. CR=0. - ZMIN=-5. - FLAT END MILL)
G90 G94 G91.1 G40 G49 G17
G21
(WHEN USING FUSION 360 FOR PERSONAL USE, THE FEEDRATE OF)
(RAPID MOVES IS REDUCED TO MATCH THE FEEDRATE OF CUTTING)
(MOVES, WHICH CAN INCREASE MACHINING TIME. UNRESTRICTED RAPID)
(MOVES ARE AVAILABLE WITH A FUSION 360 SUBSCRIPTION.)
G28 G91 Z0.
G90

(ADAPTIVE4)
M5
T4 M6
S5000 M3
G54
G0 X12.368 Y41.225
G43 Z5. H4
G1 Z2.5 F300.
G2 X13.182 Y38.876 Z2.397 I-0.375 J-1.445 F15.
X10.704 Y39.032 Z2.295 I-1.187 J0.903
X11.803 Y41.255 Z2.192 I1.289 J0.746
X13.428 Y39.386 Z2.09 I0.19 J-1.476
X11.079 Y38.609 Z1.987 I-1.433 J0.393
X11.269 Y41.073 Z1.885 I0.915 J1.169
X13.466 Y39.948 Z1.782 I0.724 J-1.294
X11.582 Y38.358 Z1.679 I-1.471 J-0.168
X10.843 Y40.706 Z1.577 I0.412 J1.42
X13.292 Y40.482 Z1.474 I1.15 J-0.927
X12.141 Y38.312 Z1.372 I-1.297 J-0.702
X10.585 Y40.209 Z1.269 I-0.147 J1.466
X12.933 Y40.911 Z1.167 I1.407 J-0.43
X12.675 Y38.478 Z1.064 I-0.939 J-1.131
X10.532 Y39.653 Z0.962 I-0.68 J1.301
X12.441 Y41.174 Z0.859 I1.461 J0.125
X13.107 Y38.829 Z0.756 I-0.448 J-1.394
X10.689 Y39.12 Z0.654 I-1.112 J0.95
X11.889 Y41.235 Z0.551 I1.304 J0.658
X13.376 Y39.314 Z0.449 I0.104 J-1.455
X11.033 Y38.685 Z0.346 I-1.381 J0.465
X11.356 Y41.087 Z0.244 I0.961 J1.093
X13.444 Y39.862 Z0.141 I0.637 J-1.307
X11.512 Y38.411 Z0.038 I-1.45 J-0.083
X10.919 Y40.751 Z-0.064 I0.483 J1.368
X13.304 Y40.395 Z-0.167 I1.074 J-0.972
X12.056 Y38.335 Z-0.269 I-1.309 J-0.615
X10.639 Y40.278 Z-0.372 I-0.062 J1.443
X12.976 Y40.835 Z-0.474 I1.354 J-0.5
X12.588 Y38.467 Z-0.577 I-0.982 J-1.055
X10.556 Y39.737 Z-0.679 I-0.593 J1.312
X12.51 Y41.12 Z-0.782 I1.437 J0.041
X13.03 Y38.787 Z-0.885 I-0.516 J-1.34
X10.68 Y39.207 Z-0.987 I-1.035 J0.992
X11.973 Y41.21 Z-1.09 I1.313 J0.572
X13.321 Y39.247 Z-1.192 I0.02 J-1.43
X10.992 Y38.762 Z-1.295 I-1.326 J0.533
X11.443 Y41.094 Z-1.397 I1.002 J1.016
X13.418 Y39.78 Z-1.5 I0.55 J-1.315
X10.568 I-1.425 J0.
X13.418 I1.425 J0.
G1 X13.453 Y39.058 F300.
X13.47 Y38.97
X13.478 Y38.82
X13.458 Y38.671
X13.415 Y38.527
X13.353 Y38.391
X13.275 Y38.263
X13.183 Y38.145
X13.079 Y38.037
X12.964 Y37.94
X12.841 Y37.854
X12.71 Y37.78
X12.574 Y37.718
X12.433 Y37.667
X12.287 Y37.628
X12.136 Y37.601
X11.98 Y37.585
X11.821 Y37.582
X11.659 Y37.591
X11.496 Y37.614
X11.333 Y37.65
X11.172 Y37.7
X11.014 Y37.764
X10.86 Y37.84
X10.712 Y37.929
X10.57 Y38.031
X10.437 Y38.144
X10.312 Y38.268
X10.196 Y38.403
X10.092 Y38.547
X9.999 Y38.7
X9.918 Y38.86
X9.851 Y39.026
X9.796 Y39.198
X9.756 Y39.374
X9.73 Y39.553
X9.718 Y39.734
X9.721 Y39.915
X9.738 Y40.096
X9.77 Y40.275
X9.816 Y40.451
X9.876 Y40.623
X9.95 Y40.79
X10.037 Y40.95
X10.137 Y41.103
X10.248 Y41.248
X10.371 Y41.383
X10.505 Y41.508
X10.648 Y41.622
X10.8 Y41.724
X10.959 Y41.813
X11.126 Y41.89
X11.298 Y41.952
X11.474 Y42.001
X11.654 Y42.036
X11.836 Y42.056
X12.019 Y42.061
X12.202 Y42.052
X12.384 Y42.028
X12.563 Y41.989
X12.738 Y41.936
X12.909 Y41.87
X13.073 Y41.789
X13.231 Y41.696
X13.381 Y41.591
X13.522 Y41.474
X13.653 Y41.345
X13.773 Y41.207
X13.882 Y41.06
X13.983 Y40.897
X14.094 Y40.681
X14.227 Y40.362
X14.337 Y40.025
X14.401 Y39.755
X14.438 Y39.517
X14.454 Y39.297
X14.453 Y39.083
X14.435 Y38.875
X14.401 Y38.678
X14.353 Y38.489
X14.29 Y38.304
X14.212 Y38.123
X14.119 Y37.948
X14.012 Y37.781
X13.891 Y37.622
X13.757 Y37.472
X13.609 Y37.332
X13.449 Y37.202
X13.277 Y37.084
X13.092 Y36.979
X12.897 Y36.887
X12.692 Y36.81
X12.479 Y36.749
X12.258 Y36.705
X12.032 Y36.678
X11.802 Y36.67
X11.569 Y36.68
X11.335 Y36.709
X11.102 Y36.757
X10.872 Y36.824
X10.646 Y36.91
X10.427 Y37.015
X10.215 Y37.138
X10.012 Y37.278
X9.82 Y37.435
X9.641 Y37.608
X9.475 Y37.795
X9.324 Y37.996
X9.189 Y38.209
X9.072 Y38.434
X8.972 Y38.667
X8.891 Y38.909
X8.83 Y39.157
X8.789 Y39.409
X8.768 Y39.665
X8.767 Y39.922
X8.788 Y40.178
X8.829 Y40.433
X8.89 Y40.683
X8.971 Y40.928
X9.072 Y41.166
X9.192 Y41.396
X9.329 Y41.615
X9.484 Y41.823
X9.656 Y42.017
X9.842 Y42.197
X10.042 Y42.362
X10.255 Y42.51
X10.479 Y42.641
X10.714 Y42.753
X10.956 Y42.846
X11.205 Y42.92
X11.459 Y42.973
X11.717 Y43.006
X11.977 Y43.018
X12.237 Y43.008
X12.495 Y42.979
X12.75 Y42.928
X13. Y42.857
X13.244 Y42.767
X13.479 Y42.657
X13.705 Y42.528
X13.92 Y42.382
X14.124 Y42.218
X14.323 Y42.03
X14.525 Y41.805
X14.719 Y41.551
X14.898 Y41.273
X15.058 Y40.975
X15.191 Y40.67
X15.296 Y40.363
X15.374 Y40.057
X15.427 Y39.754
X15.453 Y39.455
X15.456 Y39.16
X15.436 Y38.869
X15.392 Y38.584
X15.326 Y38.305
X15.239 Y38.034
X15.13 Y37.771
X15.001 Y37.519
X14.852 Y37.278
X14.684 Y37.048
X14.497 Y36.832
X14.292 Y36.631
X14.07 Y36.445
X13.832 Y36.277
X13.579 Y36.126
X13.313 Y35.996
X13.034 Y35.886
X12.746 Y35.799
X12.448 Y35.734
X12.144 Y35.693
X11.835 Y35.676
X11.523 Y35.684
X11.211 Y35.718
X10.9 Y35.777
X10.594 Y35.861
X10.293 Y35.97
X10. Y36.104
X9.717 Y36.261
X9.446 Y36.442
X9.19 Y36.645
X8.949 Y36.869
X8.726 Y37.113
X8.523 Y37.374
X8.341 Y37.652
X8.181 Y37.945
X8.045 Y38.25
X7.933 Y38.566
X7.847 Y38.891
X7.788 Y39.223
X7.755 Y39.559
X7.749 Y39.897
X7.77 Y40.234
X7.818 Y40.57
X7.893 Y40.901
X7.995 Y41.225
X8.122 Y41.54
X8.275 Y41.844
X8.451 Y42.135
X8.65 Y42.411
X8.871 Y42.671
X9.112 Y42.912
X9.372 Y43.133
X9.649 Y43.332
X9.941 Y43.509
X10.246 Y43.662
X10.563 Y43.79
X10.889 Y43.892
X11.222 Y43.967
X11.561 Y44.015
X11.902 Y44.037
X12.244 Y44.03
X12.584 Y43.997
X12.92 Y43.936
X13.251 Y43.848
X13.573 Y43.734
X13.886 Y43.595
X14.189 Y43.429
X14.485 Y43.234
X14.775 Y43.009
X15.053 Y42.754
X15.318 Y42.469
X15.563 Y42.159
X15.784 Y41.828
X15.978 Y41.479
X16.143 Y41.118
X16.277 Y40.747
X16.38 Y40.37
X16.452 Y39.99
X16.492 Y39.609
X16.502 Y39.229
X16.482 Y38.852
X16.431 Y38.48
X16.352 Y38.116
X16.244 Y37.76
X16.108 Y37.416
X15.945 Y37.083
X15.755 Y36.765
X15.541 Y36.463
X15.302 Y36.178
X15.04 Y35.912
X14.757 Y35.666
X14.453 Y35.444
X14.131 Y35.245
X13.791 Y35.072
X13.437 Y34.925
X13.07 Y34.807
X12.692 Y34.718
X12.306 Y34.66
X11.914 Y34.632
X11.519 Y34.636
X11.123 Y34.672
X10.729 Y34.74
X10.34 Y34.84
X9.958 Y34.971
X9.587 Y35.134
X9.228 Y35.326
X8.884 Y35.548
X8.557 Y35.798
X8.251 Y36.074
X7.966 Y36.374
X7.706 Y36.698
X7.472 Y37.043
X7.266 Y37.406
X7.09 Y37.785
X6.943 Y38.179
X6.829 Y38.583
X6.748 Y38.997
X6.699 Y39.416
X6.685 Y39.838
X6.705 Y40.261
X6.758 Y40.681
X6.845 Y41.097
X6.965 Y41.504
X7.118 Y41.9
X7.302 Y42.284
X7.517 Y42.651
X7.76 Y43.001
X8.031 Y43.33
X8.328 Y43.636
X8.648 Y43.918
X8.99 Y44.173
X9.351 Y44.399
X9.73 Y44.597
X10.123 Y44.763
X10.529 Y44.897
X10.944 Y44.998
X11.366 Y45.066
X11.791 Y45.099
X12.219 Y45.098
X12.645 Y45.063
X13.067 Y44.994
X13.482 Y44.891
X13.89 Y44.754
X14.289 Y44.584
X14.678 Y44.379
X15.055 Y44.141
X15.418 Y43.868
X15.764 Y43.561
X16.09 Y43.222
X16.39 Y42.855
X16.662 Y42.462
X16.902 Y42.047
X17.107 Y41.615
X17.277 Y41.17
X17.338 Y40.961
X17.346 Y40.931
X17.353 Y40.9
X17.358 Y40.869
X17.47 Y39.876
X17.478 Y39.794
X17.473 Y39.712
X17.363 Y38.729
X17.343 Y38.565
X17.288 Y38.401
X17.002 Y37.582
X16.943 Y37.418
X16.938 Y37.406
X16.847 Y37.254
X16.332 Y36.435
X16.283 Y36.36
X16.196 Y36.271
X15.463 Y35.538
X15.409 Y35.488
X15.355 Y35.452
X14.398 Y34.851
X14.358 Y34.831
X14.317 Y34.816
X13.248 Y34.442
X13.209 Y34.431
X13.17 Y34.425
X12.023 Y34.296
X11.988 Y34.295
X11.952 Y34.297
X10.876 Y34.418
X10.794 Y34.428
X10.753 Y34.437
X9.645 Y34.825
X9.605 Y34.842
X9.565 Y34.866
X8.632 Y35.452
X8.582 Y35.485
X8.446 Y35.616
X7.763 Y36.299
X7.7 Y36.367
X7.655 Y36.435
X7.108 Y37.307
X7.044 Y37.418
X6.699 Y38.401
X6.645 Y38.565
X6.616 Y38.806
X6.514 Y39.712
X6.509 Y39.794
X6.517 Y39.876
X6.642 Y40.982
X6.652 Y41.023
X6.995 Y42.006
X7.057 Y42.169
X7.108 Y42.253
X7.673 Y43.152
X7.711 Y43.207
X7.763 Y43.261
X8.474 Y43.972
X8.582 Y44.074
X8.677 Y44.136
X9.565 Y44.694
X9.606 Y44.718
X9.647 Y44.736
X10.741 Y45.119
X10.775 Y45.128
X10.809 Y45.133
X11.941 Y45.261
X11.982 Y45.264
X12.023
X13.17 Y45.135
X13.208 Y45.129
X13.245 Y45.119
X14.317 Y44.744
X14.358 Y44.728
X14.398 Y44.708
X15.387 Y44.087
X15.425 Y44.059
X15.513 Y43.972
X16.169 Y43.316
X16.283 Y43.2
X16.314 Y43.152
X16.829 Y42.333
X16.93 Y42.169
X16.938 Y42.153
X16.992 Y42.006
X17.279 Y41.186
X17.335 Y41.023
X17.358 Y40.869
G2 X17.08 Y40.536 I-0.298 J-0.034
G1 X17.06 Y40.535 Z-1.499
X17.008 Y40.549 Z-1.49
X16.958 Y40.562 Z-1.472
X16.913 Y40.573 Z-1.445
X16.881 Y40.602 Z-1.407
X16.854 Y40.625 Z-1.362
X16.835 Y40.642 Z-1.312
X16.823 Y40.653 Z-1.257
X16.819 Y40.656 Z-1.2
Z5.
X8.966 Y41.447
Z0.3
Z0.
X8.96 Y41.451 Z-0.067
X8.941 Y41.463 Z-0.13
X8.911 Y41.482 Z-0.187
X8.871 Y41.508 Z-0.235
X8.823 Y41.539 Z-0.27
X8.77 Y41.573 Z-0.292
X8.714 Y41.609 Z-0.3
G2 X7.431 Y42.647 I4.146 J6.44
G1 X7.394 Y42.687
X7.381 Y42.74
X7.397 Y42.793
X7.624 Y43.152
X7.68 Y43.234
X7.763 Y43.32
X8.5 Y44.057
X8.541 Y44.095
X8.582 Y44.125
X9.565 Y44.743
X9.622 Y44.771
X10.712 Y45.153
X10.753 Y45.165
X10.794 Y45.174
X11.941 Y45.303
X11.982 Y45.306
X12.023
X13.17 Y45.177
X13.211 Y45.171
X13.252 Y45.161
X14.317 Y44.788
X14.398 Y44.756
X14.48 Y44.707
X15.389 Y44.136
X15.426 Y44.111
X15.463 Y44.08
X16.283 Y43.261
X16.329 Y43.207
X16.938 Y42.239
X16.977 Y42.169
X17.036 Y42.006
X17.323 Y41.186
X17.379 Y41.023
X17.401 Y40.859
X17.512 Y39.876
X17.52 Y39.794
X17.515 Y39.712
X17.405 Y38.729
X17.385 Y38.565
X17.332 Y38.401
X16.988 Y37.418
X16.968 Y37.37
X16.896 Y37.254
X16.338 Y36.367
X16.314 Y36.333
X16.283 Y36.298
X15.463 Y35.479
X15.432 Y35.452
X15.173 Y35.288
X14.48 Y34.853
X14.383 Y34.797
X14.317 Y34.771
X13.252 Y34.399
X13.211 Y34.388
X13.17 Y34.383
X12.023 Y34.254
X11.982 Y34.253
X11.941 Y34.256
X10.794 Y34.386
X10.753 Y34.395
X10.712 Y34.407
X9.729 Y34.751
X9.603 Y34.797
X9.565 Y34.817
X8.582 Y35.434
X8.557 Y35.452
X8.418 Y35.585
X7.732 Y36.271
X7.658 Y36.353
X7.04 Y37.336
X7.017 Y37.377
X6.999 Y37.418
X6.616 Y38.512
X6.602 Y38.565
X6.583 Y38.729
X6.472 Y39.712
X6.467 Y39.794
X6.475 Y39.876
X6.586 Y40.859
X6.608 Y41.023
X6.616 Y41.047
X6.951 Y42.006
X7.01 Y42.169
X7.109 Y42.333
X7.397 Y42.793
G2 X7.826 Y42.864 I0.248 J-0.168
G1 X7.859 Y42.823 Z-0.295
X7.89 Y42.783 Z-0.281
X7.92 Y42.745 Z-0.258
X7.931 Y42.695 Z-0.218
X7.939 Y42.654 Z-0.169
X7.946 Y42.624 Z-0.112
X7.945 Y42.608 Z-0.057
Y42.603 Z0.
Z5.
X14.188 Y42.572
Z0.45
Z0.15
X14.193 Y42.578 Z0.083
X14.208 Y42.594 Z0.02
X14.232 Y42.621 Z-0.037
X14.263 Y42.656 Z-0.085
X14.302 Y42.698 Z-0.12
X14.344 Y42.746 Z-0.142
X14.389 Y42.795 Z-0.15
G2 X15.618 Y43.895 I5.692 J-5.125
G1 X15.665 Y43.926
X15.72 Y43.93
X15.77 Y43.905
X15.879 Y43.808
X15.955 Y43.732
X16.119 Y43.559
X16.346 Y43.316
X16.446 Y43.208
X16.483 Y43.152
X16.998 Y42.333
X17.074 Y42.169
X17.141 Y42.006
X17.201 Y41.842
X17.315 Y41.514
X17.368 Y41.35
X17.499 Y40.859
X17.522 Y40.695
X17.596 Y40.04
X17.606 Y39.876
X17.611 Y39.712
X17.599 Y39.548
X17.487 Y38.565
X17.481 Y38.524
X17.468 Y38.483
X17.096 Y37.418
X17.059 Y37.336
X17.015 Y37.254
X16.501 Y36.435
X16.446 Y36.352
X16.384 Y36.271
X16.283 Y36.155
X15.791 Y35.664
X15.738 Y35.616
X15.3 Y35.25
X14.972 Y35.042
X14.808 Y34.94
X14.644 Y34.847
X14.153 Y34.608
X13.989 Y34.55
X13.661 Y34.435
X13.497 Y34.385
X13.006 Y34.265
X12.842 Y34.244
X12.514 Y34.207
X12.35 Y34.193
X11.859 Y34.168
X11.695 Y34.182
X11.367 Y34.219
X11.204 Y34.239
X10.712 Y34.306
X10.671 Y34.315
X10.221 Y34.472
X10.057 Y34.53
X9.565 Y34.707
X9.526 Y34.723
X9.486 Y34.747
X9.074 Y35.006
X8.91 Y35.112
X8.418 Y35.454
X8.377 Y35.484
X8.336 Y35.524
X7.671 Y36.189
X7.634 Y36.23
X7.271 Y36.778
X7.179 Y36.927
X6.944 Y37.313
X6.913 Y37.365
X6.892 Y37.418
X6.519 Y38.483
X6.507 Y38.524
X6.5 Y38.565
X6.379 Y39.63
X6.376 Y39.671
X6.377 Y39.712
X6.412 Y40.203
X6.429 Y40.367
X6.466 Y40.695
X6.488 Y40.859
X6.62 Y41.35
X6.672 Y41.514
X6.787 Y41.842
X6.847 Y42.006
X7.108 Y42.513
X7.195 Y42.661
X7.435 Y43.043
X7.508 Y43.152
X7.784 Y43.48
X7.944 Y43.644
X8.272 Y43.972
X8.418 Y44.107
X8.669 Y44.299
X9.451 Y44.791
X9.565 Y44.854
X9.729 Y44.916
X10.63 Y45.231
X10.671 Y45.245
X10.712 Y45.254
X11.204 Y45.321
X11.367 Y45.34
X11.695 Y45.377
X11.859 Y45.392
X12.35 Y45.367
X12.514 Y45.352
X12.842 Y45.315
X13.006 Y45.295
X13.497 Y45.175
X13.661 Y45.125
X14.317 Y44.895
X14.398 Y44.864
X14.644 Y44.72
X14.808 Y44.62
X15.318 Y44.299
X15.463 Y44.175
X15.77 Y43.905
G2 X15.772 Y43.471 I-0.206 J-0.218
G1 X15.726 Y43.445 Z-0.145
X15.681 Y43.42 Z-0.131
X15.64 Y43.397 Z-0.108
X15.599 Y43.391 Z-0.078
X15.564 Y43.387 Z-0.043
X15.534 Y43.39 Z0.
X15.513 Y43.393 Z0.047
X15.499 Y43.394 Z0.098
X15.495 Y43.395 Z0.15
Z5.
X12.369 Y41.225
Z1.
G2 X13.182 Y38.876 Z0.897 I-0.375 J-1.445 F15.
X10.704 Y39.032 Z0.795 I-1.187 J0.903
X11.803 Y41.255 Z0.692 I1.289 J0.746
X13.428 Y39.385 Z0.59 I0.19 J-1.476
X11.079 Y38.609 Z0.487 I-1.433 J0.394
X11.269 Y41.073 Z0.385 I0.915 J1.169
X13.466 Y39.948 Z0.282 I0.724 J-1.294
X11.582 Y38.357 Z0.179 I-1.471 J-0.168
X10.843 Y40.706 Z0.077 I0.412 J1.42
X13.292 Y40.482 Z-0.026 I1.15 J-0.927
X12.141 Y38.312 Z-0.128 I-1.297 J-0.702
X10.586 Y40.208 Z-0.231 I-0.147 J1.466
X12.933 Y40.911 Z-0.333 I1.407 J-0.43
X12.675 Y38.477 Z-0.436 I-0.939 J-1.131
X10.532 Y39.653 Z-0.538 I-0.68 J1.301
X12.442 Y41.174 Z-0.641 I1.461 J0.125
X13.107 Y38.828 Z-0.744 I-0.448 J-1.394
X10.689 Y39.119 Z-0.846 I-1.112 J0.95
X11.889 Y41.235 Z-0.949 I1.304 J0.658
X13.376 Y39.314 Z-1.051 I0.104 J-1.455
X11.033 Y38.685 Z-1.154 I-1.381 J0.465
X11.356 Y41.086 Z-1.256 I0.961 J1.093
X13.444 Y39.862 Z-1.359 I0.637 J-1.307
X11.512 Y38.41 Z-1.462 I-1.45 J-0.083
X10.919 Y40.751 Z-1.564 I0.483 J1.368
X13.304 Y40.394 Z-1.667 I1.074 J-0.972
X12.056 Y38.334 Z-1.769 I-1.309 J-0.615
X10.639 Y40.278 Z-1.872 I-0.062 J1.443
X12.976 Y40.834 Z-1.974 I1.354 J-0.5
X12.588 Y38.467 Z-2.077 I-0.982 J-1.055
X10.556 Y39.737 Z-2.179 I-0.593 J1.312
X12.51 Y41.12 Z-2.282 I1.437 J0.041
X13.031 Y38.786 Z-2.385 I-0.516 J-1.34
X10.68 Y39.206 Z-2.487 I-1.035 J0.992
X11.973 Y41.21 Z-2.59 I1.313 J0.572
X13.321 Y39.246 Z-2.692 I0.02 J-1.43
X10.992 Y38.761 Z-2.795 I-1.326 J0.533
X11.443 Y41.094 Z-2.897 I1.002 J1.016
X13.418 Y39.779 Z-3. I0.55 J-1.315
X10.568 I-1.425 J0.
X13.418 I1.425 J0.
G1 X13.453 Y39.058 F300.
X13.47 Y38.969
X13.478 Y38.82
X13.458 Y38.671
X13.415 Y38.527
X13.354 Y38.39
X13.275 Y38.263
X13.183 Y38.144
X13.079 Y38.036
X12.964 Y37.94
X12.841 Y37.854
X12.71 Y37.78
X12.574 Y37.718
X12.433 Y37.667
X12.287 Y37.628
X12.136 Y37.6
X11.98 Y37.585
X11.821 Y37.581
X11.659 Y37.591
X11.496 Y37.614
X11.333 Y37.65
X11.172 Y37.7
X11.014 Y37.763
X10.861 Y37.84
X10.712 Y37.929
X10.571 Y38.03
X10.437 Y38.144
X10.312 Y38.268
X10.196 Y38.403
X10.092 Y38.547
X9.999 Y38.699
X9.918 Y38.859
X9.851 Y39.026
X9.796 Y39.197
X9.756 Y39.373
X9.73 Y39.552
X9.718 Y39.733
X9.721 Y39.915
X9.738 Y40.095
X9.77 Y40.275
X9.816 Y40.451
X9.876 Y40.623
X9.95 Y40.789
X10.037 Y40.95
X10.137 Y41.103
X10.248 Y41.247
X10.371 Y41.382
X10.505 Y41.507
X10.648 Y41.621
X10.8 Y41.723
X10.959 Y41.813
X11.126 Y41.889
X11.298 Y41.952
X11.474 Y42.001
X11.654 Y42.035
X11.836 Y42.055
X12.019 Y42.061
X12.202 Y42.051
X12.384 Y42.027
X12.563 Y41.989
X12.738 Y41.936
X12.909 Y41.869
X13.074 Y41.789
X13.231 Y41.696
X13.381 Y41.59
X13.522 Y41.473
X13.653 Y41.345
X13.773 Y41.207
X13.882 Y41.059
X13.983 Y40.896
X14.094 Y40.681
X14.227 Y40.361
X14.337 Y40.024
X14.401 Y39.754
X14.438 Y39.517
X14.454 Y39.297
X14.453 Y39.082
X14.435 Y38.875
X14.401 Y38.678
X14.353 Y38.488
X14.29 Y38.303
X14.212 Y38.123
X14.119 Y37.948
X14.012 Y37.78
X13.891 Y37.622
X13.757 Y37.472
X13.61 Y37.331
X13.449 Y37.202
X13.277 Y37.084
X13.093 Y36.979
X12.897 Y36.887
X12.692 Y36.81
X12.479 Y36.749
X12.259 Y36.705
X12.032 Y36.678
X11.802 Y36.67
X11.569 Y36.68
X11.335 Y36.709
X11.102 Y36.757
X10.872 Y36.824
X10.646 Y36.91
X10.427 Y37.015
X10.215 Y37.137
X10.012 Y37.278
X9.82 Y37.435
X9.641 Y37.607
X9.475 Y37.795
X9.324 Y37.996
X9.189 Y38.209
X9.072 Y38.433
X8.972 Y38.667
X8.891 Y38.909
X8.83 Y39.156
X8.789 Y39.409
X8.768 Y39.665
X8.767 Y39.922
X8.788 Y40.178
X8.829 Y40.432
X8.89 Y40.683
X8.971 Y40.928
X9.072 Y41.166
X9.192 Y41.395
X9.329 Y41.615
X9.484 Y41.822
X9.656 Y42.017
X9.842 Y42.197
X10.042 Y42.362
X10.255 Y42.51
X10.48 Y42.641
X10.714 Y42.753
X10.956 Y42.846
X11.205 Y42.919
X11.46 Y42.973
X11.717 Y43.005
X11.977 Y43.017
X12.237 Y43.008
X12.495 Y42.978
X12.75 Y42.928
X13. Y42.857
X13.244 Y42.766
X13.479 Y42.656
X13.706 Y42.528
X13.921 Y42.382
X14.125 Y42.217
X14.323 Y42.03
X14.525 Y41.805
X14.719 Y41.551
X14.898 Y41.272
X15.058 Y40.975
X15.191 Y40.669
X15.296 Y40.363
X15.374 Y40.057
X15.427 Y39.754
X15.454 Y39.455
X15.456 Y39.159
X15.436 Y38.869
X15.392 Y38.583
X15.326 Y38.304
X15.239 Y38.033
X15.131 Y37.771
X15.002 Y37.519
X14.853 Y37.277
X14.684 Y37.048
X14.497 Y36.832
X14.292 Y36.63
X14.07 Y36.445
X13.832 Y36.276
X13.579 Y36.126
X13.313 Y35.996
X13.035 Y35.886
X12.746 Y35.798
X12.448 Y35.733
X12.144 Y35.692
X11.835 Y35.676
X11.523 Y35.684
X11.211 Y35.717
X10.9 Y35.776
X10.594 Y35.86
X10.293 Y35.97
X10. Y36.103
X9.717 Y36.261
X9.446 Y36.442
X9.19 Y36.645
X8.949 Y36.869
X8.726 Y37.112
X8.523 Y37.374
X8.341 Y37.652
X8.181 Y37.944
X8.045 Y38.25
X7.934 Y38.566
X7.848 Y38.891
X7.788 Y39.222
X7.755 Y39.558
X7.749 Y39.896
X7.77 Y40.234
X7.818 Y40.569
X7.893 Y40.9
X7.995 Y41.224
X8.122 Y41.54
X8.275 Y41.844
X8.451 Y42.135
X8.65 Y42.411
X8.871 Y42.671
X9.112 Y42.912
X9.372 Y43.133
X9.649 Y43.332
X9.941 Y43.509
X10.247 Y43.661
X10.563 Y43.789
X10.889 Y43.891
X11.223 Y43.967
X11.561 Y44.015
X11.902 Y44.036
X12.244 Y44.03
X12.584 Y43.996
X12.92 Y43.935
X13.251 Y43.848
X13.573 Y43.734
X13.886 Y43.594
X14.189 Y43.428
X14.485 Y43.234
X14.775 Y43.009
X15.053 Y42.754
X15.318 Y42.469
X15.563 Y42.159
X15.784 Y41.827
X15.978 Y41.479
X16.143 Y41.117
X16.277 Y40.747
X16.38 Y40.37
X16.452 Y39.99
X16.492 Y39.608
X16.502 Y39.228
X16.482 Y38.851
X16.431 Y38.48
X16.352 Y38.115
X16.244 Y37.76
X16.108 Y37.415
X15.945 Y37.083
X15.755 Y36.765
X15.541 Y36.462
X15.302 Y36.177
X15.04 Y35.911
X14.757 Y35.666
X14.453 Y35.443
X14.131 Y35.245
X13.791 Y35.071
X13.437 Y34.925
X13.07 Y34.807
X12.692 Y34.718
X12.306 Y34.66
X11.914 Y34.632
X11.519 Y34.636
X11.123 Y34.672
X10.729 Y34.74
X10.34 Y34.84
X9.959 Y34.971
X9.587 Y35.133
X9.228 Y35.326
X8.884 Y35.548
X8.557 Y35.797
X8.251 Y36.073
X7.967 Y36.374
X7.706 Y36.698
X7.472 Y37.042
X7.266 Y37.405
X7.09 Y37.785
X6.944 Y38.178
X6.829 Y38.583
X6.748 Y38.996
X6.7 Y39.415
X6.685 Y39.838
X6.705 Y40.261
X6.758 Y40.681
X6.845 Y41.096
X6.966 Y41.503
X7.118 Y41.9
X7.302 Y42.283
X7.517 Y42.651
X7.76 Y43.
X8.031 Y43.329
X8.328 Y43.636
X8.648 Y43.917
X8.99 Y44.172
X9.351 Y44.399
X9.73 Y44.596
X10.123 Y44.762
X10.529 Y44.897
X10.944 Y44.998
X11.366 Y45.065
X11.792 Y45.099
X12.219 Y45.098
X12.645 Y45.063
X13.067 Y44.994
X13.482 Y44.891
X13.89 Y44.754
X14.289 Y44.583
X14.678 Y44.379
X15.055 Y44.141
X15.418 Y43.868
X15.764 Y43.561
X16.09 Y43.222
X16.39 Y42.854
X16.662 Y42.461
X16.902 Y42.047
X17.107 Y41.615
X17.277 Y41.169
X17.338 Y40.961
X17.346 Y40.931
X17.353 Y40.9
X17.358 Y40.869
X17.47 Y39.876
X17.478 Y39.794
X17.473 Y39.712
X17.363 Y38.729
X17.343 Y38.565
X17.288 Y38.401
X17.002 Y37.582
X16.943 Y37.418
X16.938 Y37.406
X16.847 Y37.254
X16.332 Y36.435
X16.283 Y36.36
X16.196 Y36.271
X15.463 Y35.538
X15.409 Y35.488
X15.355 Y35.452
X14.398 Y34.851
X14.358 Y34.831
X14.317 Y34.816
X13.248 Y34.442
X13.209 Y34.431
X13.17 Y34.425
X12.023 Y34.296
X11.988 Y34.295
X11.952 Y34.297
X10.876 Y34.418
X10.794 Y34.428
X10.753 Y34.437
X9.645 Y34.825
X9.605 Y34.842
X9.565 Y34.866
X8.632 Y35.452
X8.582 Y35.485
X8.446 Y35.616
X7.763 Y36.299
X7.7 Y36.367
X7.655 Y36.435
X7.108 Y37.307
X7.044 Y37.418
X6.699 Y38.401
X6.645 Y38.565
X6.616 Y38.806
X6.514 Y39.712
X6.509 Y39.794
X6.517 Y39.876
X6.642 Y40.982
X6.652 Y41.023
X6.995 Y42.006
X7.057 Y42.169
X7.108 Y42.253
X7.673 Y43.152
X7.711 Y43.207
X7.763 Y43.261
X8.474 Y43.972
X8.582 Y44.074
X8.677 Y44.136
X9.565 Y44.694
X9.606 Y44.718
X9.647 Y44.736
X10.741 Y45.119
X10.775 Y45.128
X10.809 Y45.133
X11.941 Y45.261
X11.982 Y45.264
X12.023
X13.17 Y45.135
X13.208 Y45.129
X13.245 Y45.119
X14.317 Y44.744
X14.358 Y44.728
X14.398 Y44.708
X15.387 Y44.087
X15.425 Y44.059
X15.513 Y43.972
X16.169 Y43.316
X16.283 Y43.2
X16.314 Y43.152
X16.829 Y42.333
X16.93 Y42.169
X16.938 Y42.153
X16.992 Y42.006
X17.279 Y41.186
X17.335 Y41.023
X17.358 Y40.869
G2 X16.819 Y40.656 I-0.298 J-0.034
G1 X16.779 Y40.71 Z-2.992
X16.741 Y40.761 Z-2.97
X16.707 Y40.807 Z-2.935
X16.679 Y40.845 Z-2.887
X16.658 Y40.874 Z-2.83
X16.645 Y40.891 Z-2.767
X16.64 Y40.897 Z-2.7
Z5.
(WHEN USING FUSION 360 FOR PERSONAL USE, THE FEEDRATE OF)
(RAPID MOVES IS REDUCED TO MATCH THE FEEDRATE OF CUTTING)
(MOVES, WHICH CAN INCREASE MACHINING TIME. UNRESTRICTED RAPID)
(MOVES ARE AVAILABLE WITH A FUSION 360 SUBSCRIPTION.)

(BORE1)
G0 X12.462 Y62.536
G1 Z5. F100.
Z2.
Z0.3
G18 G2 X12.762 Z0. I0.3 K0.
G1 X12.912
G17 G2 X13.212 Y62.236 I0. J-0.3
X11.212 Z-0.087 I-1. J0.
X13.212 Z-0.175 I1. J0.
X11.212 Z-0.262 I-1. J0.
X13.212 Z-0.349 I1. J0.
X11.212 Z-0.437 I-1. J0.
X13.212 Z-0.524 I1. J0.
X11.212 Z-0.611 I-1. J0.
X13.212 Z-0.698 I1. J0.
X11.212 Z-0.786 I-1. J0.
X13.212 Z-0.873 I1. J0.
X11.212 Z-0.96 I-1. J0.
X13.212 Z-1.048 I1. J0.
X11.212 Z-1.135 I-1. J0.
X13.212 Z-1.222 I1. J0.
X11.212 Z-1.31 I-1. J0.
X13.212 Z-1.397 I1. J0.
X11.212 Z-1.484 I-1. J0.
X13.212 Z-1.571 I1. J0.
X11.212 Z-1.659 I-1. J0.
X13.212 Z-1.746 I1. J0.
X11.212 Z-1.833 I-1. J0.
X13.212 Z-1.921 I1. J0.
X11.212 Z-2.008 I-1. J0.
X13.212 Z-2.095 I1. J0.
X11.212 Z-2.183 I-1. J0.
X13.212 Z-2.27 I1. J0.
X11.212 Z-2.357 I-1. J0.
X13.212 Z-2.444 I1. J0.
X11.212 Z-2.532 I-1. J0.
X13.212 Z-2.619 I1. J0.
X11.212 Z-2.706 I-1. J0.
X13.212 Z-2.794 I1. J0.
X11.212 Z-2.881 I-1. J0.
X13.212 Z-2.968 I1. J0.
X11.212 Z-3.056 I-1. J0.
X13.212 Z-3.143 I1. J0.
X11.212 Z-3.23 I-1. J0.
X13.212 Z-3.317 I1. J0.
X11.212 Z-3.405 I-1. J0.
X13.212 Z-3.492 I1. J0.
X11.212 Z-3.579 I-1. J0.
X13.212 Z-3.667 I1. J0.
X11.212 Z-3.754 I-1. J0.
X13.212 Z-3.841 I1. J0.
X11.212 Z-3.929 I-1. J0.
X13.212 Z-4.016 I1. J0.
X11.212 Z-4.103 I-1. J0.
X13.212 Z-4.19 I1. J0.
X11.212 Z-4.278 I-1. J0.
X13.212 Z-4.365 I1. J0.
X11.212 Z-4.452 I-1. J0.
X13.212 Z-4.54 I1. J0.
X11.212 Z-4.627 I-1. J0.
X13.212 Z-4.714 I1. J0.
X11.212 Z-4.802 I-1. J0.
X13.212 Z-4.889 I1. J0.
X11.212 Z-4.976 I-1. J0.
X11.557 Y62.991 Z-5. I1. J0.
X12.867 Y61.481 I0.655 J-0.755
X11.557 Y62.991 I-0.655 J0.755
X11.98 Y62.962 I0.197 J-0.227
G1 X12.078 Y62.848
X12.122 Y62.798 Z-4.992
X12.163 Y62.75 Z-4.97
X12.201 Y62.707 Z-4.935
X12.232 Y62.671 Z-4.887
X12.255 Y62.644 Z-4.83
X12.27 Y62.627 Z-4.767
X12.275 Y62.622 Z-4.7
Z5.
(WHEN USING FUSION 360 FOR PERSONAL USE, THE FEEDRATE OF)
(RAPID MOVES IS REDUCED TO MATCH THE FEEDRATE OF CUTTING)
(MOVES, WHICH CAN INCREASE MACHINING TIME. UNRESTRICTED RAPID)
(MOVES ARE AVAILABLE WITH A FUSION 360 SUBSCRIPTION.)

(2D ADAPTIVE2)
G0 X17.463 Y16.016
G1 Z5. F300.
Z2.5
G2 X16.123 Y18.054 Z2.4 I0.037 J1.484 F15.
X18.499 Y18.594 Z2.3 I1.375 J-0.554
X18.171 Y16.182 Z2.2 I-1. J-1.092
X16.03 Y17.333 Z2.1 I-0.671 J1.318
X17.857 Y18.933 Z2. I1.468 J0.166
X18.713 Y16.664 Z1.9 I-0.359 J-1.431
X16.291 Y16.658 Z1.8 I-1.213 J0.837
X17.134 Y18.926 Z1.7 I1.208 J0.842
X18.96 Y17.343 Z1.6 I0.364 J-1.425
X16.84 Y16.189 Z1.5 I-1.46 J0.158
X16.503 Y18.577 Z1.4 I0.66 J1.31
X18.854 Y18.055 Z1.3 I0.995 J-1.076
X17.543 Y16.039 Z1.2 I-1.355 J-0.553
X16.116 Y17.972 Z1.1 I-0.043 J1.461
X18.424 Y18.629 Z1. I1.382 J-0.472
X18.23 Y16.24 Z0.9 I-0.925 J-1.127
X16.064 Y17.258 Z0.8 I-0.73 J1.26
X17.775 Y18.928 Z0.7 I1.435 J0.242
X18.737 Y16.742 Z0.6 I-0.277 J-1.426
X16.356 Y16.608 Z0.5 I-1.237 J0.758
X17.064 Y18.882 Z0.4 I1.143 J0.892
X18.944 Y17.423 Z0.3 I0.434 J-1.381
X16.92 Y16.176 Z0.2 I-1.444 J0.078
X16.463 Y18.506 Z0.1 I0.579 J1.323
X18.802 Y18.117 Z0. I1.035 J-1.005
X17.62 Y16.066 Z-0.1 I-1.302 J-0.616
X16.115 Y17.89 Z-0.2 I-0.12 J1.434
X18.349 Y18.659 Z-0.3 I1.383 J-0.39
X18.285 Y16.3 Z-0.4 I-0.849 J-1.157
X16.101 Y17.186 Z-0.5 I-0.785 J1.2
X17.695 Y18.918 Z-0.6 I1.397 J0.314
X18.757 Y16.821 Z-0.7 I-0.196 J-1.417
X16.423 Y16.562 Z-0.8 I-1.257 J0.68
X16.998 Y18.836 Z-0.9 I1.076 J0.937
X18.923 Y17.501 Z-1. I0.5 J-1.335
X16.073 I-1.425 J0.
X18.923 I1.425 J0.
G1 X18.958 Y16.78 F300.
X18.975 Y16.691
X18.983 Y16.542
X18.963 Y16.393
X18.92 Y16.249
X18.858 Y16.112
X18.78 Y15.984
X18.688 Y15.866
X18.584 Y15.758
X18.469 Y15.662
X18.346 Y15.576
X18.215 Y15.502
X18.079 Y15.44
X17.938 Y15.389
X17.792 Y15.35
X17.641 Y15.322
X17.485 Y15.306
X17.326 Y15.303
X17.164 Y15.313
X17.001 Y15.336
X16.838 Y15.372
X16.677 Y15.422
X16.519 Y15.485
X16.366 Y15.562
X16.217 Y15.651
X16.076 Y15.752
X15.942 Y15.866
X15.817 Y15.99
X15.701 Y16.125
X15.597 Y16.269
X15.504 Y16.421
X15.423 Y16.581
X15.356 Y16.748
X15.301 Y16.919
X15.261 Y17.095
X15.235 Y17.274
X15.223 Y17.455
X15.226 Y17.637
X15.243 Y17.817
X15.275 Y17.996
X15.321 Y18.173
X15.381 Y18.345
X15.455 Y18.511
X15.542 Y18.672
X15.642 Y18.825
X15.753 Y18.969
X15.876 Y19.104
X16.01 Y19.229
X16.153 Y19.343
X16.305 Y19.445
X16.465 Y19.535
X16.631 Y19.611
X16.803 Y19.674
X16.979 Y19.723
X17.159 Y19.757
X17.341 Y19.777
X17.524 Y19.783
X17.707 Y19.773
X17.889 Y19.749
X18.068 Y19.711
X18.243 Y19.658
X18.414 Y19.591
X18.579 Y19.511
X18.736 Y19.418
X18.886 Y19.312
X19.027 Y19.195
X19.158 Y19.067
X19.278 Y18.929
X19.387 Y18.781
X19.488 Y18.618
X19.599 Y18.403
X19.732 Y18.083
X19.842 Y17.746
X19.906 Y17.476
X19.943 Y17.239
X19.959 Y17.018
X19.958 Y16.804
X19.94 Y16.597
X19.906 Y16.399
X19.858 Y16.21
X19.795 Y16.025
X19.717 Y15.845
X19.624 Y15.67
X19.517 Y15.502
X19.396 Y15.343
X19.262 Y15.193
X19.114 Y15.053
X18.954 Y14.924
X18.782 Y14.806
X18.597 Y14.7
X18.402 Y14.609
X18.197 Y14.532
X17.984 Y14.471
X17.763 Y14.427
X17.537 Y14.4
X17.307 Y14.391
X17.074 Y14.401
X16.84 Y14.43
X16.607 Y14.479
X16.377 Y14.546
X16.151 Y14.632
X15.932 Y14.737
X15.72 Y14.859
X15.517 Y15.
X15.325 Y15.156
X15.146 Y15.329
X14.98 Y15.517
X14.829 Y15.718
X14.694 Y15.931
X14.577 Y16.155
X14.477 Y16.389
X14.396 Y16.63
X14.335 Y16.878
X14.294 Y17.131
X14.273 Y17.387
Y17.644
X14.293 Y17.9
X14.334 Y18.154
X14.395 Y18.405
X14.476 Y18.65
X14.577 Y18.888
X14.697 Y19.117
X14.834 Y19.337
X14.989 Y19.544
X15.161 Y19.739
X15.347 Y19.919
X15.547 Y20.084
X15.76 Y20.232
X15.985 Y20.362
X16.219 Y20.475
X16.461 Y20.568
X16.71 Y20.641
X16.965 Y20.695
X17.222 Y20.727
X17.482 Y20.739
X17.742 Y20.73
X18. Y20.7
X18.255 Y20.65
X18.505 Y20.579
X18.749 Y20.488
X18.985 Y20.378
X19.211 Y20.25
X19.426 Y20.103
X19.63 Y19.939
X19.828 Y19.752
X20.031 Y19.526
X20.224 Y19.273
X20.403 Y18.994
X20.563 Y18.696
X20.696 Y18.391
X20.801 Y18.085
X20.879 Y17.779
X20.932 Y17.476
X20.959 Y17.176
X20.961 Y16.881
X20.941 Y16.59
X20.897 Y16.305
X20.831 Y16.026
X20.744 Y15.755
X20.636 Y15.493
X20.506 Y15.24
X20.357 Y14.999
X20.189 Y14.77
X20.002 Y14.554
X19.797 Y14.352
X19.575 Y14.167
X19.337 Y13.998
X19.084 Y13.848
X18.818 Y13.717
X18.539 Y13.608
X18.251 Y13.52
X17.953 Y13.455
X17.649 Y13.414
X17.34 Y13.398
X17.028 Y13.406
X16.716 Y13.439
X16.405 Y13.498
X16.099 Y13.582
X15.798 Y13.692
X15.505 Y13.825
X15.222 Y13.983
X14.951 Y14.164
X14.695 Y14.367
X14.454 Y14.591
X14.231 Y14.834
X14.028 Y15.096
X13.846 Y15.374
X13.686 Y15.666
X13.55 Y15.972
X13.439 Y16.288
X13.353 Y16.613
X13.293 Y16.944
X13.26 Y17.28
X13.254 Y17.618
X13.275 Y17.956
X13.323 Y18.291
X13.398 Y18.622
X13.5 Y18.946
X13.627 Y19.262
X13.78 Y19.566
X13.956 Y19.857
X14.155 Y20.133
X14.376 Y20.393
X14.618 Y20.634
X14.877 Y20.855
X15.154 Y21.054
X15.446 Y21.231
X15.752 Y21.383
X16.068 Y21.511
X16.394 Y21.613
X16.728 Y21.688
X17.066 Y21.737
X17.407 Y21.758
X17.749 Y21.752
X18.089 Y21.718
X18.425 Y21.657
X18.756 Y21.57
X19.078 Y21.456
X19.391 Y21.316
X19.694 Y21.15
X19.991 Y20.955
X20.28 Y20.731
X20.558 Y20.475
X20.823 Y20.191
X21.068 Y19.881
X21.289 Y19.549
X21.483 Y19.201
X21.648 Y18.839
X21.782 Y18.469
X21.885 Y18.092
X21.957 Y17.712
X21.997 Y17.33
X22.007 Y16.95
X21.987 Y16.573
X21.936 Y16.202
X21.857 Y15.837
X21.749 Y15.482
X21.613 Y15.137
X21.45 Y14.805
X21.26 Y14.486
X21.046 Y14.184
X20.807 Y13.899
X20.545 Y13.633
X20.262 Y13.388
X19.958 Y13.165
X19.636 Y12.966
X19.296 Y12.793
X18.942 Y12.647
X18.575 Y12.529
X18.197 Y12.44
X17.811 Y12.381
X17.419 Y12.354
X17.024 Y12.358
X16.628 Y12.394
X16.234 Y12.462
X15.845 Y12.562
X15.463 Y12.693
X15.092 Y12.855
X14.733 Y13.048
X14.389 Y13.27
X14.062 Y13.519
X13.756 Y13.795
X13.472 Y14.096
X13.211 Y14.42
X12.977 Y14.764
X12.771 Y15.127
X12.595 Y15.507
X12.449 Y15.9
X12.334 Y16.305
X12.253 Y16.718
X12.205 Y17.137
X12.19 Y17.56
X12.21 Y17.983
X12.263 Y18.403
X12.35 Y18.818
X12.471 Y19.225
X12.623 Y19.622
X12.808 Y20.005
X13.022 Y20.373
X13.266 Y20.722
X13.536 Y21.051
X13.833 Y21.358
X14.153 Y21.639
X14.495 Y21.894
X14.857 Y22.121
X15.235 Y22.318
X15.629 Y22.484
X16.034 Y22.618
X16.449 Y22.72
X16.871 Y22.787
X17.297 Y22.821
X17.724 Y22.82
X18.15 Y22.785
X18.572 Y22.715
X18.987 Y22.613
X19.395 Y22.476
X19.795 Y22.305
X20.184 Y22.101
X20.56 Y21.862
X20.923 Y21.59
X21.27 Y21.283
X21.595 Y20.944
X21.896 Y20.576
X22.167 Y20.183
X22.407 Y19.769
X22.612 Y19.337
X22.782 Y18.891
X22.915 Y18.435
X22.986 Y18.091
X22.994 Y18.045
X22.998 Y17.998
X23. Y17.95
Y16.765
X22.975 Y16.269
X22.923 Y15.875
X22.837 Y15.472
X22.716 Y15.066
X22.559 Y14.664
X22.368 Y14.271
X22.144 Y13.889
X21.887 Y13.523
X21.599 Y13.177
X21.282 Y12.852
X20.937 Y12.551
X20.567 Y12.277
X20.291 Y12.106
X20.175 Y12.048
X20.051 Y12.012
X19.922 Y12.
G2 X19.632 Y12.31 Z-0.8 I0.01 J0.3
G1 X19.639 Y12.362
X19.654 Y12.412
X19.677 Y12.458
X19.739 Y12.558
X22.445 Y16.913
X22.457 Y16.93
G2 X22.69 Y17.055 I0.243 J-0.175 F100.
X23. Y16.765 Z-1. I0.01 J-0.3
G1 Y14.307 F300.
X22.991 Y14.135
X22.969 Y13.961
X22.925 Y13.758
X22.86 Y13.539
X22.765 Y13.296
X22.641 Y13.041
X22.472 Y12.753
X22.276 Y12.474
X22.092 Y12.253
X21.94 Y12.117
X21.755 Y12.03
X21.553 Y12.
G2 X21.264 Y12.31 Z-0.8 I0.01 J0.3
G1 X21.27 Y12.358
X21.283 Y12.404
X21.303 Y12.448
X21.367 Y12.56
X22.439 Y14.445
X22.457 Y14.472
G2 X22.69 Y14.596 I0.243 J-0.175 F100.
X23. Y14.307 Z-1. I0.01 J-0.3
G1 Y12.741 F300.
X22.993 Y12.592
X22.991 Y12.584
X22.932 Y12.397
X22.823 Y12.234
X22.674 Y12.108
X22.495 Y12.027
X22.301 Y12.
G2 X22.012 Y12.31 Z-0.8 I0.01 J0.3
G1 X22.018 Y12.362
X22.033 Y12.412
X22.057 Y12.459
X22.089 Y12.501
X22.131 Y12.548
X22.455 Y12.908
X22.477 Y12.932 F100.
X22.522 Y12.972
X22.574 Y13.003
X22.63 Y13.023
X22.69 Y13.031
G2 X23. Y12.741 Z-1. I0.01 J-0.3
G1 Y12.297 F300.
X22.994 Y12.254
X22.983 Y12.215
X22.967 Y12.176
X22.945 Y12.141
X22.918 Y12.105
X22.896 Y12.082
X22.874 Y12.063
X22.83 Y12.035
X22.802 Y12.022
X22.774 Y12.012
X22.747 Y12.006
X22.72 Y12.002
X22.666 Y12.
X15.454
X15.234 Y12.011
X15.009 Y12.041
X14.781 Y12.089
X14.517 Y12.168
X14.243 Y12.275
X13.955 Y12.415
X13.645 Y12.597
X13.328 Y12.82
X13.023 Y13.073
X12.721 Y13.368
X12.428 Y13.704
X12.153 Y14.075
X12.106 Y14.151
X12.048 Y14.267
X12.012 Y14.392
X12. Y14.521
G2 X12.31 Y14.81 Z-0.8 I0.3 J-0.01
G1 X12.367 Y14.803
X12.422 Y14.785
X12.472 Y14.756
X12.554 Y14.698
X15.616 Y12.545
X15.619 Y12.543
G2 X15.744 Y12.31 I-0.175 J-0.243 F100.
X15.454 Y12. Z-1. I-0.3 J-0.01
G1 X13.725 F300.
X13.575 Y12.007
X13.425 Y12.028
X13.258 Y12.064
X13.067 Y12.123
X12.871 Y12.2
X12.644 Y12.311
X12.417 Y12.446
X12.295 Y12.533
X12.137 Y12.688
X12.035 Y12.885
X12. Y13.104
G2 X12.31 Y13.393 Z-0.8 I0.3 J-0.01
G1 X12.357 Y13.388
X12.403 Y13.375
X12.447 Y13.355
X12.56 Y13.291
X13.861 Y12.561
X13.89 Y12.543
G2 X14.014 Y12.31 I-0.175 J-0.243 F100.
X13.725 Y12. Z-1. I-0.3 J-0.01
G1 X12.414 F300.
X12.373
X12.34
X12.331 Y12.001
X12.231 Y12.021
X12.14 Y12.065
X12.062 Y12.13
G2 X12.04 Y12.454 Z-0.856 I0.28 J0.182
G1 X12.074 Y12.51 Z-0.828
X12.119 Y12.559 Z-0.8
G2 X12.551 Y12.547 I0.209 J-0.24
X12.647 Y12.3 I-0.222 J-0.229 F100.
X12.34 Y12. Z-1. I-0.318 J0.018
G1 X12.285 Y12.001 F300.
X12.257 Y12.005
X12.229 Y12.012
X12.203 Y12.021
X12.176 Y12.033
X12.14 Y12.055
X12.105 Y12.085
X12.062 Y12.13
X12.046 Y12.153
X12.033 Y12.176
X12.021 Y12.203
X12.012 Y12.229
X12.005 Y12.257
X12.001 Y12.285
X12. Y12.34
Y19.716
X12.009 Y19.894
X12.036 Y20.102
X12.081 Y20.313
X12.156 Y20.564
X12.254 Y20.814
X12.391 Y21.097
X12.565 Y21.392
X12.77 Y21.684
X13.024 Y21.99
X13.321 Y22.294
X13.659 Y22.589
X14.031 Y22.864
X14.079 Y22.894
X14.195 Y22.952
X14.32 Y22.988
X14.449 Y23.
G2 X14.738 Y22.69 Z-0.8 I-0.01 J-0.3
G1 X14.731 Y22.632
X14.712 Y22.576
X14.682 Y22.525
X14.625 Y22.446
X12.543 Y19.551
G2 X12.31 Y19.426 I-0.244 J0.175 F100.
X12. Y19.716 Z-1. I-0.01 J0.3
G1 Y21.355 F300.
X12.007 Y21.505
X12.029 Y21.653
X12.068 Y21.824
X12.125 Y22.005
X12.206 Y22.205
X12.315 Y22.423
X12.456 Y22.656
X12.496 Y22.71
X12.65 Y22.866
X12.846 Y22.966
X13.063 Y23.
G2 X13.352 Y22.69 Z-0.8 I-0.01 J-0.3
G1 X13.347 Y22.642
X13.334 Y22.596
X13.314 Y22.553
X13.25 Y22.44
X12.561 Y21.218
X12.543 Y21.19
G2 X12.31 Y21.066 I-0.243 J0.175 F100.
X12. Y21.355 Z-1. I-0.01 J0.3
G1 Y22.592 F300.
Y22.633
Y22.666
X12.002 Y22.693
X12.012 Y22.757
X12.033 Y22.817
X12.063 Y22.874
G2 X12.384 Y22.961 Z-0.851 I0.229 J-0.212
G1 X12.439 Y22.937 Z-0.826
X12.489 Y22.903 Z-0.8
G2 X12.542 Y22.509 I-0.192 J-0.226
X12.312 Y22.38 I-0.245 J0.168 F100.
X12. Y22.666 Z-1. I-0.015 J0.297
G1 X12.002 Y22.72 F300.
X12.006 Y22.747
X12.012 Y22.774
X12.022 Y22.802
X12.035 Y22.83
X12.063 Y22.874
X12.082 Y22.896
X12.105 Y22.918
X12.141 Y22.945
X12.176 Y22.967
X12.215 Y22.983
X12.254 Y22.994
X12.297 Y23.
X19.716
X19.917 Y22.99
X20.109 Y22.965
X20.341 Y22.915
X20.577 Y22.844
X20.856 Y22.736
X21.131 Y22.602
X21.441 Y22.42
X21.769 Y22.189
X22.085 Y21.927
X22.408 Y21.612
X22.727 Y21.246
X22.863 Y21.063
X22.938 Y20.935
X22.984 Y20.794
X23. Y20.646
G2 X22.69 Y20.357 Z-0.8 I-0.3 J0.01
G1 X22.634 Y20.364
X22.58 Y20.382
X22.53 Y20.41
X22.445 Y20.468
X19.556 Y22.453
X19.551 Y22.457
G2 X19.426 Y22.69 I0.175 J0.243 F100.
X19.716 Y23. Z-1. I0.3 J0.01
G1 X21.355 F300.
X21.527 Y22.991
X21.676 Y22.972
X21.842 Y22.936
X22.036 Y22.878
X22.231 Y22.802
X22.464 Y22.689
X22.694 Y22.554
X22.702 Y22.548
X22.862 Y22.393
X22.965 Y22.195
X23. Y21.975
G2 X22.69 Y21.686 Z-0.8 I-0.3 J0.01
G1 X22.622 Y21.696
X22.559 Y21.721
X22.438 Y21.786
X21.224 Y22.436
X21.19 Y22.457
G2 X21.066 Y22.69 I0.175 J0.243 F100.
X21.355 Y23. Z-1. I0.3 J0.01
G1 X22.592 F300.
X22.708 Y22.999
X22.749 Y22.994
X22.79 Y22.983
X22.83 Y22.965
X22.864 Y22.944
X22.898 Y22.916
X22.937 Y22.873
X22.965 Y22.83
X22.983 Y22.79
X22.994 Y22.749
X22.999 Y22.708
X23. Y22.338
Y17.95
G2 X22.701 Y17.661 I-0.3 J0.01
G1 X22.7
X22.676 Y17.662
X22.626 Y17.679 Z-0.995
X22.577 Y17.696 Z-0.981
X22.532 Y17.712 Z-0.958
X22.499 Y17.749 Z-0.921
X22.472 Y17.779 Z-0.874
X22.452 Y17.801 Z-0.82
X22.44 Y17.815 Z-0.762
X22.435 Y17.82 Z-0.7
Z5.
X17.464 Y16.016
Z1.5
G2 X16.123 Y18.055 Z1.4 I0.037 J1.484 F15.
X18.5 Y18.595 Z1.3 I1.375 J-0.554
X18.172 Y16.183 Z1.2 I-1. J-1.092
X16.031 Y17.334 Z1.1 I-0.671 J1.318
X17.858 Y18.934 Z1. I1.468 J0.166
X18.714 Y16.664 Z0.9 I-0.359 J-1.431
X16.291 Y16.658 Z0.8 I-1.213 J0.837
X17.135 Y18.926 Z0.7 I1.208 J0.842
X18.961 Y17.343 Z0.6 I0.364 J-1.425
X16.84 Y16.19 Z0.5 I-1.46 J0.158
X16.504 Y18.577 Z0.4 I0.66 J1.31
X18.855 Y18.055 Z0.3 I0.995 J-1.076
X17.543 Y16.039 Z0.2 I-1.355 J-0.553
X16.117 Y17.972 Z0.1 I-0.043 J1.461
X18.425 Y18.629 Z0. I1.382 J-0.472
X18.231 Y16.24 Z-0.1 I-0.925 J-1.127
X16.064 Y17.259 Z-0.2 I-0.73 J1.26
X17.776 Y18.929 Z-0.3 I1.435 J0.242
X18.738 Y16.743 Z-0.4 I-0.277 J-1.426
X16.357 Y16.608 Z-0.5 I-1.237 J0.758
X17.065 Y18.883 Z-0.6 I1.143 J0.892
X18.944 Y17.424 Z-0.7 I0.434 J-1.381
X16.921 Y16.177 Z-0.8 I-1.444 J0.078
X16.464 Y18.506 Z-0.9 I0.579 J1.323
X18.803 Y18.118 Z-1. I1.035 J-1.005
X17.62 Y16.066 Z-1.1 I-1.302 J-0.616
X16.115 Y17.891 Z-1.2 I-0.12 J1.434
X18.349 Y18.659 Z-1.3 I1.383 J-0.39
X18.285 Y16.301 Z-1.4 I-0.849 J-1.157
X16.102 Y17.187 Z-1.5 I-0.785 J1.2
X17.695 Y18.919 Z-1.6 I1.397 J0.314
X18.757 Y16.822 Z-1.7 I-0.196 J-1.417
X16.424 Y16.563 Z-1.8 I-1.257 J0.68
X16.999 Y18.836 Z-1.9 I1.076 J0.937
X18.924 Y17.502 Z-2. I0.5 J-1.335
X16.074 I-1.425 J0.
X18.924 I1.425 J0.
G1 X18.959 Y16.781 F300.
X18.975 Y16.692
X18.983 Y16.542
X18.964 Y16.393
X18.921 Y16.25
X18.859 Y16.113
X18.781 Y15.985
X18.689 Y15.867
X18.584 Y15.759
X18.47 Y15.662
X18.346 Y15.577
X18.216 Y15.503
X18.08 Y15.44
X17.938 Y15.39
X17.793 Y15.351
X17.642 Y15.323
X17.486 Y15.307
X17.326 Y15.304
X17.164 Y15.313
X17.001 Y15.336
X16.839 Y15.373
X16.678 Y15.423
X16.52 Y15.486
X16.366 Y15.562
X16.218 Y15.651
X16.076 Y15.753
X15.942 Y15.866
X15.817 Y15.991
X15.702 Y16.125
X15.598 Y16.269
X15.505 Y16.422
X15.424 Y16.582
X15.356 Y16.748
X15.302 Y16.92
X15.262 Y17.096
X15.235 Y17.275
X15.224 Y17.456
X15.226 Y17.637
X15.244 Y17.818
X15.275 Y17.997
X15.322 Y18.173
X15.382 Y18.345
X15.456 Y18.512
X15.543 Y18.672
X15.642 Y18.825
X15.754 Y18.97
X15.877 Y19.105
X16.011 Y19.23
X16.154 Y19.344
X16.306 Y19.446
X16.465 Y19.535
X16.631 Y19.612
X16.803 Y19.674
X16.98 Y19.723
X17.16 Y19.758
X17.342 Y19.778
X17.525 Y19.783
X17.708 Y19.774
X17.889 Y19.75
X18.068 Y19.711
X18.244 Y19.658
X18.414 Y19.592
X18.579 Y19.511
X18.737 Y19.418
X18.887 Y19.313
X19.028 Y19.196
X19.159 Y19.067
X19.279 Y18.929
X19.388 Y18.782
X19.489 Y18.619
X19.6 Y18.403
X19.733 Y18.084
X19.843 Y17.747
X19.907 Y17.477
X19.944 Y17.239
X19.96 Y17.019
X19.958 Y16.805
X19.94 Y16.598
X19.907 Y16.4
X19.859 Y16.211
X19.796 Y16.026
X19.718 Y15.845
X19.625 Y15.67
X19.517 Y15.503
X19.397 Y15.344
X19.262 Y15.194
X19.115 Y15.054
X18.955 Y14.924
X18.782 Y14.806
X18.598 Y14.701
X18.403 Y14.609
X18.198 Y14.533
X17.985 Y14.472
X17.764 Y14.427
X17.538 Y14.401
X17.307 Y14.392
X17.074 Y14.402
X16.841 Y14.431
X16.608 Y14.479
X16.378 Y14.546
X16.152 Y14.632
X15.932 Y14.737
X15.72 Y14.86
X15.518 Y15.
X15.326 Y15.157
X15.147 Y15.33
X14.981 Y15.517
X14.83 Y15.718
X14.695 Y15.932
X14.577 Y16.156
X14.478 Y16.389
X14.397 Y16.631
X14.336 Y16.879
X14.294 Y17.132
X14.273 Y17.387
Y17.644
X14.293 Y17.901
X14.334 Y18.155
X14.396 Y18.406
X14.477 Y18.651
X14.578 Y18.889
X14.697 Y19.118
X14.835 Y19.337
X14.99 Y19.545
X15.161 Y19.739
X15.348 Y19.919
X15.548 Y20.084
X15.761 Y20.232
X15.985 Y20.363
X16.219 Y20.475
X16.462 Y20.569
X16.711 Y20.642
X16.965 Y20.695
X17.223 Y20.728
X17.483 Y20.74
X17.742 Y20.731
X18.001 Y20.701
X18.256 Y20.65
X18.506 Y20.579
X18.749 Y20.489
X18.985 Y20.379
X19.211 Y20.25
X19.426 Y20.104
X19.63 Y19.94
X19.829 Y19.752
X20.031 Y19.527
X20.225 Y19.273
X20.404 Y18.995
X20.563 Y18.697
X20.697 Y18.392
X20.802 Y18.085
X20.88 Y17.779
X20.932 Y17.476
X20.959 Y17.177
X20.962 Y16.882
X20.941 Y16.591
X20.898 Y16.306
X20.832 Y16.027
X20.745 Y15.756
X20.636 Y15.493
X20.507 Y15.241
X20.358 Y15.
X20.19 Y14.77
X20.003 Y14.554
X19.798 Y14.353
X19.576 Y14.167
X19.338 Y13.999
X19.085 Y13.849
X18.819 Y13.718
X18.54 Y13.608
X18.251 Y13.521
X17.954 Y13.456
X17.649 Y13.415
X17.34 Y13.398
X17.029 Y13.406
X16.717 Y13.44
X16.406 Y13.499
X16.099 Y13.583
X15.798 Y13.692
X15.505 Y13.826
X15.222 Y13.984
X14.952 Y14.164
X14.695 Y14.367
X14.455 Y14.591
X14.232 Y14.835
X14.029 Y15.096
X13.847 Y15.374
X13.687 Y15.667
X13.551 Y15.972
X13.439 Y16.289
X13.353 Y16.614
X13.293 Y16.945
X13.26 Y17.281
X13.254 Y17.619
X13.276 Y17.957
X13.324 Y18.292
X13.399 Y18.623
X13.501 Y18.947
X13.628 Y19.262
X13.78 Y19.566
X13.957 Y19.857
X14.156 Y20.134
X14.377 Y20.393
X14.618 Y20.634
X14.878 Y20.855
X15.155 Y21.055
X15.447 Y21.231
X15.752 Y21.384
X16.069 Y21.512
X16.395 Y21.614
X16.728 Y21.689
X17.067 Y21.738
X17.408 Y21.759
X17.749 Y21.752
X18.09 Y21.719
X18.426 Y21.658
X18.756 Y21.57
X19.079 Y21.456
X19.391 Y21.317
X19.694 Y21.151
X19.991 Y20.956
X20.28 Y20.731
X20.559 Y20.476
X20.823 Y20.191
X21.069 Y19.881
X21.29 Y19.55
X21.484 Y19.201
X21.648 Y18.84
X21.783 Y18.469
X21.886 Y18.092
X21.957 Y17.712
X21.998 Y17.331
X22.008 Y16.951
X21.987 Y16.574
X21.937 Y16.202
X21.857 Y15.838
X21.749 Y15.482
X21.613 Y15.138
X21.45 Y14.805
X21.261 Y14.487
X21.046 Y14.185
X20.808 Y13.9
X20.546 Y13.634
X20.262 Y13.388
X19.959 Y13.166
X19.636 Y12.967
X19.297 Y12.794
X18.942 Y12.648
X18.575 Y12.529
X18.197 Y12.441
X17.811 Y12.382
X17.419 Y12.354
X17.024 Y12.358
X16.629 Y12.394
X16.235 Y12.462
X15.846 Y12.562
X15.464 Y12.694
X15.092 Y12.856
X14.733 Y13.048
X14.389 Y13.27
X14.063 Y13.52
X13.756 Y13.796
X13.472 Y14.097
X13.212 Y14.42
X12.978 Y14.765
X12.772 Y15.128
X12.595 Y15.507
X12.449 Y15.901
X12.335 Y16.306
X12.253 Y16.719
X12.205 Y17.138
X12.191 Y17.56
X12.21 Y17.983
X12.264 Y18.404
X12.351 Y18.819
X12.471 Y19.226
X12.624 Y19.623
X12.808 Y20.006
X13.023 Y20.374
X13.266 Y20.723
X13.537 Y21.052
X13.834 Y21.358
X14.154 Y21.64
X14.496 Y21.895
X14.857 Y22.122
X15.236 Y22.319
X15.629 Y22.485
X16.035 Y22.619
X16.45 Y22.72
X16.871 Y22.788
X17.297 Y22.821
X17.725 Y22.82
X18.151 Y22.785
X18.572 Y22.716
X18.988 Y22.613
X19.396 Y22.476
X19.795 Y22.306
X20.184 Y22.101
X20.561 Y21.863
X20.924 Y21.59
X21.27 Y21.283
X21.596 Y20.944
X21.896 Y20.577
X22.168 Y20.184
X22.408 Y19.769
X22.613 Y19.337
X22.783 Y18.892
X22.915 Y18.436
X22.986 Y18.095
X22.994 Y18.048
X22.998 Y18.001
X23. Y17.954
Y16.765
X22.975 Y16.268
X22.923 Y15.874
X22.837 Y15.471
X22.716 Y15.066
X22.559 Y14.665
X22.368 Y14.271
X22.144 Y13.889
X21.887 Y13.524
X21.599 Y13.177
X21.282 Y12.852
X20.938 Y12.552
X20.568 Y12.278
X20.291 Y12.106
X20.175 Y12.048
X20.05 Y12.012
X19.921 Y12.
G2 X19.632 Y12.31 Z-1.8 I0.01 J0.3
G1 X19.638 Y12.362
X19.653 Y12.412
X19.677 Y12.458
X19.739 Y12.558
X22.445 Y16.913
X22.457 Y16.93
G2 X22.69 Y17.055 I0.243 J-0.175 F100.
X23. Y16.765 Z-2. I0.01 J-0.3
G1 Y14.307 F300.
X22.991 Y14.134
X22.969 Y13.961
X22.925 Y13.758
X22.86 Y13.539
X22.765 Y13.296
X22.641 Y13.041
X22.472 Y12.754
X22.276 Y12.475
X22.092 Y12.253
X21.94 Y12.117
X21.755 Y12.03
X21.553 Y12.
G2 X21.264 Y12.31 Z-1.8 I0.01 J0.3
G1 X21.27 Y12.358
X21.283 Y12.404
X21.303 Y12.448
X21.367 Y12.56
X22.439 Y14.445
X22.457 Y14.472
G2 X22.69 Y14.596 I0.243 J-0.175 F100.
X23. Y14.307 Z-2. I0.01 J-0.3
G1 Y12.741 F300.
X22.993 Y12.592
X22.991 Y12.584
X22.932 Y12.397
X22.823 Y12.234
X22.674 Y12.108
X22.495 Y12.027
X22.301 Y12.
G2 X22.012 Y12.31 Z-1.8 I0.01 J0.3
G1 X22.018 Y12.362
X22.033 Y12.412
X22.057 Y12.459
X22.089 Y12.501
X22.131 Y12.548
X22.455 Y12.908
X22.477 Y12.932 F100.
X22.522 Y12.972
X22.574 Y13.003
X22.63 Y13.023
X22.69 Y13.031
G2 X23. Y12.741 Z-2. I0.01 J-0.3
G1 Y12.297 F300.
X22.994 Y12.254
X22.983 Y12.215
X22.967 Y12.176
X22.945 Y12.141
X22.918 Y12.105
X22.896 Y12.082
X22.874 Y12.063
X22.83 Y12.035
X22.802 Y12.022
X22.774 Y12.012
X22.747 Y12.006
X22.72 Y12.002
X22.666 Y12.
X15.454
X15.236 Y12.011
X15.011 Y12.04
X14.783 Y12.089
X14.519 Y12.168
X14.244 Y12.275
X13.956 Y12.415
X13.646 Y12.598
X13.329 Y12.82
X13.024 Y13.073
X12.722 Y13.368
X12.429 Y13.704
X12.154 Y14.076
X12.106 Y14.153
X12.048 Y14.269
X12.012 Y14.393
X12. Y14.523
G2 X12.31 Y14.812 Z-1.8 I0.3 J-0.01
G1 X12.367 Y14.804
X12.422 Y14.786
X12.472 Y14.757
X12.554 Y14.7
X15.616 Y12.545
X15.619 Y12.543
G2 X15.744 Y12.31 I-0.175 J-0.243 F100.
X15.454 Y12. Z-2. I-0.3 J-0.01
G1 X13.725 F300.
X13.575 Y12.007
X13.425 Y12.028
X13.257 Y12.065
X13.066 Y12.123
X12.87 Y12.201
X12.643 Y12.312
X12.416 Y12.448
X12.295 Y12.534
X12.137 Y12.689
X12.035 Y12.886
X12. Y13.104
G2 X12.31 Y13.394 Z-1.8 I0.3 J-0.01
G1 X12.357 Y13.388
X12.403 Y13.375
X12.447 Y13.355
X12.56 Y13.292
X13.861 Y12.561
X13.89 Y12.543
G2 X14.014 Y12.31 I-0.175 J-0.243 F100.
X13.725 Y12. Z-2. I-0.3 J-0.01
G1 X12.414 F300.
X12.373
X12.34
X12.331 Y12.001
X12.231 Y12.021
X12.14 Y12.065
X12.062 Y12.13
G2 X12.04 Y12.454 Z-1.856 I0.28 J0.182
G1 X12.074 Y12.51 Z-1.828
X12.119 Y12.559 Z-1.8
G2 X12.551 Y12.547 I0.209 J-0.24
X12.647 Y12.3 I-0.222 J-0.229 F100.
X12.34 Y12. Z-2. I-0.318 J0.018
G1 X12.285 Y12.001 F300.
X12.257 Y12.005
X12.229 Y12.012
X12.203 Y12.021
X12.176 Y12.033
X12.14 Y12.055
X12.105 Y12.085
X12.062 Y12.13
X12.046 Y12.153
X12.033 Y12.176
X12.021 Y12.203
X12.012 Y12.229
X12.005 Y12.257
X12.001 Y12.285
X12. Y12.34
Y19.716
X12.009 Y19.894
X12.036 Y20.101
X12.081 Y20.313
X12.157 Y20.564
X12.254 Y20.814
X12.391 Y21.097
X12.565 Y21.392
X12.771 Y21.685
X13.024 Y21.99
X13.321 Y22.295
X13.659 Y22.589
X14.032 Y22.865
X14.079 Y22.894
X14.195 Y22.952
X14.319 Y22.988
X14.449 Y23.
G2 X14.738 Y22.69 Z-1.8 I-0.01 J-0.3
G1 X14.73 Y22.632
X14.711 Y22.576
X14.682 Y22.525
X14.625 Y22.446
X12.543 Y19.551
G2 X12.31 Y19.426 I-0.244 J0.175 F100.
X12. Y19.716 Z-2. I-0.01 J0.3
G1 Y21.355 F300.
X12.007 Y21.505
X12.029 Y21.653
X12.068 Y21.824
X12.125 Y22.005
X12.205 Y22.205
X12.315 Y22.424
X12.456 Y22.656
X12.495 Y22.71
X12.65 Y22.866
X12.846 Y22.966
X13.063 Y23.
G2 X13.352 Y22.69 Z-1.8 I-0.01 J-0.3
G1 X13.347 Y22.642
X13.334 Y22.596
X13.314 Y22.553
X13.25 Y22.44
X12.561 Y21.218
X12.543 Y21.19
G2 X12.31 Y21.066 I-0.243 J0.175 F100.
X12. Y21.355 Z-2. I-0.01 J0.3
G1 Y22.592 F300.
Y22.633
Y22.666
X12.002 Y22.693
X12.012 Y22.757
X12.033 Y22.817
X12.063 Y22.874
G2 X12.384 Y22.961 Z-1.851 I0.229 J-0.212
G1 X12.439 Y22.937 Z-1.826
X12.489 Y22.903 Z-1.8
G2 X12.542 Y22.509 I-0.192 J-0.226
X12.312 Y22.38 I-0.245 J0.168 F100.
X12. Y22.666 Z-2. I-0.015 J0.297
G1 X12.002 Y22.72 F300.
X12.006 Y22.747
X12.012 Y22.774
X12.022 Y22.802
X12.035 Y22.83
X12.063 Y22.874
X12.082 Y22.896
X12.105 Y22.918
X12.141 Y22.945
X12.176 Y22.967
X12.215 Y22.983
X12.254 Y22.994
X12.297 Y23.
X19.716
X19.918 Y22.99
X20.11 Y22.965
X20.342 Y22.915
X20.578 Y22.844
X20.857 Y22.736
X21.132 Y22.602
X21.442 Y22.42
X21.77 Y22.189
X22.085 Y21.928
X22.409 Y21.612
X22.728 Y21.247
X22.863 Y21.064
X22.938 Y20.936
X22.984 Y20.795
X23. Y20.648
G2 X22.69 Y20.358 Z-1.8 I-0.3 J0.01
G1 X22.634 Y20.366
X22.58 Y20.383
X22.53 Y20.411
X22.445 Y20.469
X19.556 Y22.453
X19.551 Y22.457
G2 X19.426 Y22.69 I0.175 J0.243 F100.
X19.716 Y23. Z-2. I0.3 J0.01
G1 X21.355 F300.
X21.528 Y22.991
X21.678 Y22.972
X21.843 Y22.936
X22.037 Y22.878
X22.232 Y22.802
X22.465 Y22.689
X22.695 Y22.554
X22.702 Y22.549
X22.862 Y22.393
X22.965 Y22.196
X23. Y21.976
G2 X22.69 Y21.687 Z-1.8 I-0.3 J0.01
G1 X22.622 Y21.697
X22.559 Y21.722
X22.438 Y21.786
X21.224 Y22.436
X21.19 Y22.457
G2 X21.066 Y22.69 I0.175 J0.243 F100.
X21.355 Y23. Z-2. I0.3 J0.01
G1 X22.592 F300.
X22.708 Y22.999
X22.749 Y22.994
X22.79 Y22.983
X22.83 Y22.965
X22.864 Y22.944
X22.898 Y22.916
X22.937 Y22.873
X22.965 Y22.83
X22.983 Y22.79
X22.994 Y22.749
X22.999 Y22.708
X23. Y22.338
Y17.954
G2 X22.701 Y17.664 I-0.3 J0.01
G1 X22.7
X22.676 Y17.665
X22.626 Y17.683 Z-1.995
X22.577 Y17.7 Z-1.981
X22.532 Y17.716 Z-1.958
X22.499 Y17.752 Z-1.921
X22.472 Y17.782 Z-1.874
X22.452 Y17.805 Z-1.82
X22.44 Y17.819 Z-1.762
X22.435 Y17.823 Z-1.7
Z5.
X17.359 Y18.969
Z0.5
G2 X18.92 Y17.101 Z0.4 I0.141 J-1.469 F15.
X16.617 Y16.32 Z0.3 I-1.419 J0.399
X16.722 Y18.747 Z0.2 I0.883 J1.178
X18.944 Y17.774 Z0.1 I0.778 J-1.248
X17.235 Y16.055 Z0. I-1.443 J-0.274
X16.251 Y18.267 Z-0.1 I0.265 J1.443
X18.666 Y18.385 Z-0.2 I1.248 J-0.768
X17.905 Y16.093 Z-0.3 I-1.166 J-0.885
X16.045 Y17.63 Z-0.4 I-0.404 J1.405
X18.147 Y18.807 Z-0.5 I1.454 J-0.131
X18.485 Y16.425 Z-0.6 I-0.647 J-1.307
X16.144 Y16.97 Z-0.7 I-0.984 J1.074
X17.497 Y18.953 Z-0.8 I1.355 J0.528
X18.856 Y16.977 Z-0.9 I0.003 J-1.453
X16.526 Y16.425 Z-1. I-1.354 J0.522
X16.852 Y18.794 Z-1.1 I0.975 J1.073
X18.941 Y17.635 Z-1.2 I0.647 J-1.295
X17.107 Y16.108 Z-1.3 I-1.44 J-0.136
X16.347 Y18.367 Z-1.4 I0.393 J1.39
X18.725 Y18.26 Z-1.5 I1.152 J-0.868
X17.767 Y16.084 Z-1.6 I-1.224 J-0.76
X16.086 Y17.761 Z-1.7 I-0.266 J1.414
X18.255 Y18.721 Z-1.8 I1.413 J-0.263
X18.366 Y16.355 Z-1.9 I-0.755 J-1.221
X16.123 Y17.105 Z-2. I-0.865 J1.144
X17.631 Y18.924 Z-2.1 I1.377 J0.393
X18.781 Y16.863 Z-2.2 I-0.131 J-1.424
X16.446 Y16.536 Z-2.3 I-1.279 J0.636
X16.985 Y18.828 Z-2.4 I1.054 J0.962
X18.925 Y17.5 Z-2.5 I0.515 J-1.329
X16.074 I-1.425 J0.
X18.925 I1.425 J0.
G1 X18.959 Y16.778 F300.
X18.976 Y16.69
X18.984 Y16.54
X18.964 Y16.391
X18.922 Y16.247
X18.86 Y16.111
X18.782 Y15.983
X18.689 Y15.865
X18.585 Y15.757
X18.471 Y15.66
X18.347 Y15.574
X18.217 Y15.5
X18.08 Y15.438
X17.939 Y15.387
X17.794 Y15.348
X17.643 Y15.321
X17.487 Y15.305
X17.327 Y15.301
X17.165 Y15.311
X17.002 Y15.334
X16.84 Y15.37
X16.679 Y15.42
X16.521 Y15.484
X16.367 Y15.56
X16.219 Y15.649
X16.077 Y15.751
X15.943 Y15.864
X15.818 Y15.988
X15.703 Y16.123
X15.598 Y16.267
X15.505 Y16.42
X15.425 Y16.58
X15.357 Y16.746
X15.303 Y16.918
X15.262 Y17.094
X15.236 Y17.273
X15.224 Y17.453
X15.227 Y17.635
X15.244 Y17.816
X15.276 Y17.995
X15.322 Y18.171
X15.383 Y18.343
X15.456 Y18.51
X15.543 Y18.67
X15.643 Y18.823
X15.755 Y18.968
X15.878 Y19.103
X16.011 Y19.228
X16.154 Y19.341
X16.306 Y19.443
X16.466 Y19.533
X16.632 Y19.609
X16.804 Y19.672
X16.981 Y19.721
X17.16 Y19.756
X17.342 Y19.776
X17.526 Y19.781
X17.708 Y19.772
X17.89 Y19.748
X18.069 Y19.709
X18.245 Y19.656
X18.415 Y19.59
X18.58 Y19.509
X18.738 Y19.416
X18.888 Y19.311
X19.028 Y19.193
X19.16 Y19.065
X19.28 Y18.927
X19.389 Y18.78
X19.49 Y18.616
X19.601 Y18.401
X19.734 Y18.082
X19.843 Y17.744
X19.908 Y17.475
X19.945 Y17.237
X19.961 Y17.017
X19.959 Y16.803
X19.941 Y16.595
X19.908 Y16.398
X19.86 Y16.209
X19.797 Y16.024
X19.719 Y15.843
X19.626 Y15.668
X19.518 Y15.501
X19.398 Y15.342
X19.263 Y15.192
X19.116 Y15.052
X18.956 Y14.922
X18.783 Y14.804
X18.599 Y14.699
X18.404 Y14.607
X18.199 Y14.53
X17.986 Y14.469
X17.765 Y14.425
X17.539 Y14.398
X17.308 Y14.39
X17.075 Y14.4
X16.842 Y14.429
X16.609 Y14.477
X16.379 Y14.544
X16.153 Y14.63
X15.933 Y14.735
X15.721 Y14.858
X15.519 Y14.998
X15.327 Y15.155
X15.147 Y15.328
X14.982 Y15.515
X14.831 Y15.716
X14.696 Y15.929
X14.578 Y16.154
X14.478 Y16.387
X14.398 Y16.629
X14.336 Y16.877
X14.295 Y17.129
X14.274 Y17.385
Y17.642
X14.294 Y17.898
X14.335 Y18.153
X14.396 Y18.403
X14.478 Y18.648
X14.578 Y18.886
X14.698 Y19.116
X14.836 Y19.335
X14.991 Y19.542
X15.162 Y19.737
X15.348 Y19.917
X15.549 Y20.082
X15.762 Y20.23
X15.986 Y20.361
X16.22 Y20.473
X16.463 Y20.566
X16.712 Y20.64
X16.966 Y20.693
X17.224 Y20.726
X17.483 Y20.737
X17.743 Y20.728
X18.001 Y20.699
X18.256 Y20.648
X18.507 Y20.577
X18.75 Y20.487
X18.986 Y20.377
X19.212 Y20.248
X19.427 Y20.102
X19.631 Y19.938
X19.829 Y19.75
X20.032 Y19.525
X20.226 Y19.271
X20.405 Y18.993
X20.564 Y18.695
X20.697 Y18.39
X20.803 Y18.083
X20.881 Y17.777
X20.933 Y17.474
X20.96 Y17.175
X20.963 Y16.88
X20.942 Y16.589
X20.899 Y16.304
X20.833 Y16.025
X20.746 Y15.754
X20.637 Y15.491
X20.508 Y15.239
X20.359 Y14.997
X20.191 Y14.768
X20.004 Y14.552
X19.799 Y14.351
X19.577 Y14.165
X19.339 Y13.997
X19.086 Y13.846
X18.819 Y13.716
X18.541 Y13.606
X18.252 Y13.519
X17.954 Y13.454
X17.65 Y13.413
X17.341 Y13.396
X17.03 Y13.404
X16.717 Y13.438
X16.407 Y13.497
X16.1 Y13.581
X15.799 Y13.69
X15.506 Y13.824
X15.223 Y13.981
X14.953 Y14.162
X14.696 Y14.365
X14.456 Y14.589
X14.233 Y14.833
X14.03 Y15.094
X13.848 Y15.372
X13.688 Y15.665
X13.552 Y15.97
X13.44 Y16.286
X13.354 Y16.611
X13.294 Y16.943
X13.261 Y17.279
X13.255 Y17.617
X13.276 Y17.954
X13.325 Y18.29
X13.4 Y18.621
X13.501 Y18.945
X13.629 Y19.26
X13.781 Y19.564
X13.957 Y19.855
X14.157 Y20.131
X14.378 Y20.391
X14.619 Y20.632
X14.879 Y20.853
X15.156 Y21.052
X15.448 Y21.229
X15.753 Y21.382
X16.07 Y21.51
X16.396 Y21.611
X16.729 Y21.687
X17.067 Y21.735
X17.408 Y21.757
X17.75 Y21.75
X18.09 Y21.717
X18.427 Y21.656
X18.757 Y21.568
X19.079 Y21.454
X19.392 Y21.314
X19.695 Y21.149
X19.992 Y20.954
X20.281 Y20.729
X20.56 Y20.474
X20.824 Y20.189
X21.069 Y19.879
X21.29 Y19.548
X21.485 Y19.199
X21.649 Y18.838
X21.783 Y18.467
X21.886 Y18.09
X21.958 Y17.71
X21.999 Y17.329
X22.009 Y16.949
X21.988 Y16.572
X21.938 Y16.2
X21.858 Y15.836
X21.75 Y15.48
X21.614 Y15.136
X21.451 Y14.803
X21.262 Y14.485
X21.047 Y14.182
X20.809 Y13.897
X20.547 Y13.632
X20.263 Y13.386
X19.96 Y13.164
X19.637 Y12.965
X19.298 Y12.792
X18.943 Y12.645
X18.576 Y12.527
X18.198 Y12.438
X17.812 Y12.38
X17.42 Y12.352
X17.025 Y12.356
X16.629 Y12.392
X16.236 Y12.46
X15.847 Y12.56
X15.465 Y12.691
X15.093 Y12.854
X14.734 Y13.046
X14.39 Y13.268
X14.064 Y13.518
X13.757 Y13.794
X13.473 Y14.094
X13.213 Y14.418
X12.979 Y14.763
X12.773 Y15.126
X12.596 Y15.505
X12.45 Y15.899
X12.336 Y16.303
X12.254 Y16.717
X12.206 Y17.136
X12.192 Y17.558
X12.211 Y17.981
X12.265 Y18.401
X12.352 Y18.817
X12.472 Y19.224
X12.625 Y19.62
X12.809 Y20.004
X13.023 Y20.371
X13.267 Y20.721
X13.538 Y21.05
X13.834 Y21.356
X14.155 Y21.637
X14.497 Y21.893
X14.858 Y22.119
X15.237 Y22.317
X15.63 Y22.483
X16.035 Y22.617
X16.45 Y22.718
X16.872 Y22.786
X17.298 Y22.819
X17.725 Y22.818
X18.151 Y22.783
X18.573 Y22.714
X18.989 Y22.611
X19.397 Y22.474
X19.796 Y22.304
X20.185 Y22.099
X20.561 Y21.861
X20.924 Y21.588
X21.271 Y21.281
X21.597 Y20.942
X21.897 Y20.575
X22.169 Y20.182
X22.408 Y19.767
X22.614 Y19.335
X22.784 Y18.889
X22.916 Y18.434
X22.986 Y18.097
X22.994 Y18.05
X22.998 Y18.003
X23. Y17.956
Y16.765
X22.975 Y16.263
X22.923 Y15.87
X22.837 Y15.468
X22.716 Y15.063
X22.56 Y14.662
X22.369 Y14.268
X22.144 Y13.887
X21.888 Y13.521
X21.6 Y13.175
X21.283 Y12.85
X20.938 Y12.549
X20.568 Y12.276
X20.295 Y12.106
X20.179 Y12.048
X20.055 Y12.012
X19.926 Y12.
G2 X19.636 Y12.31 Z-2.3 I0.01 J0.3
G1 X19.642 Y12.362
X19.658 Y12.412
X19.681 Y12.458
X19.743 Y12.558
X22.445 Y16.913
X22.457 Y16.93
G2 X22.69 Y17.055 I0.243 J-0.175 F100.
X23. Y16.765 Z-2.5 I0.01 J-0.3
G1 Y14.307 F300.
X22.991 Y14.131
X22.969 Y13.958
X22.925 Y13.755
X22.86 Y13.536
X22.765 Y13.293
X22.641 Y13.038
X22.472 Y12.751
X22.276 Y12.472
X22.094 Y12.253
X21.942 Y12.117
X21.758 Y12.03
X21.556 Y12.
G2 X21.266 Y12.31 Z-2.3 I0.01 J0.3
G1 X21.272 Y12.358
X21.285 Y12.404
X21.305 Y12.448
X21.369 Y12.56
X22.439 Y14.444
X22.457 Y14.472
G2 X22.69 Y14.596 I0.243 J-0.175 F100.
X23. Y14.307 Z-2.5 I0.01 J-0.3
G1 Y12.741 F300.
X22.993 Y12.592
X22.991 Y12.585
X22.932 Y12.398
X22.824 Y12.235
X22.674 Y12.108
X22.495 Y12.027
X22.301 Y12.
G2 X22.012 Y12.31 Z-2.3 I0.01 J0.3
G1 X22.018 Y12.362
X22.033 Y12.412
X22.057 Y12.459
X22.089 Y12.501
X22.131 Y12.548
X22.455 Y12.908
X22.477 Y12.932 F100.
X22.522 Y12.972
X22.574 Y13.003
X22.63 Y13.023
X22.69 Y13.031
G2 X23. Y12.741 Z-2.5 I0.01 J-0.3
G1 Y12.297 F300.
X22.994 Y12.254
X22.983 Y12.215
X22.967 Y12.176
X22.945 Y12.141
X22.918 Y12.105
X22.896 Y12.082
X22.874 Y12.063
X22.83 Y12.035
X22.802 Y12.022
X22.774 Y12.012
X22.747 Y12.006
X22.72 Y12.002
X22.666 Y12.
X15.454
X15.233 Y12.011
X15.008 Y12.041
X14.78 Y12.089
X14.517 Y12.168
X14.242 Y12.275
X13.955 Y12.415
X13.646 Y12.597
X13.329 Y12.819
X13.024 Y13.072
X12.722 Y13.367
X12.429 Y13.703
X12.154 Y14.074
X12.106 Y14.152
X12.048 Y14.268
X12.012 Y14.393
X12. Y14.522
G2 X12.31 Y14.811 Z-2.3 I0.3 J-0.01
G1 X12.367 Y14.804
X12.422 Y14.785
X12.472 Y14.757
X12.554 Y14.699
X15.616 Y12.545
X15.619 Y12.543
G2 X15.744 Y12.31 I-0.175 J-0.243 F100.
X15.454 Y12. Z-2.5 I-0.3 J-0.01
G1 X13.725 F300.
X13.575 Y12.007
X13.425 Y12.028
X13.258 Y12.064
X13.067 Y12.122
X12.871 Y12.2
X12.644 Y12.311
X12.417 Y12.446
X12.295 Y12.533
X12.137 Y12.688
X12.035 Y12.885
X12. Y13.104
G2 X12.31 Y13.393 Z-2.3 I0.3 J-0.01
G1 X12.357 Y13.388
X12.403 Y13.375
X12.447 Y13.355
X12.56 Y13.291
X13.861 Y12.561
X13.89 Y12.543
G2 X14.014 Y12.31 I-0.175 J-0.243 F100.
X13.725 Y12. Z-2.5 I-0.3 J-0.01
G1 X12.414 F300.
X12.373
X12.34
X12.331 Y12.001
X12.231 Y12.021
X12.14 Y12.065
X12.062 Y12.13
G2 X12.04 Y12.454 Z-2.356 I0.28 J0.182
G1 X12.074 Y12.51 Z-2.328
X12.119 Y12.559 Z-2.3
G2 X12.551 Y12.547 I0.209 J-0.24
X12.647 Y12.3 I-0.222 J-0.229 F100.
X12.34 Y12. Z-2.5 I-0.318 J0.018
G1 X12.285 Y12.001 F300.
X12.257 Y12.005
X12.229 Y12.012
X12.203 Y12.021
X12.176 Y12.033
X12.14 Y12.055
X12.105 Y12.085
X12.062 Y12.13
X12.046 Y12.153
X12.033 Y12.176
X12.021 Y12.203
X12.012 Y12.229
X12.005 Y12.257
X12.001 Y12.285
X12. Y12.34
Y19.716
X12.009 Y19.89
X12.036 Y20.098
X12.081 Y20.31
X12.156 Y20.561
X12.254 Y20.811
X12.391 Y21.094
X12.565 Y21.389
X12.771 Y21.682
X13.024 Y21.987
X13.322 Y22.292
X13.66 Y22.587
X14.032 Y22.863
X14.083 Y22.894
X14.199 Y22.952
X14.324 Y22.988
X14.453 Y23.
G2 X14.742 Y22.69 Z-2.3 I-0.01 J-0.3
G1 X14.734 Y22.632
X14.715 Y22.576
X14.686 Y22.525
X14.629 Y22.446
X12.543 Y19.551
G2 X12.31 Y19.426 I-0.243 J0.175 F100.
X12. Y19.716 Z-2.5 I-0.01 J0.3
G1 Y21.355 F300.
X12.007 Y21.505
X12.029 Y21.653
X12.068 Y21.825
X12.126 Y22.006
X12.207 Y22.207
X12.317 Y22.425
X12.459 Y22.658
X12.498 Y22.711
X12.653 Y22.866
X12.848 Y22.966
X13.064 Y23.
G2 X13.354 Y22.69 Z-2.3 I-0.01 J-0.3
G1 X13.348 Y22.642
X13.335 Y22.596
X13.315 Y22.553
X13.251 Y22.44
X12.561 Y21.218
X12.543 Y21.19
G2 X12.31 Y21.066 I-0.243 J0.175 F100.
X12. Y21.355 Z-2.5 I-0.01 J0.3
G1 Y22.592 F300.
Y22.633
Y22.666
X12.002 Y22.693
X12.012 Y22.757
X12.033 Y22.817
X12.063 Y22.874
G2 X12.384 Y22.961 Z-2.351 I0.229 J-0.212
G1 X12.439 Y22.937 Z-2.326
X12.489 Y22.903 Z-2.3
G2 X12.542 Y22.509 I-0.192 J-0.226
X12.312 Y22.38 I-0.245 J0.168 F100.
X12. Y22.666 Z-2.5 I-0.015 J0.297
G1 X12.002 Y22.72 F300.
X12.006 Y22.747
X12.012 Y22.774
X12.022 Y22.802
X12.035 Y22.83
X12.063 Y22.874
X12.082 Y22.896
X12.105 Y22.918
X12.141 Y22.945
X12.176 Y22.967
X12.215 Y22.983
X12.254 Y22.994
X12.297 Y23.
X19.716
X19.916 Y22.99
X20.108 Y22.965
X20.34 Y22.915
X20.577 Y22.844
X20.856 Y22.736
X21.131 Y22.602
X21.441 Y22.419
X21.77 Y22.189
X22.085 Y21.927
X22.409 Y21.611
X22.728 Y21.245
X22.863 Y21.063
X22.938 Y20.935
X22.984 Y20.794
X23. Y20.647
G2 X22.69 Y20.358 Z-2.3 I-0.3 J0.01
G1 X22.634 Y20.365
X22.58 Y20.383
X22.53 Y20.41
X22.445 Y20.469
X19.556 Y22.453
X19.551 Y22.457
G2 X19.426 Y22.69 I0.175 J0.243 F100.
X19.716 Y23. Z-2.5 I0.3 J0.01
G1 X21.355 F300.
X21.527 Y22.991
X21.677 Y22.972
X21.842 Y22.936
X22.037 Y22.878
X22.231 Y22.802
X22.465 Y22.689
X22.694 Y22.554
X22.702 Y22.548
X22.862 Y22.393
X22.965 Y22.195
X23. Y21.975
G2 X22.69 Y21.686 Z-2.3 I-0.3 J0.01
G1 X22.622 Y21.696
X22.559 Y21.721
X22.438 Y21.786
X21.224 Y22.436
X21.19 Y22.457
G2 X21.066 Y22.69 I0.175 J0.243 F100.
X21.355 Y23. Z-2.5 I0.3 J0.01
G1 X22.592 F300.
X22.708 Y22.999
X22.749 Y22.994
X22.79 Y22.983
X22.83 Y22.965
X22.864 Y22.944
X22.898 Y22.916
X22.937 Y22.873
X22.965 Y22.83
X22.983 Y22.79
X22.994 Y22.749
X22.999 Y22.708
X23. Y22.338
Y17.956
G2 X22.701 Y17.666 I-0.3 J0.01
G1 X22.7
G2 X22.435 Y17.825 I0. J0.3
G1 X22.404 Y17.884 Z-2.492
X22.374 Y17.94 Z-2.47
X22.347 Y17.991 Z-2.435
X22.325 Y18.033 Z-2.387
X22.308 Y18.064 Z-2.33
X22.298 Y18.084 Z-2.267
X22.294 Y18.09 Z-2.2
Z5.
(WHEN USING FUSION 360 FOR PERSONAL USE, THE FEEDRATE OF)
(RAPID MOVES IS REDUCED TO MATCH THE FEEDRATE OF CUTTING)
(MOVES, WHICH CAN INCREASE MACHINING TIME. UNRESTRICTED RAPID)
(MOVES ARE AVAILABLE WITH A FUSION 360 SUBSCRIPTION.)

(2D POCKET3)
G0 X37.164 Y16.168
G1 Z5. F40.
Z2.8
X37.178 Y16.132 Z2.653 F15.
X37.221 Y16.036 Z2.544
X37.292 Y15.908 Z2.5
G3 X39.708 Y17.42 Z2.344 I1.208 J0.756
X37.292 Y15.908 Z2.187 I-1.208 J-0.756
X39.708 Y17.42 Z2.031 I1.208 J0.756
X37.292 Y15.908 Z1.875 I-1.208 J-0.756
X39.708 Y17.42 Z1.718 I1.208 J0.756
X37.292 Y15.908 Z1.562 I-1.208 J-0.756
X39.708 Y17.42 Z1.406 I1.208 J0.756
X37.292 Y15.908 Z1.249 I-1.208 J-0.756
X39.708 Y17.42 Z1.093 I1.208 J0.756
X37.292 Y15.908 Z0.937 I-1.208 J-0.756
X39.708 Y17.42 Z0.78 I1.208 J0.756
X37.292 Y15.908 Z0.624 I-1.208 J-0.756
X39.708 Y17.42 Z0.468 I1.208 J0.756
X37.292 Y15.908 Z0.311 I-1.208 J-0.756
X39.708 Y17.42 Z0.155 I1.208 J0.756
X37.292 Y15.908 Z-0.001 I-1.208 J-0.756
X39.708 Y17.42 Z-0.158 I1.208 J0.756
X37.292 Y15.908 Z-0.314 I-1.208 J-0.756
X39.708 Y17.42 Z-0.47 I1.208 J0.756
X37.292 Y15.908 Z-0.627 I-1.208 J-0.756
X39.708 Y17.42 Z-0.783 I1.208 J0.756
X38.5 Y18.089 Z-0.833 I-1.208 J-0.756
G1 X38.23 F300.
G3 X37.911 Y17.77 I0. J-0.319
G1 Y17.23
G3 X38.23 Y16.911 I0.319 J0.
G1 X38.77
G3 X39.089 Y17.23 I0. J0.319
G1 Y17.77
G3 X38.77 Y18.089 I-0.319 J0.
G1 X38.5
G2 X37.634 Y18.536 I0. J1.063
G3 X36.705 Y18.239 I-0.417 J-0.297
G1 Y16.024
G3 X37.024 Y15.705 I0.319 J0.
G1 X39.976
G3 X40.295 Y16.024 I0. J0.319
G1 Y18.976
G3 X39.976 Y19.295 I-0.319 J0.
G1 X37.024
G3 X36.705 Y18.976 I0. J-0.319
G1 Y18.239
G2 X35.855 Y16.964 I-1.381 J0.
G3 X35.005 Y15.689 I0.531 J-1.275
G1 Y14.324
G3 X35.324 Y14.005 I0.319 J0.
G1 X41.676
G3 X41.995 Y14.324 I0. J0.319
G1 Y20.676
G3 X41.676 Y20.995 I-0.319 J0.
G1 X35.324
G3 X35.005 Y20.676 I0. J-0.319
G1 Y15.689
G2 X34.153 Y14.411 I-1.385 J0.
G3 X33.3 Y13.132 I0.533 J-1.279
G1 Y12.3
X43.7
Y22.7
X33.3
Y13.132
G2 X33.15 Y12.907 I-0.244 J0.
G3 X33. Y12.682 I0.094 J-0.225
G1 Y12.
X44.
Y23.
X33.
Y12.682
G3 X33.338 Y12.537 I0.2 J0.
G1 X36.962 Y15.984
G2 X37.272 Y15.941 I0.138 J-0.145
G3 X39.728 Y17.387 Z-0.99 I1.228 J0.723 F15.
X37.272 Y15.941 Z-1.146 I-1.228 J-0.723
X39.728 Y17.387 Z-1.302 I1.228 J0.723
X37.272 Y15.941 Z-1.459 I-1.228 J-0.723
X39.728 Y17.387 Z-1.615 I1.228 J0.723
X38.5 Y18.089 Z-1.667 I-1.228 J-0.723
G1 X38.23 F300.
G3 X37.911 Y17.77 I0. J-0.319
G1 Y17.23
G3 X38.23 Y16.911 I0.319 J0.
G1 X38.77
G3 X39.089 Y17.23 I0. J0.319
G1 Y17.77
G3 X38.77 Y18.089 I-0.319 J0.
G1 X38.5
G2 X37.634 Y18.536 I0. J1.063
G3 X36.705 Y18.239 I-0.417 J-0.297
G1 Y16.024
G3 X37.024 Y15.705 I0.319 J0.
G1 X39.976
G3 X40.295 Y16.024 I0. J0.319
G1 Y18.976
G3 X39.976 Y19.295 I-0.319 J0.
G1 X37.024
G3 X36.705 Y18.976 I0. J-0.319
G1 Y18.239
G2 X35.855 Y16.964 I-1.381 J0.
G3 X35.005 Y15.689 I0.531 J-1.275
G1 Y14.324
G3 X35.324 Y14.005 I0.319 J0.
G1 X41.676
G3 X41.995 Y14.324 I0. J0.319
G1 Y20.676
G3 X41.676 Y20.995 I-0.319 J0.
G1 X35.324
G3 X35.005 Y20.676 I0. J-0.319
G1 Y15.689
G2 X34.153 Y14.411 I-1.385 J0.
G3 X33.3 Y13.132 I0.533 J-1.279
G1 Y12.3
X43.7
Y22.7
X33.3
Y13.132
G2 X33.15 Y12.907 I-0.244 J0.
G3 X33. Y12.682 I0.094 J-0.225
G1 Y12.
X44.
Y23.
X33.
Y12.682
G3 X33.338 Y12.537 I0.2 J0.
G1 X36.962 Y15.984
G2 X37.272 Y15.941 I0.138 J-0.145
G3 X39.728 Y17.387 Z-1.823 I1.228 J0.723 F15.
X37.272 Y15.941 Z-1.979 I-1.228 J-0.723
X39.728 Y17.387 Z-2.136 I1.228 J0.723
X37.272 Y15.941 Z-2.292 I-1.228 J-0.723
X39.728 Y17.387 Z-2.448 I1.228 J0.723
X38.5 Y18.089 Z-2.5 I-1.228 J-0.723
G1 X38.23 F300.
G3 X37.911 Y17.77 I0. J-0.319
G1 Y17.23
G3 X38.23 Y16.911 I0.319 J0.
G1 X38.77
G3 X39.089 Y17.23 I0. J0.319
G1 Y17.77
G3 X38.77 Y18.089 I-0.319 J0.
G1 X38.5
G2 X37.634 Y18.536 I0. J1.063
G3 X36.705 Y18.239 I-0.417 J-0.297
G1 Y16.024
G3 X37.024 Y15.705 I0.319 J0.
G1 X39.976
G3 X40.295 Y16.024 I0. J0.319
G1 Y18.976
G3 X39.976 Y19.295 I-0.319 J0.
G1 X37.024
G3 X36.705 Y18.976 I0. J-0.319
G1 Y18.239
G2 X35.855 Y16.964 I-1.381 J0.
G3 X35.005 Y15.689 I0.531 J-1.275
G1 Y14.324
G3 X35.324 Y14.005 I0.319 J0.
G1 X41.676
G3 X41.995 Y14.324 I0. J0.319
G1 Y20.676
G3 X41.676 Y20.995 I-0.319 J0.
G1 X35.324
G3 X35.005 Y20.676 I0. J-0.319
G1 Y15.689
G2 X34.153 Y14.411 I-1.385 J0.
G3 X33.3 Y13.132 I0.533 J-1.279
G1 Y12.3
X43.7
Y22.7
X33.3
Y13.132
G2 X33.15 Y12.907 I-0.244 J0.
G3 X33. Y12.682 I0.094 J-0.225
G1 Y12.
X44.
Y23.
X33.
Y12.682
X33.005 Y12.625 Z-2.489
X33.022 Y12.57 Z-2.477
X33.043 Y12.526 Z-2.445
X33.072 Y12.487 Z-2.412
X33.119 Y12.443 Z-2.315
X33.138 Y12.429 Z-2.2
Z5.
X38.751 Y18.067
Z3.3 F40.
X38.718 Y18.072 Z3.164 F15.
X38.629 Y18.083 Z3.058
X38.5 Y18.089 Z3.004
X38.462 Z3.
G3 X38.538 Y15.239 Z2.844 I0.038 J-1.425
X38.462 Y18.089 Z2.687 I-0.038 J1.425
X38.538 Y15.239 Z2.531 I0.038 J-1.425
X38.462 Y18.089 Z2.375 I-0.038 J1.425
X38.538 Y15.239 Z2.218 I0.038 J-1.425
X38.462 Y18.089 Z2.062 I-0.038 J1.425
X38.538 Y15.239 Z1.906 I0.038 J-1.425
X38.462 Y18.089 Z1.749 I-0.038 J1.425
X38.538 Y15.239 Z1.593 I0.038 J-1.425
X38.462 Y18.089 Z1.437 I-0.038 J1.425
X38.538 Y15.239 Z1.28 I0.038 J-1.425
X38.462 Y18.089 Z1.124 I-0.038 J1.425
X38.538 Y15.239 Z0.968 I0.038 J-1.425
X38.462 Y18.089 Z0.811 I-0.038 J1.425
X38.538 Y15.239 Z0.655 I0.038 J-1.425
X38.5 Y18.089 Z0.5 I-0.038 J1.425
G1 X38.23 F300.
G3 X37.911 Y17.77 I0. J-0.319
G1 Y17.23
G3 X38.23 Y16.911 I0.319 J0.
G1 X38.77
G3 X39.089 Y17.23 I0. J0.319
G1 Y17.77
G3 X38.77 Y18.089 I-0.319 J0.
G1 X38.5
G2 X37.634 Y18.536 I0. J1.063
G3 X36.705 Y18.239 I-0.417 J-0.297
G1 Y16.024
G3 X37.024 Y15.705 I0.319 J0.
G1 X39.976
G3 X40.295 Y16.024 I0. J0.319
G1 Y18.976
G3 X39.976 Y19.295 I-0.319 J0.
G1 X37.024
G3 X36.705 Y18.976 I0. J-0.319
G1 Y18.239
G2 X35.855 Y16.964 I-1.381 J0.
G3 X35.005 Y15.689 I0.531 J-1.275
G1 Y14.324
G3 X35.324 Y14.005 I0.319 J0.
G1 X41.676
G3 X41.995 Y14.324 I0. J0.319
G1 Y20.676
G3 X41.676 Y20.995 I-0.319 J0.
G1 X35.324
G3 X35.005 Y20.676 I0. J-0.319
G1 Y15.689
G2 X34.153 Y14.411 I-1.385 J0.
G3 X33.3 Y13.132 I0.533 J-1.279
G1 Y12.3
X43.7
Y22.7
X33.3
Y13.132
G2 X33.15 Y12.907 I-0.244 J0.
G3 X33. Y12.682 I0.094 J-0.225
G1 Y12.
X44.
Y23.
X33.
Y12.682
X33.005 Y12.625 Z0.511
X33.022 Y12.57 Z0.523
X33.043 Y12.526 Z0.555
X33.072 Y12.487 Z0.588
X33.119 Y12.443 Z0.685
X33.138 Y12.429 Z0.8
Z5.
(WHEN USING FUSION 360 FOR PERSONAL USE, THE FEEDRATE OF)
(RAPID MOVES IS REDUCED TO MATCH THE FEEDRATE OF CUTTING)
(MOVES, WHICH CAN INCREASE MACHINING TIME. UNRESTRICTED RAPID)
(MOVES ARE AVAILABLE WITH A FUSION 360 SUBSCRIPTION.)

(2D CONTOUR1)
G0 X37.2 Y77.7
G1 Z5. F40.
Z2.
Z0.3
G19 G2 Y77.4 Z0. J-0.3 K0. F400.
G1 Y77.1
G17 G3 X37.5 Y76.8 I0.3 J0.
G1 X75.
G2 X76.8 Y75. I0. J-1.8
G1 Y0.
G2 X75. Y-1.8 I-1.8 J0.
G1 X0.
G2 X-1.8 Y0. I0. J1.8
G1 Y75.
G2 X0. Y76.8 I1.8 J0.
G1 X37.5
G2 X37.725 Y76.65 I0. J-0.244
G3 X37.95 Y76.5 I0.225 J0.094
G1 X75.
G2 X76.5 Y75. I0. J-1.5
G1 Y0.
G2 X75. Y-1.5 I-1.5 J0.
G1 X0.
G2 X-1.5 Y0. I0. J1.5
G1 Y75.
G2 X0. Y76.5 I1.5 J0.
G1 X37.95
G3 X38.25 Y76.8 I0. J0.3
G1 Y77.1
G19 G3 Y77.4 Z0.3 J0. K0.3
G1 Z5.
G17

G28 G91 Z0.
G90
G28 G91 X0. Y0.
G90
M30
