(1006)
(MACHINE)
(  VENDOR HOMEMADE)
(  DESCRIPTION GENERIC 3-AXIS)
(T4  D=3. CR=0. - ZMIN=-3.5 - FLAT END MILL)
G90 G94 G91.1 G40 G49 G17
G21
(WHEN USING FUSION 360 FOR PERSONAL USE, THE FEEDRATE OF)
(RAPID MOVES IS REDUCED TO MATCH THE FEEDRATE OF CUTTING)
(MOVES, WHICH CAN INCREASE MACHINING TIME. UNRESTRICTED RAPID)
(MOVES ARE AVAILABLE WITH A FUSION 360 SUBSCRIPTION.)
G28 G91 Z0.
G90

(2D ADAPTIVE4)
M5
T4 M6
S9000 M3
G54
G0 X17.463 Y16.016
G43 Z5. H4
G1 Z2.5 F1184.
G2 X16.123 Y18.054 Z2.4 I0.037 J1.484 F15.
X18.499 Y18.594 Z2.3 I1.375 J-0.554
X18.172 Y16.182 Z2.2 I-1. J-1.092
X16.03 Y17.334 Z2.1 I-0.671 J1.318
X17.857 Y18.933 Z2. I1.468 J0.166
X18.714 Y16.664 Z1.9 I-0.359 J-1.431
X16.291 Y16.658 Z1.8 I-1.213 J0.837
X17.134 Y18.926 Z1.7 I1.208 J0.842
X18.96 Y17.343 Z1.6 I0.364 J-1.425
X16.84 Y16.189 Z1.5 I-1.46 J0.158
X16.504 Y18.577 Z1.4 I0.66 J1.31
X18.855 Y18.055 Z1.3 I0.995 J-1.076
X17.543 Y16.039 Z1.2 I-1.355 J-0.553
X16.116 Y17.972 Z1.1 I-0.043 J1.461
X18.424 Y18.629 Z1. I1.382 J-0.472
X18.23 Y16.24 Z0.9 I-0.925 J-1.127
X16.064 Y17.258 Z0.8 I-0.73 J1.26
X17.775 Y18.928 Z0.7 I1.435 J0.242
X18.738 Y16.742 Z0.6 I-0.277 J-1.426
X16.356 Y16.608 Z0.5 I-1.237 J0.758
X17.065 Y18.883 Z0.4 I1.143 J0.892
X18.944 Y17.423 Z0.3 I0.434 J-1.381
X16.921 Y16.176 Z0.2 I-1.444 J0.078
X16.463 Y18.506 Z0.1 I0.579 J1.323
X18.802 Y18.118 Z0. I1.035 J-1.005
X17.62 Y16.066 Z-0.1 I-1.302 J-0.616
X16.115 Y17.891 Z-0.2 I-0.12 J1.434
X18.349 Y18.659 Z-0.3 I1.383 J-0.39
X18.285 Y16.3 Z-0.4 I-0.849 J-1.157
X16.101 Y17.186 Z-0.5 I-0.785 J1.2
X17.695 Y18.918 Z-0.6 I1.397 J0.314
X18.757 Y16.821 Z-0.7 I-0.196 J-1.417
X16.423 Y16.562 Z-0.8 I-1.257 J0.68
X16.998 Y18.836 Z-0.9 I1.076 J0.937
X18.923 Y17.501 Z-1. I0.5 J-1.335
X16.073 I-1.425 J0.
X18.923 I1.425 J0.
G1 X18.958 Y16.78 F1184.
X18.975 Y16.691
X18.983 Y16.542
X18.963 Y16.393
X18.921 Y16.249
X18.859 Y16.113
X18.78 Y15.985
X18.688 Y15.866
X18.584 Y15.759
X18.469 Y15.662
X18.346 Y15.576
X18.216 Y15.502
X18.079 Y15.44
X17.938 Y15.389
X17.793 Y15.35
X17.641 Y15.322
X17.485 Y15.307
X17.326 Y15.303
X17.164 Y15.313
X17.001 Y15.336
X16.838 Y15.372
X16.677 Y15.422
X16.52 Y15.485
X16.366 Y15.562
X16.217 Y15.651
X16.076 Y15.753
X15.942 Y15.866
X15.817 Y15.99
X15.702 Y16.125
X15.597 Y16.269
X15.504 Y16.421
X15.424 Y16.581
X15.356 Y16.748
X15.302 Y16.92
X15.261 Y17.095
X15.235 Y17.274
X15.223 Y17.455
X15.226 Y17.637
X15.243 Y17.818
X15.275 Y17.997
X15.321 Y18.173
X15.381 Y18.345
X15.455 Y18.511
X15.542 Y18.672
X15.642 Y18.825
X15.754 Y18.969
X15.877 Y19.104
X16.01 Y19.229
X16.153 Y19.343
X16.305 Y19.445
X16.465 Y19.535
X16.631 Y19.611
X16.803 Y19.674
X16.979 Y19.723
X17.159 Y19.757
X17.341 Y19.777
X17.524 Y19.783
X17.707 Y19.773
X17.889 Y19.749
X18.068 Y19.711
X18.243 Y19.658
X18.414 Y19.591
X18.579 Y19.511
X18.737 Y19.418
X18.886 Y19.312
X19.027 Y19.195
X19.158 Y19.067
X19.279 Y18.929
X19.387 Y18.781
X19.489 Y18.618
X19.599 Y18.403
X19.732 Y18.083
X19.842 Y17.746
X19.906 Y17.476
X19.943 Y17.239
X19.959 Y17.019
X19.958 Y16.804
X19.94 Y16.597
X19.906 Y16.4
X19.858 Y16.21
X19.795 Y16.025
X19.717 Y15.845
X19.624 Y15.67
X19.517 Y15.503
X19.396 Y15.344
X19.262 Y15.194
X19.115 Y15.053
X18.954 Y14.924
X18.782 Y14.806
X18.598 Y14.701
X18.403 Y14.609
X18.198 Y14.532
X17.984 Y14.471
X17.764 Y14.427
X17.537 Y14.4
X17.307 Y14.392
X17.074 Y14.402
X16.84 Y14.431
X16.607 Y14.479
X16.377 Y14.546
X16.152 Y14.632
X15.932 Y14.737
X15.72 Y14.859
X15.517 Y15.
X15.326 Y15.157
X15.146 Y15.329
X14.98 Y15.517
X14.829 Y15.718
X14.695 Y15.931
X14.577 Y16.155
X14.477 Y16.389
X14.396 Y16.631
X14.335 Y16.879
X14.294 Y17.131
X14.273 Y17.387
Y17.644
X14.293 Y17.9
X14.334 Y18.155
X14.395 Y18.405
X14.476 Y18.65
X14.577 Y18.888
X14.697 Y19.118
X14.835 Y19.337
X14.99 Y19.544
X15.161 Y19.739
X15.347 Y19.919
X15.548 Y20.084
X15.761 Y20.232
X15.985 Y20.363
X16.219 Y20.475
X16.461 Y20.568
X16.711 Y20.641
X16.965 Y20.695
X17.223 Y20.727
X17.482 Y20.739
X17.742 Y20.73
X18. Y20.7
X18.255 Y20.65
X18.505 Y20.579
X18.749 Y20.488
X18.985 Y20.378
X19.211 Y20.25
X19.426 Y20.104
X19.63 Y19.939
X19.828 Y19.752
X20.031 Y19.527
X20.224 Y19.273
X20.404 Y18.994
X20.563 Y18.697
X20.696 Y18.391
X20.801 Y18.085
X20.88 Y17.779
X20.932 Y17.476
X20.959 Y17.177
X20.961 Y16.881
X20.941 Y16.591
X20.897 Y16.305
X20.832 Y16.026
X20.744 Y15.755
X20.636 Y15.493
X20.507 Y15.241
X20.358 Y14.999
X20.189 Y14.77
X20.002 Y14.554
X19.797 Y14.352
X19.575 Y14.167
X19.337 Y13.998
X19.085 Y13.848
X18.818 Y13.718
X18.54 Y13.608
X18.251 Y13.52
X17.953 Y13.455
X17.649 Y13.414
X17.34 Y13.398
X17.028 Y13.406
X16.716 Y13.44
X16.406 Y13.498
X16.099 Y13.583
X15.798 Y13.692
X15.505 Y13.825
X15.222 Y13.983
X14.951 Y14.164
X14.695 Y14.367
X14.454 Y14.591
X14.232 Y14.834
X14.028 Y15.096
X13.846 Y15.374
X13.686 Y15.667
X13.55 Y15.972
X13.439 Y16.288
X13.353 Y16.613
X13.293 Y16.945
X13.26 Y17.28
X13.254 Y17.618
X13.275 Y17.956
X13.323 Y18.292
X13.399 Y18.622
X13.5 Y18.946
X13.628 Y19.262
X13.78 Y19.566
X13.956 Y19.857
X14.156 Y20.133
X14.377 Y20.393
X14.618 Y20.634
X14.878 Y20.855
X15.154 Y21.054
X15.446 Y21.231
X15.752 Y21.384
X16.069 Y21.511
X16.395 Y21.613
X16.728 Y21.689
X17.066 Y21.737
X17.407 Y21.758
X17.749 Y21.752
X18.089 Y21.718
X18.425 Y21.657
X18.756 Y21.57
X19.078 Y21.456
X19.391 Y21.316
X19.694 Y21.15
X19.991 Y20.956
X20.28 Y20.731
X20.559 Y20.475
X20.823 Y20.191
X21.068 Y19.881
X21.289 Y19.549
X21.483 Y19.201
X21.648 Y18.839
X21.782 Y18.469
X21.885 Y18.092
X21.957 Y17.712
X21.998 Y17.33
X22.007 Y16.95
X21.987 Y16.573
X21.937 Y16.202
X21.857 Y15.837
X21.749 Y15.482
X21.613 Y15.137
X21.45 Y14.805
X21.26 Y14.487
X21.046 Y14.184
X20.807 Y13.899
X20.545 Y13.633
X20.262 Y13.388
X19.958 Y13.165
X19.636 Y12.967
X19.296 Y12.793
X18.942 Y12.647
X18.575 Y12.529
X18.197 Y12.44
X17.811 Y12.382
X17.419 Y12.354
X17.024 Y12.358
X16.628 Y12.394
X16.234 Y12.462
X15.845 Y12.562
X15.464 Y12.693
X15.092 Y12.855
X14.733 Y13.048
X14.389 Y13.27
X14.062 Y13.519
X13.756 Y13.795
X13.472 Y14.096
X13.212 Y14.42
X12.978 Y14.764
X12.772 Y15.128
X12.595 Y15.507
X12.449 Y15.9
X12.335 Y16.305
X12.253 Y16.718
X12.205 Y17.138
X12.19 Y17.56
X12.21 Y17.983
X12.263 Y18.403
X12.35 Y18.818
X12.471 Y19.226
X12.624 Y19.622
X12.808 Y20.006
X13.022 Y20.373
X13.266 Y20.723
X13.537 Y21.051
X13.833 Y21.358
X14.153 Y21.639
X14.495 Y21.894
X14.857 Y22.121
X15.235 Y22.318
X15.629 Y22.484
X16.034 Y22.619
X16.449 Y22.72
X16.871 Y22.787
X17.297 Y22.821
X17.724 Y22.82
X18.15 Y22.785
X18.572 Y22.716
X18.987 Y22.613
X19.395 Y22.476
X19.795 Y22.305
X20.184 Y22.101
X20.56 Y21.863
X20.923 Y21.59
X21.27 Y21.283
X21.595 Y20.944
X21.896 Y20.576
X22.167 Y20.183
X22.407 Y19.769
X22.613 Y19.337
X22.782 Y18.891
X22.915 Y18.435
X22.986 Y18.092
X22.994 Y18.046
X22.998 Y17.999
X23. Y17.951
Y16.772
X22.975 Y16.268
X22.923 Y15.874
X22.837 Y15.471
X22.716 Y15.066
X22.559 Y14.664
X22.368 Y14.27
X22.144 Y13.889
X21.887 Y13.523
X21.599 Y13.177
X21.282 Y12.852
X20.937 Y12.551
X20.567 Y12.277
X20.291 Y12.106
X20.175 Y12.048
X20.051 Y12.012
X19.922 Y12.
G2 X19.632 Y12.31 Z-0.8 I0.01 J0.3
G1 X19.638 Y12.362
X19.654 Y12.412
X19.677 Y12.458
X19.739 Y12.558
X22.445 Y16.92
G2 X22.69 Y17.062 I0.255 J-0.158
X23. Y16.772 Z-1. I0.01 J-0.3
G1 Y14.314
X22.991 Y14.134
X22.968 Y13.961
X22.925 Y13.758
X22.859 Y13.539
X22.765 Y13.296
X22.641 Y13.04
X22.472 Y12.753
X22.276 Y12.474
X22.092 Y12.253
X21.94 Y12.117
X21.755 Y12.03
X21.553 Y12.
G2 X21.264 Y12.31 Z-0.8 I0.01 J0.3
G1 X21.269 Y12.358
X21.282 Y12.404
X21.303 Y12.448
X21.367 Y12.56
X22.439 Y14.452
G2 X22.69 Y14.604 I0.261 J-0.148
X23. Y14.314 Z-1. I0.01 J-0.3
G1 Y12.75
X22.993 Y12.6
X22.991 Y12.588
X22.932 Y12.4
X22.824 Y12.236
X22.674 Y12.109
X22.494 Y12.028
X22.3 Y12.
G2 X22.01 Y12.31 Z-0.8 I0.01 J0.3
G1 X22.021 Y12.378
X22.046 Y12.442
X22.086 Y12.499
X22.13 Y12.548
X22.456 Y12.916
X22.476 Y12.938
X22.521 Y12.979
X22.573 Y13.011
X22.63 Y13.031
X22.69 Y13.039
G2 X23. Y12.75 Z-1. I0.01 J-0.3
G1 Y12.348
X22.999 Y12.285
X22.99 Y12.235
X22.982 Y12.21
X22.971 Y12.184
X22.951 Y12.148
X22.923 Y12.111
X22.879 Y12.069
X22.857 Y12.052
X22.835 Y12.039
X22.797 Y12.021
X22.765 Y12.01
X22.734 Y12.004
X22.671 Y12.
X15.461
X15.234 Y12.011
X15.009 Y12.041
X14.781 Y12.09
X14.517 Y12.169
X14.243 Y12.276
X13.955 Y12.415
X13.645 Y12.598
X13.328 Y12.82
X13.023 Y13.073
X12.721 Y13.368
X12.428 Y13.704
X12.153 Y14.076
X12.106 Y14.152
X12.048 Y14.268
X12.012 Y14.392
X12. Y14.522
G2 X12.31 Y14.811 Z-0.8 I0.3 J-0.01
G1 X12.367 Y14.803
X12.422 Y14.785
X12.472 Y14.757
X12.554 Y14.699
X15.623 Y12.545
G2 X15.751 Y12.31 I-0.172 J-0.246
X15.461 Y12. Z-1. I-0.3 J-0.01
G1 X13.733
X13.583 Y12.007
X13.433 Y12.027
X13.267 Y12.063
X13.076 Y12.12
X12.882 Y12.195
X12.655 Y12.306
X12.43 Y12.438
X12.298 Y12.531
X12.138 Y12.687
X12.035 Y12.884
X12. Y13.104
G2 X12.31 Y13.393 Z-0.8 I0.3 J-0.01
G1 X12.357 Y13.388
X12.403 Y13.375
X12.446 Y13.356
X12.561 Y13.292
X13.869 Y12.562
G2 X14.022 Y12.31 I-0.146 J-0.262
X13.733 Y12. Z-1. I-0.3 J-0.01
G1 X12.422
X12.381
X12.348
X12.319 Y12.002
X12.218 Y12.025
X12.126 Y12.074
X12.051 Y12.145
G2 X12.047 Y12.465 Z-0.859 I0.315 J0.164
G1 X12.084 Y12.524 Z-0.83
X12.133 Y12.573 Z-0.8
G2 X12.659 Y12.298 I0.204 J-0.25
X12.348 Y12. Z-1. I-0.322 J0.025
G1 X12.276 Y12.002
X12.239 Y12.009
X12.203 Y12.021
X12.184 Y12.029
X12.159 Y12.042
X12.133 Y12.059
X12.107 Y12.081
X12.082 Y12.106
X12.051 Y12.145
X12.029 Y12.184
X12.021 Y12.203
X12.009 Y12.239
X12.002 Y12.276
X12. Y12.348
Y19.722
X12.009 Y19.893
X12.036 Y20.101
X12.081 Y20.313
X12.156 Y20.563
X12.253 Y20.813
X12.391 Y21.097
X12.565 Y21.392
X12.77 Y21.684
X13.024 Y21.99
X13.321 Y22.294
X13.659 Y22.589
X14.031 Y22.865
X14.079 Y22.894
X14.195 Y22.952
X14.32 Y22.988
X14.449 Y23.
G2 X14.738 Y22.69 Z-0.8 I-0.01 J-0.3
G1 X14.73 Y22.632
X14.711 Y22.576
X14.682 Y22.525
X14.625 Y22.446
X12.543 Y19.557
G2 X12.31 Y19.432 I-0.243 J0.175
X12. Y19.722 Z-1. I-0.01 J0.3
G1 Y21.36
X12.007 Y21.51
X12.029 Y21.659
X12.069 Y21.83
X12.126 Y22.012
X12.209 Y22.213
X12.319 Y22.431
X12.462 Y22.665
X12.496 Y22.712
X12.651 Y22.866
X12.846 Y22.966
X13.062 Y23.
G2 X13.352 Y22.69 Z-0.8 I-0.01 J-0.3
G1 X13.346 Y22.642
X13.333 Y22.596
X13.313 Y22.552
X13.249 Y22.44
X12.561 Y21.223
G2 X12.31 Y21.071 I-0.261 J0.148
X12. Y21.36 Z-1. I-0.01 J0.3
G1 Y22.597
Y22.671
X12.004 Y22.734
X12.01 Y22.765
X12.021 Y22.797
X12.039 Y22.835
X12.052 Y22.857
X12.069 Y22.879
X12.111 Y22.923
X12.148 Y22.951
X12.184 Y22.971
X12.21 Y22.982
X12.235 Y22.99
X12.285 Y22.999
X12.348 Y23.
X19.722
X19.917 Y22.99
X20.109 Y22.965
X20.341 Y22.915
X20.577 Y22.845
X20.856 Y22.736
X21.131 Y22.602
X21.441 Y22.42
X21.769 Y22.19
X22.085 Y21.928
X22.408 Y21.612
X22.727 Y21.246
X22.863 Y21.063
X22.938 Y20.935
X22.984 Y20.794
X23. Y20.647
G2 X22.69 Y20.357 Z-0.8 I-0.3 J0.01
G1 X22.634 Y20.365
X22.58 Y20.382
X22.53 Y20.41
X22.445 Y20.468
X19.562 Y22.453
G2 X19.432 Y22.69 I0.17 J0.247
X19.722 Y23. Z-1. I0.3 J0.01
G1 X21.36
X21.527 Y22.992
X21.677 Y22.972
X21.842 Y22.937
X22.036 Y22.878
X22.231 Y22.803
X22.464 Y22.689
X22.694 Y22.554
X22.702 Y22.548
X22.862 Y22.393
X22.965 Y22.195
X23. Y21.975
G2 X22.69 Y21.686 Z-0.8 I-0.3 J0.01
G1 X22.622 Y21.696
X22.558 Y21.722
X22.438 Y21.786
X21.229 Y22.436
G2 X21.071 Y22.69 I0.142 J0.264
X21.36 Y23. Z-1. I0.3 J0.01
G1 X22.597
X22.671
X22.715 Y22.999
X22.745 Y22.995
X22.775 Y22.987
X22.805 Y22.976
X22.835 Y22.961
X22.867 Y22.941
X22.898 Y22.914
X22.935 Y22.874
X22.961 Y22.835
X22.976 Y22.805
X22.987 Y22.775
X22.995 Y22.745
X22.999 Y22.715
X23. Y22.671
Y17.951
G2 X22.701 Y17.662 I-0.3 J0.01
G1 X22.7
X22.676 Y17.663
X22.626 Y17.68 Z-0.995
X22.577 Y17.697 Z-0.981
X22.532 Y17.713 Z-0.958
X22.499 Y17.75 Z-0.921
X22.472 Y17.78 Z-0.874
X22.452 Y17.802 Z-0.82
X22.44 Y17.816 Z-0.762
X22.435 Y17.821 Z-0.7
Z5.
X17.463 Y16.016
Z1.5
G2 X16.123 Y18.055 Z1.4 I0.037 J1.484 F15.
X18.499 Y18.594 Z1.3 I1.375 J-0.554
X18.172 Y16.182 Z1.2 I-1. J-1.092
X16.031 Y17.334 Z1.1 I-0.671 J1.318
X17.858 Y18.933 Z1. I1.468 J0.166
X18.714 Y16.664 Z0.9 I-0.359 J-1.431
X16.291 Y16.658 Z0.8 I-1.213 J0.837
X17.134 Y18.926 Z0.7 I1.208 J0.842
X18.96 Y17.343 Z0.6 I0.364 J-1.425
X16.84 Y16.19 Z0.5 I-1.46 J0.158
X16.504 Y18.577 Z0.4 I0.66 J1.31
X18.855 Y18.055 Z0.3 I0.995 J-1.076
X17.543 Y16.039 Z0.2 I-1.355 J-0.553
X16.117 Y17.972 Z0.1 I-0.043 J1.461
X18.425 Y18.629 Z0. I1.382 J-0.472
X18.231 Y16.24 Z-0.1 I-0.925 J-1.127
X16.064 Y17.259 Z-0.2 I-0.73 J1.26
X17.775 Y18.928 Z-0.3 I1.435 J0.242
X18.738 Y16.743 Z-0.4 I-0.277 J-1.426
X16.356 Y16.608 Z-0.5 I-1.237 J0.758
X17.065 Y18.883 Z-0.6 I1.143 J0.892
X18.944 Y17.423 Z-0.7 I0.434 J-1.381
X16.921 Y16.177 Z-0.8 I-1.444 J0.078
X16.463 Y18.506 Z-0.9 I0.579 J1.323
X18.802 Y18.118 Z-1. I1.035 J-1.005
X17.62 Y16.066 Z-1.1 I-1.302 J-0.616
X16.115 Y17.891 Z-1.2 I-0.12 J1.434
X18.349 Y18.659 Z-1.3 I1.383 J-0.39
X18.285 Y16.301 Z-1.4 I-0.849 J-1.157
X16.101 Y17.186 Z-1.5 I-0.785 J1.2
X17.695 Y18.919 Z-1.6 I1.397 J0.314
X18.757 Y16.821 Z-1.7 I-0.196 J-1.417
X16.423 Y16.563 Z-1.8 I-1.257 J0.68
X16.999 Y18.836 Z-1.9 I1.076 J0.937
X18.924 Y17.502 Z-2. I0.5 J-1.335
X16.073 I-1.425 J0.
X18.924 I1.425 J0.
G1 X18.958 Y16.78 F1184.
X18.975 Y16.692
X18.983 Y16.542
X18.963 Y16.393
X18.921 Y16.249
X18.859 Y16.113
X18.781 Y15.985
X18.688 Y15.867
X18.584 Y15.759
X18.469 Y15.662
X18.346 Y15.576
X18.216 Y15.502
X18.079 Y15.44
X17.938 Y15.389
X17.793 Y15.35
X17.642 Y15.323
X17.486 Y15.307
X17.326 Y15.304
X17.164 Y15.313
X17.001 Y15.336
X16.839 Y15.372
X16.678 Y15.422
X16.52 Y15.486
X16.366 Y15.562
X16.218 Y15.651
X16.076 Y15.753
X15.942 Y15.866
X15.817 Y15.99
X15.702 Y16.125
X15.597 Y16.269
X15.504 Y16.422
X15.424 Y16.582
X15.356 Y16.748
X15.302 Y16.92
X15.261 Y17.096
X15.235 Y17.275
X15.223 Y17.456
X15.226 Y17.637
X15.243 Y17.818
X15.275 Y17.997
X15.321 Y18.173
X15.382 Y18.345
X15.455 Y18.512
X15.542 Y18.672
X15.642 Y18.825
X15.754 Y18.97
X15.877 Y19.105
X16.01 Y19.23
X16.153 Y19.344
X16.305 Y19.446
X16.465 Y19.535
X16.631 Y19.611
X16.803 Y19.674
X16.98 Y19.723
X17.159 Y19.758
X17.341 Y19.778
X17.525 Y19.783
X17.707 Y19.774
X17.889 Y19.75
X18.068 Y19.711
X18.244 Y19.658
X18.414 Y19.592
X18.579 Y19.511
X18.737 Y19.418
X18.887 Y19.313
X19.027 Y19.195
X19.158 Y19.067
X19.279 Y18.929
X19.388 Y18.782
X19.489 Y18.618
X19.6 Y18.403
X19.733 Y18.084
X19.842 Y17.746
X19.907 Y17.477
X19.943 Y17.239
X19.96 Y17.019
X19.958 Y16.805
X19.94 Y16.597
X19.907 Y16.4
X19.859 Y16.211
X19.796 Y16.026
X19.717 Y15.845
X19.624 Y15.67
X19.517 Y15.503
X19.396 Y15.344
X19.262 Y15.194
X19.115 Y15.054
X18.955 Y14.924
X18.782 Y14.806
X18.598 Y14.701
X18.403 Y14.609
X18.198 Y14.532
X17.984 Y14.471
X17.764 Y14.427
X17.538 Y14.4
X17.307 Y14.392
X17.074 Y14.402
X16.84 Y14.431
X16.608 Y14.479
X16.377 Y14.546
X16.152 Y14.632
X15.932 Y14.737
X15.72 Y14.86
X15.518 Y15.
X15.326 Y15.157
X15.146 Y15.33
X14.98 Y15.517
X14.83 Y15.718
X14.695 Y15.931
X14.577 Y16.156
X14.477 Y16.389
X14.397 Y16.631
X14.335 Y16.879
X14.294 Y17.131
X14.273 Y17.387
Y17.644
X14.293 Y17.9
X14.334 Y18.155
X14.395 Y18.405
X14.477 Y18.65
X14.577 Y18.888
X14.697 Y19.118
X14.835 Y19.337
X14.99 Y19.545
X15.161 Y19.739
X15.347 Y19.919
X15.548 Y20.084
X15.761 Y20.232
X15.985 Y20.363
X16.219 Y20.475
X16.462 Y20.568
X16.711 Y20.642
X16.965 Y20.695
X17.223 Y20.728
X17.482 Y20.739
X17.742 Y20.73
X18. Y20.7
X18.255 Y20.65
X18.506 Y20.579
X18.749 Y20.489
X18.985 Y20.379
X19.211 Y20.25
X19.426 Y20.104
X19.63 Y19.94
X19.828 Y19.752
X20.031 Y19.527
X20.225 Y19.273
X20.404 Y18.995
X20.563 Y18.697
X20.696 Y18.392
X20.802 Y18.085
X20.88 Y17.779
X20.932 Y17.476
X20.959 Y17.177
X20.962 Y16.882
X20.941 Y16.591
X20.898 Y16.306
X20.832 Y16.027
X20.744 Y15.756
X20.636 Y15.493
X20.507 Y15.241
X20.358 Y14.999
X20.19 Y14.77
X20.003 Y14.554
X19.798 Y14.353
X19.576 Y14.167
X19.338 Y13.999
X19.085 Y13.848
X18.818 Y13.718
X18.54 Y13.608
X18.251 Y13.521
X17.953 Y13.456
X17.649 Y13.415
X17.34 Y13.398
X17.028 Y13.406
X16.716 Y13.44
X16.406 Y13.499
X16.099 Y13.583
X15.798 Y13.692
X15.505 Y13.826
X15.222 Y13.983
X14.952 Y14.164
X14.695 Y14.367
X14.454 Y14.591
X14.232 Y14.835
X14.029 Y15.096
X13.846 Y15.374
X13.687 Y15.667
X13.55 Y15.972
X13.439 Y16.289
X13.353 Y16.613
X13.293 Y16.945
X13.26 Y17.281
X13.254 Y17.619
X13.275 Y17.956
X13.324 Y18.292
X13.399 Y18.623
X13.5 Y18.947
X13.628 Y19.262
X13.78 Y19.566
X13.956 Y19.857
X14.156 Y20.133
X14.377 Y20.393
X14.618 Y20.634
X14.878 Y20.855
X15.155 Y21.054
X15.447 Y21.231
X15.752 Y21.384
X16.069 Y21.512
X16.395 Y21.613
X16.728 Y21.689
X17.066 Y21.737
X17.407 Y21.759
X17.749 Y21.752
X18.089 Y21.719
X18.426 Y21.658
X18.756 Y21.57
X19.078 Y21.456
X19.391 Y21.316
X19.694 Y21.151
X19.991 Y20.956
X20.28 Y20.731
X20.559 Y20.476
X20.823 Y20.191
X21.068 Y19.881
X21.289 Y19.55
X21.483 Y19.201
X21.648 Y18.84
X21.782 Y18.469
X21.885 Y18.092
X21.957 Y17.712
X21.998 Y17.331
X22.008 Y16.951
X21.987 Y16.574
X21.937 Y16.202
X21.857 Y15.838
X21.749 Y15.482
X21.613 Y15.138
X21.45 Y14.805
X21.261 Y14.487
X21.046 Y14.184
X20.807 Y13.899
X20.546 Y13.633
X20.262 Y13.388
X19.958 Y13.166
X19.636 Y12.967
X19.297 Y12.794
X18.942 Y12.647
X18.575 Y12.529
X18.197 Y12.44
X17.811 Y12.382
X17.419 Y12.354
X17.024 Y12.358
X16.628 Y12.394
X16.235 Y12.462
X15.846 Y12.562
X15.464 Y12.693
X15.092 Y12.856
X14.733 Y13.048
X14.389 Y13.27
X14.063 Y13.52
X13.756 Y13.796
X13.472 Y14.096
X13.212 Y14.42
X12.978 Y14.765
X12.772 Y15.128
X12.595 Y15.507
X12.449 Y15.901
X12.335 Y16.305
X12.253 Y16.719
X12.205 Y17.138
X12.191 Y17.56
X12.21 Y17.983
X12.264 Y18.403
X12.351 Y18.819
X12.471 Y19.226
X12.624 Y19.622
X12.808 Y20.006
X13.022 Y20.373
X13.266 Y20.723
X13.537 Y21.052
X13.833 Y21.358
X14.154 Y21.64
X14.496 Y21.895
X14.857 Y22.121
X15.236 Y22.319
X15.629 Y22.485
X16.034 Y22.619
X16.449 Y22.72
X16.871 Y22.788
X17.297 Y22.821
X17.724 Y22.82
X18.15 Y22.785
X18.572 Y22.716
X18.988 Y22.613
X19.396 Y22.476
X19.795 Y22.306
X20.184 Y22.101
X20.56 Y21.863
X20.923 Y21.59
X21.27 Y21.283
X21.595 Y20.944
X21.896 Y20.577
X22.168 Y20.184
X22.407 Y19.769
X22.613 Y19.337
X22.782 Y18.891
X22.915 Y18.435
X22.986 Y18.094
X22.994 Y18.047
X22.998 Y18.
X23. Y17.953
Y16.772
X22.975 Y16.268
X22.923 Y15.874
X22.837 Y15.471
X22.716 Y15.066
X22.559 Y14.664
X22.368 Y14.271
X22.144 Y13.889
X21.887 Y13.524
X21.599 Y13.177
X21.282 Y12.852
X20.937 Y12.551
X20.567 Y12.278
X20.291 Y12.106
X20.175 Y12.048
X20.05 Y12.012
X19.921 Y12.
G2 X19.632 Y12.31 Z-1.8 I0.01 J0.3
G1 X19.638 Y12.362
X19.653 Y12.412
X19.677 Y12.458
X19.739 Y12.558
X22.445 Y16.92
G2 X22.69 Y17.062 I0.255 J-0.158
X23. Y16.772 Z-2. I0.01 J-0.3
G1 Y14.314
X22.991 Y14.134
X22.968 Y13.961
X22.925 Y13.758
X22.859 Y13.539
X22.765 Y13.296
X22.641 Y13.041
X22.472 Y12.753
X22.276 Y12.474
X22.092 Y12.253
X21.94 Y12.117
X21.755 Y12.03
X21.553 Y12.
G2 X21.264 Y12.31 Z-1.8 I0.01 J0.3
G1 X21.269 Y12.358
X21.282 Y12.404
X21.303 Y12.448
X21.366 Y12.56
X22.439 Y14.452
G2 X22.69 Y14.604 I0.261 J-0.148
X23. Y14.314 Z-2. I0.01 J-0.3
G1 Y12.75
X22.993 Y12.6
X22.991 Y12.588
X22.932 Y12.4
X22.824 Y12.236
X22.674 Y12.109
X22.494 Y12.028
X22.3 Y12.
G2 X22.01 Y12.31 Z-1.8 I0.01 J0.3
G1 X22.021 Y12.378
X22.046 Y12.442
X22.086 Y12.499
X22.13 Y12.548
X22.456 Y12.916
X22.476 Y12.938
X22.521 Y12.979
X22.573 Y13.011
X22.63 Y13.031
X22.69 Y13.039
G2 X23. Y12.75 Z-2. I0.01 J-0.3
G1 Y12.348
X22.999 Y12.285
X22.99 Y12.235
X22.982 Y12.21
X22.971 Y12.184
X22.951 Y12.148
X22.923 Y12.111
X22.879 Y12.069
X22.857 Y12.052
X22.835 Y12.039
X22.797 Y12.021
X22.765 Y12.01
X22.734 Y12.004
X22.671 Y12.
X15.461
X15.234 Y12.011
X15.01 Y12.041
X14.782 Y12.09
X14.518 Y12.169
X14.243 Y12.276
X13.955 Y12.415
X13.645 Y12.598
X13.328 Y12.821
X13.023 Y13.074
X12.721 Y13.368
X12.428 Y13.704
X12.153 Y14.076
X12.106 Y14.152
X12.048 Y14.268
X12.012 Y14.393
X12. Y14.522
G2 X12.31 Y14.811 Z-1.8 I0.3 J-0.01
G1 X12.367 Y14.804
X12.422 Y14.786
X12.472 Y14.757
X12.554 Y14.7
X15.623 Y12.545
G2 X15.751 Y12.31 I-0.172 J-0.246
X15.461 Y12. Z-2. I-0.3 J-0.01
G1 X13.733
X13.583 Y12.007
X13.433 Y12.027
X13.267 Y12.063
X13.076 Y12.12
X12.882 Y12.196
X12.655 Y12.306
X12.43 Y12.439
X12.297 Y12.532
X12.138 Y12.687
X12.035 Y12.885
X12. Y13.104
G2 X12.31 Y13.394 Z-1.8 I0.3 J-0.01
G1 X12.357 Y13.388
X12.403 Y13.376
X12.446 Y13.356
X12.561 Y13.292
X13.869 Y12.562
G2 X14.022 Y12.31 I-0.146 J-0.262
X13.733 Y12. Z-2. I-0.3 J-0.01
G1 X12.422
X12.381
X12.348
X12.319 Y12.002
X12.218 Y12.025
X12.126 Y12.074
X12.051 Y12.145
G2 X12.047 Y12.465 Z-1.859 I0.315 J0.164
G1 X12.084 Y12.524 Z-1.83
X12.133 Y12.573 Z-1.8
G2 X12.659 Y12.298 I0.204 J-0.25
X12.348 Y12. Z-2. I-0.322 J0.025
G1 X12.276 Y12.002
X12.239 Y12.009
X12.203 Y12.021
X12.184 Y12.029
X12.159 Y12.042
X12.133 Y12.059
X12.107 Y12.081
X12.082 Y12.106
X12.051 Y12.145
X12.029 Y12.184
X12.021 Y12.203
X12.009 Y12.239
X12.002 Y12.276
X12. Y12.348
Y19.722
X12.009 Y19.893
X12.036 Y20.101
X12.081 Y20.313
X12.156 Y20.564
X12.254 Y20.813
X12.391 Y21.097
X12.565 Y21.392
X12.77 Y21.685
X13.024 Y21.99
X13.321 Y22.295
X13.659 Y22.589
X14.031 Y22.865
X14.079 Y22.894
X14.195 Y22.952
X14.319 Y22.988
X14.449 Y23.
G2 X14.738 Y22.69 Z-1.8 I-0.01 J-0.3
G1 X14.73 Y22.632
X14.711 Y22.576
X14.682 Y22.525
X14.625 Y22.446
X12.543 Y19.557
G2 X12.31 Y19.432 I-0.243 J0.175
X12. Y19.722 Z-2. I-0.01 J0.3
G1 Y21.36
X12.007 Y21.51
X12.029 Y21.659
X12.069 Y21.83
X12.126 Y22.012
X12.209 Y22.213
X12.319 Y22.431
X12.462 Y22.665
X12.496 Y22.712
X12.651 Y22.866
X12.846 Y22.966
X13.062 Y23.
G2 X13.351 Y22.69 Z-1.8 I-0.01 J-0.3
G1 X13.346 Y22.642
X13.333 Y22.596
X13.313 Y22.553
X13.249 Y22.44
X12.561 Y21.223
G2 X12.31 Y21.071 I-0.261 J0.148
X12. Y21.36 Z-2. I-0.01 J0.3
G1 Y22.597
Y22.671
X12.004 Y22.734
X12.01 Y22.765
X12.021 Y22.797
X12.039 Y22.835
X12.052 Y22.857
X12.069 Y22.879
X12.111 Y22.923
X12.148 Y22.951
X12.184 Y22.971
X12.21 Y22.982
X12.235 Y22.99
X12.285 Y22.999
X12.348 Y23.
X19.722
X19.917 Y22.99
X20.109 Y22.965
X20.341 Y22.915
X20.577 Y22.845
X20.856 Y22.736
X21.132 Y22.602
X21.441 Y22.42
X21.769 Y22.19
X22.085 Y21.928
X22.408 Y21.612
X22.727 Y21.247
X22.863 Y21.064
X22.938 Y20.936
X22.984 Y20.795
X23. Y20.647
G2 X22.69 Y20.358 Z-1.8 I-0.3 J0.01
G1 X22.634 Y20.365
X22.58 Y20.383
X22.53 Y20.411
X22.445 Y20.469
X19.562 Y22.453
G2 X19.432 Y22.69 I0.17 J0.247
X19.722 Y23. Z-2. I0.3 J0.01
G1 X21.36
X21.527 Y22.992
X21.677 Y22.972
X21.843 Y22.937
X22.037 Y22.878
X22.231 Y22.803
X22.465 Y22.689
X22.694 Y22.554
X22.702 Y22.549
X22.862 Y22.393
X22.965 Y22.196
X23. Y21.976
G2 X22.69 Y21.686 Z-1.8 I-0.3 J0.01
G1 X22.622 Y21.697
X22.558 Y21.722
X22.438 Y21.786
X21.229 Y22.436
G2 X21.071 Y22.69 I0.142 J0.264
X21.36 Y23. Z-2. I0.3 J0.01
G1 X22.597
X22.671
X22.715 Y22.999
X22.745 Y22.995
X22.775 Y22.987
X22.805 Y22.976
X22.835 Y22.961
X22.867 Y22.941
X22.898 Y22.914
X22.935 Y22.874
X22.961 Y22.835
X22.976 Y22.805
X22.987 Y22.775
X22.995 Y22.745
X22.999 Y22.715
X23. Y22.671
Y17.953
G2 X22.701 Y17.663 I-0.3 J0.01
G1 X22.7
X22.676 Y17.664
X22.626 Y17.682 Z-1.995
X22.577 Y17.699 Z-1.981
X22.532 Y17.714 Z-1.958
X22.499 Y17.751 Z-1.921
X22.472 Y17.781 Z-1.874
X22.452 Y17.804 Z-1.82
X22.44 Y17.817 Z-1.762
X22.435 Y17.822 Z-1.7
Z5.
X17.359 Y18.969
Z0.5
G2 X18.921 Y17.101 Z0.4 I0.141 J-1.469 F15.
X16.617 Y16.32 Z0.3 I-1.419 J0.399
X16.722 Y18.747 Z0.2 I0.883 J1.178
X18.944 Y17.774 Z0.1 I0.778 J-1.248
X17.236 Y16.055 Z0. I-1.443 J-0.274
X16.252 Y18.267 Z-0.1 I0.265 J1.443
X18.666 Y18.385 Z-0.2 I1.248 J-0.768
X17.905 Y16.094 Z-0.3 I-1.166 J-0.885
X16.046 Y17.63 Z-0.4 I-0.404 J1.405
X18.147 Y18.807 Z-0.5 I1.454 J-0.131
X18.485 Y16.425 Z-0.6 I-0.647 J-1.307
X16.145 Y16.97 Z-0.7 I-0.984 J1.074
X17.497 Y18.953 Z-0.8 I1.355 J0.528
X18.856 Y16.978 Z-0.9 I0.003 J-1.453
X16.526 Y16.425 Z-1. I-1.354 J0.522
X16.852 Y18.795 Z-1.1 I0.975 J1.073
X18.941 Y17.635 Z-1.2 I0.647 J-1.295
X17.108 Y16.108 Z-1.3 I-1.44 J-0.136
X16.347 Y18.367 Z-1.4 I0.393 J1.39
X18.725 Y18.26 Z-1.5 I1.152 J-0.868
X17.767 Y16.084 Z-1.6 I-1.224 J-0.76
X16.087 Y17.761 Z-1.7 I-0.266 J1.414
X18.255 Y18.721 Z-1.8 I1.413 J-0.263
X18.366 Y16.355 Z-1.9 I-0.755 J-1.221
X16.123 Y17.106 Z-2. I-0.865 J1.144
X17.631 Y18.924 Z-2.1 I1.377 J0.393
X18.781 Y16.863 Z-2.2 I-0.131 J-1.424
X16.446 Y16.537 Z-2.3 I-1.279 J0.636
X16.985 Y18.829 Z-2.4 I1.054 J0.962
X18.925 Y17.5 Z-2.5 I0.515 J-1.329
X16.075 I-1.425 J0.
X18.925 I1.425 J0.
G1 X18.96 Y16.779 F1184.
X18.976 Y16.69
X18.984 Y16.54
X18.965 Y16.391
X18.922 Y16.248
X18.86 Y16.111
X18.782 Y15.983
X18.69 Y15.865
X18.585 Y15.757
X18.471 Y15.66
X18.347 Y15.574
X18.217 Y15.5
X18.081 Y15.438
X17.939 Y15.388
X17.794 Y15.349
X17.643 Y15.321
X17.487 Y15.305
X17.327 Y15.302
X17.165 Y15.311
X17.002 Y15.334
X16.84 Y15.371
X16.679 Y15.42
X16.521 Y15.484
X16.367 Y15.56
X16.219 Y15.649
X16.077 Y15.751
X15.943 Y15.864
X15.818 Y15.988
X15.703 Y16.123
X15.599 Y16.267
X15.506 Y16.42
X15.425 Y16.58
X15.357 Y16.746
X15.303 Y16.918
X15.263 Y17.094
X15.236 Y17.273
X15.224 Y17.454
X15.227 Y17.635
X15.245 Y17.816
X15.276 Y17.995
X15.323 Y18.171
X15.383 Y18.343
X15.457 Y18.51
X15.544 Y18.67
X15.643 Y18.823
X15.755 Y18.968
X15.878 Y19.103
X16.011 Y19.228
X16.155 Y19.342
X16.306 Y19.444
X16.466 Y19.533
X16.632 Y19.61
X16.804 Y19.672
X16.981 Y19.721
X17.161 Y19.756
X17.343 Y19.776
X17.526 Y19.781
X17.709 Y19.772
X17.89 Y19.748
X18.069 Y19.709
X18.245 Y19.656
X18.415 Y19.59
X18.58 Y19.51
X18.738 Y19.416
X18.888 Y19.311
X19.029 Y19.194
X19.16 Y19.065
X19.28 Y18.927
X19.389 Y18.78
X19.49 Y18.617
X19.601 Y18.401
X19.734 Y18.082
X19.844 Y17.745
X19.908 Y17.475
X19.945 Y17.237
X19.961 Y17.017
X19.959 Y16.803
X19.941 Y16.596
X19.908 Y16.398
X19.86 Y16.209
X19.797 Y16.024
X19.719 Y15.843
X19.626 Y15.668
X19.518 Y15.501
X19.398 Y15.342
X19.263 Y15.192
X19.116 Y15.052
X18.956 Y14.922
X18.783 Y14.804
X18.599 Y14.699
X18.404 Y14.607
X18.199 Y14.531
X17.986 Y14.47
X17.765 Y14.425
X17.539 Y14.399
X17.308 Y14.39
X17.075 Y14.4
X16.842 Y14.429
X16.609 Y14.477
X16.379 Y14.544
X16.153 Y14.63
X15.933 Y14.735
X15.721 Y14.858
X15.519 Y14.998
X15.327 Y15.155
X15.148 Y15.328
X14.982 Y15.515
X14.831 Y15.716
X14.696 Y15.929
X14.578 Y16.154
X14.479 Y16.387
X14.398 Y16.629
X14.337 Y16.877
X14.295 Y17.129
X14.274 Y17.385
Y17.642
X14.294 Y17.898
X14.335 Y18.153
X14.397 Y18.403
X14.478 Y18.649
X14.579 Y18.887
X14.698 Y19.116
X14.836 Y19.335
X14.991 Y19.543
X15.162 Y19.737
X15.349 Y19.917
X15.549 Y20.082
X15.762 Y20.23
X15.986 Y20.361
X16.22 Y20.473
X16.463 Y20.566
X16.712 Y20.64
X16.966 Y20.693
X17.224 Y20.726
X17.484 Y20.738
X17.743 Y20.729
X18.002 Y20.699
X18.257 Y20.648
X18.507 Y20.577
X18.75 Y20.487
X18.986 Y20.377
X19.212 Y20.248
X19.427 Y20.102
X19.631 Y19.938
X19.829 Y19.75
X20.032 Y19.525
X20.226 Y19.271
X20.405 Y18.993
X20.564 Y18.695
X20.698 Y18.39
X20.803 Y18.083
X20.881 Y17.777
X20.933 Y17.474
X20.96 Y17.175
X20.963 Y16.88
X20.942 Y16.589
X20.899 Y16.304
X20.833 Y16.025
X20.746 Y15.754
X20.637 Y15.491
X20.508 Y15.239
X20.359 Y14.998
X20.191 Y14.768
X20.004 Y14.552
X19.799 Y14.351
X19.577 Y14.165
X19.339 Y13.997
X19.086 Y13.847
X18.82 Y13.716
X18.541 Y13.606
X18.252 Y13.519
X17.955 Y13.454
X17.65 Y13.413
X17.341 Y13.396
X17.03 Y13.404
X16.718 Y13.438
X16.407 Y13.497
X16.1 Y13.581
X15.799 Y13.69
X15.506 Y13.824
X15.223 Y13.981
X14.953 Y14.162
X14.696 Y14.365
X14.456 Y14.589
X14.233 Y14.833
X14.03 Y15.094
X13.848 Y15.372
X13.688 Y15.665
X13.552 Y15.97
X13.44 Y16.287
X13.354 Y16.611
X13.294 Y16.943
X13.261 Y17.279
X13.255 Y17.617
X13.277 Y17.954
X13.325 Y18.29
X13.4 Y18.621
X13.502 Y18.945
X13.629 Y19.26
X13.781 Y19.564
X13.958 Y19.855
X14.157 Y20.132
X14.378 Y20.391
X14.619 Y20.632
X14.879 Y20.853
X15.156 Y21.053
X15.448 Y21.229
X15.753 Y21.382
X16.07 Y21.51
X16.396 Y21.612
X16.729 Y21.687
X17.067 Y21.735
X17.408 Y21.757
X17.75 Y21.75
X18.09 Y21.717
X18.427 Y21.656
X18.757 Y21.568
X19.08 Y21.454
X19.392 Y21.315
X19.695 Y21.149
X19.992 Y20.954
X20.281 Y20.729
X20.56 Y20.474
X20.824 Y20.19
X21.069 Y19.879
X21.291 Y19.548
X21.485 Y19.199
X21.649 Y18.838
X21.784 Y18.467
X21.887 Y18.09
X21.958 Y17.71
X21.999 Y17.329
X22.009 Y16.949
X21.988 Y16.572
X21.938 Y16.2
X21.858 Y15.836
X21.75 Y15.48
X21.614 Y15.136
X21.451 Y14.803
X21.262 Y14.485
X21.047 Y14.183
X20.809 Y13.898
X20.547 Y13.632
X20.263 Y13.386
X19.96 Y13.164
X19.637 Y12.965
X19.298 Y12.792
X18.943 Y12.645
X18.576 Y12.527
X18.198 Y12.439
X17.812 Y12.38
X17.42 Y12.352
X17.025 Y12.356
X16.63 Y12.392
X16.236 Y12.46
X15.847 Y12.56
X15.465 Y12.691
X15.093 Y12.854
X14.734 Y13.046
X14.39 Y13.268
X14.064 Y13.518
X13.757 Y13.794
X13.473 Y14.094
X13.213 Y14.418
X12.979 Y14.763
X12.773 Y15.126
X12.596 Y15.505
X12.45 Y15.899
X12.336 Y16.303
X12.254 Y16.717
X12.206 Y17.136
X12.192 Y17.558
X12.211 Y17.981
X12.265 Y18.401
X12.352 Y18.817
X12.472 Y19.224
X12.625 Y19.621
X12.809 Y20.004
X13.024 Y20.371
X13.267 Y20.721
X13.538 Y21.05
X13.834 Y21.356
X14.155 Y21.638
X14.497 Y21.893
X14.858 Y22.12
X15.237 Y22.317
X15.63 Y22.483
X16.035 Y22.617
X16.45 Y22.718
X16.872 Y22.786
X17.298 Y22.819
X17.725 Y22.818
X18.151 Y22.783
X18.573 Y22.714
X18.989 Y22.611
X19.397 Y22.474
X19.796 Y22.304
X20.185 Y22.099
X20.562 Y21.861
X20.925 Y21.588
X21.271 Y21.281
X21.597 Y20.942
X21.897 Y20.575
X22.169 Y20.182
X22.408 Y19.767
X22.614 Y19.335
X22.784 Y18.89
X22.916 Y18.434
X22.986 Y18.098
X22.994 Y18.051
X22.998 Y18.004
X23. Y17.957
Y16.772
X22.974 Y16.262
X22.923 Y15.869
X22.837 Y15.467
X22.716 Y15.063
X22.56 Y14.661
X22.369 Y14.268
X22.144 Y13.887
X21.888 Y13.521
X21.6 Y13.175
X21.283 Y12.85
X20.938 Y12.549
X20.568 Y12.276
X20.295 Y12.106
X20.179 Y12.048
X20.055 Y12.012
X19.925 Y12.
G2 X19.636 Y12.31 Z-2.3 I0.01 J0.3
G1 X19.642 Y12.362
X19.657 Y12.411
X19.681 Y12.458
X19.743 Y12.558
X22.445 Y16.92
G2 X22.69 Y17.062 I0.255 J-0.158
X23. Y16.772 Z-2.5 I0.01 J-0.3
G1 Y14.314
X22.991 Y14.131
X22.968 Y13.958
X22.925 Y13.754
X22.859 Y13.536
X22.765 Y13.293
X22.641 Y13.038
X22.472 Y12.751
X22.276 Y12.472
X22.094 Y12.253
X21.942 Y12.117
X21.758 Y12.03
X21.556 Y12.
G2 X21.266 Y12.31 Z-2.3 I0.01 J0.3
G1 X21.272 Y12.358
X21.285 Y12.404
X21.305 Y12.448
X21.369 Y12.56
X22.439 Y14.452
G2 X22.69 Y14.604 I0.261 J-0.148
X23. Y14.314 Z-2.5 I0.01 J-0.3
G1 Y12.75
X22.993 Y12.6
X22.991 Y12.589
X22.933 Y12.401
X22.824 Y12.237
X22.674 Y12.109
X22.495 Y12.028
X22.3 Y12.
G2 X22.01 Y12.31 Z-2.3 I0.01 J0.3
G1 X22.021 Y12.378
X22.046 Y12.442
X22.086 Y12.499
X22.13 Y12.548
X22.456 Y12.916
X22.476 Y12.938
X22.521 Y12.979
X22.573 Y13.011
X22.63 Y13.031
X22.69 Y13.039
G2 X23. Y12.75 Z-2.5 I0.01 J-0.3
G1 Y12.348
X22.999 Y12.285
X22.99 Y12.235
X22.982 Y12.21
X22.971 Y12.184
X22.951 Y12.148
X22.923 Y12.111
X22.879 Y12.069
X22.857 Y12.052
X22.835 Y12.039
X22.797 Y12.021
X22.765 Y12.01
X22.734 Y12.004
X22.671 Y12.
X15.461
X15.232 Y12.011
X15.008 Y12.041
X14.78 Y12.09
X14.517 Y12.168
X14.242 Y12.275
X13.955 Y12.415
X13.646 Y12.597
X13.329 Y12.82
X13.024 Y13.073
X12.722 Y13.367
X12.429 Y13.703
X12.154 Y14.074
X12.106 Y14.152
X12.048 Y14.268
X12.012 Y14.393
X12. Y14.522
G2 X12.31 Y14.812 Z-2.3 I0.3 J-0.01
G1 X12.367 Y14.804
X12.422 Y14.786
X12.472 Y14.757
X12.554 Y14.7
X15.623 Y12.545
G2 X15.751 Y12.31 I-0.172 J-0.246
X15.461 Y12. Z-2.5 I-0.3 J-0.01
G1 X13.733
X13.583 Y12.008
X13.433 Y12.027
X13.267 Y12.063
X13.077 Y12.12
X12.883 Y12.195
X12.656 Y12.305
X12.431 Y12.438
X12.298 Y12.531
X12.138 Y12.687
X12.035 Y12.884
X12. Y13.104
G2 X12.31 Y13.394 Z-2.3 I0.3 J-0.01
G1 X12.357 Y13.388
X12.403 Y13.375
X12.446 Y13.356
X12.561 Y13.292
X13.869 Y12.562
G2 X14.022 Y12.31 I-0.146 J-0.262
X13.733 Y12. Z-2.5 I-0.3 J-0.01
G1 X12.422
X12.381
X12.348
X12.319 Y12.002
X12.218 Y12.025
X12.126 Y12.074
X12.051 Y12.145
G2 X12.047 Y12.465 Z-2.359 I0.315 J0.164
G1 X12.084 Y12.524 Z-2.33
X12.133 Y12.573 Z-2.3
G2 X12.659 Y12.298 I0.204 J-0.25
X12.348 Y12. Z-2.5 I-0.322 J0.025
G1 X12.276 Y12.002
X12.239 Y12.009
X12.203 Y12.021
X12.184 Y12.029
X12.159 Y12.042
X12.133 Y12.059
X12.107 Y12.081
X12.082 Y12.106
X12.051 Y12.145
X12.029 Y12.184
X12.021 Y12.203
X12.009 Y12.239
X12.002 Y12.276
X12. Y12.348
Y19.722
X12.008 Y19.889
X12.036 Y20.097
X12.081 Y20.31
X12.156 Y20.56
X12.254 Y20.81
X12.391 Y21.094
X12.565 Y21.389
X12.771 Y21.682
X13.024 Y21.987
X13.322 Y22.293
X13.66 Y22.587
X14.032 Y22.863
X14.083 Y22.894
X14.199 Y22.952
X14.323 Y22.988
X14.453 Y23.
G2 X14.742 Y22.69 Z-2.3 I-0.01 J-0.3
G1 X14.734 Y22.631
X14.715 Y22.576
X14.685 Y22.525
X14.629 Y22.446
X12.543 Y19.557
G2 X12.31 Y19.432 I-0.243 J0.176
X12. Y19.722 Z-2.5 I-0.01 J0.3
G1 Y21.36
X12.007 Y21.51
X12.029 Y21.658
X12.07 Y21.831
X12.127 Y22.012
X12.21 Y22.214
X12.321 Y22.432
X12.465 Y22.667
X12.498 Y22.713
X12.653 Y22.867
X12.848 Y22.966
X13.064 Y23.
G2 X13.353 Y22.69 Z-2.3 I-0.01 J-0.3
G1 X13.348 Y22.642
X13.335 Y22.596
X13.314 Y22.552
X13.251 Y22.44
X12.561 Y21.223
G2 X12.31 Y21.071 I-0.261 J0.148
X12. Y21.36 Z-2.5 I-0.01 J0.3
G1 Y22.597
Y22.671
X12.004 Y22.734
X12.01 Y22.765
X12.021 Y22.797
X12.039 Y22.835
X12.052 Y22.857
X12.069 Y22.879
X12.111 Y22.923
X12.148 Y22.951
X12.184 Y22.971
X12.21 Y22.982
X12.235 Y22.99
X12.285 Y22.999
X12.348 Y23.
X19.722
X19.916 Y22.99
X20.108 Y22.965
X20.34 Y22.915
X20.577 Y22.845
X20.856 Y22.736
X21.131 Y22.602
X21.441 Y22.42
X21.77 Y22.189
X22.086 Y21.927
X22.409 Y21.611
X22.728 Y21.245
X22.863 Y21.064
X22.938 Y20.936
X22.984 Y20.795
X23. Y20.647
G2 X22.69 Y20.358 Z-2.3 I-0.3 J0.01
G1 X22.634 Y20.365
X22.58 Y20.383
X22.53 Y20.411
X22.445 Y20.469
X19.562 Y22.453
G2 X19.432 Y22.69 I0.17 J0.247
X19.722 Y23. Z-2.5 I0.3 J0.01
G1 X21.36
X21.527 Y22.992
X21.677 Y22.972
X21.842 Y22.937
X22.037 Y22.878
X22.231 Y22.803
X22.465 Y22.689
X22.694 Y22.554
X22.702 Y22.548
X22.862 Y22.393
X22.965 Y22.195
X23. Y21.976
G2 X22.69 Y21.686 Z-2.3 I-0.3 J0.01
G1 X22.622 Y21.696
X22.558 Y21.722
X22.438 Y21.786
X21.229 Y22.436
G2 X21.071 Y22.69 I0.142 J0.264
X21.36 Y23. Z-2.5 I0.3 J0.01
G1 X22.597
X22.671
X22.715 Y22.999
X22.745 Y22.995
X22.775 Y22.987
X22.805 Y22.976
X22.835 Y22.961
X22.867 Y22.941
X22.898 Y22.914
X22.935 Y22.874
X22.961 Y22.835
X22.976 Y22.805
X22.987 Y22.775
X22.995 Y22.745
X22.999 Y22.715
X23. Y22.671
Y17.957
G2 X22.701 Y17.667 I-0.3 J0.01
G1 X22.7
G2 X22.435 Y17.826 I0. J0.3
G1 X22.404 Y17.885 Z-2.492
X22.374 Y17.941 Z-2.47
X22.347 Y17.991 Z-2.435
X22.325 Y18.033 Z-2.387
X22.308 Y18.065 Z-2.33
X22.298 Y18.085 Z-2.267
X22.294 Y18.091 Z-2.2
Z5.
(WHEN USING FUSION 360 FOR PERSONAL USE, THE FEEDRATE OF)
(RAPID MOVES IS REDUCED TO MATCH THE FEEDRATE OF CUTTING)
(MOVES, WHICH CAN INCREASE MACHINING TIME. UNRESTRICTED RAPID)
(MOVES ARE AVAILABLE WITH A FUSION 360 SUBSCRIPTION.)

(2D POCKET4)
G0 X17.752 Y17.957
G1 Z5. F40.
Z1.
Z-2.7
X17.739 Y17.976 Z-2.815
X17.695 Y18.023 Z-2.912
X17.655 Y18.052 Z-2.945
X17.612 Y18.073 Z-2.977
X17.557 Y18.09 Z-2.989
X17.5 Y18.095 Z-3.
X17.224 F1184.
G3 X16.905 Y17.776 I0. J-0.319
G1 Y17.224
G3 X17.224 Y16.905 I0.319 J0.
G1 X17.776
G3 X18.095 Y17.224 I0. J0.319
G1 Y17.776
G3 X17.776 Y18.095 I-0.319 J0.
G1 X17.5
G2 X16.447 Y18.799 I0. J1.139
G3 X15.205 Y18.553 I-0.597 J-0.246
G1 Y15.524
G3 X15.524 Y15.205 I0.319 J0.
G1 X19.476
G3 X19.795 Y15.524 I0. J0.319
G1 Y19.476
G3 X19.476 Y19.795 I-0.319 J0.
G1 X15.524
G3 X15.205 Y19.476 I0. J-0.319
G1 Y18.553
G2 X14.355 Y17.278 I-1.381 J0.
G3 X13.505 Y16.003 I0.531 J-1.275
G1 Y13.824
G3 X13.824 Y13.505 I0.319 J0.
G1 X21.176
G3 X21.495 Y13.824 I0. J0.319
G1 Y21.176
G3 X21.176 Y21.495 I-0.319 J0.
G1 X13.824
G3 X13.505 Y21.176 I0. J-0.319
G1 Y16.003
G2 X12.653 Y14.724 I-1.385 J0.
G3 X11.8 Y13.445 I0.533 J-1.279
G1 Y12.
G3 X12. Y11.8 I0.2 J0.
G1 X23.
G3 X23.2 Y12. I0. J0.2
G1 Y23.
G3 X23. Y23.2 I-0.2 J0.
G1 X12.
G3 X11.8 Y23. I0. J-0.2
G1 Y13.445
G2 X11.65 Y13.22 I-0.244 J0.
G3 X11.5 Y12.995 I0.094 J-0.225
G1 Y12.
G3 X12. Y11.5 I0.5 J0.
G1 X23.
G3 X23.5 Y12. I0. J0.5
G1 Y23.
G3 X23. Y23.5 I-0.5 J0.
G1 X12.
G3 X11.5 Y23. I0. J-0.5
G1 Y12.995
X11.505 Y12.938 Z-2.989
X11.522 Y12.883 Z-2.977
X11.543 Y12.84 Z-2.945
X11.572 Y12.801 Z-2.912
X11.619 Y12.756 Z-2.815
X11.638 Y12.743 Z-2.7
Z5.
(WHEN USING FUSION 360 FOR PERSONAL USE, THE FEEDRATE OF)
(RAPID MOVES IS REDUCED TO MATCH THE FEEDRATE OF CUTTING)
(MOVES, WHICH CAN INCREASE MACHINING TIME. UNRESTRICTED RAPID)
(MOVES ARE AVAILABLE WITH A FUSION 360 SUBSCRIPTION.)

(2D ADAPTIVE5)
G0 X11.158 Y41.028
G1 Z5. F1184.
Z2.5
G3 X11.201 Y38.504 Z2.395 I0.835 J-1.248 F15.
X13.48 Y39.581 Z2.291 I0.792 J1.274
X11.562 Y41.212 Z2.186 I-1.485 J0.197
X10.867 Y38.796 Z2.081 I0.432 J-1.433
X13.352 Y39.157 Z1.977 I1.126 J0.983
X12. Y41.27 Z1.872 I-1.358 J0.62
X10.633 Y39.171 Z1.767 I-0.006 J-1.491
X13.107 Y38.791 Z1.663 I1.359 J0.608
X12.435 Y41.198 Z1.558 I-1.113 J0.987
X10.521 Y39.596 Z1.453 I-0.44 J-1.419
X12.766 Y38.513 Z1.349 I1.472 J0.183
X12.827 Y41.002 Z1.244 I-0.773 J1.264
X10.537 Y40.034 Z1.14 I-0.833 J-1.223
X12.361 Y38.348 Z1.035 I1.456 J-0.254
X13.145 Y40.702 Z0.93 I-0.368 J1.43
X10.68 Y40.446 Z0.826 I-1.15 J-0.923
X11.927 Y38.308 Z0.721 I1.313 J-0.667
X13.359 Y40.322 Z0.616 I0.066 J1.469
X10.937 Y40.797 Z0.512 I-1.364 J-0.544
X11.501 Y38.397 Z0.407 I1.057 J-1.018
X13.453 Y39.899 Z0.302 I0.492 J1.38
X11.284 Y41.057 Z0.198 I-1.458 J-0.121
X11.122 Y38.606 Z0.093 I0.71 J-1.278
X13.419 Y39.468 Z-0.012 I0.871 J1.172
X11.69 Y41.204 Z-0.116 I-1.425 J0.31
X10.822 Y38.916 Z-0.221 I0.304 J-1.424
X13.261 Y39.067 Z-0.326 I1.171 J0.863
X12.12 Y41.225 Z-0.43 I-1.267 J0.711
X10.626 Y39.298 Z-0.535 I-0.125 J-1.445
X12.994 Y38.731 Z-0.64 I1.367 J0.481
X12.535 Y41.119 Z-0.744 I-1. J1.046
X10.551 Y39.72 Z-0.849 I-0.541 J-1.34
X12.641 Y38.49 Z-0.953 I1.442 J0.06
X12.9 Y40.898 Z-1.058 I-0.648 J1.288
X10.602 Y40.143 Z-1.163 I-0.906 J-1.119
X12.235 Y38.362 Z-1.267 I1.391 J-0.364
X13.184 Y40.581 Z-1.372 I-0.242 J1.416
X10.774 Y40.531 Z-1.477 I-1.189 J-0.802
X11.811 Y38.359 Z-1.581 I1.219 J-0.752
X13.361 Y40.196 Z-1.686 I0.182 J1.419
X11.051 Y40.851 Z-1.791 I-1.366 J-0.418
X11.406 Y38.479 Z-1.895 I0.943 J-1.071
X13.418 Y39.778 Z-2. I0.587 J1.299
X10.568 I-1.425 J0.
X13.418 I1.425 J0.
G1 X13.453 Y40.499 F1184.
X13.469 Y40.588
X13.477 Y40.738
X13.458 Y40.886
X13.415 Y41.03
X13.353 Y41.167
X13.275 Y41.295
X13.183 Y41.413
X13.078 Y41.521
X12.964 Y41.618
X12.841 Y41.703
X12.71 Y41.777
X12.574 Y41.84
X12.433 Y41.89
X12.287 Y41.929
X12.136 Y41.957
X11.98 Y41.973
X11.82 Y41.976
X11.658 Y41.966
X11.496 Y41.944
X11.333 Y41.907
X11.172 Y41.857
X11.014 Y41.794
X10.86 Y41.718
X10.712 Y41.628
X10.57 Y41.527
X10.436 Y41.414
X10.311 Y41.289
X10.196 Y41.155
X10.092 Y41.011
X9.999 Y40.858
X9.918 Y40.698
X9.85 Y40.532
X9.796 Y40.36
X9.756 Y40.184
X9.729 Y40.005
X9.718 Y39.824
X9.72 Y39.643
X9.738 Y39.462
X9.769 Y39.283
X9.816 Y39.107
X9.876 Y38.935
X9.95 Y38.768
X10.037 Y38.607
X10.136 Y38.455
X10.248 Y38.31
X10.371 Y38.175
X10.504 Y38.05
X10.648 Y37.936
X10.799 Y37.834
X10.959 Y37.745
X11.125 Y37.668
X11.297 Y37.605
X11.474 Y37.556
X11.654 Y37.522
X11.836 Y37.502
X12.019 Y37.497
X12.202 Y37.506
X12.383 Y37.53
X12.562 Y37.568
X12.738 Y37.621
X12.908 Y37.688
X13.073 Y37.768
X13.231 Y37.861
X13.381 Y37.967
X13.522 Y38.084
X13.653 Y38.212
X13.773 Y38.35
X13.882 Y38.498
X13.983 Y38.661
X14.094 Y38.876
X14.227 Y39.196
X14.337 Y39.533
X14.401 Y39.803
X14.438 Y40.04
X14.454 Y40.261
X14.452 Y40.475
X14.434 Y40.682
X14.401 Y40.88
X14.353 Y41.069
X14.29 Y41.254
X14.212 Y41.434
X14.119 Y41.609
X14.012 Y41.777
X13.891 Y41.936
X13.757 Y42.086
X13.609 Y42.226
X13.449 Y42.355
X13.277 Y42.473
X13.092 Y42.579
X12.897 Y42.67
X12.692 Y42.747
X12.479 Y42.808
X12.258 Y42.852
X12.032 Y42.879
X11.802 Y42.888
X11.569 Y42.878
X11.335 Y42.849
X11.102 Y42.801
X10.872 Y42.733
X10.646 Y42.647
X10.427 Y42.543
X10.215 Y42.42
X10.012 Y42.28
X9.82 Y42.123
X9.641 Y41.95
X9.475 Y41.763
X9.324 Y41.562
X9.189 Y41.348
X9.071 Y41.124
X8.972 Y40.89
X8.891 Y40.649
X8.83 Y40.401
X8.788 Y40.148
X8.767 Y39.893
Y39.636
X8.787 Y39.379
X8.828 Y39.125
X8.89 Y38.874
X8.971 Y38.629
X9.072 Y38.391
X9.191 Y38.162
X9.329 Y37.943
X9.484 Y37.735
X9.655 Y37.541
X9.842 Y37.36
X10.042 Y37.196
X10.255 Y37.047
X10.479 Y36.917
X10.713 Y36.804
X10.956 Y36.711
X11.205 Y36.638
X11.459 Y36.585
X11.717 Y36.552
X11.977 Y36.54
X12.236 Y36.549
X12.495 Y36.579
X12.75 Y36.629
X13. Y36.7
X13.243 Y36.791
X13.479 Y36.901
X13.705 Y37.029
X13.92 Y37.176
X14.124 Y37.34
X14.323 Y37.527
X14.525 Y37.753
X14.719 Y38.006
X14.898 Y38.285
X15.057 Y38.583
X15.191 Y38.888
X15.296 Y39.194
X15.374 Y39.5
X15.426 Y39.803
X15.453 Y40.103
X15.456 Y40.398
X15.435 Y40.689
X15.392 Y40.974
X15.326 Y41.253
X15.239 Y41.524
X15.13 Y41.786
X15.001 Y42.039
X14.852 Y42.28
X14.684 Y42.509
X14.497 Y42.725
X14.292 Y42.927
X14.07 Y43.112
X13.832 Y43.281
X13.579 Y43.431
X13.313 Y43.562
X13.034 Y43.671
X12.745 Y43.759
X12.448 Y43.824
X12.143 Y43.865
X11.834 Y43.882
X11.523 Y43.873
X11.211 Y43.84
X10.9 Y43.781
X10.593 Y43.697
X10.292 Y43.588
X9.999 Y43.454
X9.717 Y43.296
X9.446 Y43.115
X9.189 Y42.913
X8.949 Y42.689
X8.726 Y42.445
X8.523 Y42.184
X8.341 Y41.906
X8.181 Y41.613
X8.045 Y41.307
X7.933 Y40.991
X7.847 Y40.666
X7.787 Y40.335
X7.754 Y39.999
X7.748 Y39.661
X7.77 Y39.323
X7.818 Y38.988
X7.893 Y38.657
X7.995 Y38.333
X8.122 Y38.018
X8.274 Y37.714
X8.451 Y37.422
X8.65 Y37.146
X8.871 Y36.887
X9.112 Y36.646
X9.372 Y36.425
X9.649 Y36.225
X9.941 Y36.049
X10.246 Y35.896
X10.563 Y35.768
X10.889 Y35.666
X11.222 Y35.591
X11.56 Y35.542
X11.901 Y35.521
X12.243 Y35.527
X12.583 Y35.561
X12.92 Y35.622
X13.25 Y35.709
X13.573 Y35.823
X13.885 Y35.963
X14.188 Y36.129
X14.485 Y36.324
X14.774 Y36.548
X15.053 Y36.804
X15.317 Y37.088
X15.563 Y37.398
X15.784 Y37.73
X15.978 Y38.078
X16.142 Y38.44
X16.277 Y38.81
X16.38 Y39.187
X16.451 Y39.567
X16.492 Y39.949
X16.502 Y40.329
X16.482 Y40.706
X16.431 Y41.077
X16.352 Y41.442
X16.243 Y41.797
X16.107 Y42.142
X15.944 Y42.474
X15.755 Y42.793
X15.541 Y43.095
X15.302 Y43.38
X15.04 Y43.646
X14.757 Y43.891
X14.453 Y44.114
X14.13 Y44.313
X13.791 Y44.486
X13.437 Y44.632
X13.069 Y44.75
X12.692 Y44.839
X12.305 Y44.898
X11.914 Y44.925
X11.519 Y44.921
X11.123 Y44.885
X10.729 Y44.818
X10.34 Y44.718
X9.958 Y44.586
X9.587 Y44.424
X9.227 Y44.231
X8.883 Y44.01
X8.557 Y43.76
X8.251 Y43.484
X7.966 Y43.183
X7.706 Y42.86
X7.472 Y42.515
X7.266 Y42.152
X7.089 Y41.772
X6.943 Y41.379
X6.829 Y40.974
X6.747 Y40.561
X6.699 Y40.142
X6.685 Y39.719
X6.704 Y39.297
X6.758 Y38.876
X6.845 Y38.461
X6.965 Y38.054
X7.118 Y37.657
X7.302 Y37.274
X7.517 Y36.906
X7.76 Y36.557
X8.031 Y36.228
X8.327 Y35.922
X8.648 Y35.64
X8.99 Y35.385
X9.351 Y35.158
X9.73 Y34.961
X10.123 Y34.795
X10.528 Y34.661
X10.943 Y34.559
X11.365 Y34.492
X11.791 Y34.458
X12.218 Y34.459
X12.644 Y34.494
X13.066 Y34.564
X13.482 Y34.666
X13.89 Y34.803
X14.289 Y34.974
X14.678 Y35.178
X15.055 Y35.416
X15.418 Y35.689
X15.764 Y35.996
X16.09 Y36.335
X16.39 Y36.703
X16.662 Y37.096
X16.901 Y37.51
X17.107 Y37.942
X17.277 Y38.388
X17.337 Y38.595
X17.347 Y38.631
X17.354 Y38.668
X17.36 Y38.706
X17.473 Y39.712
X17.479 Y39.794
X17.47 Y39.876
X17.359 Y40.859
X17.335 Y41.023
X17.221 Y41.351
X16.992 Y42.006
X16.936 Y42.158
X16.931 Y42.17
X16.772 Y42.424
X16.314 Y43.153
X16.281 Y43.201
X16.168 Y43.317
X15.461 Y44.024
X15.424 Y44.06
X15.386 Y44.088
X14.478 Y44.659
X14.396 Y44.709
X14.355 Y44.73
X13.244 Y45.119
X13.206 Y45.129
X13.167 Y45.135
X12.184 Y45.246
X12.021 Y45.264
X11.98 Y45.265
X11.939 Y45.261
X10.809 Y45.134
X10.744 Y45.119
X9.645 Y44.735
X9.604 Y44.717
X9.563 Y44.692
X8.678 Y44.136
X8.58 Y44.073
X8.475 Y43.972
X7.76 Y43.258
X7.711 Y43.205
X7.673 Y43.153
X7.105 Y42.248
X7.057 Y42.17
X6.996 Y42.006
X6.709 Y41.187
X6.652 Y41.023
X6.628 Y40.859
X6.517 Y39.876
X6.509 Y39.794
X6.514 Y39.712
X6.625 Y38.729
X6.645 Y38.565
X6.699 Y38.401
X7.044 Y37.418
X7.105 Y37.311
X7.655 Y36.435
X7.699 Y36.368
X7.76 Y36.302
X8.446 Y35.616
X8.58 Y35.487
X8.633 Y35.452
X9.563 Y34.867
X9.603 Y34.843
X9.644 Y34.825
X10.71 Y34.452
X10.792 Y34.429
X10.874 Y34.419
X11.953 Y34.297
X11.987 Y34.295
X12.021 Y34.296
X12.512 Y34.351
X13.167 Y34.425
X13.207 Y34.431
X13.246 Y34.441
X14.314 Y34.815
X14.355 Y34.83
X14.396 Y34.85
X15.355 Y35.452
X15.408 Y35.487
X15.461 Y35.536
X16.196 Y36.271
X16.281 Y36.359
X16.332 Y36.435
X16.847 Y37.254
X16.936 Y37.402
X16.943 Y37.418
X17.002 Y37.582
X17.288 Y38.401
X17.343 Y38.565
X17.36 Y38.706
G3 X17.073 Y39.031 I-0.299 J0.026
G1 X17.061 Y39.032
X17.009 Y39.018 Z-1.993
X16.96 Y39.005 Z-1.976
X16.914 Y38.993 Z-1.95
X16.88 Y38.963 Z-1.913
X16.852 Y38.938 Z-1.867
X16.832 Y38.919 Z-1.815
X16.819 Y38.907 Z-1.759
X16.815 Y38.904 Z-1.7
Z5.
X11.958 Y41.264
Z0.5
G3 X10.617 Y39.225 Z0.4 I0.037 J-1.484 F15.
X12.994 Y38.686 Z0.3 I1.375 J0.554
X12.666 Y41.098 Z0.2 I-1. J1.092
X10.525 Y39.946 Z0.1 I-0.671 J-1.318
X12.352 Y38.347 Z0. I1.468 J-0.166
X13.208 Y40.616 Z-0.1 I-0.359 J1.431
X10.786 Y40.622 Z-0.2 I-1.213 J-0.837
X11.629 Y38.354 Z-0.3 I1.208 J-0.842
X13.455 Y39.937 Z-0.4 I0.364 J1.425
X11.334 Y41.09 Z-0.5 I-1.46 J-0.158
X10.998 Y38.703 Z-0.6 I0.66 J-1.31
X13.349 Y39.225 Z-0.7 I0.995 J1.076
X12.037 Y41.241 Z-0.8 I-1.355 J0.553
X10.611 Y39.308 Z-0.9 I-0.043 J-1.461
X12.919 Y38.651 Z-1. I1.382 J0.472
X12.725 Y41.04 Z-1.1 I-0.925 J1.127
X10.558 Y40.021 Z-1.2 I-0.73 J-1.26
X12.27 Y38.352 Z-1.3 I1.435 J-0.242
X13.232 Y40.537 Z-1.4 I-0.277 J1.426
X10.851 Y40.672 Z-1.5 I-1.237 J-0.758
X11.559 Y38.397 Z-1.6 I1.143 J-0.892
X13.439 Y39.857 Z-1.7 I0.434 J1.381
X11.415 Y41.103 Z-1.8 I-1.444 J-0.078
X10.958 Y38.774 Z-1.9 I0.579 J-1.323
X13.297 Y39.162 Z-2. I1.035 J1.005
X12.114 Y41.214 Z-2.1 I-1.302 J0.616
X10.609 Y39.389 Z-2.2 I-0.12 J-1.434
X12.843 Y38.621 Z-2.3 I1.383 J0.39
X12.78 Y40.979 Z-2.4 I-0.849 J1.157
X10.596 Y40.094 Z-2.5 I-0.785 J-1.2
X12.189 Y38.361 Z-2.6 I1.397 J-0.314
X13.251 Y40.459 Z-2.7 I-0.196 J1.417
X10.918 Y40.717 Z-2.8 I-1.257 J-0.68
X11.493 Y38.444 Z-2.9 I1.076 J-0.937
X13.418 Y39.778 Z-3. I0.5 J1.335
X10.568 I-1.425 J0.
X13.418 I1.425 J0.
G1 X13.453 Y40.5 F1184.
X13.469 Y40.588
X13.477 Y40.738
X13.458 Y40.887
X13.415 Y41.031
X13.353 Y41.167
X13.275 Y41.295
X13.183 Y41.413
X13.078 Y41.521
X12.964 Y41.618
X12.841 Y41.704
X12.71 Y41.778
X12.574 Y41.84
X12.432 Y41.891
X12.287 Y41.93
X12.136 Y41.957
X11.98 Y41.973
X11.82 Y41.977
X11.658 Y41.967
X11.496 Y41.944
X11.333 Y41.908
X11.172 Y41.858
X11.014 Y41.794
X10.86 Y41.718
X10.712 Y41.629
X10.57 Y41.527
X10.436 Y41.414
X10.311 Y41.29
X10.196 Y41.155
X10.092 Y41.011
X9.999 Y40.858
X9.918 Y40.698
X9.85 Y40.532
X9.796 Y40.36
X9.756 Y40.184
X9.729 Y40.005
X9.718 Y39.825
X9.72 Y39.643
X9.738 Y39.462
X9.77 Y39.283
X9.816 Y39.107
X9.876 Y38.935
X9.95 Y38.768
X10.037 Y38.608
X10.136 Y38.455
X10.248 Y38.31
X10.371 Y38.175
X10.505 Y38.05
X10.648 Y37.937
X10.8 Y37.835
X10.959 Y37.745
X11.126 Y37.669
X11.297 Y37.606
X11.474 Y37.557
X11.654 Y37.522
X11.836 Y37.502
X12.019 Y37.497
X12.202 Y37.506
X12.383 Y37.531
X12.562 Y37.569
X12.738 Y37.622
X12.909 Y37.689
X13.073 Y37.769
X13.231 Y37.862
X13.381 Y37.967
X13.522 Y38.085
X13.653 Y38.213
X13.773 Y38.351
X13.882 Y38.498
X13.983 Y38.662
X14.094 Y38.877
X14.227 Y39.196
X14.337 Y39.534
X14.401 Y39.804
X14.438 Y40.041
X14.454 Y40.261
X14.452 Y40.476
X14.434 Y40.683
X14.401 Y40.88
X14.353 Y41.07
X14.29 Y41.254
X14.212 Y41.435
X14.119 Y41.61
X14.012 Y41.777
X13.891 Y41.936
X13.757 Y42.086
X13.609 Y42.226
X13.449 Y42.356
X13.276 Y42.474
X13.092 Y42.579
X12.897 Y42.671
X12.692 Y42.748
X12.479 Y42.809
X12.258 Y42.853
X12.032 Y42.88
X11.801 Y42.888
X11.569 Y42.878
X11.335 Y42.849
X11.102 Y42.801
X10.872 Y42.734
X10.646 Y42.648
X10.426 Y42.543
X10.215 Y42.42
X10.012 Y42.28
X9.82 Y42.123
X9.641 Y41.95
X9.475 Y41.763
X9.324 Y41.562
X9.189 Y41.349
X9.071 Y41.124
X8.972 Y40.891
X8.891 Y40.649
X8.83 Y40.401
X8.788 Y40.149
X8.768 Y39.893
X8.767 Y39.636
X8.788 Y39.38
X8.828 Y39.125
X8.89 Y38.875
X8.971 Y38.63
X9.072 Y38.392
X9.191 Y38.162
X9.329 Y37.943
X9.484 Y37.736
X9.655 Y37.541
X9.842 Y37.361
X10.042 Y37.196
X10.255 Y37.048
X10.479 Y36.917
X10.713 Y36.805
X10.956 Y36.712
X11.205 Y36.638
X11.459 Y36.585
X11.717 Y36.552
X11.977 Y36.541
X12.237 Y36.55
X12.495 Y36.58
X12.75 Y36.63
X13. Y36.701
X13.244 Y36.792
X13.479 Y36.901
X13.705 Y37.03
X13.92 Y37.176
X14.124 Y37.34
X14.323 Y37.528
X14.525 Y37.753
X14.719 Y38.007
X14.898 Y38.285
X15.058 Y38.583
X15.191 Y38.889
X15.296 Y39.195
X15.374 Y39.501
X15.426 Y39.804
X15.453 Y40.103
X15.456 Y40.398
X15.435 Y40.689
X15.392 Y40.975
X15.326 Y41.253
X15.239 Y41.525
X15.13 Y41.787
X15.001 Y42.039
X14.852 Y42.281
X14.684 Y42.51
X14.497 Y42.726
X14.292 Y42.927
X14.07 Y43.113
X13.832 Y43.282
X13.579 Y43.432
X13.313 Y43.562
X13.034 Y43.672
X12.745 Y43.76
X12.448 Y43.824
X12.143 Y43.865
X11.834 Y43.882
X11.523 Y43.874
X11.211 Y43.84
X10.9 Y43.781
X10.593 Y43.697
X10.292 Y43.588
X9.999 Y43.454
X9.717 Y43.297
X9.446 Y43.116
X9.189 Y42.913
X8.949 Y42.689
X8.726 Y42.445
X8.523 Y42.184
X8.341 Y41.906
X8.181 Y41.613
X8.045 Y41.308
X7.933 Y40.992
X7.847 Y40.667
X7.788 Y40.335
X7.755 Y39.999
X7.749 Y39.661
X7.77 Y39.324
X7.818 Y38.988
X7.893 Y38.657
X7.995 Y38.333
X8.122 Y38.018
X8.274 Y37.714
X8.451 Y37.423
X8.65 Y37.147
X8.871 Y36.887
X9.112 Y36.646
X9.372 Y36.425
X9.649 Y36.226
X9.941 Y36.049
X10.246 Y35.896
X10.563 Y35.769
X10.889 Y35.667
X11.222 Y35.591
X11.561 Y35.543
X11.902 Y35.522
X12.243 Y35.528
X12.584 Y35.562
X12.92 Y35.622
X13.25 Y35.71
X13.573 Y35.824
X13.885 Y35.964
X14.188 Y36.129
X14.485 Y36.324
X14.774 Y36.549
X15.053 Y36.804
X15.318 Y37.089
X15.563 Y37.399
X15.784 Y37.73
X15.978 Y38.079
X16.143 Y38.44
X16.277 Y38.811
X16.38 Y39.188
X16.452 Y39.568
X16.492 Y39.949
X16.502 Y40.33
X16.482 Y40.706
X16.431 Y41.078
X16.351 Y41.442
X16.243 Y41.798
X16.107 Y42.143
X15.944 Y42.475
X15.755 Y42.793
X15.54 Y43.096
X15.302 Y43.381
X15.04 Y43.647
X14.757 Y43.892
X14.453 Y44.114
X14.13 Y44.313
X13.791 Y44.486
X13.436 Y44.633
X13.069 Y44.751
X12.691 Y44.84
X12.305 Y44.898
X11.913 Y44.926
X11.518 Y44.922
X11.123 Y44.886
X10.729 Y44.818
X10.34 Y44.718
X9.958 Y44.587
X9.586 Y44.424
X9.227 Y44.232
X8.883 Y44.01
X8.557 Y43.76
X8.251 Y43.484
X7.966 Y43.184
X7.706 Y42.86
X7.472 Y42.515
X7.266 Y42.152
X7.089 Y41.773
X6.943 Y41.379
X6.829 Y40.975
X6.747 Y40.561
X6.699 Y40.142
X6.685 Y39.72
X6.704 Y39.297
X6.758 Y38.877
X6.845 Y38.461
X6.965 Y38.054
X7.118 Y37.658
X7.302 Y37.274
X7.517 Y36.907
X7.76 Y36.557
X8.031 Y36.228
X8.328 Y35.922
X8.648 Y35.641
X8.99 Y35.386
X9.351 Y35.159
X9.73 Y34.961
X10.123 Y34.795
X10.529 Y34.661
X10.944 Y34.56
X11.365 Y34.492
X11.791 Y34.459
X12.219 Y34.46
X12.645 Y34.495
X13.066 Y34.564
X13.482 Y34.667
X13.89 Y34.804
X14.289 Y34.974
X14.678 Y35.179
X15.055 Y35.417
X15.418 Y35.69
X15.764 Y35.997
X16.09 Y36.336
X16.39 Y36.704
X16.662 Y37.097
X16.902 Y37.511
X17.107 Y37.943
X17.277 Y38.389
X17.337 Y38.596
X17.347 Y38.632
X17.354 Y38.669
X17.36 Y38.707
X17.473 Y39.712
X17.479 Y39.794
X17.47 Y39.876
X17.359 Y40.859
X17.335 Y41.023
X17.221 Y41.351
X16.992 Y42.006
X16.936 Y42.158
X16.931 Y42.17
X16.772 Y42.424
X16.314 Y43.153
X16.281 Y43.201
X16.168 Y43.317
X15.461 Y44.024
X15.424 Y44.06
X15.386 Y44.088
X14.478 Y44.659
X14.396 Y44.709
X14.355 Y44.73
X13.244 Y45.119
X13.206 Y45.129
X13.167 Y45.135
X12.184 Y45.246
X12.021 Y45.264
X11.98 Y45.265
X11.939 Y45.261
X10.809 Y45.134
X10.744 Y45.119
X9.645 Y44.735
X9.604 Y44.717
X9.563 Y44.692
X8.678 Y44.136
X8.58 Y44.073
X8.475 Y43.972
X7.76 Y43.258
X7.711 Y43.205
X7.673 Y43.153
X7.105 Y42.248
X7.057 Y42.17
X6.996 Y42.006
X6.709 Y41.187
X6.652 Y41.023
X6.628 Y40.859
X6.517 Y39.876
X6.509 Y39.794
X6.514 Y39.712
X6.625 Y38.729
X6.645 Y38.565
X6.699 Y38.401
X7.044 Y37.418
X7.105 Y37.311
X7.655 Y36.435
X7.699 Y36.368
X7.76 Y36.302
X8.446 Y35.616
X8.58 Y35.487
X8.633 Y35.452
X9.563 Y34.867
X9.603 Y34.843
X9.644 Y34.825
X10.71 Y34.452
X10.792 Y34.429
X10.874 Y34.419
X11.953 Y34.297
X11.987 Y34.295
X12.021 Y34.296
X12.512 Y34.351
X13.167 Y34.425
X13.207 Y34.431
X13.246 Y34.441
X14.314 Y34.815
X14.355 Y34.83
X14.396 Y34.85
X15.355 Y35.452
X15.408 Y35.487
X15.461 Y35.536
X16.196 Y36.271
X16.281 Y36.359
X16.332 Y36.435
X16.847 Y37.254
X16.936 Y37.402
X16.943 Y37.418
X17.002 Y37.582
X17.288 Y38.401
X17.343 Y38.565
X17.36 Y38.707
G3 X16.815 Y38.905 I-0.299 J0.026
G1 X16.777 Y38.85 Z-2.992
X16.741 Y38.798 Z-2.97
X16.708 Y38.751 Z-2.935
X16.681 Y38.712 Z-2.887
X16.66 Y38.683 Z-2.83
X16.648 Y38.665 Z-2.767
X16.643 Y38.659 Z-2.7
Z5.
(WHEN USING FUSION 360 FOR PERSONAL USE, THE FEEDRATE OF)
(RAPID MOVES IS REDUCED TO MATCH THE FEEDRATE OF CUTTING)
(MOVES, WHICH CAN INCREASE MACHINING TIME. UNRESTRICTED RAPID)
(MOVES ARE AVAILABLE WITH A FUSION 360 SUBSCRIPTION.)

(2D POCKET5)
G0 X12.344 Y39.48
G1 Z5. F40.
Z1.5
Z-3.2
G19 G3 Y39.78 Z-3.5 J0.3 K0.
G17 G3 X11.644 I-0.35 J0. F1184.
X14.144 I1.25 J0.
X9.844 I-2.15 J0.
X15.944 I3.05 J0.
X8.044 I-3.95 J0.
X15.944 I3.95 J0.
G2 X16.668 Y40.98 I1.356 J0.
G3 X17.1 Y42.313 I-0.467 J0.888
X6.294 Y39.78 I-5.106 J-2.533
X17.694 I5.7 J0.
X17.1 Y42.313 I-5.7 J0.
G2 X17.132 Y42.577 I0.217 J0.108
G3 X17.154 Y42.842 I-0.175 J0.148
X5.994 Y39.78 I-5.16 J-3.062
X17.994 I6. J0.
X17.154 Y42.842 I-6. J0.
G1 X17.12 Y42.888 Z-3.489
X17.078 Y42.927 Z-3.477
X17.037 Y42.953 Z-3.445
X16.992 Y42.973 Z-3.412
X16.929 Y42.987 Z-3.315
X16.906 Y42.988 Z-3.2
Z5.
(WHEN USING FUSION 360 FOR PERSONAL USE, THE FEEDRATE OF)
(RAPID MOVES IS REDUCED TO MATCH THE FEEDRATE OF CUTTING)
(MOVES, WHICH CAN INCREASE MACHINING TIME. UNRESTRICTED RAPID)
(MOVES ARE AVAILABLE WITH A FUSION 360 SUBSCRIPTION.)

(2D CONTOUR2)
G0 X12.598 Y45.857
G1 Z5. F40.
Z1.
Z0.3
Y45.865 Z0.233 F1184.
X12.599 Y45.887 Z0.17
X12.601 Y45.923 Z0.113
X12.604 Y45.97 Z0.065
X12.606 Y46.027 Z0.03
X12.61 Y46.09 Z0.008
X12.613 Y46.157 Z0.
X12.628 Y46.457
G3 X12.343 Y46.771 I-0.3 J0.015
X4.994 Y39.78 I-0.35 J-6.991
X18.994 I7. J0.
X12.343 Y46.771 I-7. J0.
X12.029 Y46.487 I-0.015 J-0.3
G1 X12.014 Y46.187
X12.01 Y46.12 Z0.008
X12.007 Y46.057 Z0.03
X12.004 Y46. Z0.065
X12.002 Y45.953 Z0.113
X12. Y45.917 Z0.17
X11.999 Y45.895 Z0.233
Y45.887 Z0.3
Z5.
(WHEN USING FUSION 360 FOR PERSONAL USE, THE FEEDRATE OF)
(RAPID MOVES IS REDUCED TO MATCH THE FEEDRATE OF CUTTING)
(MOVES, WHICH CAN INCREASE MACHINING TIME. UNRESTRICTED RAPID)
(MOVES ARE AVAILABLE WITH A FUSION 360 SUBSCRIPTION.)

(2D ADAPTIVE6)
G0 X11.993 Y39.78
G1 Z5. F1184.
Z0.55
Z0. F40.
X11.956 Y39.776 F1184.
X11.967 Y39.74
X12.002 Y39.727
X12.037 Y39.741
X12.055 Y39.774
X12.05 Y39.811
X12.03 Y39.842
X11.999 Y39.864
X11.962 Y39.872
X11.925 Y39.865
X11.893 Y39.845
X11.869 Y39.817
X11.854 Y39.783
X11.845 Y39.708
X11.872 Y39.638
X11.927 Y39.587
X11.998 Y39.561
X12.073 Y39.562
X12.143 Y39.588
X12.202 Y39.635
X12.243 Y39.697
X12.266 Y39.769
X12.272 Y39.919
X12.206 Y40.053
X12.088 Y40.146
X11.943 Y40.184
X11.794 Y40.166
X11.66 Y40.099
X11.554 Y39.993
X11.485 Y39.859
X11.459 Y39.712
X11.475 Y39.563
X11.529 Y39.423
X11.619 Y39.303
X11.736 Y39.209
X11.872 Y39.146
X12.02 Y39.117
X12.169 Y39.124
X12.314 Y39.163
X12.447 Y39.233
X12.563 Y39.328
X12.658 Y39.444
X12.728 Y39.577
X12.772 Y39.72
X12.789 Y39.869
X12.777 Y40.019
X12.739 Y40.164
X12.675 Y40.299
X12.589 Y40.423
X12.483 Y40.528
X12.361 Y40.616
X12.227 Y40.682
X12.083 Y40.726
X11.935 Y40.746
X11.785 Y40.743
X11.637 Y40.718
X11.494 Y40.671
X11.36 Y40.603
X11.238 Y40.517
X11.128 Y40.414
X11.035 Y40.297
X10.958 Y40.168
X10.899 Y40.03
X10.859 Y39.886
X10.84 Y39.737
X10.839 Y39.587
X10.859 Y39.438
X10.896 Y39.293
X10.952 Y39.154
X11.025 Y39.023
X11.114 Y38.902
X11.216 Y38.792
X11.331 Y38.696
X11.457 Y38.614
X11.592 Y38.548
X11.733 Y38.498
X11.879 Y38.465
X12.028 Y38.448
X12.178 Y38.449
X12.327 Y38.466
X12.474 Y38.5
X12.615 Y38.549
X12.751 Y38.614
X12.878 Y38.692
X12.997 Y38.784
X13.106 Y38.888
X13.203 Y39.002
X13.288 Y39.126
X13.36 Y39.257
X13.417 Y39.396
X13.461 Y39.539
X13.49 Y39.686
X13.505 Y39.835
X13.504 Y39.985
X13.489 Y40.135
X13.46 Y40.282
X13.416 Y40.425
X13.36 Y40.564
X13.29 Y40.697
X13.208 Y40.822
X13.114 Y40.94
X13.01 Y41.048
X12.897 Y41.146
X12.775 Y41.233
X12.646 Y41.31
X12.51 Y41.373
X12.369 Y41.425
X12.224 Y41.464
X12.077 Y41.49
X11.927 Y41.503
X11.777
X11.628 Y41.491
X11.48 Y41.465
X11.335 Y41.427
X11.194 Y41.376
X11.057 Y41.314
X10.926 Y41.241
X10.802 Y41.157
X10.685 Y41.064
X10.575 Y40.961
X10.475 Y40.848
X10.384 Y40.729
X10.301 Y40.599
X10.23 Y40.466
X10.17 Y40.328
X10.12 Y40.18
X10.083 Y40.034
X10.058 Y39.88
X10.044 Y39.723
X10.043 Y39.571
X10.055 Y39.411
X10.08 Y39.255
X10.116 Y39.103
X10.167 Y38.949
X10.228 Y38.802
X10.301 Y38.66
X10.388 Y38.52
X10.484 Y38.391
X10.591 Y38.268
X10.711 Y38.151
X10.837 Y38.047
X10.972 Y37.952
X11.119 Y37.866
X11.27 Y37.793
X11.425 Y37.732
X11.59 Y37.683
X11.759 Y37.647
X11.927 Y37.625
X12.1 Y37.616
X12.276 Y37.622
X12.451 Y37.641
X12.621 Y37.674
X12.792 Y37.722
X12.962 Y37.784
X13.124 Y37.859
X13.279 Y37.946
X13.429 Y38.047
X13.572 Y38.162
X13.707 Y38.288
X13.829 Y38.423
X13.94 Y38.567
X14.042 Y38.723
X14.132 Y38.889
X14.207 Y39.061
X14.269 Y39.238
X14.316 Y39.418
X14.349 Y39.606
X14.367 Y39.798
X14.369 Y39.99
X14.357 Y40.183
X14.329 Y40.372
X14.285 Y40.561
X14.226 Y40.747
X14.151 Y40.93
X14.061 Y41.107
X13.957 Y41.277
X13.841 Y41.437
X13.711 Y41.589
X13.569 Y41.729
X13.415 Y41.859
X13.249 Y41.977
X13.074 Y42.083
X12.889 Y42.174
X12.697 Y42.251
X12.499 Y42.312
X12.295 Y42.357
X12.089 Y42.386
X11.88 Y42.398
X11.669 Y42.393
X11.459 Y42.371
X11.25 Y42.333
X11.044 Y42.277
X10.842 Y42.205
X10.645 Y42.116
X10.455 Y42.011
X10.273 Y41.89
X10.101 Y41.755
X9.939 Y41.606
X9.789 Y41.443
X9.653 Y41.269
X9.53 Y41.083
X9.421 Y40.887
X9.329 Y40.682
X9.253 Y40.469
X9.194 Y40.25
X9.153 Y40.026
X9.129 Y39.798
X9.124 Y39.569
X9.138 Y39.339
X9.17 Y39.109
X9.22 Y38.882
X9.289 Y38.659
X9.376 Y38.441
X9.481 Y38.231
X9.602 Y38.028
X9.74 Y37.835
X9.894 Y37.653
X10.062 Y37.484
X10.245 Y37.327
X10.44 Y37.185
X10.647 Y37.059
X10.863 Y36.949
X11.09 Y36.857
X11.324 Y36.783
X11.564 Y36.727
X11.808 Y36.691
X12.056 Y36.675
X12.306 Y36.678
X12.555 Y36.702
X12.803 Y36.746
X13.047 Y36.81
X13.287 Y36.893
X13.52 Y36.996
X13.745 Y37.118
X13.96 Y37.258
X14.164 Y37.415
X14.356 Y37.589
X14.534 Y37.779
X14.696 Y37.983
X14.842 Y38.2
X14.971 Y38.429
X15.081 Y38.668
X15.173 Y38.917
X15.244 Y39.174
X15.294 Y39.435
X15.324 Y39.701
X15.332 Y39.97
X15.318 Y40.239
X15.283 Y40.508
X15.226 Y40.774
X15.148 Y41.035
X15.048 Y41.29
X14.928 Y41.537
X14.789 Y41.775
X14.63 Y42.001
X14.452 Y42.215
X14.257 Y42.414
X14.046 Y42.599
X13.82 Y42.766
X13.58 Y42.915
X13.328 Y43.045
X13.066 Y43.154
X12.795 Y43.243
X12.517 Y43.309
X12.233 Y43.354
X11.946 Y43.375
X11.657 Y43.373
X11.367 Y43.348
X11.08 Y43.3
X10.796 Y43.228
X10.518 Y43.134
X10.248 Y43.017
X9.986 Y42.878
X9.736 Y42.719
X9.499 Y42.539
X9.276 Y42.339
X9.069 Y42.122
X8.879 Y41.888
X8.708 Y41.639
X8.557 Y41.376
X8.428 Y41.1
X8.32 Y40.814
X8.236 Y40.52
X8.175 Y40.218
X8.138 Y39.912
X8.127 Y39.603
X8.14 Y39.293
X8.178 Y38.984
X8.241 Y38.678
X8.328 Y38.377
X8.44 Y38.083
X8.575 Y37.798
X8.734 Y37.524
X8.914 Y37.263
X9.116 Y37.016
X9.337 Y36.786
X9.577 Y36.573
X9.834 Y36.379
X10.107 Y36.207
X10.393 Y36.056
X10.692 Y35.928
X11.001 Y35.824
X11.319 Y35.746
X11.643 Y35.692
X11.971 Y35.665
X12.301
X12.632 Y35.69
X12.961 Y35.743
X13.285 Y35.822
X13.603 Y35.927
X13.912 Y36.058
X14.211 Y36.213
X14.498 Y36.393
X14.77 Y36.596
X15.025 Y36.82
X15.263 Y37.065
X15.48 Y37.329
X15.677 Y37.611
X15.851 Y37.909
X16. Y38.22
X16.125 Y38.544
X16.224 Y38.877
X16.295 Y39.218
X16.34 Y39.565
X16.356 Y39.915
X16.344 Y40.267
X16.304 Y40.618
X16.235 Y40.965
X16.139 Y41.307
X16.015 Y41.64
X15.865 Y41.964
X15.688 Y42.275
X15.486 Y42.573
X15.261 Y42.854
X15.012 Y43.117
X14.743 Y43.359
X14.454 Y43.58
X14.148 Y43.778
X13.825 Y43.951
X13.489 Y44.098
X13.141 Y44.218
X12.784 Y44.31
X12.42 Y44.373
X12.05 Y44.406
X11.678 Y44.41
X11.305 Y44.384
X10.935 Y44.328
X10.569 Y44.242
X10.211 Y44.127
X9.861 Y43.983
X9.524 Y43.811
X9.2 Y43.611
X8.892 Y43.386
X8.603 Y43.136
X8.334 Y42.863
X8.087 Y42.568
X7.864 Y42.253
X7.666 Y41.921
X7.495 Y41.573
X7.352 Y41.211
X7.238 Y40.838
X7.155 Y40.456
X7.102 Y40.067
X7.08 Y39.675
X7.09 Y39.281
X7.132 Y38.887
X7.206 Y38.498
X7.31 Y38.114
X7.446 Y37.74
X7.612 Y37.376
X7.806 Y37.026
X8.029 Y36.692
X8.279 Y36.375
X8.554 Y36.079
X8.852 Y35.806
X9.173 Y35.556
X9.513 Y35.333
X9.872 Y35.137
X10.245 Y34.97
X10.633 Y34.833
X11.031 Y34.727
X11.437 Y34.653
X11.849 Y34.612
X12.264 Y34.604
X12.68 Y34.63
X13.093 Y34.689
X13.501 Y34.782
X13.902 Y34.907
X14.292 Y35.064
X14.67 Y35.253
X15.032 Y35.471
X15.376 Y35.719
X15.7 Y35.995
X16.002 Y36.296
X16.279 Y36.621
X16.53 Y36.969
X16.753 Y37.336
X16.946 Y37.722
X17.108 Y38.122
X17.237 Y38.535
X17.334 Y38.958
X17.396 Y39.389
X17.423 Y39.825
X17.416 Y40.262
X17.373 Y40.698
X17.295 Y41.131
X17.182 Y41.557
X17.036 Y41.973
X16.856 Y42.378
X16.643 Y42.767
X16.399 Y43.14
X16.126 Y43.492
X15.824 Y43.822
X15.496 Y44.128
X15.143 Y44.407
X14.769 Y44.657
X14.374 Y44.878
X13.962 Y45.066
X13.536 Y45.221
X13.097 Y45.341
X12.649 Y45.426
X12.194 Y45.475
X11.736 Y45.488
X11.277 Y45.463
X10.82 Y45.402
X10.369 Y45.303
X9.926 Y45.169
X9.494 Y44.999
X9.076 Y44.794
X8.675 Y44.556
X8.293 Y44.286
X7.933 Y43.986
X7.598 Y43.656
X7.29 Y43.3
X7.01 Y42.92
X6.761 Y42.517
X6.545 Y42.095
X6.363 Y41.655
X6.217 Y41.202
X6.107 Y40.737
X6.035 Y40.264
X6.001 Y39.785
X6.005 Y39.304
X6.048 Y38.824
X6.13 Y38.348
X6.25 Y37.879
X6.407 Y37.42
X6.602 Y36.974
X6.831 Y36.544
X7.096 Y36.133
X7.393 Y35.743
X7.721 Y35.378
X8.078 Y35.04
X8.462 Y34.731
X8.871 Y34.453
X9.302 Y34.208
X9.752 Y33.998
X10.218 Y33.824
X10.698 Y33.688
X11.189 Y33.591
X11.686 Y33.533
X12.189 Y33.515
X12.692 Y33.538
X13.192 Y33.601
X13.687 Y33.705
X14.174 Y33.848
X14.648 Y34.03
X15.107 Y34.25
X15.548 Y34.507
X15.968 Y34.799
X16.365 Y35.124
X16.734 Y35.481
X17.074 Y35.868
X17.383 Y36.281
X17.659 Y36.719
X17.899 Y37.179
X18.101 Y37.657
X18.265 Y38.151
X18.389 Y38.658
X18.473 Y39.174
X18.514 Y39.696
Y40.221
X18.471 Y40.746
X18.386 Y41.266
X18.26 Y41.779
X18.092 Y42.281
X17.884 Y42.769
X17.637 Y43.24
X17.352 Y43.691
X17.032 Y44.118
X16.677 Y44.519
X16.291 Y44.891
X15.875 Y45.232
X15.432 Y45.538
X14.965 Y45.809
X14.477 Y46.042
X13.971 Y46.235
X13.45 Y46.387
X12.917 Y46.498
X12.375 Y46.565
X11.829 Y46.589
X11.282 Y46.568
X10.737 Y46.504
X10.197 Y46.396
X9.667 Y46.245
X9.15 Y46.051
X8.648 Y45.816
X8.167 Y45.541
X7.708 Y45.227
X7.274 Y44.877
X6.948 Y44.566
X6.923 Y44.54
X6.837 Y44.445
X6.454 Y44.019
X6.332 Y43.878
X6.321 Y43.86
X5.676 Y42.744
X5.612 Y42.63
X5.6 Y42.602
X5.162 Y41.256
X5.154 Y41.22
X5.15 Y41.185
X5.016 Y39.909
X5.004 Y39.768
X5.018 Y39.626
X5.153 Y38.35
X5.187 Y38.228
X5.561 Y37.075
X5.61 Y36.933
X5.69 Y36.791
X6.321 Y35.699
X6.35 Y35.658
X6.604 Y35.374
X7.242 Y34.666
X7.313 Y34.59
X7.398 Y34.524
X8.446 Y33.762
X8.517 Y33.716
X9.793 Y33.148
X9.828 Y33.134
X9.864 Y33.124
X11.139 Y32.853
X11.281 Y32.827
X11.706 Y32.826
X12.698 Y32.827
X12.84 Y32.851
X14.115 Y33.122
X14.151 Y33.131
X14.186 Y33.145
X15.462 Y33.713
X15.533 Y33.756
X16.589 Y34.524
X16.666 Y34.582
X16.745 Y34.666
X17.517 Y35.522
X17.638 Y35.658
X17.659 Y35.686
X18.367 Y36.912
X18.378 Y36.933
X18.426 Y37.075
X18.794 Y38.209
X18.835 Y38.35
X18.969 Y39.626
X18.983 Y39.768
X18.972 Y39.909
X18.838 Y41.185
X18.833 Y41.22
X18.825 Y41.256
X18.388 Y42.602
X18.367 Y42.647
X17.659 Y43.874
X17.656 Y43.878
X17.517 Y44.037
X16.768 Y44.87
X16.666 Y44.978
X16.623 Y45.011
X15.533 Y45.804
X15.481 Y45.838
X15.391 Y45.879
X14.257 Y46.384
X14.15 Y46.429
X14.115 Y46.438
X12.824 Y46.712
X12.698 Y46.733
X11.423
X11.281
X11.163 Y46.712
X9.864 Y46.436
X9.837 Y46.429
X9.722 Y46.38
X8.558 Y45.862
X8.502 Y45.836
X8.446 Y45.798
X7.364 Y45.011
X7.313 Y44.971
X7.171 Y44.815
X6.923 Y44.54
G3 X7.152 Y44.047 I0.23 J-0.193
G1 X7.153
X7.205 Y44.052
X7.255 Y44.065
X7.318 Y44.088 Z0.008
X7.378 Y44.11 Z0.03
X7.431 Y44.129 Z0.065
X7.476 Y44.145 Z0.113
X7.509 Y44.158 Z0.17
X7.53 Y44.165 Z0.233
X7.537 Y44.168 Z0.3
Z5.

G28 G91 Z0.
G90
G28 G91 X0. Y0.
G90
M30
