(1007)
(DRILLING SPOLI BOARD)
(MACHINE)
(  VENDOR HOMEMADE)
(  DESCRIPTION GENERIC 3-AXIS)
(T1  D=8. CR=0. TAPER=90DEG - ZMIN=-11.5 - SPOT DRILL)
G90 G94 G91.1 G40 G49 G17
G21
G28 G91 Z0.
G90

(DRILLPATTERN)
M5
T1 M6
S5000 M3
G54
G0 X154.937 Y9.959
G43 Z5. H1
G98 G81 X154.937 Y9.959 Z-11.5 R4. F333.
Y59.959
Y109.959
X154.917 Y169.919
Y219.919
Y269.919
X222.417
Y219.919
Y169.919
X222.437 Y109.959
Y59.959
Y9.959
X289.937
Y59.959
Y109.959
X289.917 Y169.919
Y219.919
Y269.919
X87.417
Y219.919
Y169.919
X87.437 Y109.959
Y59.959
Y9.959
X19.937
Y59.959
Y109.959
X19.917 Y169.919
Y219.919
Y269.919
G80
Z5.

G28 G91 Z0.
G90
G28 G91 X0. Y0.
G90
M30
