(1007)
(DRILLING SPOLI BOARD)
(MACHINE)
(  VENDOR HOMEMADE)
(  DESCRIPTION GENERIC 3-AXIS)
(T4  D=3. CR=0. - ZMIN=-1. - FLAT END MILL)
G90 G94 G91.1 G40 G49 G17
G21
(WHEN USING FUSION 360 FOR PERSONAL USE, THE FEEDRATE OF)
(RAPID MOVES IS REDUCED TO MATCH THE FEEDRATE OF CUTTING)
(MOVES, WHICH CAN INCREASE MACHINING TIME. UNRESTRICTED RAPID)
(MOVES ARE AVAILABLE WITH A FUSION 360 SUBSCRIPTION.)
G28 G91 Z0.
G90

(COUNTERBORE)
M5
T4 M6
S9000 M3
G54
G0 X21.212 Y10.687
G43 Z5. H4
G1 Z2.55 F1000.
S5000
G3 X18.824 Y10.916 Z2.452 I-1.275 J-0.728 F30.
X19.41 Y8.592 Z2.354 I1.112 J-0.955
X21.399 Y9.923 Z2.256 I0.526 J1.367
X19.479 Y11.348 Z2.158 I-1.462 J0.036
X18.783 Y9.064 Z2.06 I0.457 J-1.388
X21.165 Y9.175 Z1.962 I1.152 J0.895
X20.262 Y11.379 Z1.863 I-1.229 J0.784
X18.491 Y9.79 Z1.765 I-0.325 J-1.419
X20.581 Y8.657 Z1.667 I1.444 J0.17
X20.945 Y11.003 Z1.569 I-0.645 J1.302
X18.616 Y10.559 Z1.471 I-1.008 J-1.043
X19.815 Y8.517 Z1.373 I1.32 J-0.598
X21.334 Y10.33 Z1.275 I0.12 J1.442
X19.119 Y11.151 Z1.177 I-1.397 J-0.371
X19.09 Y8.791 Z1.079 I0.818 J-1.19
X21.32 Y9.555 Z0.981 I0.845 J1.168
X19.852 Y11.397 Z0.883 I-1.383 J0.403
X18.612 Y9.399 Z0.785 I0.084 J-1.436
X20.908 Y8.902 Z0.687 I1.323 J0.561
X20.605 Y11.229 Z0.588 I-0.972 J1.056
X18.518 Y10.163 Z0.49 I-0.668 J-1.269
X20.221 Y8.557 Z0.392 I1.418 J-0.203
X21.16 Y10.698 Z0.294 I-0.285 J1.402
X18.831 Y10.863 Z0.196 I-1.223 J-0.738
X19.457 Y8.617 Z0.098 I1.105 J-0.903
X21.36 Y9.959 Z0. I0.479 J1.342
X18.51 I-1.425 J0.
X21.36 I1.425 J0.
S9000
G1 X21.39 Y10.582 F1000.
X21.415 Y10.656
X21.443 Y10.804
X21.441 Y10.953
X21.413 Y11.101
X21.364 Y11.243
X21.297 Y11.377
X21.215 Y11.502
X21.12 Y11.618
X21.013 Y11.723
X20.896 Y11.818
X20.771 Y11.901
X20.64 Y11.973
X20.502 Y12.033
X20.36 Y12.081
X20.213 Y12.119
X20.06 Y12.145
X19.902 Y12.159
X19.741 Y12.16
X19.578 Y12.148
X19.414 Y12.123
X19.251 Y12.084
X19.09 Y12.032
X18.932 Y11.966
X18.779 Y11.887
X18.631 Y11.796
X18.491 Y11.692
X18.358 Y11.577
X18.234 Y11.45
X18.121 Y11.314
X18.018 Y11.168
X17.927 Y11.014
X17.848 Y10.853
X17.783 Y10.685
X17.73 Y10.513
X17.692 Y10.336
X17.669 Y10.157
X17.659 Y9.975
X17.664 Y9.794
X17.684 Y9.613
X17.718 Y9.435
X17.767 Y9.259
X17.829 Y9.088
X17.905 Y8.922
X17.995 Y8.763
X18.096 Y8.611
X18.21 Y8.468
X18.335 Y8.334
X18.47 Y8.211
X18.615 Y8.099
X18.768 Y7.999
X18.929 Y7.912
X19.096 Y7.838
X19.269 Y7.777
X19.446 Y7.731
X19.626 Y7.699
X19.808 Y7.681
X19.992 Y7.678
X20.174 Y7.69
X20.356 Y7.716
X20.534 Y7.757
X20.709 Y7.812
X20.879 Y7.881
X21.042 Y7.964
X21.199 Y8.059
X21.347 Y8.167
X21.487 Y8.286
X21.616 Y8.416
X21.734 Y8.555
X21.841 Y8.704
X21.943 Y8.874
X22.06 Y9.109
X22.221 Y9.51
X22.311 Y9.8
X22.367 Y10.047
X22.398 Y10.272
X22.411 Y10.487
X22.407 Y10.698
X22.387 Y10.9
X22.351 Y11.094
X22.301 Y11.281
X22.235 Y11.466
X22.155 Y11.646
X22.059 Y11.819
X21.95 Y11.986
X21.826 Y12.143
X21.69 Y12.292
X21.539 Y12.431
X21.377 Y12.559
X21.201 Y12.676
X21.014 Y12.78
X20.816 Y12.869
X20.609 Y12.944
X20.393 Y13.002
X20.171 Y13.044
X19.943 Y13.068
X19.711 Y13.073
X19.477 Y13.06
X19.243 Y13.028
X19.009 Y12.976
X18.779 Y12.906
X18.554 Y12.816
X18.335 Y12.708
X18.124 Y12.583
X17.923 Y12.439
X17.733 Y12.279
X17.555 Y12.104
X17.391 Y11.914
X17.243 Y11.71
X17.11 Y11.495
X16.996 Y11.269
X16.899 Y11.033
X16.821 Y10.79
X16.763 Y10.541
X16.725 Y10.288
X16.708 Y10.032
X16.711 Y9.775
X16.735 Y9.518
X16.779 Y9.264
X16.844 Y9.015
X16.928 Y8.77
X17.032 Y8.534
X17.155 Y8.306
X17.296 Y8.088
X17.454 Y7.883
X17.627 Y7.691
X17.816 Y7.513
X18.019 Y7.351
X18.234 Y7.205
X18.46 Y7.078
X18.695 Y6.969
X18.939 Y6.879
X19.189 Y6.809
X19.444 Y6.759
X19.702 Y6.73
X19.962 Y6.721
X20.222 Y6.734
X20.48 Y6.767
X20.734 Y6.821
X20.983 Y6.895
X21.226 Y6.989
X21.46 Y7.102
X21.684 Y7.234
X21.897 Y7.383
X22.1 Y7.55
X22.299 Y7.744
X22.509 Y7.983
X22.703 Y8.245
X22.883 Y8.533
X23.039 Y8.834
X23.167 Y9.137
X23.267 Y9.442
X23.34 Y9.744
X23.387 Y10.044
X23.391 Y10.096
X23.393 Y10.144
X23.392 Y10.193
X23.387 Y10.241
X23.323 Y10.726
X23.3 Y10.867
X23.244 Y11.009
X23.01 Y11.576
X22.944 Y11.718
X22.919 Y11.753
X22.493 Y12.307
X22.397 Y12.427
X22.352 Y12.464
X21.715 Y12.952
X21.68 Y12.976
X21.643 Y12.995
X20.934 Y13.288
X20.863 Y13.317
X20.828 Y13.328
X20.792 Y13.334
X20.083 Y13.427
X19.942 Y13.443
X19.8 Y13.428
X19.091 Y13.335
X19.02 Y13.32
X18.949 Y13.292
X18.229 Y12.994
X18.197 Y12.976
X18.164 Y12.956
X17.532 Y12.471
X17.479 Y12.427
X17.39 Y12.319
X16.965 Y11.764
X16.931 Y11.718
X16.865 Y11.576
X16.63 Y11.009
X16.574 Y10.867
X16.551 Y10.726
X16.458 Y10.017
X16.454 Y9.946
X16.461 Y9.875
X16.564 Y9.096
X16.571 Y9.06
X16.583 Y9.025
X16.906 Y8.245
X16.925 Y8.21
X16.949 Y8.174
X17.442 Y7.533
X17.471 Y7.499
X17.508 Y7.465
X18.17 Y6.958
X18.205 Y6.936
X18.241 Y6.92
X18.977 Y6.615
X19.034 Y6.595
X19.091 Y6.584
X19.8 Y6.49
X19.942 Y6.475
X20.083 Y6.491
X20.792 Y6.585
X20.845 Y6.595
X20.898 Y6.615
X21.643 Y6.924
X21.678 Y6.941
X21.714 Y6.965
X22.366 Y7.465
X22.406 Y7.501
X22.436 Y7.536
X22.925 Y8.174
X22.95 Y8.21
X22.969 Y8.245
X23.292 Y9.025
X23.303 Y9.06
X23.311 Y9.096
X23.413 Y9.875
X23.421 Y9.946
X23.417 Y10.017
X23.387 Y10.241
G3 X23.028 Y10.485 I-0.296 J-0.05
G1 X22.981 Y10.461 Z0.005
X22.935 Y10.438 Z0.019
X22.892 Y10.416 Z0.042
X22.865 Y10.375 Z0.079
X22.842 Y10.342 Z0.126
X22.824 Y10.317 Z0.18
X22.814 Y10.302 Z0.238
X22.81 Y10.297 Z0.3
Z5.
X21.212 Y60.687
Z2.55
S5000
G3 X18.823 Y60.916 Z2.452 I-1.275 J-0.728 F30.
X19.41 Y58.592 Z2.354 I1.112 J-0.955
X21.399 Y59.923 Z2.256 I0.526 J1.367
X19.479 Y61.349 Z2.158 I-1.462 J0.036
X18.783 Y59.064 Z2.06 I0.457 J-1.388
X21.165 Y59.175 Z1.962 I1.152 J0.895
X20.262 Y61.38 Z1.863 I-1.229 J0.784
X18.491 Y59.79 Z1.765 I-0.325 J-1.419
X20.581 Y58.657 Z1.667 I1.444 J0.17
X20.945 Y61.003 Z1.569 I-0.645 J1.302
X18.616 Y60.559 Z1.471 I-1.008 J-1.043
X19.815 Y58.517 Z1.373 I1.32 J-0.598
X21.334 Y60.33 Z1.275 I0.12 J1.442
X19.119 Y61.151 Z1.177 I-1.397 J-0.371
X19.09 Y58.791 Z1.079 I0.818 J-1.19
X21.32 Y59.556 Z0.981 I0.845 J1.168
X19.852 Y61.397 Z0.883 I-1.383 J0.403
X18.612 Y59.399 Z0.785 I0.084 J-1.436
X20.908 Y58.902 Z0.687 I1.323 J0.561
X20.605 Y61.229 Z0.588 I-0.972 J1.056
X18.518 Y60.163 Z0.49 I-0.668 J-1.269
X20.221 Y58.557 Z0.392 I1.418 J-0.203
X21.16 Y60.698 Z0.294 I-0.285 J1.402
X18.831 Y60.864 Z0.196 I-1.223 J-0.738
X19.456 Y58.617 Z0.098 I1.105 J-0.903
X21.36 Y59.959 Z0. I0.479 J1.342
X18.51 I-1.425 J0.
X21.36 I1.425 J0.
S9000
G1 X21.39 Y60.582 F1000.
X21.415 Y60.656
X21.443 Y60.804
X21.441 Y60.954
X21.413 Y61.101
X21.364 Y61.243
X21.297 Y61.377
X21.215 Y61.503
X21.12 Y61.618
X21.013 Y61.724
X20.896 Y61.818
X20.771 Y61.901
X20.64 Y61.973
X20.502 Y62.033
X20.36 Y62.082
X20.213 Y62.119
X20.06 Y62.145
X19.902 Y62.159
X19.741 Y62.16
X19.578 Y62.148
X19.414 Y62.123
X19.251 Y62.084
X19.09 Y62.032
X18.932 Y61.966
X18.779 Y61.888
X18.631 Y61.796
X18.491 Y61.692
X18.358 Y61.577
X18.234 Y61.451
X18.121 Y61.314
X18.018 Y61.168
X17.927 Y61.014
X17.848 Y60.853
X17.783 Y60.686
X17.73 Y60.513
X17.692 Y60.336
X17.669 Y60.157
X17.659 Y59.976
X17.664 Y59.794
X17.684 Y59.613
X17.718 Y59.435
X17.767 Y59.259
X17.829 Y59.088
X17.905 Y58.922
X17.995 Y58.763
X18.096 Y58.611
X18.21 Y58.468
X18.335 Y58.335
X18.47 Y58.211
X18.615 Y58.1
X18.768 Y58.
X18.929 Y57.912
X19.096 Y57.838
X19.269 Y57.777
X19.446 Y57.731
X19.626 Y57.699
X19.808 Y57.681
X19.992 Y57.678
X20.174 Y57.69
X20.356 Y57.717
X20.534 Y57.758
X20.709 Y57.813
X20.879 Y57.882
X21.042 Y57.964
X21.199 Y58.059
X21.347 Y58.167
X21.487 Y58.286
X21.616 Y58.416
X21.734 Y58.556
X21.841 Y58.704
X21.943 Y58.874
X22.06 Y59.109
X22.221 Y59.51
X22.311 Y59.8
X22.367 Y60.048
X22.398 Y60.272
X22.411 Y60.487
X22.407 Y60.698
X22.386 Y60.9
X22.351 Y61.094
X22.301 Y61.282
X22.235 Y61.466
X22.155 Y61.646
X22.059 Y61.82
X21.95 Y61.986
X21.826 Y62.144
X21.69 Y62.292
X21.539 Y62.431
X21.377 Y62.56
X21.201 Y62.676
X21.014 Y62.78
X20.816 Y62.869
X20.609 Y62.944
X20.393 Y63.002
X20.171 Y63.044
X19.943 Y63.068
X19.711 Y63.073
X19.477 Y63.06
X19.243 Y63.028
X19.009 Y62.977
X18.779 Y62.906
X18.554 Y62.817
X18.335 Y62.709
X18.124 Y62.583
X17.923 Y62.439
X17.733 Y62.279
X17.555 Y62.104
X17.391 Y61.914
X17.243 Y61.71
X17.11 Y61.495
X16.996 Y61.269
X16.899 Y61.033
X16.821 Y60.79
X16.763 Y60.541
X16.725 Y60.288
X16.708 Y60.032
X16.711 Y59.775
X16.735 Y59.519
X16.779 Y59.265
X16.844 Y59.015
X16.928 Y58.771
X17.032 Y58.534
X17.155 Y58.306
X17.296 Y58.089
X17.454 Y57.883
X17.627 Y57.691
X17.816 Y57.513
X18.019 Y57.351
X18.234 Y57.206
X18.46 Y57.078
X18.695 Y56.969
X18.939 Y56.879
X19.189 Y56.809
X19.444 Y56.759
X19.702 Y56.73
X19.962 Y56.721
X20.222 Y56.734
X20.48 Y56.767
X20.734 Y56.821
X20.983 Y56.895
X21.226 Y56.989
X21.46 Y57.102
X21.684 Y57.234
X21.897 Y57.383
X22.1 Y57.55
X22.299 Y57.744
X22.509 Y57.983
X22.703 Y58.246
X22.883 Y58.533
X23.039 Y58.834
X23.167 Y59.138
X23.267 Y59.442
X23.34 Y59.745
X23.387 Y60.045
X23.391 Y60.096
X23.393 Y60.145
X23.392 Y60.193
X23.387 Y60.241
X23.319 Y60.763
X23.308 Y60.834
X23.3 Y60.869
X23.288 Y60.904
X22.994 Y61.613
X22.964 Y61.683
X22.917 Y61.755
X22.428 Y62.393
X22.411 Y62.413
X22.39 Y62.433
X22.352 Y62.464
X21.714 Y62.953
X21.678 Y62.977
X21.643 Y62.995
X20.871 Y63.314
X20.831 Y63.327
X20.792 Y63.334
X20.083 Y63.427
X19.942 Y63.443
X19.8 Y63.428
X19.091 Y63.335
X19.047 Y63.327
X19.004 Y63.314
X18.241 Y62.998
X18.205 Y62.981
X18.17 Y62.96
X17.522 Y62.464
X17.485 Y62.433
X17.447 Y62.393
X16.957 Y61.755
X16.911 Y61.684
X16.88 Y61.613
X16.587 Y60.904
X16.574 Y60.869
X16.566 Y60.834
X16.539 Y60.637
X16.454 Y59.983
X16.453 Y59.948
X16.456 Y59.912
X16.55 Y59.204
X16.571 Y59.062
X16.626 Y58.92
X16.86 Y58.353
X16.923 Y58.211
X16.965 Y58.154
X17.39 Y57.6
X17.468 Y57.503
X17.532 Y57.447
X18.099 Y57.012
X18.208 Y56.936
X18.241 Y56.92
X18.949 Y56.626
X19.02 Y56.599
X19.091 Y56.583
X19.8 Y56.49
X19.942 Y56.475
X20.083 Y56.491
X20.792 Y56.585
X20.828 Y56.591
X20.863 Y56.601
X21.076 Y56.689
X21.643 Y56.924
X21.667 Y56.936
X21.696 Y56.952
X21.726 Y56.974
X22.352 Y57.454
X22.407 Y57.503
X22.493 Y57.611
X22.919 Y58.165
X22.951 Y58.211
X23.014 Y58.353
X23.249 Y58.92
X23.304 Y59.062
X23.325 Y59.204
X23.418 Y59.912
X23.421 Y59.948
Y59.983
X23.387 Y60.241
G3 X23.028 Y60.485 I-0.296 J-0.05
G1 X22.981 Y60.461 Z0.005
X22.935 Y60.438 Z0.019
X22.892 Y60.416 Z0.042
X22.865 Y60.376 Z0.079
X22.842 Y60.342 Z0.126
X22.824 Y60.317 Z0.18
X22.814 Y60.302 Z0.238
X22.81 Y60.297 Z0.3
Z5.
X21.212 Y110.687
Z2.55
S5000
G3 X18.824 Y110.916 Z2.452 I-1.275 J-0.728 F30.
X19.41 Y108.592 Z2.354 I1.112 J-0.955
X21.399 Y109.923 Z2.256 I0.526 J1.367
X19.48 Y111.348 Z2.158 I-1.462 J0.036
X18.783 Y109.064 Z2.06 I0.457 J-1.388
X21.166 Y109.175 Z1.962 I1.152 J0.895
X20.262 Y111.379 Z1.863 I-1.229 J0.784
X18.491 Y109.789 Z1.765 I-0.325 J-1.419
X20.581 Y108.657 Z1.667 I1.444 J0.17
X20.945 Y111.003 Z1.569 I-0.645 J1.302
X18.616 Y110.559 Z1.471 I-1.008 J-1.043
X19.815 Y108.516 Z1.373 I1.32 J-0.598
X21.334 Y110.33 Z1.275 I0.12 J1.442
X19.119 Y111.15 Z1.177 I-1.397 J-0.371
X19.09 Y108.79 Z1.079 I0.818 J-1.19
X21.32 Y109.555 Z0.981 I0.845 J1.168
X19.852 Y111.396 Z0.883 I-1.383 J0.403
X18.612 Y109.398 Z0.785 I0.084 J-1.436
X20.908 Y108.902 Z0.687 I1.323 J0.561
X20.605 Y111.228 Z0.588 I-0.972 J1.056
X18.518 Y110.162 Z0.49 I-0.668 J-1.269
X20.221 Y108.557 Z0.392 I1.418 J-0.203
X21.16 Y110.697 Z0.294 I-0.285 J1.402
X18.831 Y110.863 Z0.196 I-1.223 J-0.738
X19.457 Y108.616 Z0.098 I1.105 J-0.903
X21.36 Y109.959 Z0. I0.479 J1.342
X18.51 I-1.425 J0.
X21.36 I1.425 J0.
S9000
G1 X21.39 Y110.582 F1000.
X21.415 Y110.656
X21.444 Y110.803
X21.441 Y110.953
X21.413 Y111.101
X21.364 Y111.242
X21.297 Y111.377
X21.215 Y111.502
X21.12 Y111.618
X21.013 Y111.723
X20.896 Y111.817
X20.771 Y111.901
X20.64 Y111.972
X20.502 Y112.033
X20.36 Y112.081
X20.213 Y112.119
X20.06 Y112.145
X19.902 Y112.158
X19.741 Y112.16
X19.578 Y112.148
X19.415 Y112.122
X19.251 Y112.084
X19.09 Y112.031
X18.933 Y111.966
X18.779 Y111.887
X18.631 Y111.795
X18.491 Y111.692
X18.358 Y111.576
X18.234 Y111.45
X18.121 Y111.314
X18.018 Y111.168
X17.927 Y111.014
X17.848 Y110.853
X17.783 Y110.685
X17.731 Y110.512
X17.692 Y110.336
X17.669 Y110.156
X17.659 Y109.975
X17.664 Y109.794
X17.684 Y109.613
X17.718 Y109.434
X17.767 Y109.259
X17.829 Y109.087
X17.905 Y108.922
X17.995 Y108.762
X18.096 Y108.611
X18.21 Y108.468
X18.335 Y108.334
X18.47 Y108.211
X18.615 Y108.099
X18.768 Y107.999
X18.929 Y107.912
X19.096 Y107.837
X19.269 Y107.777
X19.446 Y107.73
X19.626 Y107.698
X19.809 Y107.681
X19.992 Y107.678
X20.174 Y107.69
X20.356 Y107.716
X20.534 Y107.757
X20.709 Y107.812
X20.879 Y107.881
X21.042 Y107.963
X21.199 Y108.059
X21.347 Y108.166
X21.487 Y108.285
X21.616 Y108.415
X21.734 Y108.555
X21.841 Y108.704
X21.943 Y108.874
X22.06 Y109.108
X22.221 Y109.509
X22.311 Y109.799
X22.367 Y110.047
X22.398 Y110.271
X22.411 Y110.487
X22.407 Y110.697
X22.387 Y110.9
X22.351 Y111.093
X22.301 Y111.281
X22.235 Y111.465
X22.155 Y111.645
X22.059 Y111.819
X21.95 Y111.985
X21.826 Y112.143
X21.69 Y112.292
X21.54 Y112.431
X21.377 Y112.559
X21.201 Y112.675
X21.014 Y112.779
X20.816 Y112.869
X20.609 Y112.943
X20.393 Y113.002
X20.171 Y113.043
X19.943 Y113.067
X19.711 Y113.073
X19.477 Y113.06
X19.243 Y113.027
X19.009 Y112.976
X18.779 Y112.905
X18.554 Y112.816
X18.335 Y112.708
X18.124 Y112.582
X17.923 Y112.439
X17.733 Y112.279
X17.555 Y112.103
X17.391 Y111.913
X17.243 Y111.71
X17.111 Y111.494
X16.996 Y111.268
X16.899 Y111.033
X16.821 Y110.79
X16.763 Y110.541
X16.726 Y110.288
X16.708 Y110.031
X16.711 Y109.774
X16.735 Y109.518
X16.779 Y109.264
X16.844 Y109.014
X16.928 Y108.77
X17.032 Y108.533
X17.155 Y108.305
X17.296 Y108.088
X17.454 Y107.883
X17.627 Y107.69
X17.816 Y107.513
X18.019 Y107.35
X18.234 Y107.205
X18.46 Y107.077
X18.695 Y106.968
X18.939 Y106.878
X19.189 Y106.808
X19.444 Y106.758
X19.703 Y106.729
X19.962 Y106.721
X20.222 Y106.733
X20.48 Y106.767
X20.734 Y106.821
X20.983 Y106.895
X21.226 Y106.989
X21.46 Y107.102
X21.684 Y107.233
X21.897 Y107.382
X22.1 Y107.55
X22.299 Y107.744
X22.509 Y107.983
X22.704 Y108.245
X22.883 Y108.533
X23.039 Y108.833
X23.167 Y109.137
X23.267 Y109.441
X23.34 Y109.744
X23.387 Y110.044
X23.391 Y110.095
X23.393 Y110.144
X23.392 Y110.192
X23.387 Y110.24
X23.314 Y110.8
X23.3 Y110.871
X23.272 Y110.942
X22.979 Y111.65
X22.953 Y111.702
X22.919 Y111.753
X22.454 Y112.359
X22.411 Y112.412
X22.381 Y112.441
X22.068 Y112.682
X21.75 Y112.926
X21.696 Y112.966
X21.643 Y112.995
X20.934 Y113.288
X20.863 Y113.317
X20.828 Y113.327
X20.792 Y113.334
X20.083 Y113.427
X19.942 Y113.443
X19.8 Y113.428
X19.091 Y113.335
X19.02 Y113.32
X18.949 Y113.292
X18.241 Y112.998
X18.212 Y112.985
X18.183 Y112.969
X18.099 Y112.906
X17.532 Y112.471
X17.466 Y112.415
X17.421 Y112.359
X16.965 Y111.764
X16.923 Y111.707
X16.896 Y111.65
X16.602 Y110.942
X16.575 Y110.871
X16.561 Y110.8
X16.468 Y110.091
X16.453 Y109.949
X16.47 Y109.808
X16.564 Y109.099
X16.571 Y109.063
X16.581 Y109.028
X16.904 Y108.248
X16.93 Y108.201
X16.965 Y108.154
X17.436 Y107.54
X17.484 Y107.486
X17.532 Y107.447
X18.15 Y106.973
X18.195 Y106.942
X18.241 Y106.92
X18.949 Y106.627
X19.02 Y106.599
X19.056 Y106.589
X19.091 Y106.584
X19.8 Y106.49
X19.942 Y106.475
X20.083 Y106.491
X20.792 Y106.585
X20.828 Y106.591
X20.863 Y106.602
X20.934 Y106.63
X21.643 Y106.924
X21.684 Y106.945
X21.724 Y106.973
X22.352 Y107.454
X22.395 Y107.49
X22.438 Y107.54
X22.919 Y108.165
X22.948 Y108.207
X22.971 Y108.248
X23.293 Y109.028
X23.304 Y109.063
X23.311 Y109.099
X23.404 Y109.808
X23.421 Y109.949
X23.407 Y110.091
X23.387 Y110.24
G3 X23.028 Y110.484 I-0.296 J-0.05
G1 X22.981 Y110.46 Z0.005
X22.935 Y110.437 Z0.019
X22.892 Y110.415 Z0.042
X22.865 Y110.375 Z0.079
X22.842 Y110.341 Z0.126
X22.825 Y110.316 Z0.18
X22.814 Y110.301 Z0.238
X22.81 Y110.296 Z0.3
Z5.
X21.192 Y170.647
Z2.55
S5000
G3 X18.804 Y170.875 Z2.452 I-1.275 J-0.728 F30.
X19.39 Y168.552 Z2.354 I1.112 J-0.955
X21.379 Y169.883 Z2.256 I0.526 J1.367
X19.46 Y171.308 Z2.158 I-1.462 J0.036
X18.763 Y169.024 Z2.06 I0.457 J-1.388
X21.146 Y169.134 Z1.962 I1.152 J0.895
X20.242 Y171.339 Z1.863 I-1.229 J0.784
X18.471 Y169.749 Z1.765 I-0.325 J-1.419
X20.561 Y168.616 Z1.667 I1.444 J0.17
X20.926 Y170.962 Z1.569 I-0.645 J1.302
X18.596 Y170.518 Z1.471 I-1.008 J-1.043
X19.795 Y168.476 Z1.373 I1.32 J-0.598
X21.315 Y170.289 Z1.275 I0.12 J1.442
X19.099 Y171.11 Z1.177 I-1.397 J-0.371
X19.07 Y168.75 Z1.079 I0.818 J-1.19
X21.3 Y169.515 Z0.981 I0.845 J1.168
X19.832 Y171.356 Z0.883 I-1.383 J0.403
X18.592 Y169.358 Z0.785 I0.084 J-1.436
X20.888 Y168.862 Z0.687 I1.323 J0.561
X20.585 Y171.188 Z0.588 I-0.972 J1.056
X18.498 Y170.122 Z0.49 I-0.668 J-1.269
X20.201 Y168.517 Z0.392 I1.418 J-0.203
X21.14 Y170.657 Z0.294 I-0.285 J1.402
X18.811 Y170.823 Z0.196 I-1.223 J-0.738
X19.437 Y168.576 Z0.098 I1.105 J-0.903
X21.341 Y169.918 Z0. I0.479 J1.342
X18.49 I-1.425 J0.
X21.341 I1.425 J0.
S9000
G1 X21.371 Y170.542 F1000.
X21.395 Y170.616
X21.424 Y170.763
X21.421 Y170.913
X21.393 Y171.06
X21.344 Y171.202
X21.278 Y171.336
X21.195 Y171.462
X21.1 Y171.577
X20.993 Y171.683
X20.876 Y171.777
X20.752 Y171.86
X20.62 Y171.932
X20.482 Y171.992
X20.341 Y172.041
X20.193 Y172.078
X20.04 Y172.104
X19.882 Y172.118
X19.721 Y172.119
X19.558 Y172.108
X19.395 Y172.082
X19.232 Y172.043
X19.071 Y171.991
X18.913 Y171.926
X18.759 Y171.847
X18.612 Y171.755
X18.471 Y171.651
X18.338 Y171.536
X18.214 Y171.41
X18.101 Y171.273
X17.998 Y171.128
X17.907 Y170.974
X17.828 Y170.812
X17.763 Y170.645
X17.711 Y170.472
X17.673 Y170.295
X17.649 Y170.116
X17.639 Y169.935
X17.645 Y169.753
X17.664 Y169.573
X17.699 Y169.394
X17.747 Y169.218
X17.81 Y169.047
X17.886 Y168.881
X17.975 Y168.722
X18.077 Y168.57
X18.19 Y168.427
X18.315 Y168.294
X18.45 Y168.171
X18.595 Y168.059
X18.748 Y167.959
X18.909 Y167.871
X19.076 Y167.797
X19.249 Y167.737
X19.426 Y167.69
X19.606 Y167.658
X19.789 Y167.64
X19.972 Y167.638
X20.155 Y167.649
X20.336 Y167.676
X20.515 Y167.717
X20.689 Y167.772
X20.859 Y167.841
X21.023 Y167.923
X21.179 Y168.018
X21.328 Y168.126
X21.467 Y168.245
X21.596 Y168.375
X21.715 Y168.515
X21.821 Y168.664
X21.924 Y168.833
X22.04 Y169.068
X22.201 Y169.469
X22.291 Y169.759
X22.347 Y170.007
X22.379 Y170.231
X22.392 Y170.447
X22.387 Y170.657
X22.367 Y170.859
X22.331 Y171.053
X22.281 Y171.241
X22.216 Y171.425
X22.135 Y171.605
X22.039 Y171.779
X21.93 Y171.945
X21.807 Y172.103
X21.67 Y172.252
X21.52 Y172.391
X21.357 Y172.519
X21.181 Y172.635
X20.994 Y172.739
X20.797 Y172.829
X20.589 Y172.903
X20.374 Y172.962
X20.151 Y173.003
X19.923 Y173.027
X19.691 Y173.033
X19.457 Y173.019
X19.223 Y172.987
X18.99 Y172.936
X18.76 Y172.865
X18.534 Y172.776
X18.315 Y172.668
X18.104 Y172.542
X17.903 Y172.399
X17.713 Y172.239
X17.535 Y172.063
X17.372 Y171.873
X17.223 Y171.67
X17.091 Y171.454
X16.976 Y171.228
X16.879 Y170.993
X16.802 Y170.75
X16.744 Y170.501
X16.706 Y170.247
X16.688 Y169.991
X16.691 Y169.734
X16.715 Y169.478
X16.759 Y169.224
X16.824 Y168.974
X16.909 Y168.73
X17.013 Y168.493
X17.135 Y168.265
X17.276 Y168.048
X17.434 Y167.842
X17.608 Y167.65
X17.797 Y167.472
X17.999 Y167.31
X18.214 Y167.165
X18.44 Y167.037
X18.676 Y166.928
X18.919 Y166.838
X19.169 Y166.768
X19.425 Y166.718
X19.683 Y166.689
X19.942 Y166.681
X20.202 Y166.693
X20.46 Y166.726
X20.714 Y166.78
X20.963 Y166.854
X21.206 Y166.948
X21.44 Y167.061
X21.664 Y167.193
X21.877 Y167.342
X22.08 Y167.51
X22.28 Y167.703
X22.489 Y167.943
X22.684 Y168.205
X22.864 Y168.493
X23.019 Y168.793
X23.147 Y169.097
X23.247 Y169.401
X23.32 Y169.704
X23.368 Y170.004
X23.371 Y170.055
X23.373 Y170.103
X23.372 Y170.152
X23.368 Y170.2
X23.294 Y170.759
X23.28 Y170.83
X23.253 Y170.901
X22.959 Y171.61
X22.942 Y171.648
X22.919 Y171.686
X22.434 Y172.319
X22.398 Y172.363
X22.352 Y172.408
X21.73 Y172.886
X21.643 Y172.945
X21.447 Y173.027
X20.863 Y173.27
X20.828 Y173.282
X20.792 Y173.29
X20.509 Y173.328
X20.083 Y173.384
X19.942 Y173.402
X19.906 Y173.403
X19.871 Y173.4
X19.091 Y173.298
X19.02 Y173.286
X18.949 Y173.26
X18.241 Y172.966
X18.173 Y172.935
X18.099 Y172.881
X17.532 Y172.446
X17.467 Y172.393
X17.43 Y172.356
X16.965 Y171.75
X16.912 Y171.68
X16.892 Y171.645
X16.876 Y171.61
X16.582 Y170.901
X16.555 Y170.83
X16.541 Y170.759
X16.448 Y170.051
X16.434 Y169.909
X16.45 Y169.767
X16.544 Y169.058
X16.55 Y169.023
X16.562 Y168.988
X16.767 Y168.491
X16.884 Y168.208
X16.9 Y168.178
X16.919 Y168.148
X17.416 Y167.499
X17.443 Y167.468
X17.474 Y167.436
X18.131 Y166.932
X18.158 Y166.912
X18.186 Y166.896
X18.241 Y166.872
X18.949 Y166.578
X19.02 Y166.552
X19.091 Y166.54
X19.871 Y166.438
X19.906 Y166.435
X19.942 Y166.436
X20.65 Y166.528
X20.792 Y166.548
X20.828 Y166.556
X20.863 Y166.568
X21.501 Y166.833
X21.643 Y166.893
X21.673 Y166.91
X21.704 Y166.932
X22.352 Y167.429
X22.389 Y167.464
X22.419 Y167.499
X22.854 Y168.066
X22.919 Y168.152
X22.937 Y168.18
X22.951 Y168.208
X23.244 Y168.917
X23.273 Y168.988
X23.284 Y169.023
X23.291 Y169.058
X23.384 Y169.767
X23.401 Y169.909
X23.387 Y170.051
X23.368 Y170.2
G3 X23.008 Y170.443 I-0.296 J-0.049
G1 X22.961 Y170.42 Z0.005
X22.915 Y170.396 Z0.019
X22.873 Y170.375 Z0.042
X22.845 Y170.334 Z0.079
X22.822 Y170.301 Z0.126
X22.805 Y170.276 Z0.18
X22.794 Y170.261 Z0.238
X22.791 Y170.255 Z0.3
Z5.
X21.193 Y220.647
Z2.55
S5000
G3 X18.804 Y220.875 Z2.452 I-1.275 J-0.728 F30.
X19.39 Y218.552 Z2.354 I1.112 J-0.955
X21.38 Y219.883 Z2.256 I0.526 J1.367
X19.46 Y221.308 Z2.158 I-1.462 J0.036
X18.763 Y219.024 Z2.06 I0.457 J-1.388
X21.146 Y219.134 Z1.962 I1.152 J0.895
X20.243 Y221.339 Z1.863 I-1.229 J0.784
X18.472 Y219.749 Z1.765 I-0.325 J-1.419
X20.561 Y218.616 Z1.667 I1.444 J0.17
X20.926 Y220.962 Z1.569 I-0.645 J1.302
X18.597 Y220.518 Z1.471 I-1.008 J-1.043
X19.796 Y218.476 Z1.373 I1.32 J-0.598
X21.315 Y220.289 Z1.275 I0.12 J1.442
X19.099 Y221.11 Z1.177 I-1.397 J-0.371
X19.07 Y218.75 Z1.079 I0.818 J-1.19
X21.3 Y219.515 Z0.981 I0.845 J1.168
X19.833 Y221.356 Z0.883 I-1.383 J0.403
X18.593 Y219.358 Z0.785 I0.084 J-1.436
X20.889 Y218.862 Z0.687 I1.323 J0.561
X20.586 Y221.188 Z0.588 I-0.972 J1.056
X18.499 Y220.122 Z0.49 I-0.668 J-1.269
X20.201 Y218.517 Z0.392 I1.418 J-0.203
X21.141 Y220.657 Z0.294 I-0.285 J1.402
X18.812 Y220.823 Z0.196 I-1.223 J-0.738
X19.437 Y218.576 Z0.098 I1.105 J-0.903
X21.341 Y219.918 Z0. I0.479 J1.342
X18.491 I-1.425 J0.
X21.341 I1.425 J0.
S9000
G1 X21.371 Y220.542 F1000.
X21.396 Y220.616
X21.424 Y220.763
X21.422 Y220.913
X21.394 Y221.06
X21.345 Y221.202
X21.278 Y221.336
X21.196 Y221.462
X21.1 Y221.577
X20.994 Y221.683
X20.877 Y221.777
X20.752 Y221.86
X20.62 Y221.932
X20.483 Y221.992
X20.341 Y222.041
X20.194 Y222.078
X20.04 Y222.104
X19.883 Y222.118
X19.722 Y222.119
X19.559 Y222.108
X19.395 Y222.082
X19.232 Y222.043
X19.071 Y221.991
X18.913 Y221.926
X18.76 Y221.847
X18.612 Y221.755
X18.471 Y221.651
X18.339 Y221.536
X18.215 Y221.41
X18.101 Y221.273
X17.999 Y221.128
X17.908 Y220.974
X17.829 Y220.812
X17.763 Y220.645
X17.711 Y220.472
X17.673 Y220.295
X17.649 Y220.116
X17.64 Y219.935
X17.645 Y219.753
X17.665 Y219.573
X17.699 Y219.394
X17.748 Y219.218
X17.81 Y219.047
X17.886 Y218.881
X17.975 Y218.722
X18.077 Y218.57
X18.191 Y218.427
X18.316 Y218.294
X18.451 Y218.171
X18.596 Y218.059
X18.749 Y217.959
X18.91 Y217.871
X19.077 Y217.797
X19.25 Y217.737
X19.427 Y217.69
X19.607 Y217.658
X19.789 Y217.64
X19.972 Y217.637
X20.155 Y217.649
X20.336 Y217.676
X20.515 Y217.717
X20.69 Y217.772
X20.86 Y217.841
X21.023 Y217.923
X21.18 Y218.018
X21.328 Y218.126
X21.467 Y218.245
X21.597 Y218.375
X21.715 Y218.515
X21.822 Y218.664
X21.924 Y218.833
X22.041 Y219.068
X22.202 Y219.469
X22.292 Y219.759
X22.347 Y220.007
X22.379 Y220.231
X22.392 Y220.447
X22.388 Y220.657
X22.367 Y220.859
X22.332 Y221.053
X22.282 Y221.241
X22.216 Y221.425
X22.135 Y221.605
X22.04 Y221.779
X21.93 Y221.945
X21.807 Y222.103
X21.67 Y222.252
X21.52 Y222.391
X21.357 Y222.519
X21.182 Y222.635
X20.995 Y222.739
X20.797 Y222.829
X20.59 Y222.903
X20.374 Y222.962
X20.152 Y223.003
X19.924 Y223.027
X19.692 Y223.033
X19.458 Y223.019
X19.223 Y222.987
X18.99 Y222.936
X18.76 Y222.865
X18.535 Y222.776
X18.316 Y222.668
X18.105 Y222.542
X17.904 Y222.399
X17.713 Y222.239
X17.536 Y222.063
X17.372 Y221.873
X17.224 Y221.67
X17.091 Y221.454
X16.977 Y221.228
X16.88 Y220.993
X16.802 Y220.75
X16.744 Y220.501
X16.706 Y220.247
X16.689 Y219.991
X16.692 Y219.734
X16.716 Y219.478
X16.76 Y219.224
X16.825 Y218.974
X16.909 Y218.73
X17.013 Y218.493
X17.136 Y218.265
X17.277 Y218.048
X17.434 Y217.842
X17.608 Y217.65
X17.797 Y217.472
X18. Y217.31
X18.215 Y217.165
X18.441 Y217.037
X18.676 Y216.928
X18.92 Y216.838
X19.17 Y216.768
X19.425 Y216.718
X19.683 Y216.689
X19.943 Y216.681
X20.203 Y216.693
X20.46 Y216.726
X20.715 Y216.78
X20.964 Y216.854
X21.206 Y216.948
X21.441 Y217.061
X21.665 Y217.193
X21.878 Y217.342
X22.081 Y217.51
X22.28 Y217.703
X22.49 Y217.943
X22.684 Y218.205
X22.864 Y218.493
X23.02 Y218.793
X23.148 Y219.097
X23.247 Y219.401
X23.321 Y219.704
X23.368 Y220.004
X23.372 Y220.052
X23.374 Y220.101
X23.373 Y220.149
X23.368 Y220.197
X23.308 Y220.655
X23.288 Y220.796
X23.279 Y220.832
X23.267 Y220.867
X23.002 Y221.505
X22.942 Y221.647
X22.919 Y221.686
X22.493 Y222.241
X22.404 Y222.356
X22.352 Y222.408
X21.681 Y222.923
X21.643 Y222.945
X21.501 Y223.005
X20.863 Y223.27
X20.828 Y223.282
X20.792 Y223.29
X20.509 Y223.328
X19.942 Y223.402
X19.906 Y223.403
X19.871 Y223.4
X19.091 Y223.298
X19.02 Y223.286
X18.949 Y223.26
X18.241 Y222.966
X18.198 Y222.948
X18.154 Y222.923
X18.099 Y222.881
X17.481 Y222.407
X17.43 Y222.356
X16.965 Y221.75
X16.893 Y221.647
X16.823 Y221.482
X16.568 Y220.867
X16.555 Y220.832
X16.547 Y220.796
X16.539 Y220.748
X16.434 Y219.946
X16.433 Y219.911
X16.436 Y219.875
X16.539 Y219.09
X16.551 Y219.022
X16.575 Y218.954
X16.869 Y218.245
X16.901 Y218.174
X16.965 Y218.088
X17.39 Y217.533
X17.445 Y217.464
X17.532 Y217.391
X18.099 Y216.957
X18.17 Y216.905
X18.241 Y216.872
X18.949 Y216.578
X19.007 Y216.556
X19.064 Y216.544
X19.871 Y216.438
X19.906 Y216.435
X19.942 Y216.436
X20.771 Y216.544
X20.792 Y216.548
X20.828 Y216.556
X20.863 Y216.568
X21.501 Y216.833
X21.643 Y216.893
X21.67 Y216.908
X21.698 Y216.927
X22.352 Y217.429
X22.379 Y217.454
X22.406 Y217.483
X22.919 Y218.151
X22.934 Y218.175
X22.946 Y218.198
X23.025 Y218.387
X23.26 Y218.954
X23.285 Y219.025
X23.296 Y219.096
X23.399 Y219.875
X23.401 Y219.911
Y219.946
X23.368 Y220.197
G3 X23.009 Y220.441 I-0.296 J-0.05
G1 X22.961 Y220.417 Z0.005
X22.916 Y220.394 Z0.019
X22.873 Y220.372 Z0.042
X22.845 Y220.332 Z0.079
X22.822 Y220.298 Z0.126
X22.805 Y220.273 Z0.18
X22.795 Y220.258 Z0.238
X22.791 Y220.253 Z0.3
Z5.
X21.192 Y270.646
Z2.55
S5000
G3 X18.804 Y270.875 Z2.452 I-1.275 J-0.728 F30.
X19.39 Y268.551 Z2.354 I1.112 J-0.955
X21.38 Y269.882 Z2.256 I0.526 J1.367
X19.46 Y271.307 Z2.158 I-1.462 J0.036
X18.763 Y269.023 Z2.06 I0.457 J-1.388
X21.146 Y269.134 Z1.962 I1.152 J0.895
X20.242 Y271.339 Z1.863 I-1.229 J0.784
X18.471 Y269.749 Z1.765 I-0.325 J-1.419
X20.561 Y268.616 Z1.667 I1.444 J0.17
X20.926 Y270.962 Z1.569 I-0.645 J1.302
X18.596 Y270.518 Z1.471 I-1.008 J-1.043
X19.796 Y268.476 Z1.373 I1.32 J-0.598
X21.315 Y270.289 Z1.275 I0.12 J1.442
X19.099 Y271.11 Z1.177 I-1.397 J-0.371
X19.07 Y268.75 Z1.079 I0.818 J-1.19
X21.3 Y269.514 Z0.981 I0.845 J1.168
X19.833 Y271.356 Z0.883 I-1.383 J0.403
X18.593 Y269.358 Z0.785 I0.084 J-1.436
X20.889 Y268.861 Z0.687 I1.323 J0.561
X20.585 Y271.188 Z0.588 I-0.972 J1.056
X18.498 Y270.122 Z0.49 I-0.668 J-1.269
X20.201 Y268.516 Z0.392 I1.418 J-0.203
X21.141 Y270.657 Z0.294 I-0.285 J1.402
X18.811 Y270.822 Z0.196 I-1.223 J-0.738
X19.437 Y268.576 Z0.098 I1.105 J-0.903
X21.341 Y269.918 Z0. I0.479 J1.342
X18.491 I-1.425 J0.
X21.341 I1.425 J0.
S9000
G1 X21.371 Y270.541 F1000.
X21.396 Y270.615
X21.424 Y270.763
X21.421 Y270.913
X21.394 Y271.06
X21.345 Y271.202
X21.278 Y271.336
X21.196 Y271.461
X21.1 Y271.577
X20.993 Y271.682
X20.877 Y271.777
X20.752 Y271.86
X20.62 Y271.932
X20.483 Y271.992
X20.341 Y272.04
X20.193 Y272.078
X20.04 Y272.104
X19.882 Y272.118
X19.722 Y272.119
X19.559 Y272.107
X19.395 Y272.082
X19.232 Y272.043
X19.071 Y271.991
X18.913 Y271.925
X18.76 Y271.846
X18.612 Y271.755
X18.471 Y271.651
X18.338 Y271.536
X18.215 Y271.409
X18.101 Y271.273
X17.998 Y271.127
X17.907 Y270.973
X17.829 Y270.812
X17.763 Y270.644
X17.711 Y270.472
X17.673 Y270.295
X17.649 Y270.116
X17.64 Y269.935
X17.645 Y269.753
X17.665 Y269.572
X17.699 Y269.394
X17.747 Y269.218
X17.81 Y269.047
X17.886 Y268.881
X17.975 Y268.722
X18.077 Y268.57
X18.191 Y268.427
X18.315 Y268.293
X18.451 Y268.17
X18.595 Y268.058
X18.748 Y267.958
X18.909 Y267.871
X19.077 Y267.797
X19.249 Y267.736
X19.426 Y267.69
X19.607 Y267.658
X19.789 Y267.64
X19.972 Y267.637
X20.155 Y267.649
X20.336 Y267.675
X20.515 Y267.716
X20.689 Y267.771
X20.859 Y267.84
X21.023 Y267.923
X21.179 Y268.018
X21.328 Y268.126
X21.467 Y268.245
X21.596 Y268.375
X21.715 Y268.514
X21.822 Y268.663
X21.924 Y268.833
X22.041 Y269.068
X22.202 Y269.469
X22.292 Y269.759
X22.347 Y270.006
X22.379 Y270.231
X22.392 Y270.446
X22.387 Y270.657
X22.367 Y270.859
X22.332 Y271.053
X22.281 Y271.24
X22.216 Y271.425
X22.135 Y271.605
X22.04 Y271.778
X21.93 Y271.945
X21.807 Y272.102
X21.67 Y272.251
X21.52 Y272.39
X21.357 Y272.518
X21.182 Y272.635
X20.995 Y272.739
X20.797 Y272.828
X20.59 Y272.903
X20.374 Y272.961
X20.151 Y273.003
X19.923 Y273.027
X19.692 Y273.032
X19.458 Y273.019
X19.223 Y272.987
X18.99 Y272.935
X18.76 Y272.865
X18.534 Y272.775
X18.316 Y272.668
X18.105 Y272.542
X17.903 Y272.398
X17.713 Y272.238
X17.535 Y272.063
X17.372 Y271.873
X17.223 Y271.669
X17.091 Y271.454
X16.976 Y271.228
X16.88 Y270.992
X16.802 Y270.749
X16.744 Y270.5
X16.706 Y270.247
X16.688 Y269.991
X16.692 Y269.734
X16.715 Y269.477
X16.76 Y269.223
X16.824 Y268.974
X16.909 Y268.729
X17.013 Y268.493
X17.136 Y268.265
X17.276 Y268.047
X17.434 Y267.842
X17.608 Y267.65
X17.797 Y267.472
X17.999 Y267.31
X18.214 Y267.164
X18.44 Y267.037
X18.676 Y266.928
X18.92 Y266.838
X19.17 Y266.768
X19.425 Y266.718
X19.683 Y266.689
X19.943 Y266.68
X20.202 Y266.693
X20.46 Y266.726
X20.714 Y266.78
X20.964 Y266.854
X21.206 Y266.948
X21.44 Y267.061
X21.665 Y267.193
X21.878 Y267.342
X22.08 Y267.509
X22.28 Y267.703
X22.489 Y267.942
X22.684 Y268.204
X22.864 Y268.492
X23.02 Y268.793
X23.147 Y269.096
X23.247 Y269.401
X23.32 Y269.703
X23.368 Y270.003
X23.372 Y270.054
X23.374 Y270.102
X23.372 Y270.15
X23.368 Y270.198
X23.303 Y270.692
X23.279 Y270.834
X23.202 Y271.023
X22.958 Y271.613
X22.942 Y271.649
X22.919 Y271.686
X22.485 Y272.251
X22.37 Y272.393
X22.352 Y272.408
X21.714 Y272.898
X21.678 Y272.924
X21.643 Y272.945
X21.61 Y272.96
X20.859 Y273.271
X20.826 Y273.283
X20.792 Y273.29
X20.509 Y273.328
X19.942 Y273.402
X19.906 Y273.403
X19.871 Y273.4
X19.091 Y273.298
X19.02 Y273.286
X18.949 Y273.26
X18.225 Y272.96
X18.193 Y272.946
X18.162 Y272.928
X18.099 Y272.881
X17.532 Y272.446
X17.465 Y272.393
X17.39 Y272.304
X16.915 Y271.684
X16.893 Y271.649
X16.877 Y271.613
X16.613 Y270.975
X16.556 Y270.834
X16.539 Y270.748
X16.439 Y269.983
X16.433 Y269.912
X16.441 Y269.841
X16.539 Y269.09
X16.547 Y269.041
X16.56 Y268.991
X16.883 Y268.211
X16.901 Y268.176
X16.925 Y268.14
X17.429 Y267.482
X17.48 Y267.432
X18.099 Y266.957
X18.17 Y266.905
X18.241 Y266.872
X18.949 Y266.578
X19.02 Y266.552
X19.091 Y266.54
X19.86 Y266.439
X19.901 Y266.435
X19.942
X20.65 Y266.528
X20.792 Y266.548
X20.843 Y266.561
X21.501 Y266.833
X21.578 Y266.865
X21.643 Y266.893
X21.678 Y266.914
X21.714 Y266.94
X22.352 Y267.429
X22.392 Y267.467
X22.421 Y267.503
X22.91 Y268.14
X22.919 Y268.152
X22.939 Y268.185
X22.955 Y268.217
X23.275 Y268.991
X23.285 Y269.026
X23.292 Y269.062
X23.394 Y269.841
X23.402 Y269.912
X23.396 Y269.983
X23.368 Y270.198
G3 X23.008 Y270.442 I-0.296 J-0.049
G1 X22.961 Y270.418 Z0.005
X22.916 Y270.395 Z0.019
X22.873 Y270.374 Z0.042
X22.845 Y270.333 Z0.079
X22.822 Y270.3 Z0.126
X22.805 Y270.275 Z0.18
X22.794 Y270.259 Z0.238
X22.791 Y270.254 Z0.3
Z5.
X88.713 Y10.687
Z2.55
S5000
G3 X86.325 Y10.916 Z2.452 I-1.275 J-0.728 F30.
X86.911 Y8.592 Z2.354 I1.112 J-0.955
X88.9 Y9.923 Z2.256 I0.526 J1.367
X86.981 Y11.348 Z2.158 I-1.462 J0.036
X86.284 Y9.064 Z2.06 I0.457 J-1.388
X88.667 Y9.175 Z1.962 I1.152 J0.895
X87.763 Y11.379 Z1.863 I-1.229 J0.784
X85.992 Y9.789 Z1.765 I-0.325 J-1.419
X88.082 Y8.657 Z1.667 I1.444 J0.17
X88.446 Y11.003 Z1.569 I-0.645 J1.302
X86.117 Y10.559 Z1.471 I-1.008 J-1.043
X87.316 Y8.516 Z1.373 I1.32 J-0.598
X88.835 Y10.33 Z1.275 I0.12 J1.442
X86.62 Y11.151 Z1.177 I-1.397 J-0.371
X86.591 Y8.791 Z1.079 I0.818 J-1.19
X88.821 Y9.555 Z0.981 I0.845 J1.168
X87.353 Y11.396 Z0.883 I-1.383 J0.403
X86.113 Y9.398 Z0.785 I0.084 J-1.436
X88.409 Y8.902 Z0.687 I1.323 J0.561
X88.106 Y11.228 Z0.588 I-0.972 J1.056
X86.019 Y10.163 Z0.49 I-0.668 J-1.269
X87.722 Y8.557 Z0.392 I1.418 J-0.203
X88.661 Y10.698 Z0.294 I-0.285 J1.402
X86.332 Y10.863 Z0.196 I-1.223 J-0.738
X86.958 Y8.616 Z0.098 I1.105 J-0.903
X88.861 Y9.959 Z0. I0.479 J1.342
X86.011 I-1.425 J0.
X88.861 I1.425 J0.
S9000
G1 X88.891 Y10.582 F1000.
X88.916 Y10.656
X88.945 Y10.803
X88.942 Y10.953
X88.914 Y11.101
X88.865 Y11.242
X88.798 Y11.377
X88.716 Y11.502
X88.621 Y11.618
X88.514 Y11.723
X88.397 Y11.817
X88.272 Y11.901
X88.141 Y11.972
X88.003 Y12.033
X87.861 Y12.081
X87.714 Y12.119
X87.561 Y12.145
X87.403 Y12.158
X87.242 Y12.16
X87.079 Y12.148
X86.916 Y12.123
X86.752 Y12.084
X86.591 Y12.031
X86.434 Y11.966
X86.28 Y11.887
X86.132 Y11.795
X85.992 Y11.692
X85.859 Y11.576
X85.735 Y11.45
X85.622 Y11.314
X85.519 Y11.168
X85.428 Y11.014
X85.349 Y10.853
X85.284 Y10.685
X85.232 Y10.512
X85.193 Y10.336
X85.17 Y10.156
X85.16 Y9.975
X85.165 Y9.794
X85.185 Y9.613
X85.219 Y9.434
X85.268 Y9.259
X85.33 Y9.087
X85.406 Y8.922
X85.496 Y8.762
X85.597 Y8.611
X85.711 Y8.468
X85.836 Y8.334
X85.971 Y8.211
X86.116 Y8.099
X86.269 Y7.999
X86.43 Y7.912
X86.597 Y7.837
X86.77 Y7.777
X86.947 Y7.73
X87.127 Y7.698
X87.31 Y7.681
X87.493 Y7.678
X87.675 Y7.69
X87.857 Y7.716
X88.035 Y7.757
X88.21 Y7.812
X88.38 Y7.881
X88.543 Y7.963
X88.7 Y8.059
X88.848 Y8.166
X88.988 Y8.285
X89.117 Y8.415
X89.235 Y8.555
X89.342 Y8.704
X89.444 Y8.874
X89.561 Y9.108
X89.722 Y9.509
X89.812 Y9.799
X89.868 Y10.047
X89.899 Y10.271
X89.912 Y10.487
X89.908 Y10.697
X89.888 Y10.9
X89.852 Y11.093
X89.802 Y11.281
X89.736 Y11.465
X89.656 Y11.645
X89.56 Y11.819
X89.451 Y11.985
X89.327 Y12.143
X89.191 Y12.292
X89.041 Y12.431
X88.878 Y12.559
X88.702 Y12.675
X88.515 Y12.779
X88.317 Y12.869
X88.11 Y12.943
X87.894 Y13.002
X87.672 Y13.044
X87.444 Y13.067
X87.212 Y13.073
X86.978 Y13.06
X86.744 Y13.027
X86.51 Y12.976
X86.28 Y12.906
X86.055 Y12.816
X85.836 Y12.708
X85.625 Y12.582
X85.424 Y12.439
X85.234 Y12.279
X85.056 Y12.103
X84.892 Y11.913
X84.744 Y11.71
X84.612 Y11.494
X84.497 Y11.268
X84.4 Y11.033
X84.322 Y10.79
X84.264 Y10.541
X84.227 Y10.288
X84.209 Y10.031
X84.212 Y9.774
X84.236 Y9.518
X84.28 Y9.264
X84.345 Y9.014
X84.429 Y8.77
X84.533 Y8.533
X84.656 Y8.305
X84.797 Y8.088
X84.955 Y7.883
X85.128 Y7.69
X85.317 Y7.513
X85.52 Y7.35
X85.735 Y7.205
X85.961 Y7.077
X86.196 Y6.968
X86.44 Y6.878
X86.69 Y6.808
X86.945 Y6.758
X87.204 Y6.729
X87.463 Y6.721
X87.723 Y6.733
X87.981 Y6.767
X88.235 Y6.821
X88.484 Y6.895
X88.727 Y6.989
X88.961 Y7.102
X89.185 Y7.233
X89.398 Y7.382
X89.601 Y7.55
X89.8 Y7.744
X90.01 Y7.983
X90.205 Y8.245
X90.384 Y8.533
X90.54 Y8.833
X90.668 Y9.137
X90.768 Y9.441
X90.841 Y9.744
X90.888 Y10.044
X90.892 Y10.091
X90.894 Y10.139
X90.893 Y10.187
X90.888 Y10.236
X90.821 Y10.741
X90.8 Y10.867
X90.744 Y11.009
X90.51 Y11.576
X90.444 Y11.718
X90.396 Y11.782
X89.971 Y12.336
X89.896 Y12.427
X89.829 Y12.482
X89.262 Y12.917
X89.204 Y12.961
X89.145 Y12.994
X88.411 Y13.298
X88.341 Y13.323
X88.27 Y13.337
X87.49 Y13.439
X87.455 Y13.443
X87.419 Y13.442
X87.229 Y13.419
X86.569 Y13.332
X86.533 Y13.324
X86.498 Y13.312
X85.718 Y12.989
X85.683 Y12.969
X85.647 Y12.943
X85.009 Y12.454
X84.978 Y12.427
X84.864 Y12.285
X84.442 Y11.735
X84.43 Y11.718
X84.41 Y11.682
X84.394 Y11.647
X84.13 Y11.009
X84.074 Y10.867
X84.051 Y10.726
X83.958 Y10.017
X83.954 Y9.946
X83.961 Y9.875
X84.064 Y9.096
X84.071 Y9.06
X84.083 Y9.025
X84.404 Y8.25
X84.421 Y8.217
X84.442 Y8.183
X84.939 Y7.536
X84.969 Y7.501
X85.009 Y7.464
X85.647 Y6.975
X85.683 Y6.949
X85.718 Y6.93
X85.86 Y6.871
X86.477 Y6.615
X86.523 Y6.598
X86.569 Y6.587
X87.277 Y6.493
X87.419 Y6.476
X87.455
X87.49 Y6.479
X88.27 Y6.582
X88.334 Y6.593
X88.398 Y6.615
X89.12 Y6.914
X89.191 Y6.949
X89.262 Y7.002
X89.866 Y7.465
X89.896 Y7.492
X89.926 Y7.524
X90.425 Y8.174
X90.45 Y8.21
X90.469 Y8.245
X90.792 Y9.025
X90.803 Y9.06
X90.811 Y9.096
X90.913 Y9.875
X90.921 Y9.946
X90.917 Y10.017
X90.888 Y10.236
G3 X90.529 Y10.479 I-0.296 J-0.05
G1 X90.481 Y10.455 Z0.005
X90.436 Y10.432 Z0.019
X90.393 Y10.411 Z0.042
X90.365 Y10.37 Z0.079
X90.342 Y10.337 Z0.126
X90.325 Y10.312 Z0.18
X90.315 Y10.296 Z0.238
X90.311 Y10.291 Z0.3
Z5.
X88.712 Y60.687
Z2.55
S5000
G3 X86.324 Y60.916 Z2.452 I-1.275 J-0.728 F30.
X86.91 Y58.592 Z2.354 I1.112 J-0.955
X88.899 Y59.923 Z2.256 I0.526 J1.367
X86.98 Y61.348 Z2.158 I-1.462 J0.036
X86.283 Y59.064 Z2.06 I0.457 J-1.388
X88.666 Y59.175 Z1.962 I1.152 J0.895
X87.762 Y61.379 Z1.863 I-1.229 J0.784
X85.991 Y59.789 Z1.765 I-0.325 J-1.419
X88.081 Y58.657 Z1.667 I1.444 J0.17
X88.445 Y61.003 Z1.569 I-0.645 J1.302
X86.116 Y60.559 Z1.471 I-1.008 J-1.043
X87.315 Y58.516 Z1.373 I1.32 J-0.598
X88.834 Y60.33 Z1.275 I0.12 J1.442
X86.619 Y61.151 Z1.177 I-1.397 J-0.371
X86.59 Y58.791 Z1.079 I0.818 J-1.19
X88.82 Y59.555 Z0.981 I0.845 J1.168
X87.352 Y61.396 Z0.883 I-1.383 J0.403
X86.112 Y59.398 Z0.785 I0.084 J-1.436
X88.408 Y58.902 Z0.687 I1.323 J0.561
X88.105 Y61.228 Z0.588 I-0.972 J1.056
X86.018 Y60.163 Z0.49 I-0.668 J-1.269
X87.721 Y58.557 Z0.392 I1.418 J-0.203
X88.66 Y60.698 Z0.294 I-0.285 J1.402
X86.331 Y60.863 Z0.196 I-1.223 J-0.738
X86.957 Y58.616 Z0.098 I1.105 J-0.903
X88.86 Y59.959 Z0. I0.479 J1.342
X86.01 I-1.425 J0.
X88.86 I1.425 J0.
S9000
G1 X88.89 Y60.582 F1000.
X88.915 Y60.656
X88.944 Y60.803
X88.941 Y60.953
X88.913 Y61.101
X88.864 Y61.242
X88.797 Y61.377
X88.715 Y61.502
X88.62 Y61.618
X88.513 Y61.723
X88.396 Y61.817
X88.271 Y61.901
X88.14 Y61.972
X88.002 Y62.033
X87.86 Y62.081
X87.713 Y62.119
X87.56 Y62.145
X87.402 Y62.158
X87.241 Y62.16
X87.078 Y62.148
X86.915 Y62.123
X86.752 Y62.084
X86.59 Y62.031
X86.433 Y61.966
X86.279 Y61.887
X86.132 Y61.795
X85.991 Y61.692
X85.858 Y61.576
X85.734 Y61.45
X85.621 Y61.314
X85.518 Y61.168
X85.427 Y61.014
X85.348 Y60.853
X85.283 Y60.685
X85.231 Y60.512
X85.192 Y60.336
X85.169 Y60.156
X85.159 Y59.975
X85.164 Y59.794
X85.184 Y59.613
X85.218 Y59.434
X85.267 Y59.259
X85.329 Y59.087
X85.406 Y58.922
X85.495 Y58.762
X85.596 Y58.611
X85.71 Y58.468
X85.835 Y58.334
X85.97 Y58.211
X86.115 Y58.099
X86.268 Y57.999
X86.429 Y57.912
X86.596 Y57.837
X86.769 Y57.777
X86.946 Y57.73
X87.126 Y57.698
X87.309 Y57.681
X87.492 Y57.678
X87.674 Y57.69
X87.856 Y57.716
X88.034 Y57.757
X88.209 Y57.812
X88.379 Y57.881
X88.542 Y57.963
X88.699 Y58.059
X88.847 Y58.166
X88.987 Y58.285
X89.116 Y58.415
X89.234 Y58.555
X89.341 Y58.704
X89.443 Y58.874
X89.56 Y59.108
X89.721 Y59.509
X89.811 Y59.799
X89.867 Y60.047
X89.898 Y60.271
X89.911 Y60.487
X89.907 Y60.697
X89.887 Y60.9
X89.851 Y61.093
X89.801 Y61.281
X89.735 Y61.465
X89.655 Y61.645
X89.559 Y61.819
X89.45 Y61.985
X89.326 Y62.143
X89.19 Y62.292
X89.04 Y62.431
X88.877 Y62.559
X88.701 Y62.675
X88.514 Y62.779
X88.316 Y62.869
X88.109 Y62.943
X87.893 Y63.002
X87.671 Y63.043
X87.443 Y63.067
X87.211 Y63.073
X86.977 Y63.06
X86.743 Y63.027
X86.509 Y62.976
X86.279 Y62.906
X86.054 Y62.816
X85.835 Y62.708
X85.624 Y62.582
X85.423 Y62.439
X85.233 Y62.279
X85.055 Y62.103
X84.891 Y61.913
X84.743 Y61.71
X84.611 Y61.494
X84.496 Y61.268
X84.399 Y61.033
X84.321 Y60.79
X84.263 Y60.541
X84.226 Y60.288
X84.208 Y60.031
X84.211 Y59.774
X84.235 Y59.518
X84.279 Y59.264
X84.344 Y59.014
X84.428 Y58.77
X84.532 Y58.533
X84.655 Y58.305
X84.796 Y58.088
X84.954 Y57.883
X85.128 Y57.69
X85.316 Y57.513
X85.519 Y57.35
X85.734 Y57.205
X85.96 Y57.077
X86.196 Y56.968
X86.439 Y56.878
X86.689 Y56.808
X86.944 Y56.758
X87.203 Y56.729
X87.462 Y56.721
X87.722 Y56.733
X87.98 Y56.767
X88.234 Y56.821
X88.483 Y56.895
X88.726 Y56.989
X88.96 Y57.102
X89.184 Y57.233
X89.397 Y57.382
X89.6 Y57.55
X89.799 Y57.744
X90.009 Y57.983
X90.204 Y58.245
X90.383 Y58.533
X90.539 Y58.833
X90.667 Y59.137
X90.767 Y59.441
X90.84 Y59.744
X90.887 Y60.044
X90.891 Y60.095
X90.893 Y60.144
X90.892 Y60.192
X90.887 Y60.24
X90.819 Y60.763
X90.808 Y60.834
X90.8 Y60.869
X90.788 Y60.904
X90.494 Y61.613
X90.463 Y61.684
X90.417 Y61.755
X89.971 Y62.336
X89.921 Y62.4
X89.887 Y62.436
X89.829 Y62.482
X89.262 Y62.917
X89.191 Y62.969
X89.12 Y63.004
X88.371 Y63.314
X88.32 Y63.329
X88.27 Y63.337
X87.49 Y63.439
X87.455 Y63.443
X87.419 Y63.442
X87.277 Y63.425
X86.569 Y63.332
X86.536 Y63.325
X86.504 Y63.314
X85.818 Y63.031
X85.718 Y62.989
X85.683 Y62.969
X85.647 Y62.943
X85.009 Y62.454
X84.976 Y62.424
X84.943 Y62.388
X84.442 Y61.735
X84.422 Y61.705
X84.406 Y61.674
X84.3 Y61.421
X84.087 Y60.904
X84.074 Y60.869
X84.066 Y60.834
X84.056 Y60.763
X83.954 Y59.983
X83.953 Y59.948
X83.956 Y59.912
X84.05 Y59.204
X84.071 Y59.062
X84.126 Y58.92
X84.36 Y58.353
X84.424 Y58.211
X84.442 Y58.184
X84.868 Y57.629
X84.967 Y57.503
X85.009 Y57.465
X85.576 Y57.029
X85.707 Y56.936
X85.718 Y56.93
X86.498 Y56.607
X86.533 Y56.594
X86.569 Y56.587
X87.277 Y56.493
X87.419 Y56.476
X87.561 Y56.488
X88.27 Y56.582
X88.341 Y56.595
X88.411 Y56.621
X89.12 Y56.914
X89.167 Y56.936
X89.262 Y57.002
X89.829 Y57.437
X89.907 Y57.503
X89.971 Y57.582
X90.396 Y58.136
X90.451 Y58.211
X90.514 Y58.353
X90.749 Y58.92
X90.804 Y59.062
X90.825 Y59.204
X90.918 Y59.912
X90.921 Y59.948
Y59.983
X90.887 Y60.24
G3 X90.528 Y60.484 I-0.296 J-0.05
G1 X90.481 Y60.46 Z0.005
X90.435 Y60.437 Z0.019
X90.392 Y60.415 Z0.042
X90.365 Y60.375 Z0.079
X90.342 Y60.341 Z0.126
X90.325 Y60.316 Z0.18
X90.314 Y60.301 Z0.238
X90.31 Y60.296 Z0.3
Z5.
X88.712 Y110.686
Z2.55
S5000
G3 X86.324 Y110.915 Z2.452 I-1.275 J-0.728 F30.
X86.91 Y108.591 Z2.354 I1.112 J-0.955
X88.9 Y109.922 Z2.256 I0.526 J1.367
X86.98 Y111.348 Z2.158 I-1.462 J0.036
X86.283 Y109.063 Z2.06 I0.457 J-1.388
X88.666 Y109.174 Z1.962 I1.152 J0.895
X87.762 Y111.379 Z1.863 I-1.229 J0.784
X85.991 Y109.789 Z1.765 I-0.325 J-1.419
X88.081 Y108.656 Z1.667 I1.444 J0.17
X88.446 Y111.002 Z1.569 I-0.645 J1.302
X86.116 Y110.558 Z1.471 I-1.008 J-1.043
X87.315 Y108.516 Z1.373 I1.32 J-0.598
X88.835 Y110.329 Z1.275 I0.12 J1.442
X86.619 Y111.15 Z1.177 I-1.397 J-0.371
X86.59 Y108.79 Z1.079 I0.818 J-1.19
X88.82 Y109.555 Z0.981 I0.845 J1.168
X87.353 Y111.396 Z0.883 I-1.383 J0.403
X86.112 Y109.398 Z0.785 I0.084 J-1.436
X88.408 Y108.902 Z0.687 I1.323 J0.561
X88.105 Y111.228 Z0.588 I-0.972 J1.056
X86.018 Y110.162 Z0.49 I-0.668 J-1.269
X87.721 Y108.556 Z0.392 I1.418 J-0.203
X88.66 Y110.697 Z0.294 I-0.285 J1.402
X86.331 Y110.863 Z0.196 I-1.223 J-0.738
X86.957 Y108.616 Z0.098 I1.105 J-0.903
X88.861 Y109.958 Z0. I0.479 J1.342
X86.01 I-1.425 J0.
X88.861 I1.425 J0.
S9000
G1 X88.891 Y110.582 F1000.
X88.915 Y110.656
X88.944 Y110.803
X88.941 Y110.953
X88.913 Y111.1
X88.864 Y111.242
X88.798 Y111.376
X88.715 Y111.502
X88.62 Y111.617
X88.513 Y111.723
X88.396 Y111.817
X88.272 Y111.9
X88.14 Y111.972
X88.003 Y112.032
X87.861 Y112.081
X87.713 Y112.118
X87.56 Y112.144
X87.402 Y112.158
X87.241 Y112.159
X87.078 Y112.147
X86.915 Y112.122
X86.752 Y112.083
X86.591 Y112.031
X86.433 Y111.965
X86.279 Y111.887
X86.132 Y111.795
X85.991 Y111.691
X85.858 Y111.576
X85.735 Y111.45
X85.621 Y111.313
X85.518 Y111.167
X85.427 Y111.013
X85.349 Y110.852
X85.283 Y110.685
X85.231 Y110.512
X85.193 Y110.335
X85.169 Y110.156
X85.159 Y109.975
X85.165 Y109.793
X85.184 Y109.613
X85.219 Y109.434
X85.267 Y109.258
X85.33 Y109.087
X85.406 Y108.921
X85.495 Y108.762
X85.597 Y108.61
X85.71 Y108.467
X85.835 Y108.334
X85.97 Y108.211
X86.115 Y108.099
X86.268 Y107.999
X86.429 Y107.911
X86.596 Y107.837
X86.769 Y107.776
X86.946 Y107.73
X87.126 Y107.698
X87.309 Y107.68
X87.492 Y107.677
X87.675 Y107.689
X87.856 Y107.716
X88.035 Y107.757
X88.209 Y107.812
X88.379 Y107.881
X88.543 Y107.963
X88.699 Y108.058
X88.848 Y108.166
X88.987 Y108.285
X89.116 Y108.415
X89.235 Y108.555
X89.342 Y108.704
X89.444 Y108.873
X89.561 Y109.108
X89.721 Y109.509
X89.811 Y109.799
X89.867 Y110.047
X89.899 Y110.271
X89.912 Y110.486
X89.907 Y110.697
X89.887 Y110.899
X89.851 Y111.093
X89.801 Y111.281
X89.736 Y111.465
X89.655 Y111.645
X89.559 Y111.819
X89.45 Y111.985
X89.327 Y112.143
X89.19 Y112.291
X89.04 Y112.43
X88.877 Y112.559
X88.702 Y112.675
X88.514 Y112.779
X88.317 Y112.868
X88.109 Y112.943
X87.894 Y113.002
X87.671 Y113.043
X87.443 Y113.067
X87.211 Y113.073
X86.977 Y113.059
X86.743 Y113.027
X86.51 Y112.976
X86.28 Y112.905
X86.054 Y112.816
X85.835 Y112.708
X85.624 Y112.582
X85.423 Y112.438
X85.233 Y112.278
X85.055 Y112.103
X84.892 Y111.913
X84.743 Y111.709
X84.611 Y111.494
X84.496 Y111.268
X84.399 Y111.033
X84.322 Y110.79
X84.264 Y110.541
X84.226 Y110.287
X84.208 Y110.031
X84.211 Y109.774
X84.235 Y109.518
X84.279 Y109.264
X84.344 Y109.014
X84.429 Y108.77
X84.533 Y108.533
X84.655 Y108.305
X84.796 Y108.088
X84.954 Y107.882
X85.128 Y107.69
X85.317 Y107.512
X85.519 Y107.35
X85.734 Y107.205
X85.96 Y107.077
X86.196 Y106.968
X86.439 Y106.878
X86.69 Y106.808
X86.945 Y106.758
X87.203 Y106.729
X87.463 Y106.72
X87.722 Y106.733
X87.98 Y106.766
X88.234 Y106.82
X88.484 Y106.894
X88.726 Y106.988
X88.96 Y107.101
X89.184 Y107.233
X89.398 Y107.382
X89.6 Y107.549
X89.8 Y107.743
X90.009 Y107.983
X90.204 Y108.245
X90.384 Y108.532
X90.539 Y108.833
X90.667 Y109.137
X90.767 Y109.441
X90.84 Y109.744
X90.886 Y110.032
X90.893 Y110.099
X90.894 Y110.166
X90.888 Y110.233
X90.814 Y110.8
X90.8 Y110.871
X90.772 Y110.942
X90.479 Y111.65
X90.445 Y111.716
X90.389 Y111.792
X89.954 Y112.359
X89.891 Y112.431
X89.829 Y112.482
X89.25 Y112.926
X89.185 Y112.973
X89.12 Y113.004
X88.411 Y113.298
X88.341 Y113.324
X88.27 Y113.337
X87.49 Y113.439
X87.455 Y113.443
X87.419 Y113.442
X87.277 Y113.425
X86.569 Y113.332
X86.533 Y113.323
X86.498 Y113.312
X85.718 Y112.988
X85.672 Y112.961
X85.576 Y112.889
X85.009 Y112.454
X84.959 Y112.407
X84.921 Y112.359
X84.442 Y111.734
X84.416 Y111.692
X84.396 Y111.65
X84.102 Y110.942
X84.075 Y110.871
X84.061 Y110.8
X83.968 Y110.091
X83.953 Y109.949
X83.97 Y109.808
X84.064 Y109.099
X84.071 Y109.063
X84.081 Y109.028
X84.404 Y108.248
X84.421 Y108.216
X84.442 Y108.183
X84.936 Y107.54
X84.968 Y107.502
X85.009 Y107.465
X85.65 Y106.973
X85.684 Y106.949
X85.718 Y106.93
X86.427 Y106.636
X86.498 Y106.607
X86.533 Y106.595
X86.569 Y106.587
X87.277 Y106.493
X87.419 Y106.476
X87.455
X87.49 Y106.479
X88.27 Y106.582
X88.341 Y106.595
X88.411 Y106.621
X89.12 Y106.914
X89.172 Y106.938
X89.224 Y106.973
X89.829 Y107.437
X89.884 Y107.481
X89.914 Y107.51
X89.938 Y107.54
X90.439 Y108.192
X90.456 Y108.22
X90.47 Y108.248
X90.793 Y109.028
X90.804 Y109.063
X90.811 Y109.099
X90.904 Y109.808
X90.921 Y109.949
X90.907 Y110.091
X90.888 Y110.233
G3 X90.529 Y110.476 I-0.296 J-0.05
G1 X90.482 Y110.452 Z0.005
X90.436 Y110.429 Z0.019
X90.393 Y110.408 Z0.042
X90.366 Y110.367 Z0.079
X90.343 Y110.334 Z0.126
X90.326 Y110.309 Z0.18
X90.315 Y110.293 Z0.238
X90.311 Y110.288 Z0.3
Z5.
X88.692 Y170.647
Z2.55
S5000
G3 X86.304 Y170.875 Z2.452 I-1.275 J-0.728 F30.
X86.89 Y168.552 Z2.354 I1.112 J-0.955
X88.88 Y169.883 Z2.256 I0.526 J1.367
X86.96 Y171.308 Z2.158 I-1.462 J0.036
X86.263 Y169.024 Z2.06 I0.457 J-1.388
X88.646 Y169.134 Z1.962 I1.152 J0.895
X87.742 Y171.339 Z1.863 I-1.229 J0.784
X85.971 Y169.749 Z1.765 I-0.325 J-1.419
X88.061 Y168.617 Z1.667 I1.444 J0.17
X88.426 Y170.963 Z1.569 I-0.645 J1.302
X86.096 Y170.519 Z1.471 I-1.008 J-1.043
X87.296 Y168.476 Z1.373 I1.32 J-0.598
X88.815 Y170.289 Z1.275 I0.12 J1.442
X86.599 Y171.11 Z1.177 I-1.397 J-0.371
X86.57 Y168.75 Z1.079 I0.818 J-1.19
X88.8 Y169.515 Z0.981 I0.845 J1.168
X87.333 Y171.356 Z0.883 I-1.383 J0.403
X86.093 Y169.358 Z0.785 I0.084 J-1.436
X88.389 Y168.862 Z0.687 I1.323 J0.561
X88.085 Y171.188 Z0.588 I-0.972 J1.056
X85.998 Y170.122 Z0.49 I-0.668 J-1.269
X87.701 Y168.517 Z0.392 I1.418 J-0.203
X88.641 Y170.657 Z0.294 I-0.285 J1.402
X86.311 Y170.823 Z0.196 I-1.223 J-0.738
X86.937 Y168.576 Z0.098 I1.105 J-0.903
X88.841 Y169.919 Z0. I0.479 J1.342
X85.991 I-1.425 J0.
X88.841 I1.425 J0.
S9000
G1 X88.871 Y170.542 F1000.
X88.895 Y170.616
X88.924 Y170.763
X88.921 Y170.913
X88.894 Y171.06
X88.845 Y171.202
X88.778 Y171.336
X88.696 Y171.462
X88.6 Y171.578
X88.493 Y171.683
X88.377 Y171.777
X88.252 Y171.86
X88.12 Y171.932
X87.983 Y171.992
X87.841 Y172.041
X87.693 Y172.078
X87.54 Y172.104
X87.382 Y172.118
X87.222 Y172.12
X87.059 Y172.108
X86.895 Y172.082
X86.732 Y172.044
X86.571 Y171.991
X86.413 Y171.926
X86.26 Y171.847
X86.112 Y171.755
X85.971 Y171.652
X85.838 Y171.536
X85.715 Y171.41
X85.601 Y171.273
X85.498 Y171.128
X85.407 Y170.974
X85.329 Y170.812
X85.263 Y170.645
X85.211 Y170.472
X85.173 Y170.296
X85.149 Y170.116
X85.14 Y169.935
X85.145 Y169.753
X85.165 Y169.573
X85.199 Y169.394
X85.247 Y169.218
X85.31 Y169.047
X85.386 Y168.881
X85.475 Y168.722
X85.577 Y168.57
X85.691 Y168.427
X85.815 Y168.294
X85.95 Y168.171
X86.095 Y168.059
X86.248 Y167.959
X86.409 Y167.871
X86.576 Y167.797
X86.749 Y167.737
X86.926 Y167.69
X87.107 Y167.658
X87.289 Y167.641
X87.472 Y167.638
X87.655 Y167.649
X87.836 Y167.676
X88.015 Y167.717
X88.189 Y167.772
X88.359 Y167.841
X88.523 Y167.923
X88.679 Y168.019
X88.828 Y168.126
X88.967 Y168.245
X89.096 Y168.375
X89.215 Y168.515
X89.322 Y168.664
X89.424 Y168.833
X89.541 Y169.068
X89.702 Y169.469
X89.791 Y169.759
X89.847 Y170.007
X89.879 Y170.231
X89.892 Y170.447
X89.887 Y170.657
X89.867 Y170.86
X89.832 Y171.053
X89.781 Y171.241
X89.716 Y171.425
X89.635 Y171.605
X89.54 Y171.779
X89.43 Y171.945
X89.307 Y172.103
X89.17 Y172.252
X89.02 Y172.391
X88.857 Y172.519
X88.682 Y172.635
X88.495 Y172.739
X88.297 Y172.829
X88.089 Y172.903
X87.874 Y172.962
X87.651 Y173.003
X87.423 Y173.027
X87.192 Y173.033
X86.958 Y173.02
X86.723 Y172.987
X86.49 Y172.936
X86.26 Y172.865
X86.034 Y172.776
X85.815 Y172.668
X85.605 Y172.542
X85.403 Y172.399
X85.213 Y172.239
X85.035 Y172.063
X84.872 Y171.873
X84.723 Y171.67
X84.591 Y171.454
X84.476 Y171.228
X84.38 Y170.993
X84.302 Y170.75
X84.244 Y170.501
X84.206 Y170.247
X84.188 Y169.991
X84.192 Y169.734
X84.215 Y169.478
X84.26 Y169.224
X84.324 Y168.974
X84.409 Y168.73
X84.513 Y168.493
X84.636 Y168.265
X84.776 Y168.048
X84.934 Y167.842
X85.108 Y167.65
X85.297 Y167.472
X85.499 Y167.31
X85.714 Y167.165
X85.94 Y167.037
X86.176 Y166.928
X86.42 Y166.838
X86.67 Y166.768
X86.925 Y166.718
X87.183 Y166.689
X87.443 Y166.681
X87.702 Y166.693
X87.96 Y166.727
X88.214 Y166.78
X88.464 Y166.855
X88.706 Y166.948
X88.94 Y167.062
X89.165 Y167.193
X89.378 Y167.342
X89.58 Y167.51
X89.78 Y167.704
X89.989 Y167.943
X90.184 Y168.205
X90.364 Y168.493
X90.519 Y168.793
X90.647 Y169.097
X90.747 Y169.401
X90.82 Y169.704
X90.868 Y170.004
X90.872 Y170.054
X90.874 Y170.102
X90.872 Y170.151
X90.868 Y170.199
X90.794 Y170.759
X90.78 Y170.83
X90.753 Y170.901
X90.459 Y171.61
X90.433 Y171.663
X90.396 Y171.716
X89.934 Y172.319
X89.89 Y172.372
X89.859 Y172.402
X89.23 Y172.886
X89.175 Y172.927
X89.12 Y172.956
X88.411 Y173.25
X88.341 Y173.278
X88.305 Y173.288
X88.27 Y173.294
X87.561 Y173.387
X87.419 Y173.403
X87.277 Y173.388
X86.569 Y173.295
X86.498 Y173.279
X86.427 Y173.251
X85.718 Y172.957
X85.69 Y172.944
X85.661 Y172.928
X85.576 Y172.864
X84.978 Y172.404
X84.946 Y172.374
X84.901 Y172.319
X84.442 Y171.721
X84.403 Y171.665
X84.376 Y171.61
X84.082 Y170.901
X84.055 Y170.83
X84.041 Y170.759
X83.948 Y170.051
X83.934 Y169.909
X83.95 Y169.767
X84.044 Y169.058
X84.05 Y169.023
X84.062 Y168.988
X84.3 Y168.41
X84.384 Y168.208
X84.41 Y168.163
X84.442 Y168.117
X84.916 Y167.499
X84.963 Y167.448
X85.009 Y167.409
X85.631 Y166.932
X85.674 Y166.903
X85.718 Y166.881
X86.427 Y166.587
X86.498 Y166.559
X86.569 Y166.543
X87.277 Y166.45
X87.419 Y166.435
X87.561 Y166.451
X88.27 Y166.544
X88.305 Y166.55
X88.341 Y166.56
X88.411 Y166.588
X89.12 Y166.882
X89.162 Y166.903
X89.204 Y166.932
X89.829 Y167.411
X89.874 Y167.448
X89.919 Y167.499
X90.396 Y168.122
X90.427 Y168.165
X90.451 Y168.208
X90.744 Y168.917
X90.773 Y168.988
X90.784 Y169.023
X90.791 Y169.058
X90.884 Y169.767
X90.901 Y169.909
X90.887 Y170.051
X90.868 Y170.199
G3 X90.508 Y170.443 I-0.296 J-0.049
G1 X90.461 Y170.419 Z0.005
X90.416 Y170.395 Z0.019
X90.373 Y170.374 Z0.042
X90.345 Y170.333 Z0.079
X90.322 Y170.3 Z0.126
X90.305 Y170.275 Z0.18
X90.294 Y170.26 Z0.238
X90.291 Y170.254 Z0.3
Z5.
X88.693 Y220.646
Z2.55
S5000
G3 X86.304 Y220.875 Z2.452 I-1.275 J-0.728 F30.
X86.89 Y218.551 Z2.354 I1.112 J-0.955
X88.88 Y219.882 Z2.256 I0.526 J1.367
X86.96 Y221.307 Z2.158 I-1.462 J0.036
X86.263 Y219.023 Z2.06 I0.457 J-1.388
X88.646 Y219.134 Z1.962 I1.152 J0.895
X87.742 Y221.338 Z1.863 I-1.229 J0.784
X85.972 Y219.748 Z1.765 I-0.325 J-1.419
X88.061 Y218.616 Z1.667 I1.444 J0.17
X88.426 Y220.962 Z1.569 I-0.645 J1.302
X86.096 Y220.518 Z1.471 I-1.008 J-1.043
X87.296 Y218.475 Z1.373 I1.32 J-0.598
X88.815 Y220.289 Z1.275 I0.12 J1.442
X86.599 Y221.11 Z1.177 I-1.397 J-0.371
X86.57 Y218.75 Z1.079 I0.818 J-1.19
X88.8 Y219.514 Z0.981 I0.845 J1.168
X87.333 Y221.356 Z0.883 I-1.383 J0.403
X86.093 Y219.357 Z0.785 I0.084 J-1.436
X88.389 Y218.861 Z0.687 I1.323 J0.561
X88.085 Y221.187 Z0.588 I-0.972 J1.056
X85.998 Y220.122 Z0.49 I-0.668 J-1.269
X87.701 Y218.516 Z0.392 I1.418 J-0.203
X88.641 Y220.657 Z0.294 I-0.285 J1.402
X86.311 Y220.822 Z0.196 I-1.223 J-0.738
X86.937 Y218.575 Z0.098 I1.105 J-0.903
X88.841 Y219.918 Z0. I0.479 J1.342
X85.991 I-1.425 J0.
X88.841 I1.425 J0.
S9000
G1 X88.871 Y220.541 F1000.
X88.896 Y220.615
X88.924 Y220.762
X88.921 Y220.912
X88.894 Y221.06
X88.845 Y221.201
X88.778 Y221.336
X88.696 Y221.461
X88.6 Y221.577
X88.493 Y221.682
X88.377 Y221.776
X88.252 Y221.86
X88.12 Y221.931
X87.983 Y221.992
X87.841 Y222.04
X87.693 Y222.078
X87.54 Y222.104
X87.383 Y222.118
X87.222 Y222.119
X87.059 Y222.107
X86.895 Y222.082
X86.732 Y222.043
X86.571 Y221.99
X86.413 Y221.925
X86.26 Y221.846
X86.112 Y221.755
X85.971 Y221.651
X85.838 Y221.535
X85.715 Y221.409
X85.601 Y221.273
X85.498 Y221.127
X85.407 Y220.973
X85.329 Y220.812
X85.263 Y220.644
X85.211 Y220.471
X85.173 Y220.295
X85.149 Y220.115
X85.14 Y219.934
X85.145 Y219.753
X85.165 Y219.572
X85.199 Y219.393
X85.247 Y219.218
X85.31 Y219.046
X85.386 Y218.881
X85.475 Y218.721
X85.577 Y218.57
X85.691 Y218.427
X85.815 Y218.293
X85.951 Y218.17
X86.095 Y218.058
X86.248 Y217.958
X86.409 Y217.871
X86.577 Y217.796
X86.749 Y217.736
X86.926 Y217.689
X87.107 Y217.657
X87.289 Y217.64
X87.472 Y217.637
X87.655 Y217.649
X87.836 Y217.675
X88.015 Y217.716
X88.19 Y217.771
X88.359 Y217.84
X88.523 Y217.923
X88.68 Y218.018
X88.828 Y218.125
X88.967 Y218.244
X89.096 Y218.374
X89.215 Y218.514
X89.322 Y218.663
X89.424 Y218.833
X89.541 Y219.067
X89.702 Y219.468
X89.792 Y219.758
X89.847 Y220.006
X89.879 Y220.23
X89.892 Y220.446
X89.888 Y220.656
X89.867 Y220.859
X89.832 Y221.053
X89.781 Y221.24
X89.716 Y221.424
X89.635 Y221.604
X89.54 Y221.778
X89.43 Y221.944
X89.307 Y222.102
X89.17 Y222.251
X89.02 Y222.39
X88.857 Y222.518
X88.682 Y222.635
X88.495 Y222.738
X88.297 Y222.828
X88.09 Y222.902
X87.874 Y222.961
X87.651 Y223.003
X87.423 Y223.026
X87.192 Y223.032
X86.958 Y223.019
X86.723 Y222.986
X86.49 Y222.935
X86.26 Y222.865
X86.035 Y222.775
X85.816 Y222.667
X85.605 Y222.541
X85.403 Y222.398
X85.213 Y222.238
X85.036 Y222.062
X84.872 Y221.872
X84.723 Y221.669
X84.591 Y221.453
X84.476 Y221.227
X84.38 Y220.992
X84.302 Y220.749
X84.244 Y220.5
X84.206 Y220.247
X84.189 Y219.991
X84.192 Y219.733
X84.215 Y219.477
X84.26 Y219.223
X84.324 Y218.973
X84.409 Y218.729
X84.513 Y218.492
X84.636 Y218.265
X84.776 Y218.047
X84.934 Y217.842
X85.108 Y217.649
X85.297 Y217.472
X85.499 Y217.31
X85.714 Y217.164
X85.94 Y217.036
X86.176 Y216.927
X86.42 Y216.837
X86.67 Y216.767
X86.925 Y216.717
X87.183 Y216.688
X87.443 Y216.68
X87.702 Y216.692
X87.96 Y216.726
X88.215 Y216.78
X88.464 Y216.854
X88.706 Y216.948
X88.94 Y217.061
X89.165 Y217.192
X89.378 Y217.341
X89.58 Y217.509
X89.78 Y217.703
X89.989 Y217.942
X90.184 Y218.204
X90.364 Y218.492
X90.52 Y218.792
X90.647 Y219.096
X90.747 Y219.4
X90.82 Y219.703
X90.868 Y220.003
X90.872 Y220.053
X90.874 Y220.102
X90.872 Y220.15
X90.868 Y220.198
X90.808 Y220.655
X90.788 Y220.796
X90.779 Y220.832
X90.767 Y220.867
X90.502 Y221.505
X90.442 Y221.647
X90.396 Y221.716
X89.904 Y222.356
X89.867 Y222.396
X89.829 Y222.426
X89.181 Y222.923
X89.151 Y222.941
X89.12 Y222.956
X88.411 Y223.25
X88.341 Y223.278
X88.305 Y223.288
X88.27 Y223.294
X87.561 Y223.387
X87.419 Y223.403
X87.277 Y223.388
X86.569 Y223.295
X86.498 Y223.279
X86.427 Y223.251
X85.718 Y222.957
X85.687 Y222.942
X85.656 Y222.923
X85.576 Y222.864
X85.009 Y222.428
X84.97 Y222.397
X84.93 Y222.356
X84.415 Y221.684
X84.392 Y221.647
X84.274 Y221.363
X84.068 Y220.867
X84.055 Y220.832
X84.047 Y220.796
X84.017 Y220.577
X83.934 Y219.946
X83.933 Y219.911
X83.936 Y219.875
X84.039 Y219.096
X84.05 Y219.025
X84.075 Y218.954
X84.369 Y218.245
X84.398 Y218.181
X84.442 Y218.117
X84.888 Y217.536
X84.937 Y217.473
X84.973 Y217.437
X85.028 Y217.395
X85.65 Y216.918
X85.684 Y216.897
X85.718 Y216.881
X86.427 Y216.587
X86.495 Y216.56
X86.529 Y216.55
X86.569 Y216.543
X87.277 Y216.45
X87.419 Y216.435
X87.561 Y216.451
X88.271 Y216.544
X88.306 Y216.55
X88.341 Y216.56
X88.411 Y216.588
X89.12 Y216.882
X89.153 Y216.898
X89.186 Y216.919
X89.437 Y217.111
X89.829 Y217.411
X89.863 Y217.439
X89.898 Y217.474
X89.971 Y217.567
X90.396 Y218.122
X90.439 Y218.183
X90.466 Y218.245
X90.76 Y218.954
X90.785 Y219.025
X90.796 Y219.096
X90.899 Y219.875
X90.901 Y219.911
Y219.946
X90.868 Y220.198
G3 X90.508 Y220.442 I-0.296 J-0.049
G1 X90.461 Y220.418 Z0.005
X90.416 Y220.395 Z0.019
X90.373 Y220.373 Z0.042
X90.345 Y220.333 Z0.079
X90.322 Y220.299 Z0.126
X90.305 Y220.274 Z0.18
X90.294 Y220.259 Z0.238
X90.291 Y220.254 Z0.3
Z5.
X88.692 Y270.646
Z2.55
S5000
G3 X86.304 Y270.875 Z2.452 I-1.275 J-0.728 F30.
X86.89 Y268.551 Z2.354 I1.112 J-0.955
X88.879 Y269.882 Z2.256 I0.526 J1.367
X86.96 Y271.308 Z2.158 I-1.462 J0.036
X86.263 Y269.023 Z2.06 I0.457 J-1.388
X88.646 Y269.134 Z1.962 I1.152 J0.895
X87.742 Y271.339 Z1.863 I-1.229 J0.784
X85.971 Y269.749 Z1.765 I-0.325 J-1.419
X88.061 Y268.616 Z1.667 I1.444 J0.17
X88.426 Y270.962 Z1.569 I-0.645 J1.302
X86.096 Y270.518 Z1.471 I-1.008 J-1.043
X87.295 Y268.476 Z1.373 I1.32 J-0.599
X88.815 Y270.289 Z1.275 I0.12 J1.442
X86.599 Y271.11 Z1.177 I-1.397 J-0.371
X86.57 Y268.75 Z1.079 I0.818 J-1.19
X88.8 Y269.515 Z0.981 I0.845 J1.168
X87.332 Y271.356 Z0.883 I-1.383 J0.403
X86.092 Y269.358 Z0.785 I0.084 J-1.436
X88.388 Y268.862 Z0.687 I1.323 J0.561
X88.085 Y271.188 Z0.588 I-0.972 J1.056
X85.998 Y270.122 Z0.49 I-0.668 J-1.269
X87.701 Y268.516 Z0.392 I1.418 J-0.203
X88.64 Y270.657 Z0.294 I-0.285 J1.402
X86.311 Y270.823 Z0.196 I-1.223 J-0.738
X86.937 Y268.576 Z0.098 I1.105 J-0.903
X88.841 Y269.918 Z0. I0.479 J1.342
X85.99 I-1.425 J0.
X88.841 I1.425 J0.
S9000
G1 X88.871 Y270.542 F1000.
X88.895 Y270.616
X88.924 Y270.763
X88.921 Y270.913
X88.893 Y271.06
X88.844 Y271.202
X88.778 Y271.336
X88.695 Y271.462
X88.6 Y271.577
X88.493 Y271.683
X88.376 Y271.777
X88.252 Y271.86
X88.12 Y271.932
X87.983 Y271.992
X87.841 Y272.041
X87.693 Y272.078
X87.54 Y272.104
X87.382 Y272.118
X87.221 Y272.119
X87.058 Y272.107
X86.895 Y272.082
X86.732 Y272.043
X86.571 Y271.991
X86.413 Y271.925
X86.259 Y271.847
X86.112 Y271.755
X85.971 Y271.651
X85.838 Y271.536
X85.715 Y271.41
X85.601 Y271.273
X85.498 Y271.128
X85.407 Y270.974
X85.328 Y270.812
X85.263 Y270.645
X85.211 Y270.472
X85.173 Y270.295
X85.149 Y270.116
X85.139 Y269.935
X85.145 Y269.753
X85.164 Y269.573
X85.199 Y269.394
X85.247 Y269.218
X85.31 Y269.047
X85.386 Y268.881
X85.475 Y268.722
X85.577 Y268.57
X85.69 Y268.427
X85.815 Y268.294
X85.95 Y268.171
X86.095 Y268.059
X86.248 Y267.959
X86.409 Y267.871
X86.576 Y267.797
X86.749 Y267.737
X86.926 Y267.69
X87.106 Y267.658
X87.289 Y267.64
X87.472 Y267.637
X87.655 Y267.649
X87.836 Y267.676
X88.015 Y267.717
X88.189 Y267.772
X88.359 Y267.841
X88.523 Y267.923
X88.679 Y268.018
X88.828 Y268.126
X88.967 Y268.245
X89.096 Y268.375
X89.215 Y268.515
X89.321 Y268.664
X89.424 Y268.833
X89.541 Y269.068
X89.701 Y269.469
X89.791 Y269.759
X89.847 Y270.007
X89.879 Y270.231
X89.892 Y270.446
X89.887 Y270.657
X89.867 Y270.859
X89.831 Y271.053
X89.781 Y271.241
X89.716 Y271.425
X89.635 Y271.605
X89.539 Y271.779
X89.43 Y271.945
X89.307 Y272.103
X89.17 Y272.251
X89.02 Y272.39
X88.857 Y272.519
X88.681 Y272.635
X88.494 Y272.739
X88.297 Y272.828
X88.089 Y272.903
X87.874 Y272.962
X87.651 Y273.003
X87.423 Y273.027
X87.191 Y273.033
X86.957 Y273.019
X86.723 Y272.987
X86.49 Y272.936
X86.26 Y272.865
X86.034 Y272.776
X85.815 Y272.668
X85.604 Y272.542
X85.403 Y272.398
X85.213 Y272.239
X85.035 Y272.063
X84.872 Y271.873
X84.723 Y271.67
X84.591 Y271.454
X84.476 Y271.228
X84.379 Y270.993
X84.302 Y270.75
X84.244 Y270.501
X84.206 Y270.247
X84.188 Y269.991
X84.191 Y269.734
X84.215 Y269.478
X84.259 Y269.224
X84.324 Y268.974
X84.409 Y268.73
X84.513 Y268.493
X84.635 Y268.265
X84.776 Y268.048
X84.934 Y267.842
X85.108 Y267.65
X85.297 Y267.472
X85.499 Y267.31
X85.714 Y267.165
X85.94 Y267.037
X86.176 Y266.928
X86.419 Y266.838
X86.67 Y266.768
X86.925 Y266.718
X87.183 Y266.689
X87.443 Y266.681
X87.702 Y266.693
X87.96 Y266.726
X88.214 Y266.78
X88.463 Y266.854
X88.706 Y266.948
X88.94 Y267.061
X89.164 Y267.193
X89.378 Y267.342
X89.58 Y267.51
X89.78 Y267.703
X89.989 Y267.943
X90.184 Y268.205
X90.364 Y268.492
X90.519 Y268.793
X90.647 Y269.097
X90.747 Y269.401
X90.82 Y269.704
X90.868 Y270.004
X90.871 Y270.055
X90.873 Y270.103
X90.872 Y270.152
X90.868 Y270.2
X90.803 Y270.692
X90.779 Y270.834
X90.722 Y270.975
X90.458 Y271.613
X90.442 Y271.649
X90.42 Y271.684
X89.971 Y272.27
X89.869 Y272.393
X89.829 Y272.426
X89.191 Y272.915
X89.156 Y272.938
X89.12 Y272.956
X88.411 Y273.25
X88.341 Y273.278
X88.305 Y273.288
X88.27 Y273.294
X87.561 Y273.387
X87.419 Y273.403
X87.257 Y273.385
X86.569 Y273.295
X86.498 Y273.279
X86.408 Y273.243
X85.718 Y272.957
X85.683 Y272.94
X85.647 Y272.918
X85.009 Y272.428
X84.965 Y272.393
X84.868 Y272.275
X84.442 Y271.721
X84.415 Y271.684
X84.394 Y271.649
X84.377 Y271.613
X84.113 Y270.975
X84.056 Y270.834
X84.032 Y270.692
X83.939 Y269.983
X83.933 Y269.912
X83.941 Y269.841
X84.043 Y269.062
X84.05 Y269.026
X84.06 Y268.991
X84.383 Y268.211
X84.401 Y268.176
X84.425 Y268.14
X84.918 Y267.497
X84.945 Y267.464
X84.981 Y267.432
X85.009 Y267.409
X85.647 Y266.92
X85.683 Y266.898
X85.718 Y266.881
X86.441 Y266.581
X86.505 Y266.557
X86.569 Y266.543
X87.36 Y266.439
X87.419 Y266.435
X87.475 Y266.439
X88.27 Y266.544
X88.301 Y266.549
X88.332 Y266.557
X88.411 Y266.588
X89.12 Y266.882
X89.156 Y266.9
X89.191 Y266.922
X89.855 Y267.432
X89.891 Y267.466
X89.919 Y267.499
X90.411 Y268.14
X90.434 Y268.176
X90.452 Y268.211
X90.775 Y268.991
X90.785 Y269.026
X90.792 Y269.062
X90.894 Y269.841
X90.902 Y269.912
X90.896 Y269.983
X90.868 Y270.2
G3 X90.508 Y270.443 I-0.296 J-0.049
G1 X90.461 Y270.419 Z0.005
X90.415 Y270.396 Z0.019
X90.373 Y270.375 Z0.042
X90.345 Y270.334 Z0.079
X90.322 Y270.301 Z0.126
X90.305 Y270.276 Z0.18
X90.294 Y270.26 Z0.238
X90.291 Y270.255 Z0.3
Z5.
X156.192 Y170.647
Z2.55
S5000
G3 X153.804 Y170.876 Z2.452 I-1.275 J-0.728 F30.
X154.39 Y168.552 Z2.354 I1.112 J-0.955
X156.38 Y169.883 Z2.256 I0.526 J1.367
X154.46 Y171.308 Z2.158 I-1.462 J0.036
X153.763 Y169.024 Z2.06 I0.457 J-1.388
X156.146 Y169.135 Z1.962 I1.152 J0.895
X155.242 Y171.339 Z1.863 I-1.229 J0.784
X153.471 Y169.749 Z1.765 I-0.325 J-1.419
X155.561 Y168.617 Z1.667 I1.444 J0.17
X155.926 Y170.963 Z1.569 I-0.645 J1.302
X153.596 Y170.519 Z1.471 I-1.008 J-1.043
X154.795 Y168.476 Z1.373 I1.32 J-0.598
X156.315 Y170.29 Z1.275 I0.12 J1.442
X154.099 Y171.111 Z1.177 I-1.397 J-0.371
X154.07 Y168.751 Z1.079 I0.818 J-1.19
X156.3 Y169.515 Z0.981 I0.845 J1.168
X154.833 Y171.357 Z0.883 I-1.383 J0.403
X153.592 Y169.358 Z0.785 I0.084 J-1.436
X155.888 Y168.862 Z0.687 I1.323 J0.561
X155.585 Y171.188 Z0.588 I-0.972 J1.056
X153.498 Y170.123 Z0.49 I-0.668 J-1.269
X155.201 Y168.517 Z0.392 I1.418 J-0.203
X156.14 Y170.658 Z0.294 I-0.285 J1.402
X153.811 Y170.823 Z0.196 I-1.223 J-0.738
X154.437 Y168.576 Z0.098 I1.105 J-0.903
X156.341 Y169.919 Z0. I0.479 J1.342
X153.49 I-1.425 J0.
X156.341 I1.425 J0.
S9000
G1 X156.371 Y170.542 F1000.
X156.395 Y170.616
X156.424 Y170.763
X156.421 Y170.913
X156.393 Y171.061
X156.344 Y171.202
X156.278 Y171.337
X156.195 Y171.462
X156.1 Y171.578
X155.993 Y171.683
X155.876 Y171.777
X155.752 Y171.861
X155.62 Y171.932
X155.483 Y171.993
X155.341 Y172.041
X155.193 Y172.079
X155.04 Y172.105
X154.882 Y172.118
X154.721 Y172.12
X154.558 Y172.108
X154.395 Y172.083
X154.232 Y172.044
X154.071 Y171.991
X153.913 Y171.926
X153.759 Y171.847
X153.612 Y171.755
X153.471 Y171.652
X153.338 Y171.536
X153.215 Y171.41
X153.101 Y171.274
X152.998 Y171.128
X152.907 Y170.974
X152.828 Y170.813
X152.763 Y170.645
X152.711 Y170.472
X152.673 Y170.296
X152.649 Y170.116
X152.639 Y169.935
X152.645 Y169.754
X152.664 Y169.573
X152.699 Y169.394
X152.747 Y169.219
X152.81 Y169.047
X152.886 Y168.882
X152.975 Y168.722
X153.077 Y168.571
X153.19 Y168.428
X153.315 Y168.294
X153.45 Y168.171
X153.595 Y168.059
X153.748 Y167.959
X153.909 Y167.872
X154.076 Y167.797
X154.249 Y167.737
X154.426 Y167.69
X154.606 Y167.658
X154.789 Y167.641
X154.972 Y167.638
X155.155 Y167.65
X155.336 Y167.676
X155.515 Y167.717
X155.689 Y167.772
X155.859 Y167.841
X156.023 Y167.923
X156.179 Y168.019
X156.328 Y168.126
X156.467 Y168.245
X156.596 Y168.375
X156.715 Y168.515
X156.822 Y168.664
X156.924 Y168.834
X157.041 Y169.068
X157.201 Y169.469
X157.291 Y169.759
X157.347 Y170.007
X157.379 Y170.231
X157.392 Y170.447
X157.387 Y170.657
X157.367 Y170.86
X157.331 Y171.054
X157.281 Y171.241
X157.216 Y171.425
X157.135 Y171.605
X157.039 Y171.779
X156.93 Y171.945
X156.807 Y172.103
X156.67 Y172.252
X156.52 Y172.391
X156.357 Y172.519
X156.182 Y172.636
X155.994 Y172.739
X155.797 Y172.829
X155.589 Y172.903
X155.374 Y172.962
X155.151 Y173.004
X154.923 Y173.027
X154.691 Y173.033
X154.457 Y173.02
X154.223 Y172.987
X153.99 Y172.936
X153.76 Y172.866
X153.534 Y172.776
X153.315 Y172.668
X153.104 Y172.542
X152.903 Y172.399
X152.713 Y172.239
X152.535 Y172.063
X152.372 Y171.873
X152.223 Y171.67
X152.091 Y171.454
X151.976 Y171.228
X151.879 Y170.993
X151.802 Y170.75
X151.744 Y170.501
X151.706 Y170.248
X151.688 Y169.991
X151.691 Y169.734
X151.715 Y169.478
X151.759 Y169.224
X151.824 Y168.974
X151.909 Y168.73
X152.013 Y168.493
X152.135 Y168.266
X152.276 Y168.048
X152.434 Y167.843
X152.608 Y167.65
X152.797 Y167.473
X152.999 Y167.311
X153.214 Y167.165
X153.44 Y167.037
X153.676 Y166.928
X153.919 Y166.838
X154.17 Y166.768
X154.425 Y166.718
X154.683 Y166.689
X154.943 Y166.681
X155.202 Y166.693
X155.46 Y166.727
X155.714 Y166.781
X155.964 Y166.855
X156.206 Y166.949
X156.44 Y167.062
X156.664 Y167.193
X156.878 Y167.342
X157.08 Y167.51
X157.28 Y167.704
X157.489 Y167.943
X157.684 Y168.205
X157.864 Y168.493
X158.019 Y168.793
X158.147 Y169.097
X158.247 Y169.401
X158.32 Y169.704
X158.366 Y169.992
X158.373 Y170.058
X158.374 Y170.125
X158.368 Y170.192
X158.294 Y170.759
X158.28 Y170.83
X158.253 Y170.901
X157.959 Y171.61
X157.924 Y171.678
X157.869 Y171.752
X157.434 Y172.319
X157.37 Y172.391
X157.307 Y172.443
X156.73 Y172.886
X156.664 Y172.934
X156.598 Y172.965
X155.889 Y173.259
X155.818 Y173.284
X155.747 Y173.297
X155.038 Y173.39
X154.897 Y173.402
X154.755 Y173.385
X154.046 Y173.292
X154.011 Y173.283
X153.975 Y173.271
X153.337 Y173.007
X153.196 Y172.947
X153.173 Y172.935
X153.15 Y172.92
X152.487 Y172.411
X152.462 Y172.391
X152.438 Y172.365
X152.401 Y172.319
X151.92 Y171.692
X151.894 Y171.651
X151.876 Y171.61
X151.582 Y170.901
X151.555 Y170.83
X151.541 Y170.759
X151.447 Y170.051
X151.433 Y169.909
X151.45 Y169.767
X151.544 Y169.058
X151.551 Y169.023
X151.562 Y168.988
X151.825 Y168.35
X151.884 Y168.208
X151.9 Y168.177
X151.92 Y168.146
X152.416 Y167.499
X152.447 Y167.463
X152.487 Y167.426
X153.131 Y166.932
X153.163 Y166.909
X153.196 Y166.891
X153.904 Y166.596
X153.975 Y166.567
X154.011 Y166.555
X154.046 Y166.546
X154.755 Y166.453
X154.897 Y166.436
X154.932 Y166.435
X154.968 Y166.439
X155.747 Y166.541
X155.818 Y166.553
X155.889 Y166.579
X156.598 Y166.873
X156.651 Y166.897
X156.704 Y166.932
X157.307 Y167.394
X157.363 Y167.438
X157.393 Y167.469
X157.419 Y167.499
X157.918 Y168.15
X157.936 Y168.179
X157.951 Y168.208
X158.244 Y168.917
X158.273 Y168.988
X158.284 Y169.023
X158.291 Y169.058
X158.384 Y169.767
X158.4 Y169.909
X158.387 Y170.051
X158.368 Y170.192
G3 X158.009 Y170.436 I-0.296 J-0.049
G1 X157.962 Y170.412 Z0.005
X157.916 Y170.389 Z0.019
X157.873 Y170.367 Z0.042
X157.846 Y170.327 Z0.079
X157.823 Y170.293 Z0.126
X157.806 Y170.268 Z0.18
X157.795 Y170.253 Z0.238
X157.791 Y170.248 Z0.3
Z5.
X156.192 Y220.646
Z2.55
S5000
G3 X153.803 Y220.875 Z2.452 I-1.275 J-0.728 F30.
X154.389 Y218.551 Z2.354 I1.112 J-0.955
X156.379 Y219.882 Z2.256 I0.526 J1.367
X154.459 Y221.308 Z2.158 I-1.462 J0.036
X153.762 Y219.023 Z2.06 I0.457 J-1.388
X156.145 Y219.134 Z1.962 I1.152 J0.895
X155.242 Y221.339 Z1.863 I-1.229 J0.784
X153.471 Y219.749 Z1.765 I-0.325 J-1.419
X155.56 Y218.616 Z1.667 I1.444 J0.17
X155.925 Y220.962 Z1.569 I-0.645 J1.302
X153.596 Y220.518 Z1.471 I-1.008 J-1.043
X154.795 Y218.476 Z1.373 I1.32 J-0.598
X156.314 Y220.289 Z1.275 I0.12 J1.442
X154.098 Y221.11 Z1.177 I-1.397 J-0.371
X154.069 Y218.75 Z1.079 I0.818 J-1.19
X156.299 Y219.515 Z0.981 I0.845 J1.168
X154.832 Y221.356 Z0.883 I-1.383 J0.403
X153.592 Y219.358 Z0.785 I0.084 J-1.436
X155.888 Y218.861 Z0.687 I1.323 J0.561
X155.584 Y221.188 Z0.588 I-0.972 J1.056
X153.498 Y220.122 Z0.49 I-0.668 J-1.269
X155.2 Y218.516 Z0.392 I1.418 J-0.203
X156.14 Y220.657 Z0.294 I-0.285 J1.402
X153.811 Y220.823 Z0.196 I-1.223 J-0.738
X154.436 Y218.576 Z0.098 I1.105 J-0.903
X156.34 Y219.918 Z0. I0.479 J1.342
X153.49 I-1.425 J0.
X156.34 I1.425 J0.
S9000
G1 X156.37 Y220.541 F1000.
X156.395 Y220.615
X156.423 Y220.763
X156.421 Y220.913
X156.393 Y221.06
X156.344 Y221.202
X156.277 Y221.336
X156.195 Y221.462
X156.099 Y221.577
X155.993 Y221.683
X155.876 Y221.777
X155.751 Y221.86
X155.619 Y221.932
X155.482 Y221.992
X155.34 Y222.041
X155.193 Y222.078
X155.039 Y222.104
X154.882 Y222.118
X154.721 Y222.119
X154.558 Y222.107
X154.394 Y222.082
X154.231 Y222.043
X154.07 Y221.991
X153.912 Y221.925
X153.759 Y221.847
X153.611 Y221.755
X153.47 Y221.651
X153.338 Y221.536
X153.214 Y221.41
X153.1 Y221.273
X152.998 Y221.127
X152.907 Y220.973
X152.828 Y220.812
X152.762 Y220.645
X152.71 Y220.472
X152.672 Y220.295
X152.648 Y220.116
X152.639 Y219.935
X152.644 Y219.753
X152.664 Y219.572
X152.698 Y219.394
X152.747 Y219.218
X152.809 Y219.047
X152.885 Y218.881
X152.974 Y218.722
X153.076 Y218.57
X153.19 Y218.427
X153.315 Y218.294
X153.45 Y218.17
X153.594 Y218.059
X153.748 Y217.959
X153.908 Y217.871
X154.076 Y217.797
X154.249 Y217.736
X154.426 Y217.69
X154.606 Y217.658
X154.788 Y217.64
X154.971 Y217.637
X155.154 Y217.649
X155.335 Y217.676
X155.514 Y217.717
X155.689 Y217.772
X155.858 Y217.841
X156.022 Y217.923
X156.179 Y218.018
X156.327 Y218.126
X156.466 Y218.245
X156.596 Y218.375
X156.714 Y218.515
X156.821 Y218.663
X156.923 Y218.833
X157.04 Y219.068
X157.201 Y219.469
X157.291 Y219.759
X157.346 Y220.007
X157.378 Y220.231
X157.391 Y220.446
X157.387 Y220.657
X157.366 Y220.859
X157.331 Y221.053
X157.281 Y221.241
X157.215 Y221.425
X157.134 Y221.605
X157.039 Y221.779
X156.929 Y221.945
X156.806 Y222.103
X156.669 Y222.251
X156.519 Y222.39
X156.356 Y222.519
X156.181 Y222.635
X155.994 Y222.739
X155.796 Y222.828
X155.589 Y222.903
X155.373 Y222.961
X155.151 Y223.003
X154.923 Y223.027
X154.691 Y223.032
X154.457 Y223.019
X154.222 Y222.987
X153.989 Y222.936
X153.759 Y222.865
X153.534 Y222.776
X153.315 Y222.668
X153.104 Y222.542
X152.903 Y222.398
X152.712 Y222.238
X152.535 Y222.063
X152.371 Y221.873
X152.223 Y221.669
X152.09 Y221.454
X151.975 Y221.228
X151.879 Y220.992
X151.801 Y220.749
X151.743 Y220.5
X151.705 Y220.247
X151.688 Y219.991
X151.691 Y219.734
X151.715 Y219.478
X151.759 Y219.224
X151.824 Y218.974
X151.908 Y218.73
X152.012 Y218.493
X152.135 Y218.265
X152.276 Y218.048
X152.433 Y217.842
X152.607 Y217.65
X152.796 Y217.472
X152.999 Y217.31
X153.214 Y217.165
X153.44 Y217.037
X153.675 Y216.928
X153.919 Y216.838
X154.169 Y216.768
X154.424 Y216.718
X154.682 Y216.689
X154.942 Y216.68
X155.202 Y216.693
X155.459 Y216.726
X155.714 Y216.78
X155.963 Y216.854
X156.205 Y216.948
X156.44 Y217.061
X156.664 Y217.193
X156.877 Y217.342
X157.08 Y217.509
X157.279 Y217.703
X157.489 Y217.942
X157.683 Y218.205
X157.863 Y218.492
X158.019 Y218.793
X158.146 Y219.097
X158.246 Y219.401
X158.32 Y219.704
X158.367 Y220.004
X158.371 Y220.056
X158.373 Y220.104
X158.372 Y220.152
X158.367 Y220.201
X158.299 Y220.72
X158.288 Y220.796
X158.279 Y220.832
X158.267 Y220.867
X158.003 Y221.505
X157.942 Y221.647
X157.874 Y221.746
X157.405 Y222.356
X157.356 Y222.405
X156.74 Y222.878
X156.68 Y222.923
X156.639 Y222.947
X156.598 Y222.965
X155.889 Y223.259
X155.818 Y223.284
X155.747 Y223.297
X154.968 Y223.399
X154.932 Y223.403
X154.897 Y223.402
X154.755 Y223.385
X154.046 Y223.292
X154.011 Y223.283
X153.975 Y223.271
X153.337 Y223.007
X153.196 Y222.947
X153.155 Y222.923
X153.054 Y222.847
X152.487 Y222.411
X152.458 Y222.386
X152.43 Y222.356
X151.92 Y221.691
X151.893 Y221.647
X151.832 Y221.505
X151.568 Y220.867
X151.556 Y220.832
X151.547 Y220.796
X151.509 Y220.513
X151.434 Y219.946
X151.433 Y219.911
X151.436 Y219.875
X151.539 Y219.096
X151.55 Y219.025
X151.575 Y218.954
X151.89 Y218.196
X151.903 Y218.171
X151.92 Y218.146
X152.431 Y217.481
X152.459 Y217.45
X152.487 Y217.426
X153.139 Y216.926
X153.167 Y216.906
X153.196 Y216.891
X153.975 Y216.567
X154.011 Y216.555
X154.046 Y216.546
X154.755 Y216.453
X154.897 Y216.436
X154.932 Y216.435
X154.968 Y216.439
X155.772 Y216.544
X155.83 Y216.557
X155.889 Y216.579
X156.598 Y216.873
X156.669 Y216.908
X156.752 Y216.969
X157.307 Y217.395
X157.39 Y217.465
X157.448 Y217.538
X157.882 Y218.103
X157.934 Y218.174
X157.966 Y218.245
X158.26 Y218.954
X158.285 Y219.025
X158.299 Y219.118
X158.398 Y219.875
X158.401 Y219.911
X158.4 Y219.946
X158.367 Y220.201
G3 X158.008 Y220.444 I-0.296 J-0.049
G1 X157.961 Y220.42 Z0.005
X157.915 Y220.397 Z0.019
X157.872 Y220.376 Z0.042
X157.844 Y220.335 Z0.079
X157.822 Y220.302 Z0.126
X157.804 Y220.277 Z0.18
X157.794 Y220.261 Z0.238
X157.79 Y220.256 Z0.3
Z5.
X156.212 Y10.687
Z2.55
S5000
G3 X153.824 Y10.915 Z2.452 I-1.275 J-0.728 F30.
X154.41 Y8.592 Z2.354 I1.112 J-0.955
X156.399 Y9.923 Z2.256 I0.526 J1.367
X154.48 Y11.348 Z2.158 I-1.462 J0.036
X153.783 Y9.064 Z2.06 I0.457 J-1.388
X156.166 Y9.174 Z1.962 I1.152 J0.895
X155.262 Y11.379 Z1.863 I-1.229 J0.784
X153.491 Y9.789 Z1.765 I-0.325 J-1.419
X155.581 Y8.656 Z1.667 I1.444 J0.17
X155.945 Y11.002 Z1.569 I-0.645 J1.302
X153.616 Y10.558 Z1.471 I-1.008 J-1.043
X154.815 Y8.516 Z1.373 I1.32 J-0.598
X156.335 Y10.329 Z1.275 I0.12 J1.442
X154.119 Y11.15 Z1.177 I-1.397 J-0.371
X154.09 Y8.79 Z1.079 I0.818 J-1.19
X156.32 Y9.555 Z0.981 I0.845 J1.168
X154.852 Y11.396 Z0.883 I-1.383 J0.403
X153.612 Y9.398 Z0.785 I0.084 J-1.436
X155.908 Y8.902 Z0.687 I1.323 J0.561
X155.605 Y11.228 Z0.588 I-0.972 J1.056
X153.518 Y10.162 Z0.49 I-0.668 J-1.269
X155.221 Y8.557 Z0.392 I1.418 J-0.203
X156.16 Y10.697 Z0.294 I-0.285 J1.402
X153.831 Y10.863 Z0.196 I-1.223 J-0.738
X154.457 Y8.616 Z0.098 I1.105 J-0.903
X156.361 Y9.958 Z0. I0.479 J1.342
X153.51 I-1.425 J0.
X156.361 I1.425 J0.
S9000
G1 X156.391 Y10.582 F1000.
X156.415 Y10.656
X156.444 Y10.803
X156.441 Y10.953
X156.413 Y11.1
X156.364 Y11.242
X156.298 Y11.376
X156.215 Y11.502
X156.12 Y11.617
X156.013 Y11.723
X155.896 Y11.817
X155.772 Y11.9
X155.64 Y11.972
X155.502 Y12.032
X155.361 Y12.081
X155.213 Y12.118
X155.06 Y12.144
X154.902 Y12.158
X154.741 Y12.159
X154.578 Y12.148
X154.415 Y12.122
X154.252 Y12.083
X154.091 Y12.031
X153.933 Y11.966
X153.779 Y11.887
X153.632 Y11.795
X153.491 Y11.691
X153.358 Y11.576
X153.234 Y11.45
X153.121 Y11.313
X153.018 Y11.168
X152.927 Y11.014
X152.848 Y10.852
X152.783 Y10.685
X152.731 Y10.512
X152.693 Y10.335
X152.669 Y10.156
X152.659 Y9.975
X152.665 Y9.793
X152.684 Y9.613
X152.719 Y9.434
X152.767 Y9.258
X152.83 Y9.087
X152.906 Y8.921
X152.995 Y8.762
X153.097 Y8.61
X153.21 Y8.467
X153.335 Y8.334
X153.47 Y8.211
X153.615 Y8.099
X153.768 Y7.999
X153.929 Y7.911
X154.096 Y7.837
X154.269 Y7.777
X154.446 Y7.73
X154.626 Y7.698
X154.809 Y7.68
X154.992 Y7.677
X155.175 Y7.689
X155.356 Y7.716
X155.534 Y7.757
X155.709 Y7.812
X155.879 Y7.881
X156.043 Y7.963
X156.199 Y8.058
X156.348 Y8.166
X156.487 Y8.285
X156.616 Y8.415
X156.735 Y8.555
X156.841 Y8.704
X156.944 Y8.873
X157.06 Y9.108
X157.221 Y9.509
X157.311 Y9.799
X157.367 Y10.047
X157.399 Y10.271
X157.411 Y10.487
X157.407 Y10.697
X157.387 Y10.899
X157.351 Y11.093
X157.301 Y11.281
X157.236 Y11.465
X157.155 Y11.645
X157.059 Y11.819
X156.95 Y11.985
X156.827 Y12.143
X156.69 Y12.292
X156.54 Y12.431
X156.377 Y12.559
X156.201 Y12.675
X156.014 Y12.779
X155.817 Y12.869
X155.609 Y12.943
X155.394 Y13.002
X155.171 Y13.043
X154.943 Y13.067
X154.711 Y13.073
X154.477 Y13.059
X154.243 Y13.027
X154.01 Y12.976
X153.78 Y12.905
X153.554 Y12.816
X153.335 Y12.708
X153.124 Y12.582
X152.923 Y12.439
X152.733 Y12.279
X152.555 Y12.103
X152.391 Y11.913
X152.243 Y11.71
X152.111 Y11.494
X151.996 Y11.268
X151.899 Y11.033
X151.822 Y10.79
X151.764 Y10.541
X151.726 Y10.287
X151.708 Y10.031
X151.711 Y9.774
X151.735 Y9.518
X151.779 Y9.264
X151.844 Y9.014
X151.929 Y8.77
X152.033 Y8.533
X152.155 Y8.305
X152.296 Y8.088
X152.454 Y7.882
X152.628 Y7.69
X152.816 Y7.512
X153.019 Y7.35
X153.234 Y7.205
X153.46 Y7.077
X153.696 Y6.968
X153.939 Y6.878
X154.189 Y6.808
X154.444 Y6.758
X154.703 Y6.729
X154.962 Y6.721
X155.222 Y6.733
X155.48 Y6.766
X155.734 Y6.82
X155.983 Y6.894
X156.226 Y6.988
X156.46 Y7.101
X156.684 Y7.233
X156.897 Y7.382
X157.1 Y7.55
X157.3 Y7.743
X157.509 Y7.983
X157.704 Y8.245
X157.884 Y8.533
X158.039 Y8.833
X158.167 Y9.137
X158.267 Y9.441
X158.34 Y9.744
X158.387 Y10.044
X158.391 Y10.094
X158.393 Y10.142
X158.392 Y10.19
X158.387 Y10.238
X158.323 Y10.726
X158.3 Y10.867
X158.244 Y11.009
X158.009 Y11.576
X157.943 Y11.718
X157.837 Y11.86
X157.448 Y12.366
X157.396 Y12.427
X157.307 Y12.499
X156.74 Y12.934
X156.692 Y12.969
X156.645 Y12.994
X155.889 Y13.307
X155.854 Y13.32
X155.818 Y13.329
X155.747 Y13.34
X154.968 Y13.442
X154.932 Y13.444
X154.897 Y13.441
X154.188 Y13.348
X154.046 Y13.327
X154.013 Y13.318
X153.904 Y13.273
X153.229 Y12.994
X153.196 Y12.977
X153.028 Y12.852
X152.629 Y12.545
X152.487 Y12.434
X152.479 Y12.427
X152.364 Y12.285
X152.038 Y11.86
X151.93 Y11.718
X151.92 Y11.701
X151.865 Y11.576
X151.63 Y11.009
X151.575 Y10.867
X151.551 Y10.726
X151.458 Y10.017
X151.454 Y9.946
X151.461 Y9.875
X151.564 Y9.096
X151.571 Y9.06
X151.583 Y9.025
X151.876 Y8.316
X151.92 Y8.217
X151.949 Y8.174
X152.384 Y7.607
X152.487 Y7.484
X152.508 Y7.465
X153.062 Y7.04
X153.196 Y6.942
X153.292 Y6.898
X154.011 Y6.601
X154.046 Y6.591
X154.188 Y6.571
X154.897 Y6.477
X154.932 Y6.475
X154.968 Y6.476
X155.747 Y6.579
X155.818 Y6.589
X155.854 Y6.598
X155.897 Y6.615
X156.598 Y6.905
X156.669 Y6.936
X156.74 Y6.984
X157.367 Y7.465
X157.39 Y7.485
X157.413 Y7.509
X157.448 Y7.552
X157.925 Y8.174
X157.95 Y8.21
X157.969 Y8.245
X158.292 Y9.025
X158.299 Y9.045
X158.307 Y9.075
X158.312 Y9.105
X158.413 Y9.875
X158.42 Y9.946
X158.417 Y10.017
X158.387 Y10.238
G3 X158.028 Y10.482 I-0.296 J-0.049
G1 X157.981 Y10.458 Z0.005
X157.935 Y10.435 Z0.019
X157.893 Y10.414 Z0.042
X157.865 Y10.373 Z0.079
X157.842 Y10.34 Z0.126
X157.825 Y10.315 Z0.18
X157.814 Y10.299 Z0.238
X157.811 Y10.294 Z0.3
Z5.
X156.212 Y60.687
Z2.55
S5000
G3 X153.824 Y60.916 Z2.452 I-1.275 J-0.728 F30.
X154.41 Y58.592 Z2.354 I1.112 J-0.955
X156.399 Y59.923 Z2.256 I0.526 J1.367
X154.48 Y61.348 Z2.158 I-1.462 J0.036
X153.783 Y59.064 Z2.06 I0.457 J-1.388
X156.166 Y59.175 Z1.962 I1.152 J0.895
X155.262 Y61.379 Z1.863 I-1.229 J0.784
X153.491 Y59.789 Z1.765 I-0.325 J-1.419
X155.581 Y58.657 Z1.667 I1.444 J0.17
X155.945 Y61.003 Z1.569 I-0.645 J1.302
X153.616 Y60.559 Z1.471 I-1.008 J-1.043
X154.815 Y58.516 Z1.373 I1.32 J-0.598
X156.335 Y60.33 Z1.275 I0.12 J1.442
X154.119 Y61.151 Z1.177 I-1.397 J-0.371
X154.09 Y58.791 Z1.079 I0.818 J-1.19
X156.32 Y59.555 Z0.981 I0.845 J1.168
X154.852 Y61.397 Z0.883 I-1.383 J0.403
X153.612 Y59.398 Z0.785 I0.084 J-1.436
X155.908 Y58.902 Z0.687 I1.323 J0.561
X155.605 Y61.228 Z0.588 I-0.972 J1.056
X153.518 Y60.163 Z0.49 I-0.668 J-1.269
X155.221 Y58.557 Z0.392 I1.418 J-0.203
X156.16 Y60.698 Z0.294 I-0.285 J1.402
X153.831 Y60.863 Z0.196 I-1.223 J-0.738
X154.457 Y58.616 Z0.098 I1.105 J-0.903
X156.361 Y59.959 Z0. I0.479 J1.342
X153.51 I-1.425 J0.
X156.361 I1.425 J0.
S9000
G1 X156.391 Y60.582 F1000.
X156.415 Y60.656
X156.444 Y60.803
X156.441 Y60.953
X156.413 Y61.101
X156.364 Y61.242
X156.298 Y61.377
X156.215 Y61.502
X156.12 Y61.618
X156.013 Y61.723
X155.896 Y61.817
X155.772 Y61.901
X155.64 Y61.972
X155.502 Y62.033
X155.361 Y62.081
X155.213 Y62.119
X155.06 Y62.145
X154.902 Y62.159
X154.741 Y62.16
X154.578 Y62.148
X154.415 Y62.123
X154.252 Y62.084
X154.091 Y62.031
X153.933 Y61.966
X153.779 Y61.887
X153.632 Y61.796
X153.491 Y61.692
X153.358 Y61.576
X153.234 Y61.45
X153.121 Y61.314
X153.018 Y61.168
X152.927 Y61.014
X152.848 Y60.853
X152.783 Y60.685
X152.731 Y60.512
X152.693 Y60.336
X152.669 Y60.156
X152.659 Y59.975
X152.665 Y59.794
X152.684 Y59.613
X152.719 Y59.434
X152.767 Y59.259
X152.83 Y59.087
X152.906 Y58.922
X152.995 Y58.762
X153.097 Y58.611
X153.21 Y58.468
X153.335 Y58.334
X153.47 Y58.211
X153.615 Y58.099
X153.768 Y57.999
X153.929 Y57.912
X154.096 Y57.837
X154.269 Y57.777
X154.446 Y57.73
X154.626 Y57.698
X154.809 Y57.681
X154.992 Y57.678
X155.175 Y57.69
X155.356 Y57.716
X155.534 Y57.757
X155.709 Y57.812
X155.879 Y57.881
X156.043 Y57.964
X156.199 Y58.059
X156.348 Y58.166
X156.487 Y58.285
X156.616 Y58.415
X156.735 Y58.555
X156.841 Y58.704
X156.944 Y58.874
X157.06 Y59.108
X157.221 Y59.509
X157.311 Y59.799
X157.367 Y60.047
X157.399 Y60.271
X157.411 Y60.487
X157.407 Y60.697
X157.387 Y60.9
X157.351 Y61.094
X157.301 Y61.281
X157.236 Y61.465
X157.155 Y61.645
X157.059 Y61.819
X156.95 Y61.985
X156.827 Y62.143
X156.69 Y62.292
X156.54 Y62.431
X156.377 Y62.559
X156.201 Y62.676
X156.014 Y62.779
X155.817 Y62.869
X155.609 Y62.943
X155.394 Y63.002
X155.171 Y63.044
X154.943 Y63.067
X154.711 Y63.073
X154.477 Y63.06
X154.243 Y63.027
X154.01 Y62.976
X153.78 Y62.906
X153.554 Y62.816
X153.335 Y62.708
X153.124 Y62.582
X152.923 Y62.439
X152.733 Y62.279
X152.555 Y62.103
X152.391 Y61.913
X152.243 Y61.71
X152.111 Y61.494
X151.996 Y61.268
X151.899 Y61.033
X151.822 Y60.79
X151.764 Y60.541
X151.726 Y60.288
X151.708 Y60.031
X151.711 Y59.774
X151.735 Y59.518
X151.779 Y59.264
X151.844 Y59.014
X151.929 Y58.77
X152.033 Y58.533
X152.155 Y58.306
X152.296 Y58.088
X152.454 Y57.883
X152.628 Y57.69
X152.816 Y57.513
X153.019 Y57.351
X153.234 Y57.205
X153.46 Y57.077
X153.696 Y56.968
X153.939 Y56.878
X154.189 Y56.808
X154.444 Y56.758
X154.703 Y56.729
X154.962 Y56.721
X155.222 Y56.733
X155.48 Y56.767
X155.734 Y56.821
X155.983 Y56.895
X156.226 Y56.989
X156.46 Y57.102
X156.684 Y57.233
X156.897 Y57.382
X157.1 Y57.55
X157.299 Y57.744
X157.509 Y57.983
X157.704 Y58.245
X157.883 Y58.533
X158.039 Y58.833
X158.167 Y59.137
X158.267 Y59.441
X158.34 Y59.744
X158.387 Y60.044
X158.391 Y60.094
X158.393 Y60.142
X158.392 Y60.191
X158.387 Y60.239
X158.319 Y60.763
X158.299 Y60.873
X158.288 Y60.904
X157.994 Y61.613
X157.963 Y61.684
X157.943 Y61.72
X157.874 Y61.811
X157.448 Y62.366
X157.408 Y62.415
X157.38 Y62.442
X156.74 Y62.934
X156.669 Y62.982
X156.598 Y63.013
X155.87 Y63.314
X155.809 Y63.331
X154.968 Y63.442
X154.932 Y63.444
X154.897 Y63.441
X154.188 Y63.348
X154.046 Y63.327
X154.003 Y63.314
X153.318 Y63.031
X153.196 Y62.977
X153.076 Y62.889
X152.522 Y62.464
X152.487 Y62.435
X152.46 Y62.407
X152.436 Y62.378
X151.957 Y61.755
X151.92 Y61.701
X151.88 Y61.613
X151.587 Y60.904
X151.575 Y60.869
X151.566 Y60.834
X151.537 Y60.621
X151.454 Y59.983
X151.453 Y59.948
X151.456 Y59.912
X151.55 Y59.204
X151.571 Y59.062
X151.626 Y58.92
X151.86 Y58.353
X151.92 Y58.217
X151.923 Y58.211
X152.061 Y58.028
X152.356 Y57.644
X152.468 Y57.503
X152.487 Y57.484
X152.645 Y57.361
X153.054 Y57.047
X153.196 Y56.942
X153.207 Y56.936
X153.337 Y56.88
X154.011 Y56.601
X154.046 Y56.591
X154.188 Y56.571
X154.897 Y56.478
X154.932 Y56.475
X154.968 Y56.476
X155.747 Y56.579
X155.818 Y56.589
X155.854 Y56.598
X155.889 Y56.611
X156.598 Y56.905
X156.668 Y56.936
X156.74 Y56.984
X157.307 Y57.419
X157.408 Y57.503
X157.448 Y57.552
X157.874 Y58.107
X157.951 Y58.211
X158.015 Y58.357
X158.249 Y58.92
X158.299 Y59.045
X158.303 Y59.062
X158.325 Y59.204
X158.418 Y59.912
X158.421 Y59.948
X158.42 Y59.983
X158.387 Y60.239
G3 X158.028 Y60.483 I-0.296 J-0.049
G1 X157.981 Y60.459 Z0.005
X157.935 Y60.436 Z0.019
X157.893 Y60.414 Z0.042
X157.865 Y60.373 Z0.079
X157.842 Y60.34 Z0.126
X157.825 Y60.315 Z0.18
X157.814 Y60.3 Z0.238
X157.811 Y60.294 Z0.3
Z5.
X156.212 Y110.688
Z2.55
S5000
G3 X153.824 Y110.916 Z2.452 I-1.275 J-0.728 F30.
X154.41 Y108.593 Z2.354 I1.112 J-0.955
X156.399 Y109.924 Z2.256 I0.526 J1.367
X154.48 Y111.349 Z2.158 I-1.462 J0.036
X153.783 Y109.065 Z2.06 I0.457 J-1.388
X156.165 Y109.175 Z1.962 I1.152 J0.895
X155.262 Y111.38 Z1.863 I-1.229 J0.784
X153.491 Y109.79 Z1.765 I-0.325 J-1.419
X155.581 Y108.658 Z1.667 I1.444 J0.17
X155.945 Y111.004 Z1.569 I-0.645 J1.302
X153.616 Y110.559 Z1.471 I-1.008 J-1.043
X154.815 Y108.517 Z1.373 I1.32 J-0.598
X156.334 Y110.33 Z1.275 I0.12 J1.442
X154.119 Y111.151 Z1.177 I-1.397 J-0.371
X154.09 Y108.791 Z1.079 I0.818 J-1.19
X156.32 Y109.556 Z0.981 I0.845 J1.168
X154.852 Y111.397 Z0.883 I-1.383 J0.403
X153.612 Y109.399 Z0.785 I0.084 J-1.436
X155.908 Y108.903 Z0.687 I1.323 J0.561
X155.605 Y111.229 Z0.588 I-0.972 J1.056
X153.518 Y110.163 Z0.49 I-0.668 J-1.269
X155.221 Y108.558 Z0.392 I1.418 J-0.203
X156.16 Y110.698 Z0.294 I-0.285 J1.402
X153.831 Y110.864 Z0.196 I-1.223 J-0.738
X154.457 Y108.617 Z0.098 I1.105 J-0.903
X156.36 Y109.959 Z0. I0.479 J1.342
X153.51 I-1.425 J0.
X156.36 I1.425 J0.
S9000
G1 X156.39 Y110.583 F1000.
X156.415 Y110.657
X156.444 Y110.804
X156.441 Y110.954
X156.413 Y111.101
X156.364 Y111.243
X156.297 Y111.377
X156.215 Y111.503
X156.12 Y111.619
X156.013 Y111.724
X155.896 Y111.818
X155.771 Y111.901
X155.64 Y111.973
X155.502 Y112.033
X155.36 Y112.082
X155.213 Y112.119
X155.06 Y112.145
X154.902 Y112.159
X154.741 Y112.16
X154.578 Y112.149
X154.414 Y112.123
X154.251 Y112.085
X154.09 Y112.032
X153.932 Y111.967
X153.779 Y111.888
X153.631 Y111.796
X153.491 Y111.693
X153.358 Y111.577
X153.234 Y111.451
X153.121 Y111.314
X153.018 Y111.169
X152.927 Y111.015
X152.848 Y110.853
X152.783 Y110.686
X152.731 Y110.513
X152.692 Y110.336
X152.669 Y110.157
X152.659 Y109.976
X152.664 Y109.794
X152.684 Y109.614
X152.718 Y109.435
X152.767 Y109.259
X152.829 Y109.088
X152.905 Y108.922
X152.995 Y108.763
X153.096 Y108.611
X153.21 Y108.468
X153.335 Y108.335
X153.47 Y108.212
X153.615 Y108.1
X153.768 Y108.
X153.929 Y107.912
X154.096 Y107.838
X154.269 Y107.778
X154.446 Y107.731
X154.626 Y107.699
X154.808 Y107.681
X154.992 Y107.679
X155.174 Y107.69
X155.356 Y107.717
X155.534 Y107.758
X155.709 Y107.813
X155.879 Y107.882
X156.042 Y107.964
X156.199 Y108.06
X156.347 Y108.167
X156.487 Y108.286
X156.616 Y108.416
X156.734 Y108.556
X156.841 Y108.705
X156.943 Y108.874
X157.06 Y109.109
X157.221 Y109.51
X157.311 Y109.8
X157.367 Y110.048
X157.398 Y110.272
X157.411 Y110.488
X157.407 Y110.698
X157.387 Y110.9
X157.351 Y111.094
X157.301 Y111.282
X157.235 Y111.466
X157.155 Y111.646
X157.059 Y111.82
X156.95 Y111.986
X156.826 Y112.144
X156.69 Y112.293
X156.539 Y112.432
X156.377 Y112.56
X156.201 Y112.676
X156.014 Y112.78
X155.816 Y112.87
X155.609 Y112.944
X155.393 Y113.003
X155.171 Y113.044
X154.943 Y113.068
X154.711 Y113.074
X154.477 Y113.061
X154.243 Y113.028
X154.009 Y112.977
X153.779 Y112.906
X153.554 Y112.817
X153.335 Y112.709
X153.124 Y112.583
X152.923 Y112.44
X152.733 Y112.28
X152.555 Y112.104
X152.391 Y111.914
X152.243 Y111.711
X152.111 Y111.495
X151.996 Y111.269
X151.899 Y111.034
X151.821 Y110.791
X151.763 Y110.542
X151.725 Y110.288
X151.708 Y110.032
X151.711 Y109.775
X151.735 Y109.519
X151.779 Y109.265
X151.844 Y109.015
X151.928 Y108.771
X152.032 Y108.534
X152.155 Y108.306
X152.296 Y108.089
X152.454 Y107.883
X152.627 Y107.691
X152.816 Y107.513
X153.019 Y107.351
X153.234 Y107.206
X153.46 Y107.078
X153.695 Y106.969
X153.939 Y106.879
X154.189 Y106.809
X154.444 Y106.759
X154.702 Y106.73
X154.962 Y106.722
X155.222 Y106.734
X155.48 Y106.767
X155.734 Y106.821
X155.983 Y106.896
X156.226 Y106.989
X156.46 Y107.103
X156.684 Y107.234
X156.897 Y107.383
X157.1 Y107.551
X157.299 Y107.745
X157.509 Y107.984
X157.703 Y108.246
X157.883 Y108.534
X158.039 Y108.834
X158.167 Y109.138
X158.267 Y109.442
X158.34 Y109.745
X158.387 Y110.045
X158.391 Y110.095
X158.393 Y110.143
X158.392 Y110.192
X158.387 Y110.24
X158.314 Y110.8
X158.299 Y110.873
X158.272 Y110.942
X157.978 Y111.65
X157.963 Y111.686
X157.942 Y111.721
X157.448 Y112.366
X157.417 Y112.405
X157.397 Y112.427
X157.377 Y112.445
X156.704 Y112.96
X156.669 Y112.982
X156.598 Y113.013
X155.889 Y113.307
X155.854 Y113.32
X155.818 Y113.329
X155.747 Y113.34
X154.968 Y113.442
X154.932 Y113.443
X154.897 Y113.441
X154.188 Y113.348
X154.046 Y113.327
X153.904 Y113.274
X153.337 Y113.038
X153.196 Y112.977
X153.125 Y112.926
X152.57 Y112.501
X152.487 Y112.435
X152.421 Y112.359
X151.986 Y111.792
X151.92 Y111.7
X151.896 Y111.65
X151.602 Y110.942
X151.575 Y110.871
X151.561 Y110.8
X151.467 Y110.091
X151.453 Y109.949
X151.47 Y109.808
X151.564 Y109.099
X151.571 Y109.063
X151.581 Y109.028
X151.904 Y108.248
X151.92 Y108.218
X152.001 Y108.107
X152.436 Y107.54
X152.487 Y107.484
X152.629 Y107.373
X153.15 Y106.973
X153.196 Y106.942
X153.337 Y106.88
X154.011 Y106.602
X154.046 Y106.592
X154.188 Y106.571
X154.897 Y106.477
X154.932 Y106.475
X154.968 Y106.476
X155.747 Y106.579
X155.818 Y106.589
X155.854 Y106.599
X155.889 Y106.612
X156.598 Y106.905
X156.661 Y106.933
X156.724 Y106.973
X157.307 Y107.42
X157.372 Y107.471
X157.41 Y107.505
X157.448 Y107.553
X157.928 Y108.178
X157.952 Y108.213
X157.97 Y108.248
X158.264 Y108.957
X158.299 Y109.045
X158.311 Y109.099
X158.404 Y109.808
X158.421 Y109.949
X158.407 Y110.091
X158.387 Y110.24
G3 X158.028 Y110.484 I-0.296 J-0.049
G1 X157.981 Y110.46 Z0.005
X157.935 Y110.437 Z0.019
X157.892 Y110.415 Z0.042
X157.865 Y110.374 Z0.079
X157.842 Y110.341 Z0.126
X157.824 Y110.316 Z0.18
X157.814 Y110.301 Z0.238
X157.81 Y110.295 Z0.3
Z5.
X223.712 Y10.686
Z2.55
S5000
G3 X221.323 Y10.915 Z2.452 I-1.275 J-0.728 F30.
X221.909 Y8.591 Z2.354 I1.112 J-0.955
X223.899 Y9.922 Z2.256 I0.526 J1.367
X221.979 Y11.348 Z2.158 I-1.462 J0.036
X221.282 Y9.064 Z2.06 I0.457 J-1.388
X223.665 Y9.174 Z1.962 I1.152 J0.895
X222.762 Y11.379 Z1.863 I-1.229 J0.784
X220.991 Y9.789 Z1.765 I-0.325 J-1.419
X223.08 Y8.656 Z1.667 I1.444 J0.17
X223.445 Y11.002 Z1.569 I-0.645 J1.302
X221.116 Y10.558 Z1.471 I-1.008 J-1.043
X222.315 Y8.516 Z1.373 I1.32 J-0.598
X223.834 Y10.329 Z1.275 I0.12 J1.442
X221.618 Y11.15 Z1.177 I-1.397 J-0.371
X221.589 Y8.79 Z1.079 I0.818 J-1.19
X223.819 Y9.555 Z0.981 I0.845 J1.168
X222.352 Y11.396 Z0.883 I-1.383 J0.403
X221.112 Y9.398 Z0.785 I0.084 J-1.436
X223.408 Y8.902 Z0.687 I1.323 J0.561
X223.104 Y11.228 Z0.588 I-0.972 J1.056
X221.017 Y10.162 Z0.49 I-0.668 J-1.269
X222.72 Y8.556 Z0.392 I1.418 J-0.203
X223.66 Y10.697 Z0.294 I-0.285 J1.402
X221.331 Y10.863 Z0.196 I-1.223 J-0.738
X221.956 Y8.616 Z0.098 I1.105 J-0.903
X223.86 Y9.958 Z0. I0.479 J1.342
X221.01 I-1.425 J0.
X223.86 I1.425 J0.
S9000
G1 X223.89 Y10.582 F1000.
X223.915 Y10.656
X223.943 Y10.803
X223.941 Y10.953
X223.913 Y11.1
X223.864 Y11.242
X223.797 Y11.376
X223.715 Y11.502
X223.619 Y11.617
X223.512 Y11.723
X223.396 Y11.817
X223.271 Y11.9
X223.139 Y11.972
X223.002 Y12.032
X222.86 Y12.081
X222.712 Y12.118
X222.559 Y12.144
X222.402 Y12.158
X222.241 Y12.159
X222.078 Y12.147
X221.914 Y12.122
X221.751 Y12.083
X221.59 Y12.031
X221.432 Y11.965
X221.279 Y11.887
X221.131 Y11.795
X220.99 Y11.691
X220.858 Y11.576
X220.734 Y11.45
X220.62 Y11.313
X220.517 Y11.168
X220.426 Y11.014
X220.348 Y10.852
X220.282 Y10.685
X220.23 Y10.512
X220.192 Y10.335
X220.168 Y10.156
X220.159 Y9.975
X220.164 Y9.793
X220.184 Y9.613
X220.218 Y9.434
X220.266 Y9.258
X220.329 Y9.087
X220.405 Y8.921
X220.494 Y8.762
X220.596 Y8.61
X220.71 Y8.467
X220.835 Y8.334
X220.97 Y8.211
X221.114 Y8.099
X221.268 Y7.999
X221.428 Y7.911
X221.596 Y7.837
X221.768 Y7.777
X221.946 Y7.73
X222.126 Y7.698
X222.308 Y7.68
X222.491 Y7.677
X222.674 Y7.689
X222.855 Y7.716
X223.034 Y7.757
X223.209 Y7.812
X223.378 Y7.881
X223.542 Y7.963
X223.699 Y8.058
X223.847 Y8.166
X223.986 Y8.285
X224.116 Y8.415
X224.234 Y8.555
X224.341 Y8.704
X224.443 Y8.873
X224.56 Y9.108
X224.721 Y9.509
X224.811 Y9.799
X224.866 Y10.047
X224.898 Y10.271
X224.911 Y10.486
X224.907 Y10.697
X224.886 Y10.899
X224.851 Y11.093
X224.801 Y11.281
X224.735 Y11.465
X224.654 Y11.645
X224.559 Y11.819
X224.449 Y11.985
X224.326 Y12.143
X224.189 Y12.291
X224.039 Y12.43
X223.876 Y12.559
X223.701 Y12.675
X223.514 Y12.779
X223.316 Y12.868
X223.109 Y12.943
X222.893 Y13.002
X222.67 Y13.043
X222.443 Y13.067
X222.211 Y13.073
X221.977 Y13.059
X221.742 Y13.027
X221.509 Y12.976
X221.279 Y12.905
X221.054 Y12.816
X220.835 Y12.708
X220.624 Y12.582
X220.422 Y12.438
X220.232 Y12.279
X220.055 Y12.103
X219.891 Y11.913
X219.742 Y11.71
X219.61 Y11.494
X219.495 Y11.268
X219.399 Y11.033
X219.321 Y10.79
X219.263 Y10.541
X219.225 Y10.287
X219.208 Y10.031
X219.211 Y9.774
X219.234 Y9.518
X219.279 Y9.264
X219.343 Y9.014
X219.428 Y8.77
X219.532 Y8.533
X219.655 Y8.305
X219.795 Y8.088
X219.953 Y7.882
X220.127 Y7.69
X220.316 Y7.512
X220.518 Y7.35
X220.733 Y7.205
X220.959 Y7.077
X221.195 Y6.968
X221.439 Y6.878
X221.689 Y6.808
X221.944 Y6.758
X222.202 Y6.729
X222.462 Y6.721
X222.722 Y6.733
X222.979 Y6.766
X223.234 Y6.82
X223.483 Y6.894
X223.725 Y6.988
X223.959 Y7.101
X224.184 Y7.233
X224.397 Y7.382
X224.6 Y7.55
X224.799 Y7.743
X225.008 Y7.983
X225.203 Y8.245
X225.383 Y8.532
X225.539 Y8.833
X225.666 Y9.137
X225.766 Y9.441
X225.84 Y9.744
X225.887 Y10.044
X225.891 Y10.097
X225.893 Y10.145
X225.892 Y10.193
X225.887 Y10.241
X225.823 Y10.726
X225.8 Y10.867
X225.776 Y10.932
X225.472 Y11.667
X225.443 Y11.718
X225.337 Y11.86
X224.926 Y12.395
X224.895 Y12.427
X224.784 Y12.516
X224.217 Y12.951
X224.181 Y12.975
X224.145 Y12.994
X223.461 Y13.277
X223.366 Y13.315
X223.331 Y13.326
X223.296 Y13.333
X222.516 Y13.436
X222.445 Y13.443
X222.374 Y13.438
X221.665 Y13.345
X221.524 Y13.321
X221.382 Y13.264
X220.729 Y12.994
X220.673 Y12.962
X220.39 Y12.746
X220.106 Y12.528
X219.979 Y12.427
X219.964 Y12.412
X219.864 Y12.285
X219.538 Y11.86
X219.431 Y11.718
X219.412 Y11.686
X219.397 Y11.654
X219.114 Y10.969
X219.075 Y10.867
X219.051 Y10.726
X218.958 Y10.017
X218.954 Y9.981
Y9.946
X218.961 Y9.875
X219.064 Y9.096
X219.071 Y9.06
X219.083 Y9.025
X219.397 Y8.264
X219.419 Y8.219
X219.449 Y8.174
X219.884 Y7.607
X219.964 Y7.506
X220.009 Y7.465
X220.673 Y6.955
X220.703 Y6.937
X220.733 Y6.923
X221.477 Y6.615
X221.524 Y6.598
X221.665 Y6.574
X222.374 Y6.48
X222.445 Y6.476
X222.516 Y6.483
X223.296 Y6.585
X223.331 Y6.592
X223.366 Y6.603
X223.397 Y6.615
X224.149 Y6.927
X224.183 Y6.945
X224.217 Y6.967
X224.866 Y7.465
X224.896 Y7.492
X224.926 Y7.523
X225.425 Y8.174
X225.448 Y8.206
X225.466 Y8.238
X225.776 Y8.986
X225.792 Y9.025
X225.803 Y9.06
X225.811 Y9.096
X225.918 Y9.914
X225.921 Y9.959
X225.918 Y10.005
X225.887 Y10.241
G3 X225.528 Y10.485 I-0.296 J-0.049
G1 X225.481 Y10.461 Z0.005
X225.435 Y10.438 Z0.019
X225.392 Y10.416 Z0.042
X225.364 Y10.376 Z0.079
X225.341 Y10.342 Z0.126
X225.324 Y10.318 Z0.18
X225.314 Y10.302 Z0.238
X225.31 Y10.297 Z0.3
Z5.
X223.712 Y60.687
Z2.55
S5000
G3 X221.323 Y60.915 Z2.452 I-1.275 J-0.728 F30.
X221.909 Y58.592 Z2.354 I1.112 J-0.955
X223.899 Y59.923 Z2.256 I0.526 J1.367
X221.979 Y61.348 Z2.158 I-1.462 J0.036
X221.282 Y59.064 Z2.06 I0.457 J-1.388
