(1007)
(COUNTERBORING SPOIL BOARD)
(MACHINE)
(  VENDOR HOMEMADE)
(  DESCRIPTION GENERIC 3-AXIS)
(T4  D=3. CR=0. - ZMIN=-1. - FLAT END MILL)
G90 G94 G91.1 G40 G49 G17
G21
(WHEN USING FUSION 360 FOR PERSONAL USE, THE FEEDRATE OF)
(RAPID MOVES IS REDUCED TO MATCH THE FEEDRATE OF CUTTING)
(MOVES, WHICH CAN INCREASE MACHINING TIME. UNRESTRICTED RAPID)
(MOVES ARE AVAILABLE WITH A FUSION 360 SUBSCRIPTION.)
G28 G91 Z0.
G90

(COUNTERBORE)
M5
T4 M6
S9000 M3
G54
G0 X19.937 Y9.96
G43 Z5. H4
G1 Z0.25 F1000.
Z0. F40.
X19.923 Y9.994 F1000.
X19.892 Y9.973
X19.889 Y9.936
X19.912 Y9.907
X19.949 Y9.899
X19.983 Y9.914
X20.007 Y9.943
X20.019 Y9.978
X20.016 Y10.016
X20. Y10.049
X19.971 Y10.074
X19.937 Y10.089
X19.9 Y10.094
X19.826 Y10.081
X19.767 Y10.035
X19.734 Y9.968
X19.729 Y9.893
X19.751 Y9.822
X19.796 Y9.762
X19.857 Y9.719
X19.929 Y9.697
X20.004 Y9.695
X20.15 Y9.731
X20.26 Y9.833
X20.315 Y9.972
X20.31 Y10.122
X20.251 Y10.26
X20.148 Y10.369
X20.016 Y10.441
X19.869 Y10.469
X19.72 Y10.452
X19.581 Y10.395
X19.463 Y10.303
X19.373 Y10.183
X19.317 Y10.044
X19.295 Y9.895
X19.309 Y9.746
X19.358 Y9.604
X19.437 Y9.477
X19.542 Y9.369
X19.666 Y9.285
X19.804 Y9.227
X19.951 Y9.198
X20.101 Y9.196
X20.249 Y9.222
X20.389 Y9.276
X20.517 Y9.353
X20.629 Y9.453
X20.723 Y9.57
X20.794 Y9.702
X20.843 Y9.844
X20.868 Y9.992
X20.869 Y10.142
X20.847 Y10.29
X20.801 Y10.433
X20.735 Y10.568
X20.649 Y10.691
X20.547 Y10.8
X20.429 Y10.893
X20.3 Y10.969
X20.161 Y11.025
X20.016 Y11.063
X19.866 Y11.079
X19.716 Y11.077
X19.568 Y11.053
X19.424 Y11.011
X19.287 Y10.95
X19.159 Y10.873
X19.041 Y10.78
X18.936 Y10.673
X18.845 Y10.553
X18.769 Y10.424
X18.71 Y10.286
X18.667 Y10.143
X18.642 Y9.995
X18.634 Y9.845
X18.644 Y9.695
X18.67 Y9.548
X18.714 Y9.404
X18.773 Y9.266
X18.846 Y9.135
X18.934 Y9.014
X19.034 Y8.902
X19.146 Y8.802
X19.267 Y8.714
X19.397 Y8.64
X19.535 Y8.579
X19.677 Y8.533
X19.824 Y8.501
X19.973 Y8.485
X20.123 Y8.484
X20.272 Y8.498
X20.42 Y8.526
X20.563 Y8.569
X20.702 Y8.626
X20.835 Y8.696
X20.96 Y8.778
X21.077 Y8.872
X21.184 Y8.977
X21.282 Y9.091
X21.368 Y9.214
X21.442 Y9.345
X21.504 Y9.481
X21.553 Y9.623
X21.589 Y9.768
X21.612 Y9.917
X21.622 Y10.066
X21.618 Y10.216
X21.601 Y10.365
X21.571 Y10.512
X21.528 Y10.656
X21.474 Y10.796
X21.407 Y10.93
X21.329 Y11.059
X21.241 Y11.18
X21.142 Y11.293
X21.035 Y11.398
X20.919 Y11.493
X20.796 Y11.579
X20.667 Y11.654
X20.53 Y11.719
X20.39 Y11.772
X20.242 Y11.815
X20.095 Y11.845
X19.945 Y11.863
X19.788 Y11.869
X19.638 Y11.863
X19.483 Y11.844
X19.329 Y11.812
X19.183 Y11.77
X19.033 Y11.713
X18.891 Y11.645
X18.755 Y11.567
X18.621 Y11.475
X18.498 Y11.375
X18.383 Y11.264
X18.273 Y11.14
X18.177 Y11.012
X18.09 Y10.875
X18.012 Y10.726
X17.947 Y10.576
X17.895 Y10.42
X17.854 Y10.255
X17.826 Y10.089
X17.812 Y9.923
Y9.751
X17.825 Y9.578
X17.852 Y9.411
X17.893 Y9.243
X17.948 Y9.075
X18.016 Y8.913
X18.096 Y8.76
X18.19 Y8.609
X18.299 Y8.464
X18.416 Y8.33
X18.544 Y8.206
X18.683 Y8.091
X18.834 Y7.986
X18.993 Y7.893
X19.157 Y7.814
X19.327 Y7.748
X19.506 Y7.695
X19.69 Y7.656
X19.877 Y7.633
X20.063 Y7.624
X20.25 Y7.63
X20.439 Y7.652
X20.628 Y7.689
X20.814 Y7.741
X20.995 Y7.808
X21.168 Y7.889
X21.336 Y7.984
X21.498 Y8.094
X21.652 Y8.217
X21.797 Y8.354
X21.93 Y8.502
X22.051 Y8.659
X22.159 Y8.827
X22.254 Y9.002
X22.334 Y9.187
X22.401 Y9.379
X22.452 Y9.578
X22.487 Y9.78
X22.506 Y9.987
X22.508 Y10.194
X22.494 Y10.402
X22.463 Y10.608
X22.415 Y10.812
X22.35 Y11.013
X22.27 Y11.208
X22.174 Y11.397
X22.062 Y11.579
X21.935 Y11.752
X21.794 Y11.916
X21.639 Y12.068
X21.472 Y12.208
X21.294 Y12.335
X21.105 Y12.448
X20.906 Y12.545
X20.7 Y12.627
X20.487 Y12.692
X20.268 Y12.74
X20.045 Y12.77
X19.819 Y12.783
X19.593 Y12.777
X19.366 Y12.753
X19.141 Y12.711
X18.92 Y12.65
X18.703 Y12.572
X18.492 Y12.476
X18.289 Y12.363
X18.095 Y12.234
X17.91 Y12.089
X17.738 Y11.929
X17.578 Y11.755
X17.433 Y11.567
X17.302 Y11.368
X17.187 Y11.159
X17.089 Y10.94
X17.008 Y10.712
X16.946 Y10.478
X16.902 Y10.239
X16.878 Y9.996
X16.873 Y9.75
X16.888 Y9.504
X16.923 Y9.26
X16.978 Y9.017
X17.052 Y8.779
X17.146 Y8.546
X17.258 Y8.321
X17.389 Y8.105
X17.537 Y7.899
X17.702 Y7.705
X17.882 Y7.524
X18.078 Y7.357
X18.286 Y7.206
X18.508 Y7.072
X18.74 Y6.955
X18.982 Y6.857
X19.231 Y6.779
X19.487 Y6.721
X19.748 Y6.683
X20.013 Y6.666
X20.279 Y6.671
X20.544 Y6.696
X20.808 Y6.744
X21.067 Y6.812
X21.322 Y6.902
X21.569 Y7.012
X21.808 Y7.142
X22.037 Y7.292
X22.253 Y7.459
X22.456 Y7.644
X22.644 Y7.846
X22.816 Y8.063
X22.97 Y8.294
X23.038 Y8.416
X23.05 Y8.441
X23.061 Y8.466
X23.175 Y8.741
X23.292 Y9.025
X23.303 Y9.06
X23.311 Y9.096
X23.413 Y9.875
X23.421 Y9.946
X23.417 Y10.017
X23.323 Y10.726
X23.3 Y10.867
X23.244 Y11.009
X23.01 Y11.576
X22.944 Y11.718
X22.919 Y11.753
X22.493 Y12.307
X22.397 Y12.427
X22.352 Y12.464
X21.715 Y12.952
X21.68 Y12.976
X21.643 Y12.995
X20.934 Y13.288
X20.863 Y13.317
X20.828 Y13.328
X20.792 Y13.334
X20.083 Y13.427
X19.942 Y13.443
X19.8 Y13.428
X19.091 Y13.335
X19.02 Y13.32
X18.949 Y13.292
X18.229 Y12.994
X18.197 Y12.976
X18.164 Y12.956
X17.532 Y12.471
X17.479 Y12.427
X17.39 Y12.319
X16.965 Y11.764
X16.931 Y11.718
X16.865 Y11.576
X16.63 Y11.009
X16.574 Y10.867
X16.551 Y10.726
X16.458 Y10.017
X16.454 Y9.946
X16.461 Y9.875
X16.564 Y9.096
X16.571 Y9.06
X16.583 Y9.025
X16.906 Y8.245
X16.925 Y8.21
X16.949 Y8.174
X17.442 Y7.533
X17.471 Y7.499
X17.508 Y7.465
X18.17 Y6.958
X18.205 Y6.936
X18.241 Y6.92
X18.977 Y6.615
X19.034 Y6.595
X19.091 Y6.584
X19.8 Y6.49
X19.942 Y6.475
X20.083 Y6.491
X20.792 Y6.585
X20.845 Y6.595
X20.898 Y6.615
X21.643 Y6.924
X21.678 Y6.941
X21.714 Y6.965
X22.366 Y7.465
X22.406 Y7.501
X22.436 Y7.536
X22.925 Y8.174
X22.95 Y8.21
X22.969 Y8.245
X23.061 Y8.466
G3 X22.871 Y8.856 I-0.281 J0.105
G1 X22.825 Y8.864 Z0.004
X22.78 Y8.871 Z0.015
X22.723 Y8.856 Z0.042
X22.673 Y8.843 Z0.081
X22.633 Y8.832 Z0.129
X22.609 Y8.816 Z0.182
X22.594 Y8.806 Z0.24
X22.589 Y8.802 Z0.3
Z5.
X19.937 Y59.96
Z0.25
Z0. F40.
X19.923 Y59.994 F1000.
X19.892 Y59.973
X19.889 Y59.936
X19.912 Y59.907
X19.949 Y59.899
X19.983 Y59.914
X20.007 Y59.943
X20.019 Y59.978
X20.016 Y60.016
X20. Y60.049
X19.971 Y60.074
X19.937 Y60.09
X19.9 Y60.094
X19.826 Y60.082
X19.767 Y60.035
X19.734 Y59.968
X19.729 Y59.893
X19.751 Y59.822
X19.796 Y59.762
X19.857 Y59.719
X19.929 Y59.697
X20.004 Y59.695
X20.15 Y59.731
X20.26 Y59.833
X20.315 Y59.973
X20.31 Y60.122
X20.251 Y60.26
X20.148 Y60.37
X20.016 Y60.441
X19.869 Y60.469
X19.72 Y60.453
X19.581 Y60.395
X19.463 Y60.303
X19.373 Y60.183
X19.317 Y60.044
X19.295 Y59.896
X19.309 Y59.746
X19.358 Y59.604
X19.437 Y59.477
X19.542 Y59.37
X19.666 Y59.286
X19.804 Y59.227
X19.951 Y59.198
X20.101 Y59.196
X20.249 Y59.222
X20.389 Y59.276
X20.517 Y59.353
X20.629 Y59.454
X20.723 Y59.571
X20.794 Y59.703
X20.843 Y59.844
X20.868 Y59.992
X20.869 Y60.142
X20.847 Y60.29
X20.801 Y60.433
X20.735 Y60.568
X20.649 Y60.691
X20.547 Y60.801
X20.429 Y60.893
X20.3 Y60.969
X20.161 Y61.026
X20.016 Y61.063
X19.866 Y61.08
X19.716 Y61.077
X19.568 Y61.053
X19.424 Y61.012
X19.287 Y60.951
X19.159 Y60.873
X19.041 Y60.78
X18.936 Y60.673
X18.845 Y60.554
X18.769 Y60.424
X18.71 Y60.287
X18.667 Y60.143
X18.642 Y59.995
X18.634 Y59.845
X18.644 Y59.695
X18.67 Y59.548
X18.714 Y59.404
X18.773 Y59.266
X18.846 Y59.136
X18.934 Y59.014
X19.034 Y58.902
X19.146 Y58.802
X19.267 Y58.714
X19.397 Y58.64
X19.534 Y58.579
X19.677 Y58.533
X19.824 Y58.501
X19.973 Y58.485
X20.123 Y58.484
X20.272 Y58.498
X20.42 Y58.526
X20.563 Y58.569
X20.702 Y58.626
X20.835 Y58.696
X20.96 Y58.779
X21.077 Y58.872
X21.184 Y58.977
X21.282 Y59.091
X21.368 Y59.214
X21.442 Y59.345
X21.504 Y59.481
X21.553 Y59.623
X21.589 Y59.769
X21.612 Y59.917
X21.622 Y60.067
X21.618 Y60.217
X21.601 Y60.366
X21.571 Y60.513
X21.528 Y60.656
X21.474 Y60.796
X21.407 Y60.93
X21.329 Y61.059
X21.241 Y61.18
X21.142 Y61.293
X21.035 Y61.398
X20.919 Y61.493
X20.796 Y61.579
X20.667 Y61.654
X20.53 Y61.719
X20.39 Y61.773
X20.242 Y61.815
X20.095 Y61.845
X19.945 Y61.863
X19.788 Y61.869
X19.638 Y61.863
X19.483 Y61.844
X19.329 Y61.813
X19.183 Y61.77
X19.033 Y61.713
X18.891 Y61.646
X18.755 Y61.567
X18.621 Y61.475
X18.498 Y61.375
X18.383 Y61.264
X18.273 Y61.141
X18.177 Y61.012
X18.09 Y60.875
X18.012 Y60.727
X17.947 Y60.576
X17.895 Y60.42
X17.854 Y60.255
X17.826 Y60.089
X17.812 Y59.923
Y59.751
X17.825 Y59.578
X17.852 Y59.411
X17.893 Y59.243
X17.948 Y59.075
X18.016 Y58.913
X18.096 Y58.76
X18.19 Y58.61
X18.299 Y58.464
X18.416 Y58.33
X18.544 Y58.206
X18.683 Y58.091
X18.834 Y57.986
X18.993 Y57.893
X19.157 Y57.814
X19.327 Y57.748
X19.506 Y57.696
X19.69 Y57.657
X19.877 Y57.633
X20.063 Y57.624
X20.25 Y57.63
X20.439 Y57.652
X20.628 Y57.689
X20.814 Y57.741
X20.995 Y57.808
X21.168 Y57.889
X21.336 Y57.984
X21.498 Y58.094
X21.652 Y58.218
X21.797 Y58.354
X21.93 Y58.502
X22.051 Y58.659
X22.159 Y58.827
X22.254 Y59.003
X22.334 Y59.187
X22.401 Y59.379
X22.452 Y59.578
X22.487 Y59.78
X22.506 Y59.987
X22.508 Y60.194
X22.494 Y60.402
X22.463 Y60.608
X22.415 Y60.812
X22.35 Y61.013
X22.27 Y61.208
X22.174 Y61.397
X22.062 Y61.579
X21.935 Y61.752
X21.794 Y61.916
X21.639 Y62.068
X21.472 Y62.208
X21.294 Y62.335
X21.105 Y62.448
X20.906 Y62.545
X20.7 Y62.627
X20.487 Y62.692
X20.268 Y62.74
X20.045 Y62.77
X19.819 Y62.783
X19.593 Y62.777
X19.366 Y62.753
X19.141 Y62.711
X18.92 Y62.651
X18.703 Y62.572
X18.492 Y62.476
X18.289 Y62.363
X18.095 Y62.234
X17.91 Y62.089
X17.738 Y61.929
X17.578 Y61.755
X17.433 Y61.568
X17.302 Y61.368
X17.187 Y61.159
X17.089 Y60.94
X17.008 Y60.712
X16.946 Y60.478
X16.902 Y60.239
X16.878 Y59.996
X16.873 Y59.75
X16.888 Y59.505
X16.923 Y59.26
X16.978 Y59.018
X17.052 Y58.779
X17.146 Y58.547
X17.258 Y58.322
X17.389 Y58.105
X17.537 Y57.899
X17.702 Y57.705
X17.882 Y57.524
X18.077 Y57.358
X18.286 Y57.207
X18.508 Y57.072
X18.74 Y56.956
X18.982 Y56.858
X19.231 Y56.779
X19.487 Y56.721
X19.748 Y56.683
X20.013 Y56.666
X20.279 Y56.671
X20.544 Y56.697
X20.808 Y56.744
X21.067 Y56.812
X21.322 Y56.902
X21.569 Y57.012
X21.808 Y57.142
X22.037 Y57.292
X22.253 Y57.46
X22.456 Y57.645
X22.644 Y57.846
X22.815 Y58.063
X22.97 Y58.294
X23.038 Y58.417
X23.05 Y58.441
X23.061 Y58.466
X23.19 Y58.778
X23.249 Y58.92
X23.304 Y59.062
X23.325 Y59.204
X23.418 Y59.912
X23.421 Y59.948
Y59.983
X23.319 Y60.763
X23.308 Y60.834
X23.3 Y60.869
X23.288 Y60.904
X22.994 Y61.613
X22.964 Y61.683
X22.917 Y61.755
X22.428 Y62.393
X22.411 Y62.413
X22.39 Y62.433
X22.352 Y62.464
X21.714 Y62.953
X21.678 Y62.977
X21.643 Y62.995
X20.871 Y63.314
X20.831 Y63.327
X20.792 Y63.334
X20.083 Y63.427
X19.942 Y63.443
X19.8 Y63.428
X19.091 Y63.335
X19.047 Y63.327
X19.004 Y63.314
X18.241 Y62.998
X18.205 Y62.981
X18.17 Y62.96
X17.522 Y62.464
X17.485 Y62.433
X17.447 Y62.393
X16.957 Y61.755
X16.911 Y61.684
X16.88 Y61.613
X16.587 Y60.904
X16.574 Y60.869
X16.566 Y60.834
X16.539 Y60.637
X16.454 Y59.983
X16.453 Y59.948
X16.456 Y59.912
X16.55 Y59.204
X16.571 Y59.062
X16.626 Y58.92
X16.86 Y58.353
X16.923 Y58.211
X16.965 Y58.154
X17.39 Y57.6
X17.468 Y57.503
X17.532 Y57.447
X18.099 Y57.012
X18.208 Y56.936
X18.241 Y56.92
X18.949 Y56.626
X19.02 Y56.599
X19.091 Y56.583
X19.8 Y56.49
X19.942 Y56.475
X20.083 Y56.491
X20.792 Y56.585
X20.828 Y56.591
X20.863 Y56.601
X21.076 Y56.689
X21.643 Y56.924
X21.667 Y56.936
X21.696 Y56.952
X21.726 Y56.974
X22.352 Y57.454
X22.407 Y57.503
X22.493 Y57.611
X22.919 Y58.165
X22.951 Y58.211
X23.014 Y58.353
X23.061 Y58.466
G3 X22.872 Y58.857 I-0.281 J0.105
G1 X22.825 Y58.864 Z0.004
X22.78 Y58.871 Z0.015
X22.723 Y58.856 Z0.042
X22.674 Y58.843 Z0.081
X22.633 Y58.833 Z0.129
X22.609 Y58.816 Z0.182
X22.594 Y58.806 Z0.24
X22.589 Y58.803 Z0.3
Z5.
X19.937 Y109.959
Z0.25
Z0. F40.
X19.923 Y109.924 F1000.
X19.96 Y109.917
X19.988 Y109.942
X19.992 Y109.979
X19.972 Y110.011
X19.937 Y110.024
X19.9 Y110.021
X19.866 Y110.004
X19.842 Y109.975
X19.83 Y109.94
X19.832 Y109.903
X19.845 Y109.867
X19.868 Y109.838
X19.93 Y109.795
X20.004 Y109.785
X20.075 Y109.809
X20.131 Y109.859
X20.166 Y109.925
X20.177 Y109.999
X20.164 Y110.073
X20.129 Y110.139
X20.077 Y110.193
X19.948 Y110.271
X19.798 Y110.277
X19.661 Y110.217
X19.558 Y110.108
X19.503 Y109.968
X19.498 Y109.819
X19.541 Y109.675
X19.625 Y109.551
X19.742 Y109.457
X19.881 Y109.4
X20.03 Y109.381
X20.178 Y109.403
X20.316 Y109.461
X20.437 Y109.551
X20.532 Y109.666
X20.598 Y109.801
X20.632 Y109.947
X20.634 Y110.097
X20.605 Y110.244
X20.55 Y110.383
X20.466 Y110.508
X20.361 Y110.615
X20.238 Y110.701
X20.101 Y110.762
X19.955 Y110.798
X19.806 Y110.806
X19.657 Y110.79
X19.513 Y110.747
X19.378 Y110.681
X19.256 Y110.594
X19.149 Y110.489
X19.06 Y110.368
X18.991 Y110.235
X18.943 Y110.093
X18.916 Y109.945
X18.911 Y109.795
X18.929 Y109.646
X18.967 Y109.501
X19.025 Y109.363
X19.102 Y109.234
X19.196 Y109.117
X19.304 Y109.013
X19.425 Y108.925
X19.556 Y108.853
X19.696 Y108.799
X19.842 Y108.763
X19.991 Y108.746
X20.141 Y108.747
X20.29 Y108.767
X20.435 Y108.805
X20.574 Y108.861
X20.706 Y108.932
X20.828 Y109.019
X20.94 Y109.119
X21.039 Y109.232
X21.124 Y109.355
X21.195 Y109.487
X21.251 Y109.627
X21.291 Y109.771
X21.315 Y109.919
X21.323 Y110.069
X21.315 Y110.219
X21.291 Y110.367
X21.252 Y110.511
X21.198 Y110.651
X21.129 Y110.785
X21.048 Y110.911
X20.954 Y111.028
X20.849 Y111.135
X20.733 Y111.23
X20.609 Y111.314
X20.477 Y111.385
X20.339 Y111.443
X20.195 Y111.488
X20.048 Y111.518
X19.899 Y111.534
X19.749 Y111.536
X19.6 Y111.524
X19.452 Y111.497
X19.307 Y111.458
X19.167 Y111.405
X19.032 Y111.339
X18.904 Y111.262
X18.783 Y111.173
X18.67 Y111.074
X18.567 Y110.965
X18.473 Y110.848
X18.391 Y110.723
X18.319 Y110.591
X18.259 Y110.454
X18.211 Y110.311
X18.176 Y110.166
X18.152 Y110.018
X18.142 Y109.868
X18.144 Y109.718
X18.158 Y109.569
X18.185 Y109.421
X18.223 Y109.276
X18.274 Y109.134
X18.335 Y108.997
X18.41 Y108.862
X18.493 Y108.737
X18.586 Y108.618
X18.693 Y108.503
X18.803 Y108.402
X18.927 Y108.305
X19.058 Y108.219
X19.191 Y108.145
X19.337 Y108.08
X19.486 Y108.027
X19.637 Y107.987
X19.797 Y107.957
X19.955 Y107.941
X20.115 Y107.938
X20.279 Y107.948
X20.438 Y107.97
X20.597 Y108.006
X20.757 Y108.056
X20.909 Y108.117
X21.057 Y108.19
X21.202 Y108.278
X21.339 Y108.376
X21.466 Y108.483
X21.588 Y108.605
X21.701 Y108.736
X21.8 Y108.874
X21.89 Y109.021
X21.969 Y109.179
X22.035 Y109.342
X22.088 Y109.507
X22.127 Y109.68
X22.153 Y109.859
X22.165 Y110.037
X22.162 Y110.215
X22.145 Y110.394
X22.113 Y110.575
X22.066 Y110.754
X22.006 Y110.925
X21.932 Y111.092
X21.843 Y111.256
X21.74 Y111.414
X21.625 Y111.563
X21.499 Y111.701
X21.362 Y111.828
X21.214 Y111.946
X21.053 Y112.054
X20.885 Y112.148
X20.71 Y112.229
X20.53 Y112.294
X20.344 Y112.346
X20.152 Y112.383
X19.955 Y112.404
X19.757 Y112.41
X19.558 Y112.399
X19.361 Y112.373
X19.166 Y112.331
X18.975 Y112.274
X18.787 Y112.2
X18.605 Y112.111
X18.428 Y112.007
X18.26 Y111.888
X18.101 Y111.756
X17.953 Y111.611
X17.816 Y111.454
X17.692 Y111.286
X17.582 Y111.108
X17.486 Y110.92
X17.405 Y110.725
X17.339 Y110.523
X17.29 Y110.315
X17.257 Y110.103
X17.241 Y109.888
X17.243 Y109.671
X17.262 Y109.454
X17.298 Y109.238
X17.352 Y109.025
X17.424 Y108.815
X17.512 Y108.612
X17.617 Y108.415
X17.738 Y108.226
X17.874 Y108.047
X18.025 Y107.879
X18.189 Y107.723
X18.366 Y107.58
X18.555 Y107.45
X18.755 Y107.337
X18.963 Y107.239
X19.181 Y107.157
X19.404 Y107.094
X19.633 Y107.048
X19.866 Y107.021
X20.101 Y107.012
X20.337 Y107.022
X20.572 Y107.051
X20.806 Y107.1
X21.035 Y107.167
X21.259 Y107.253
X21.477 Y107.357
X21.687 Y107.478
X21.886 Y107.616
X22.075 Y107.771
X22.252 Y107.942
X22.415 Y108.126
X22.564 Y108.324
X22.696 Y108.534
X22.812 Y108.755
X22.911 Y108.986
X22.99 Y109.224
X23.051 Y109.469
X23.091 Y109.72
X23.112 Y109.974
Y110.23
X23.092 Y110.485
X23.051 Y110.74
X22.989 Y110.991
X22.907 Y111.238
X22.806 Y111.478
X22.685 Y111.71
X22.545 Y111.932
X22.387 Y112.144
X22.211 Y112.342
X22.02 Y112.527
X21.814 Y112.697
X21.594 Y112.849
X21.362 Y112.984
X21.119 Y113.101
X20.866 Y113.198
X20.605 Y113.275
X20.338 Y113.331
X20.066 Y113.365
X19.792 Y113.377
X19.517 Y113.367
X19.242 Y113.336
X18.969 Y113.281
X18.838 Y113.244
X18.812 Y113.235
X18.787 Y113.225
X18.524 Y113.116
X18.241 Y112.998
X18.212 Y112.985
X18.183 Y112.969
X18.099 Y112.906
X17.532 Y112.471
X17.466 Y112.415
X17.421 Y112.359
X16.965 Y111.764
X16.923 Y111.707
X16.896 Y111.65
X16.602 Y110.942
X16.575 Y110.871
X16.561 Y110.8
X16.468 Y110.091
X16.453 Y109.949
X16.47 Y109.808
X16.564 Y109.099
X16.571 Y109.063
X16.581 Y109.028
X16.904 Y108.248
X16.93 Y108.201
X16.965 Y108.154
X17.436 Y107.54
X17.484 Y107.486
X17.532 Y107.447
X18.15 Y106.973
X18.195 Y106.942
X18.241 Y106.92
X18.949 Y106.627
X19.02 Y106.599
X19.056 Y106.589
X19.091 Y106.584
X19.8 Y106.49
X19.942 Y106.475
X20.083 Y106.491
X20.792 Y106.585
X20.828 Y106.591
X20.863 Y106.602
X20.934 Y106.63
X21.643 Y106.924
X21.684 Y106.945
X21.724 Y106.973
X22.352 Y107.454
X22.395 Y107.49
X22.438 Y107.54
X22.919 Y108.165
X22.948 Y108.207
X22.971 Y108.248
X23.293 Y109.028
X23.304 Y109.063
X23.311 Y109.099
X23.404 Y109.808
X23.421 Y109.949
X23.407 Y110.091
X23.314 Y110.8
X23.3 Y110.871
X23.272 Y110.942
X22.979 Y111.65
X22.953 Y111.702
X22.919 Y111.753
X22.454 Y112.359
X22.411 Y112.412
X22.381 Y112.441
X22.068 Y112.682
X21.75 Y112.926
X21.696 Y112.966
X21.643 Y112.995
X20.934 Y113.288
X20.863 Y113.317
X20.828 Y113.327
X20.792 Y113.334
X20.083 Y113.427
X19.942 Y113.443
X19.8 Y113.428
X19.091 Y113.335
X19.02 Y113.32
X18.949 Y113.292
X18.787 Y113.225
G3 X18.645 Y112.815 I0.125 J-0.273
G1 X18.68 Y112.775 Z0.005
X18.714 Y112.737 Z0.019
X18.746 Y112.702 Z0.042
X18.793 Y112.685 Z0.079
X18.831 Y112.672 Z0.126
X18.859 Y112.662 Z0.18
X18.877 Y112.655 Z0.238
X18.883 Y112.653 Z0.3
Z5.
X19.917 Y169.919
Z0.25
Z0. F40.
X19.895 Y169.949 F1000.
X19.87 Y169.92
X19.877 Y169.883
X19.907 Y169.861
X19.945 Y169.863
X19.974 Y169.887
X19.99 Y169.921
X19.991 Y169.958
X19.979 Y169.994
X19.955 Y170.022
X19.921 Y170.038
X19.884 Y170.044
X19.847 Y170.039
X19.779 Y170.008
X19.733 Y169.948
X19.719 Y169.874
X19.733 Y169.801
X19.773 Y169.737
X19.832 Y169.691
X19.903 Y169.666
X19.978 Y169.663
X20.051 Y169.681
X20.182 Y169.754
X20.262 Y169.88
X20.279 Y170.029
X20.236 Y170.173
X20.143 Y170.29
X20.015 Y170.369
X19.869 Y170.404
X19.72 Y170.393
X19.58 Y170.339
X19.461 Y170.247
X19.371 Y170.128
X19.315 Y169.988
X19.296 Y169.84
X19.314 Y169.691
X19.366 Y169.55
X19.45 Y169.426
X19.559 Y169.323
X19.688 Y169.247
X19.83 Y169.198
X19.979 Y169.176
X20.128 Y169.187
X20.274 Y169.223
X20.409 Y169.287
X20.531 Y169.376
X20.635 Y169.484
X20.717 Y169.609
X20.777 Y169.747
X20.812 Y169.893
X20.823 Y170.042
X20.808 Y170.191
X20.771 Y170.337
X20.71 Y170.474
X20.629 Y170.6
X20.531 Y170.713
X20.416 Y170.81
X20.289 Y170.889
X20.151 Y170.948
X20.006 Y170.988
X19.857 Y171.006
X19.707 Y171.005
X19.559 Y170.982
X19.415 Y170.941
X19.278 Y170.88
X19.15 Y170.802
X19.033 Y170.708
X18.929 Y170.6
X18.84 Y170.479
X18.766 Y170.349
X18.709 Y170.21
X18.669 Y170.065
X18.647 Y169.917
X18.643 Y169.767
X18.657 Y169.617
X18.688 Y169.471
X18.737 Y169.329
X18.801 Y169.193
X18.88 Y169.065
X18.972 Y168.947
X19.077 Y168.84
X19.193 Y168.745
X19.319 Y168.664
X19.453 Y168.596
X19.593 Y168.542
X19.738 Y168.504
X19.886 Y168.481
X20.036 Y168.473
X20.186 Y168.481
X20.334 Y168.504
X20.479 Y168.541
X20.62 Y168.594
X20.755 Y168.659
X20.883 Y168.738
X21.002 Y168.829
X21.112 Y168.931
X21.212 Y169.043
X21.3 Y169.164
X21.377 Y169.293
X21.441 Y169.429
X21.492 Y169.57
X21.53 Y169.715
X21.555 Y169.863
X21.565 Y170.012
X21.563 Y170.162
X21.546 Y170.311
X21.517 Y170.459
X21.474 Y170.602
X21.419 Y170.742
X21.352 Y170.876
X21.274 Y171.004
X21.185 Y171.125
X21.085 Y171.237
X20.977 Y171.341
X20.86 Y171.435
X20.736 Y171.519
X20.605 Y171.593
X20.469 Y171.655
X20.328 Y171.706
X20.183 Y171.745
X20.034 Y171.772
X19.885 Y171.787
X19.731 Y171.79
X19.581 Y171.781
X19.432 Y171.759
X19.279 Y171.725
X19.136 Y171.68
X18.99 Y171.621
X18.85 Y171.551
X18.72 Y171.472
X18.59 Y171.378
X18.47 Y171.276
X18.359 Y171.166
X18.254 Y171.042
X18.161 Y170.913
X18.078 Y170.776
X18.005 Y170.629
X17.944 Y170.479
X17.896 Y170.324
X17.859 Y170.161
X17.836 Y169.999
X17.825 Y169.834
X17.829 Y169.664
X17.845 Y169.497
X17.875 Y169.333
X17.919 Y169.167
X17.977 Y169.003
X18.046 Y168.848
X18.128 Y168.697
X18.226 Y168.549
X18.333 Y168.411
X18.45 Y168.283
X18.58 Y168.162
X18.722 Y168.05
X18.871 Y167.951
X19.026 Y167.864
X19.19 Y167.79
X19.363 Y167.727
X19.541 Y167.678
X19.72 Y167.645
X19.901 Y167.625
X20.087 Y167.62
X20.276 Y167.631
X20.462 Y167.656
X20.645 Y167.696
X20.823 Y167.75
X21. Y167.82
X21.173 Y167.905
X21.339 Y168.003
X21.496 Y168.115
X21.643 Y168.238
X21.781 Y168.373
X21.909 Y168.521
X22.026 Y168.681
X22.13 Y168.85
X22.22 Y169.027
X22.296 Y169.21
X22.357 Y169.4
X22.403 Y169.595
X22.433 Y169.794
X22.447 Y169.997
X22.445 Y170.202
X22.427 Y170.406
X22.391 Y170.611
X22.34 Y170.811
X22.272 Y171.008
X22.189 Y171.2
X22.09 Y171.384
X21.976 Y171.561
X21.847 Y171.729
X21.705 Y171.887
X21.55 Y172.034
X21.383 Y172.168
X21.204 Y172.289
X21.015 Y172.396
X20.817 Y172.489
X20.612 Y172.565
X20.401 Y172.624
X20.184 Y172.667
X19.963 Y172.693
X19.74 Y172.7
X19.516 Y172.69
X19.294 Y172.662
X19.072 Y172.615
X18.855 Y172.551
X18.642 Y172.469
X18.436 Y172.37
X18.238 Y172.254
X18.049 Y172.123
X17.87 Y171.975
X17.703 Y171.814
X17.549 Y171.638
X17.408 Y171.45
X17.283 Y171.251
X17.174 Y171.042
X17.082 Y170.823
X17.007 Y170.597
X16.95 Y170.365
X16.912 Y170.128
X16.893 Y169.887
X16.894 Y169.645
X16.914 Y169.402
X16.953 Y169.161
X17.012 Y168.923
X17.091 Y168.689
X17.188 Y168.462
X17.303 Y168.242
X17.437 Y168.031
X17.588 Y167.831
X17.754 Y167.643
X17.936 Y167.468
X18.133 Y167.307
X18.343 Y167.162
X18.564 Y167.034
X18.795 Y166.924
X19.036 Y166.832
X19.285 Y166.76
X19.54 Y166.707
X19.799 Y166.675
X20.06 Y166.664
X20.322 Y166.674
X20.584 Y166.705
X20.844 Y166.758
X21.1 Y166.831
X21.349 Y166.925
X21.591 Y167.038
X21.824 Y167.172
X22.047 Y167.324
X22.258 Y167.495
X22.455 Y167.683
X22.637 Y167.886
X22.802 Y168.104
X22.95 Y168.335
X23.079 Y168.579
X23.189 Y168.833
X23.278 Y169.096
X23.311 Y169.229
X23.317 Y169.255
X23.321 Y169.282
X23.366 Y169.625
X23.384 Y169.767
X23.401 Y169.909
X23.387 Y170.051
X23.294 Y170.759
X23.28 Y170.83
X23.253 Y170.901
X22.959 Y171.61
X22.942 Y171.648
X22.919 Y171.686
X22.434 Y172.319
X22.398 Y172.363
X22.352 Y172.408
X21.73 Y172.886
X21.643 Y172.945
X21.447 Y173.027
X20.863 Y173.27
X20.828 Y173.282
X20.792 Y173.29
X20.509 Y173.328
X20.083 Y173.384
X19.942 Y173.402
X19.906 Y173.403
X19.871 Y173.4
X19.091 Y173.298
X19.02 Y173.286
X18.949 Y173.26
X18.241 Y172.966
X18.173 Y172.935
X18.099 Y172.881
X17.532 Y172.446
X17.467 Y172.393
X17.43 Y172.356
X16.965 Y171.75
X16.912 Y171.68
X16.892 Y171.645
X16.876 Y171.61
X16.582 Y170.901
X16.555 Y170.83
X16.541 Y170.759
X16.448 Y170.051
X16.434 Y169.909
X16.45 Y169.767
X16.544 Y169.058
X16.55 Y169.023
X16.562 Y168.988
X16.767 Y168.491
X16.884 Y168.208
X16.9 Y168.178
X16.919 Y168.148
X17.416 Y167.499
X17.443 Y167.468
X17.474 Y167.436
X18.131 Y166.932
X18.158 Y166.912
X18.186 Y166.896
X18.241 Y166.872
X18.949 Y166.578
X19.02 Y166.552
X19.091 Y166.54
X19.871 Y166.438
X19.906 Y166.435
X19.942 Y166.436
X20.65 Y166.528
X20.792 Y166.548
X20.828 Y166.556
X20.863 Y166.568
X21.501 Y166.833
X21.643 Y166.893
X21.673 Y166.91
X21.704 Y166.932
X22.352 Y167.429
X22.389 Y167.464
X22.419 Y167.499
X22.854 Y168.066
X22.919 Y168.152
X22.937 Y168.18
X22.951 Y168.208
X23.244 Y168.917
X23.273 Y168.988
X23.284 Y169.023
X23.291 Y169.058
X23.321 Y169.282
G3 X23.037 Y169.611 I-0.299 J0.029
G1 X23.022
X22.97 Y169.598 Z0.008
X22.921 Y169.585 Z0.025
X22.875 Y169.573 Z0.052
X22.842 Y169.543 Z0.089
X22.815 Y169.518 Z0.134
X22.794 Y169.5 Z0.186
X22.782 Y169.489 Z0.242
X22.778 Y169.485 Z0.3
Z5.
X19.918 Y219.919
Z0.25
Z0. F40.
X19.955 Y219.914 F1000.
X19.952 Y219.951
X19.921 Y219.973
X19.884 Y219.967
X19.859 Y219.939
X19.855 Y219.902
X19.868 Y219.867
X19.893 Y219.839
X19.927 Y219.822
X19.964 Y219.82
X20. Y219.832
X20.03 Y219.854
X20.053 Y219.884
X20.079 Y219.954
X20.069 Y220.028
X20.027 Y220.091
X19.965 Y220.133
X19.892 Y220.149
X19.817 Y220.14
X19.749 Y220.108
X19.694 Y220.057
X19.655 Y219.993
X19.614 Y219.849
X19.647 Y219.703
X19.74 Y219.585
X19.872 Y219.514
X20.021 Y219.497
X20.167 Y219.531
X20.295 Y219.61
X20.393 Y219.723
X20.453 Y219.86
X20.473 Y220.009
X20.452 Y220.158
X20.393 Y220.296
X20.301 Y220.414
X20.183 Y220.507
X20.047 Y220.569
X19.9 Y220.598
X19.75 Y220.593
X19.605 Y220.556
X19.47 Y220.491
X19.35 Y220.401
X19.251 Y220.288
X19.174 Y220.159
X19.124 Y220.018
X19.1 Y219.87
X19.103 Y219.72
X19.134 Y219.573
X19.188 Y219.433
X19.267 Y219.305
X19.365 Y219.192
X19.48 Y219.096
X19.61 Y219.02
X19.75 Y218.966
X19.896 Y218.934
X20.046 Y218.923
X20.195 Y218.936
X20.341 Y218.97
X20.481 Y219.026
X20.611 Y219.1
X20.729 Y219.192
X20.834 Y219.299
X20.923 Y219.42
X20.996 Y219.551
X21.049 Y219.691
X21.085 Y219.837
X21.101 Y219.986
X21.098 Y220.136
X21.076 Y220.285
X21.036 Y220.429
X20.978 Y220.568
X20.904 Y220.698
X20.815 Y220.818
X20.712 Y220.927
X20.596 Y221.023
X20.47 Y221.105
X20.336 Y221.171
X20.195 Y221.222
X20.049 Y221.256
X19.9 Y221.274
X19.75 Y221.276
X19.6 Y221.261
X19.454 Y221.23
X19.311 Y221.183
X19.174 Y221.122
X19.045 Y221.046
X18.923 Y220.958
X18.812 Y220.857
X18.711 Y220.746
X18.623 Y220.625
X18.547 Y220.496
X18.484 Y220.359
X18.435 Y220.218
X18.4 Y220.072
X18.38 Y219.923
X18.374 Y219.773
X18.383 Y219.623
X18.406 Y219.475
X18.443 Y219.33
X18.494 Y219.189
X18.557 Y219.053
X18.633 Y218.923
X18.72 Y218.801
X18.819 Y218.688
X18.926 Y218.584
X19.044 Y218.49
X19.168 Y218.407
X19.3 Y218.335
X19.438 Y218.275
X19.58 Y218.227
X19.726 Y218.193
X19.874 Y218.17
X20.024 Y218.161
X20.174 Y218.164
X20.323 Y218.18
X20.47 Y218.208
X20.615 Y218.249
X20.755 Y218.301
X20.891 Y218.365
X21.021 Y218.44
X21.145 Y218.526
X21.262 Y218.62
X21.373 Y218.727
X21.472 Y218.84
X21.562 Y218.96
X21.646 Y219.093
X21.716 Y219.226
X21.777 Y219.37
X21.827 Y219.519
X21.863 Y219.667
X21.889 Y219.825
X21.901 Y219.982
Y220.139
X21.888 Y220.301
X21.863 Y220.457
X21.824 Y220.613
X21.772 Y220.769
X21.71 Y220.917
X21.634 Y221.061
X21.545 Y221.203
X21.447 Y221.334
X21.338 Y221.458
X21.215 Y221.576
X21.085 Y221.682
X20.948 Y221.777
X20.799 Y221.864
X20.643 Y221.939
X20.485 Y221.999
X20.319 Y222.048
X20.146 Y222.084
X19.972 Y222.105
X19.799 Y222.113
X19.622 Y222.107
X19.442 Y222.086
X19.267 Y222.051
X19.096 Y222.002
X18.927 Y221.939
X18.76 Y221.861
X18.6 Y221.77
X18.45 Y221.667
X18.308 Y221.553
X18.173 Y221.424
X18.047 Y221.284
X17.933 Y221.135
X17.832 Y220.977
X17.744 Y220.813
X17.668 Y220.638
X17.606 Y220.456
X17.558 Y220.269
X17.526 Y220.079
X17.509 Y219.888
X17.507 Y219.695
X17.521 Y219.5
X17.551 Y219.304
X17.597 Y219.111
X17.659 Y218.922
X17.735 Y218.738
X17.826 Y218.561
X17.931 Y218.391
X18.05 Y218.229
X18.184 Y218.075
X18.33 Y217.932
X18.488 Y217.8
X18.657 Y217.681
X18.835 Y217.575
X19.023 Y217.484
X19.217 Y217.407
X19.417 Y217.347
X19.623 Y217.302
X19.832 Y217.274
X20.045 Y217.263
X20.258 Y217.269
X20.472 Y217.292
X20.684 Y217.333
X20.893 Y217.391
X21.098 Y217.465
X21.297 Y217.556
X21.489 Y217.664
X21.673 Y217.787
X21.846 Y217.925
X22.009 Y218.077
X22.161 Y218.243
X22.298 Y218.42
X22.422 Y218.609
X22.53 Y218.809
X22.623 Y219.017
X22.699 Y219.233
X22.757 Y219.455
X22.798 Y219.682
X22.82 Y219.912
X22.824 Y220.145
X22.809 Y220.377
X22.775 Y220.61
X22.723 Y220.839
X22.652 Y221.064
X22.563 Y221.284
X22.456 Y221.497
X22.332 Y221.701
X22.191 Y221.896
X22.034 Y222.079
X21.862 Y222.25
X21.677 Y222.408
X21.479 Y222.55
X21.268 Y222.677
X21.048 Y222.787
X20.819 Y222.879
X20.581 Y222.953
X20.338 Y223.008
X20.09 Y223.043
X19.839 Y223.058
X19.586 Y223.053
X19.334 Y223.028
X19.083 Y222.982
X18.836 Y222.916
X18.594 Y222.83
X18.359 Y222.725
X18.132 Y222.6
X17.915 Y222.457
X17.709 Y222.297
X17.516 Y222.12
X17.338 Y221.928
X17.175 Y221.72
X17.028 Y221.5
X16.899 Y221.267
X16.788 Y221.024
X16.698 Y220.773
X16.627 Y220.514
X16.577 Y220.248
X16.549 Y219.979
X16.542 Y219.707
X16.558 Y219.434
X16.595 Y219.163
X16.654 Y218.895
X16.734 Y218.632
X16.836 Y218.374
X16.959 Y218.125
X17.031 Y218.004
X17.047 Y217.982
X17.063 Y217.96
X17.248 Y217.718
X17.39 Y217.533
X17.445 Y217.464
X17.532 Y217.391
X18.099 Y216.957
X18.17 Y216.905
X18.241 Y216.872
X18.949 Y216.578
X19.007 Y216.556
X19.064 Y216.544
X19.871 Y216.438
X19.906 Y216.435
X19.942 Y216.436
X20.771 Y216.544
X20.792 Y216.548
X20.828 Y216.556
X20.863 Y216.568
X21.501 Y216.833
X21.643 Y216.893
X21.67 Y216.908
X21.698 Y216.927
X22.352 Y217.429
X22.379 Y217.454
X22.406 Y217.483
X22.919 Y218.151
X22.934 Y218.175
X22.946 Y218.198
X23.025 Y218.387
X23.26 Y218.954
X23.285 Y219.025
X23.296 Y219.096
X23.399 Y219.875
X23.401 Y219.911
Y219.946
X23.308 Y220.655
X23.288 Y220.796
X23.279 Y220.832
X23.267 Y220.867
X23.002 Y221.505
X22.942 Y221.647
X22.919 Y221.686
X22.493 Y222.241
X22.404 Y222.356
X22.352 Y222.408
X21.681 Y222.923
X21.643 Y222.945
X21.501 Y223.005
X20.863 Y223.27
X20.828 Y223.282
X20.792 Y223.29
X20.509 Y223.328
X19.942 Y223.402
X19.906 Y223.403
X19.871 Y223.4
X19.091 Y223.298
X19.02 Y223.286
X18.949 Y223.26
X18.241 Y222.966
X18.198 Y222.948
X18.154 Y222.923
X18.099 Y222.881
X17.481 Y222.407
X17.43 Y222.356
X16.965 Y221.75
X16.893 Y221.647
X16.823 Y221.482
X16.568 Y220.867
X16.555 Y220.832
X16.547 Y220.796
X16.539 Y220.748
X16.434 Y219.946
X16.433 Y219.911
X16.436 Y219.875
X16.539 Y219.09
X16.551 Y219.022
X16.575 Y218.954
X16.869 Y218.245
X16.901 Y218.174
X16.965 Y218.088
X17.063 Y217.96
G3 X17.496 Y217.929 I0.232 J0.191
G1 X17.525 Y217.973 Z0.005
X17.553 Y218.016 Z0.019
X17.579 Y218.056 Z0.042
X17.587 Y218.108 Z0.083
X17.594 Y218.151 Z0.135
X17.592 Y218.178 Z0.186
X17.591 Y218.195 Z0.242
X17.59 Y218.2 Z0.3
Z5.
X19.918 Y269.919
Z0.25
Z0. F40.
X19.932 Y269.884 F1000.
X19.963 Y269.905
X19.966 Y269.942
X19.942 Y269.972
X19.906 Y269.98
X19.871 Y269.964
X19.847 Y269.936
X19.836 Y269.9
X19.838 Y269.862
X19.855 Y269.829
X19.883 Y269.804
X19.918 Y269.789
X19.955 Y269.784
X20.029 Y269.797
X20.088 Y269.843
X20.121 Y269.91
X20.126 Y269.985
X20.104 Y270.057
X20.059 Y270.117
X19.997 Y270.159
X19.926 Y270.181
X19.851 Y270.183
X19.705 Y270.147
X19.595 Y270.045
X19.539 Y269.906
X19.544 Y269.756
X19.604 Y269.618
X19.707 Y269.509
X19.839 Y269.437
X19.986 Y269.409
X20.135 Y269.426
X20.273 Y269.483
X20.392 Y269.575
X20.482 Y269.695
X20.538 Y269.834
X20.56 Y269.983
X20.545 Y270.132
X20.497 Y270.274
X20.418 Y270.401
X20.313 Y270.509
X20.189 Y270.593
X20.051 Y270.652
X19.903 Y270.681
X19.753 Y270.682
X19.606 Y270.656
X19.466 Y270.602
X19.337 Y270.525
X19.226 Y270.424
X19.132 Y270.307
X19.061 Y270.175
X19.011 Y270.034
X18.986 Y269.886
X18.985 Y269.736
X19.008 Y269.588
X19.053 Y269.445
X19.12 Y269.31
X19.206 Y269.187
X19.308 Y269.078
X19.426 Y268.985
X19.555 Y268.909
X19.694 Y268.853
X19.84 Y268.815
X19.989 Y268.799
X20.139 Y268.801
X20.287 Y268.825
X20.431 Y268.867
X20.568 Y268.928
X20.696 Y269.005
X20.814 Y269.099
X20.919 Y269.206
X21.01 Y269.325
X21.086 Y269.454
X21.145 Y269.592
X21.188 Y269.736
X21.213 Y269.884
X21.221 Y270.034
X21.211 Y270.183
X21.184 Y270.331
X21.141 Y270.474
X21.082 Y270.612
X21.008 Y270.743
X20.921 Y270.865
X20.82 Y270.976
X20.709 Y271.076
X20.587 Y271.164
X20.457 Y271.239
X20.32 Y271.3
X20.177 Y271.346
X20.03 Y271.377
X19.881 Y271.393
X19.731 Y271.395
X19.582 Y271.38
X19.434 Y271.352
X19.291 Y271.309
X19.152 Y271.252
X19.019 Y271.182
X18.894 Y271.099
X18.777 Y271.005
X18.67 Y270.901
X18.573 Y270.786
X18.487 Y270.663
X18.413 Y270.533
X18.351 Y270.396
X18.302 Y270.255
X18.265 Y270.109
X18.243 Y269.961
X18.233 Y269.811
X18.237 Y269.661
X18.254 Y269.512
X18.284 Y269.365
X18.327 Y269.221
X18.381 Y269.082
X18.448 Y268.947
X18.526 Y268.819
X18.614 Y268.698
X18.713 Y268.585
X18.82 Y268.48
X18.936 Y268.384
X19.059 Y268.299
X19.189 Y268.224
X19.325 Y268.159
X19.465 Y268.105
X19.614 Y268.063
X19.761 Y268.033
X19.91 Y268.015
X20.067 Y268.009
X20.217 Y268.015
X20.372 Y268.034
X20.526 Y268.066
X20.673 Y268.109
X20.822 Y268.165
X20.965 Y268.233
X21.1 Y268.311
X21.234 Y268.404
X21.357 Y268.504
X21.472 Y268.615
X21.582 Y268.738
X21.678 Y268.867
X21.765 Y269.004
X21.843 Y269.152
X21.908 Y269.303
X21.96 Y269.459
X22.001 Y269.624
X22.028 Y269.79
X22.042 Y269.956
X22.043 Y270.128
X22.029 Y270.301
X22.002 Y270.468
X21.962 Y270.636
X21.906 Y270.804
X21.838 Y270.966
X21.758 Y271.119
X21.664 Y271.269
X21.556 Y271.415
X21.438 Y271.549
X21.31 Y271.673
X21.171 Y271.787
X21.02 Y271.893
X20.861 Y271.986
X20.697 Y272.064
X20.527 Y272.13
X20.348 Y272.183
X20.163 Y272.222
X19.977 Y272.246
X19.79 Y272.254
X19.604 Y272.248
X19.415 Y272.226
X19.226 Y272.189
X19.04 Y272.137
X18.859 Y272.07
X18.686 Y271.989
X18.518 Y271.894
X18.356 Y271.784
X18.202 Y271.66
X18.057 Y271.524
X17.924 Y271.376
X17.803 Y271.218
X17.695 Y271.051
X17.601 Y270.875
X17.52 Y270.69
X17.454 Y270.498
X17.403 Y270.3
X17.368 Y270.097
X17.349 Y269.891
X17.347 Y269.683
X17.361 Y269.476
X17.392 Y269.269
X17.44 Y269.065
X17.505 Y268.865
X17.585 Y268.67
X17.682 Y268.48
X17.794 Y268.298
X17.92 Y268.125
X18.062 Y267.962
X18.216 Y267.81
X18.383 Y267.669
X18.562 Y267.543
X18.751 Y267.43
X18.949 Y267.333
X19.156 Y267.251
X19.369 Y267.186
X19.588 Y267.138
X19.81 Y267.108
X20.036 Y267.095
X20.263 Y267.101
X20.489 Y267.125
X20.714 Y267.168
X20.936 Y267.228
X21.153 Y267.306
X21.364 Y267.402
X21.567 Y267.515
X21.761 Y267.645
X21.945 Y267.79
X22.117 Y267.95
X22.277 Y268.124
X22.423 Y268.312
X22.554 Y268.511
X22.668 Y268.72
X22.766 Y268.94
X22.847 Y269.167
X22.909 Y269.401
X22.952 Y269.64
X22.977 Y269.883
X22.981 Y270.129
X22.966 Y270.375
X22.931 Y270.619
X22.876 Y270.862
X22.802 Y271.1
X22.708 Y271.333
X22.596 Y271.558
X22.465 Y271.774
X22.317 Y271.98
X22.152 Y272.174
X21.971 Y272.355
X21.776 Y272.521
X21.567 Y272.672
X21.346 Y272.807
X21.113 Y272.923
X20.872 Y273.021
X20.622 Y273.099
X20.366 Y273.158
X20.105 Y273.195
X19.84 Y273.212
X19.574 Y273.207
X19.309 Y273.181
X19.046 Y273.134
X18.786 Y273.065
X18.532 Y272.976
X18.284 Y272.866
X18.045 Y272.735
X17.817 Y272.586
X17.601 Y272.418
X17.398 Y272.233
X17.21 Y272.031
X17.038 Y271.814
X16.884 Y271.583
X16.817 Y271.462
X16.805 Y271.437
X16.794 Y271.412
X16.681 Y271.14
X16.581 Y270.897
X16.556 Y270.834
X16.539 Y270.748
X16.439 Y269.983
X16.433 Y269.912
X16.441 Y269.841
X16.539 Y269.09
X16.547 Y269.041
X16.56 Y268.991
X16.883 Y268.211
X16.901 Y268.176
X16.925 Y268.14
X17.429 Y267.482
X17.48 Y267.432
X18.099 Y266.957
X18.17 Y266.905
X18.241 Y266.872
X18.949 Y266.578
X19.02 Y266.552
X19.091 Y266.54
X19.86 Y266.439
X19.901 Y266.435
X19.942
X20.65 Y266.528
X20.792 Y266.548
X20.843 Y266.561
X21.501 Y266.833
X21.578 Y266.865
X21.643 Y266.893
X21.678 Y266.914
X21.714 Y266.94
X22.352 Y267.429
X22.392 Y267.467
X22.421 Y267.503
X22.91 Y268.14
X22.919 Y268.152
X22.939 Y268.185
X22.955 Y268.217
X23.275 Y268.991
X23.285 Y269.026
X23.292 Y269.062
X23.394 Y269.841
X23.402 Y269.912
X23.396 Y269.983
X23.303 Y270.692
X23.279 Y270.834
X23.202 Y271.023
X22.958 Y271.613
X22.942 Y271.649
X22.919 Y271.686
X22.485 Y272.251
X22.37 Y272.393
X22.352 Y272.408
X21.714 Y272.898
X21.678 Y272.924
X21.643 Y272.945
X21.61 Y272.96
X20.859 Y273.271
X20.826 Y273.283
X20.792 Y273.29
X20.509 Y273.328
X19.942 Y273.402
X19.906 Y273.403
X19.871 Y273.4
X19.091 Y273.298
X19.02 Y273.286
X18.949 Y273.26
X18.225 Y272.96
X18.193 Y272.946
X18.162 Y272.928
X18.099 Y272.881
X17.532 Y272.446
X17.465 Y272.393
X17.39 Y272.304
X16.915 Y271.684
X16.893 Y271.649
X16.877 Y271.613
X16.794 Y271.412
G3 X16.983 Y271.021 I0.281 J-0.105
G1 X17.03 Y271.014 Z0.004
X17.075 Y271.007 Z0.015
X17.131 Y271.022 Z0.042
X17.181 Y271.035 Z0.081
X17.222 Y271.046 Z0.129
X17.246 Y271.062 Z0.182
X17.261 Y271.072 Z0.24
X17.266 Y271.076 Z0.3
Z5.
X87.438 Y9.959
Z0.25
Z0. F40.
X87.475 Y9.954 F1000.
X87.473 Y9.992
X87.442 Y10.013
X87.405 Y10.007
X87.379 Y9.979
X87.375 Y9.942
X87.388 Y9.907
X87.413 Y9.879
X87.447 Y9.863
X87.485 Y9.86
X87.52 Y9.872
X87.551 Y9.894
X87.573 Y9.924
X87.599 Y9.994
X87.589 Y10.069
X87.547 Y10.131
X87.485 Y10.173
X87.412 Y10.19
X87.337 Y10.181
X87.269 Y10.149
X87.215 Y10.098
X87.176 Y10.033
X87.134 Y9.889
X87.167 Y9.743
X87.26 Y9.625
X87.392 Y9.555
X87.541 Y9.537
X87.687 Y9.571
X87.815 Y9.65
X87.913 Y9.763
X87.974 Y9.901
X87.993 Y10.049
X87.973 Y10.198
X87.914 Y10.336
X87.821 Y10.454
X87.704 Y10.547
X87.567 Y10.61
X87.42 Y10.638
X87.27 Y10.634
X87.125 Y10.597
X86.99 Y10.531
X86.87 Y10.441
X86.771 Y10.328
X86.695 Y10.199
X86.644 Y10.058
X86.62 Y9.91
X86.623 Y9.76
X86.654 Y9.613
X86.708 Y9.473
X86.787 Y9.346
X86.885 Y9.232
X87.001 Y9.137
X87.13 Y9.061
X87.27 Y9.006
X87.416 Y8.974
X87.566 Y8.964
X87.715 Y8.977
X87.861 Y9.011
X88.001 Y9.066
X88.131 Y9.14
X88.249 Y9.232
X88.355 Y9.339
X88.443 Y9.46
X88.516 Y9.592
X88.57 Y9.732
X88.605 Y9.877
X88.621 Y10.027
X88.619 Y10.177
X88.596 Y10.325
X88.557 Y10.469
X88.498 Y10.608
X88.425 Y10.738
X88.335 Y10.858
X88.232 Y10.968
X88.116 Y11.063
X87.991 Y11.145
X87.856 Y11.211
X87.715 Y11.262
X87.569 Y11.296
X87.42 Y11.314
X87.27 Y11.316
X87.121 Y11.301
X86.974 Y11.27
X86.831 Y11.223
X86.694 Y11.162
X86.565 Y11.087
X86.444 Y10.998
X86.332 Y10.898
X86.232 Y10.786
X86.143 Y10.665
X86.067 Y10.536
X86.004 Y10.4
X85.955 Y10.258
X85.921 Y10.112
X85.901 Y9.963
X85.895 Y9.814
X85.904 Y9.664
X85.926 Y9.516
X85.964 Y9.37
X86.014 Y9.229
X86.077 Y9.093
X86.153 Y8.964
X86.24 Y8.842
X86.339 Y8.728
X86.447 Y8.624
X86.564 Y8.53
X86.688 Y8.447
X86.82 Y8.375
X86.958 Y8.315
X87.1 Y8.268
X87.246 Y8.233
X87.394 Y8.21
X87.544 Y8.201
X87.694 Y8.204
X87.843 Y8.22
X87.99 Y8.249
X88.135 Y8.289
X88.275 Y8.342
X88.411 Y8.405
X88.541 Y8.48
X88.665 Y8.566
X88.782 Y8.661
X88.893 Y8.768
X88.992 Y8.88
X89.083 Y9.001
X89.166 Y9.133
X89.236 Y9.266
X89.297 Y9.41
X89.347 Y9.559
X89.383 Y9.707
X89.409 Y9.866
X89.421 Y10.022
Y10.179
X89.408 Y10.341
X89.383 Y10.498
X89.345 Y10.653
X89.293 Y10.809
X89.23 Y10.957
X89.154 Y11.102
X89.065 Y11.243
X88.967 Y11.374
X88.858 Y11.498
X88.735 Y11.616
X88.606 Y11.723
X88.469 Y11.817
X88.32 Y11.904
X88.163 Y11.979
X88.005 Y12.039
X87.84 Y12.088
X87.667 Y12.124
X87.492 Y12.146
X87.319 Y12.153
X87.142 Y12.147
X86.962 Y12.126
X86.787 Y12.091
X86.616 Y12.042
X86.447 Y11.979
X86.281 Y11.901
X86.12 Y11.81
X85.97 Y11.708
X85.828 Y11.593
X85.693 Y11.465
X85.567 Y11.324
X85.453 Y11.175
X85.352 Y11.018
X85.264 Y10.853
X85.188 Y10.679
X85.126 Y10.496
X85.079 Y10.309
X85.046 Y10.119
X85.029 Y9.928
X85.028 Y9.735
X85.042 Y9.54
X85.072 Y9.345
X85.117 Y9.152
X85.179 Y8.962
X85.255 Y8.779
X85.346 Y8.601
X85.451 Y8.432
X85.57 Y8.269
X85.704 Y8.116
X85.85 Y7.972
X86.008 Y7.841
X86.177 Y7.721
X86.355 Y7.615
X86.543 Y7.524
X86.737 Y7.448
X86.937 Y7.387
X87.143 Y7.343
X87.352 Y7.315
X87.565 Y7.304
X87.778 Y7.309
X87.992 Y7.333
X88.204 Y7.373
X88.413 Y7.431
X88.618 Y7.505
X88.817 Y7.597
X89.009 Y7.704
X89.193 Y7.827
X89.367 Y7.965
X89.53 Y8.117
X89.681 Y8.283
X89.818 Y8.46
X89.942 Y8.649
X90.05 Y8.849
X90.143 Y9.057
X90.219 Y9.273
X90.277 Y9.495
X90.318 Y9.722
X90.34 Y9.952
X90.344 Y10.185
X90.329 Y10.417
X90.295 Y10.65
X90.243 Y10.879
X90.172 Y11.104
X90.083 Y11.324
X89.976 Y11.537
X89.852 Y11.741
X89.711 Y11.936
X89.554 Y12.12
X89.383 Y12.29
X89.198 Y12.448
X88.999 Y12.59
X88.789 Y12.717
X88.568 Y12.827
X88.339 Y12.919
X88.102 Y12.993
X87.858 Y13.048
X87.61 Y13.083
X87.359 Y13.098
X87.107 Y13.093
X86.854 Y13.068
X86.603 Y13.022
X86.356 Y12.956
X86.114 Y12.871
X85.879 Y12.765
X85.652 Y12.641
X85.435 Y12.498
X85.229 Y12.337
X85.037 Y12.161
X84.858 Y11.968
X84.695 Y11.761
X84.548 Y11.54
X84.419 Y11.308
X84.309 Y11.065
X84.218 Y10.813
X84.147 Y10.554
X84.098 Y10.289
X84.069 Y10.019
X84.063 Y9.747
X84.078 Y9.475
X84.115 Y9.204
X84.174 Y8.935
X84.254 Y8.672
X84.356 Y8.415
X84.479 Y8.166
X84.553 Y8.042
X84.568 Y8.02
X84.584 Y7.998
X84.775 Y7.749
X84.939 Y7.536
X84.969 Y7.501
X85.009 Y7.464
X85.647 Y6.975
X85.683 Y6.949
X85.718 Y6.93
X85.86 Y6.871
X86.477 Y6.615
X86.523 Y6.598
X86.569 Y6.587
X87.277 Y6.493
X87.419 Y6.476
X87.455
X87.49 Y6.479
X88.27 Y6.582
X88.334 Y6.593
X88.398 Y6.615
X89.12 Y6.914
X89.191 Y6.949
X89.262 Y7.002
X89.866 Y7.465
X89.896 Y7.492
X89.926 Y7.524
X90.425 Y8.174
X90.45 Y8.21
X90.469 Y8.245
X90.792 Y9.025
X90.803 Y9.06
X90.811 Y9.096
X90.913 Y9.875
X90.921 Y9.946
X90.917 Y10.017
X90.821 Y10.741
X90.8 Y10.867
X90.744 Y11.009
X90.51 Y11.576
X90.444 Y11.718
X90.396 Y11.782
X89.971 Y12.336
X89.896 Y12.427
X89.829 Y12.482
X89.262 Y12.917
X89.204 Y12.961
X89.145 Y12.994
X88.411 Y13.298
X88.341 Y13.323
X88.27 Y13.337
X87.49 Y13.439
X87.455 Y13.443
X87.419 Y13.442
X87.229 Y13.419
X86.569 Y13.332
X86.533 Y13.324
X86.498 Y13.312
X85.718 Y12.989
X85.683 Y12.969
X85.647 Y12.943
X85.009 Y12.454
X84.978 Y12.427
X84.864 Y12.285
X84.442 Y11.735
X84.43 Y11.718
X84.41 Y11.682
X84.394 Y11.647
X84.13 Y11.009
X84.074 Y10.867
X84.051 Y10.726
X83.958 Y10.017
X83.954 Y9.946
X83.961 Y9.875
X84.064 Y9.096
X84.071 Y9.06
X84.083 Y9.025
X84.404 Y8.25
X84.421 Y8.217
X84.442 Y8.183
X84.584 Y7.998
G3 X85.017 Y7.967 I0.231 J0.191
G1 X85.046 Y8.011 Z0.005
X85.074 Y8.054 Z0.019
X85.1 Y8.094 Z0.042
X85.109 Y8.146 Z0.083
X85.116 Y8.189 Z0.135
X85.114 Y8.216 Z0.186
X85.112 Y8.233 Z0.242
Y8.238 Z0.3
Z5.
X87.437 Y59.959
Z0.25
Z0. F40.
X87.4 Y59.954 F1000.
X87.412 Y59.919
X87.448 Y59.906
X87.482 Y59.922
X87.499 Y59.955
X87.494 Y59.992
X87.472 Y60.022
X87.44 Y60.043
X87.404 Y60.05
X87.367 Y60.043
X87.336 Y60.022
X87.312 Y59.993
X87.298 Y59.958
X87.291 Y59.884
X87.32 Y59.814
X87.376 Y59.765
X87.447 Y59.741
X87.522 Y59.744
X87.592 Y59.771
X87.649 Y59.82
X87.689 Y59.883
X87.71 Y59.955
X87.713 Y60.105
X87.643 Y60.238
X87.523 Y60.328
X87.377 Y60.362
X87.228 Y60.34
X87.096 Y60.269
X86.993 Y60.16
X86.927 Y60.025
X86.905 Y59.877
X86.924 Y59.728
X86.983 Y59.59
X87.076 Y59.472
X87.195 Y59.382
X87.333 Y59.322
X87.481 Y59.297
X87.63 Y59.308
X87.774 Y59.351
X87.905 Y59.424
X88.018 Y59.523
X88.111 Y59.641
X88.177 Y59.775
X88.218 Y59.92
X88.23 Y60.069
X88.214 Y60.218
X88.173 Y60.363
X88.105 Y60.496
X88.016 Y60.617
X87.907 Y60.72
X87.783 Y60.805
X87.647 Y60.867
X87.502 Y60.907
X87.353 Y60.924
X87.203 Y60.917
X87.056 Y60.888
X86.915 Y60.837
X86.783 Y60.766
X86.663 Y60.676
X86.556 Y60.571
X86.465 Y60.451
X86.392 Y60.321
X86.337 Y60.181
X86.301 Y60.035
X86.285 Y59.886
X86.288 Y59.736
X86.312 Y59.588
X86.353 Y59.444
X86.413 Y59.306
X86.489 Y59.177
X86.581 Y59.058
X86.686 Y58.951
X86.804 Y58.858
X86.932 Y58.78
X87.068 Y58.717
X87.21 Y58.671
X87.358 Y58.642
X87.507 Y58.629
X87.657 Y58.634
X87.806 Y58.655
X87.951 Y58.692
X88.091 Y58.745
X88.225 Y58.813
X88.35 Y58.895
X88.467 Y58.99
X88.573 Y59.096
X88.667 Y59.213
X88.748 Y59.339
X88.817 Y59.472
X88.871 Y59.612
X88.911 Y59.757
X88.936 Y59.905
X88.947 Y60.054
X88.942 Y60.204
X88.924 Y60.353
X88.89 Y60.499
X88.843 Y60.642
X88.783 Y60.779
X88.709 Y60.91
X88.624 Y61.033
X88.527 Y61.148
X88.421 Y61.253
X88.305 Y61.349
X88.181 Y61.433
X88.049 Y61.505
X87.912 Y61.566
X87.77 Y61.614
X87.624 Y61.649
X87.476 Y61.671
X87.326 Y61.68
X87.176 Y61.676
X87.027 Y61.66
X86.88 Y61.63
X86.736 Y61.588
X86.596 Y61.534
X86.461 Y61.469
X86.332 Y61.392
X86.21 Y61.305
X86.095 Y61.208
X85.989 Y61.103
X85.891 Y60.987
X85.803 Y60.866
X85.724 Y60.734
X85.657 Y60.599
X85.601 Y60.46
X85.554 Y60.31
X85.521 Y60.163
X85.499 Y60.008
X85.49 Y59.852
X85.493 Y59.699
X85.509 Y59.54
X85.538 Y59.385
X85.578 Y59.234
X85.633 Y59.081
X85.698 Y58.936
X85.775 Y58.796
X85.866 Y58.658
X85.965 Y58.531
X86.075 Y58.412
X86.198 Y58.298
X86.327 Y58.197
X86.464 Y58.106
X86.613 Y58.023
X86.766 Y57.954
X86.923 Y57.898
X87.089 Y57.852
X87.259 Y57.821
X87.428 Y57.803
X87.6 Y57.799
X87.777 Y57.809
X87.951 Y57.833
X88.12 Y57.87
X88.289 Y57.922
X88.458 Y57.989
X88.618 Y58.068
X88.77 Y58.16
X88.917 Y58.264
X89.058 Y58.383
X89.189 Y58.513
X89.308 Y58.65
X89.415 Y58.798
X89.513 Y58.956
X89.598 Y59.125
X89.669 Y59.299
X89.726 Y59.477
X89.768 Y59.658
X89.796 Y59.847
X89.809 Y60.039
X89.807 Y60.232
X89.789 Y60.424
X89.756 Y60.612
X89.708 Y60.799
X89.644 Y60.984
X89.564 Y61.165
X89.47 Y61.34
X89.361 Y61.507
X89.241 Y61.664
X89.107 Y61.812
X88.961 Y61.949
X88.804 Y62.075
X88.635 Y62.189
X88.457 Y62.289
X88.271 Y62.376
X88.076 Y62.447
X87.877 Y62.503
X87.672 Y62.543
X87.465 Y62.566
X87.255 Y62.573
X87.045 Y62.563
X86.836 Y62.536
X86.628 Y62.492
X86.423 Y62.431
X86.223 Y62.353
X86.028 Y62.259
X85.841 Y62.149
X85.663 Y62.024
X85.494 Y61.884
X85.336 Y61.731
X85.191 Y61.565
X85.058 Y61.387
X84.94 Y61.197
X84.837 Y60.998
X84.75 Y60.791
X84.68 Y60.576
X84.627 Y60.356
X84.591 Y60.131
X84.574 Y59.903
X84.575 Y59.673
X84.594 Y59.443
X84.632 Y59.215
X84.689 Y58.989
X84.763 Y58.768
X84.856 Y58.553
X84.966 Y58.345
X85.093 Y58.146
X85.236 Y57.956
X85.394 Y57.778
X85.567 Y57.613
X85.753 Y57.462
X85.952 Y57.325
X86.162 Y57.204
X86.382 Y57.1
X86.61 Y57.014
X86.846 Y56.946
X87.088 Y56.897
X87.333 Y56.867
X87.581 Y56.857
X87.831 Y56.867
X88.08 Y56.897
X88.326 Y56.947
X88.568 Y57.017
X88.806 Y57.107
X89.036 Y57.216
X89.258 Y57.344
X89.469 Y57.489
X89.669 Y57.652
X89.856 Y57.831
X90.029 Y58.025
X90.186 Y58.234
X90.326 Y58.454
X90.449 Y58.686
X90.553 Y58.929
X90.638 Y59.18
X90.703 Y59.438
X90.746 Y59.701
X90.769 Y59.968
X90.77 Y60.236
X90.749 Y60.505
X90.707 Y60.773
X90.643 Y61.037
X90.558 Y61.297
X90.452 Y61.549
X90.325 Y61.793
X90.179 Y62.026
X90.015 Y62.248
X89.832 Y62.457
X89.732 Y62.553
X89.712 Y62.571
X89.69 Y62.588
X89.404 Y62.808
X89.262 Y62.917
X89.191 Y62.969
X89.12 Y63.004
X88.371 Y63.314
X88.32 Y63.329
X88.27 Y63.337
X87.49 Y63.439
X87.455 Y63.443
X87.419 Y63.442
X87.277 Y63.425
X86.569 Y63.332
X86.536 Y63.325
X86.504 Y63.314
X85.818 Y63.031
X85.718 Y62.989
X85.683 Y62.969
X85.647 Y62.943
X85.009 Y62.454
X84.976 Y62.424
X84.943 Y62.388
X84.442 Y61.735
X84.422 Y61.705
X84.406 Y61.674
X84.3 Y61.421
X84.087 Y60.904
X84.074 Y60.869
X84.066 Y60.834
X84.056 Y60.763
X83.954 Y59.983
X83.953 Y59.948
X83.956 Y59.912
X84.05 Y59.204
X84.071 Y59.062
X84.126 Y58.92
X84.36 Y58.353
X84.424 Y58.211
X84.442 Y58.184
X84.868 Y57.629
X84.967 Y57.503
X85.009 Y57.465
X85.576 Y57.029
X85.707 Y56.936
X85.718 Y56.93
X86.498 Y56.607
X86.533 Y56.594
X86.569 Y56.587
X87.277 Y56.493
X87.419 Y56.476
X87.561 Y56.488
X88.27 Y56.582
X88.341 Y56.595
X88.411 Y56.621
X89.12 Y56.914
X89.167 Y56.936
X89.262 Y57.002
X89.829 Y57.437
X89.907 Y57.503
X89.971 Y57.582
X90.396 Y58.136
X90.451 Y58.211
X90.514 Y58.353
X90.749 Y58.92
X90.804 Y59.062
X90.825 Y59.204
X90.918 Y59.912
X90.921 Y59.948
Y59.983
X90.819 Y60.763
X90.808 Y60.834
X90.8 Y60.869
X90.788 Y60.904
X90.494 Y61.613
X90.463 Y61.684
X90.417 Y61.755
X89.971 Y62.336
X89.921 Y62.4
X89.887 Y62.436
X89.829 Y62.482
X89.69 Y62.588
G3 X89.264 Y62.506 I-0.174 J-0.244
G1 X89.248 Y62.456 Z0.005
X89.232 Y62.407 Z0.019
X89.217 Y62.362 Z0.042
X89.216 Y62.344 Z0.054
X89.226 Y62.301 Z0.091
X89.233 Y62.266 Z0.136
X89.239 Y62.241 Z0.187
X89.242 Y62.225 Z0.242
X89.243 Y62.219 Z0.3
Z5.
X87.437 Y109.959
Z0.25
Z0. F40.
X87.452 Y109.924 F1000.
X87.483 Y109.945
X87.486 Y109.983
X87.462 Y110.012
X87.426 Y110.02
X87.391 Y110.005
X87.367 Y109.976
X87.356 Y109.94
X87.358 Y109.903
X87.375 Y109.869
X87.403 Y109.844
X87.437 Y109.829
X87.474 Y109.824
X87.548 Y109.837
X87.608 Y109.883
X87.641 Y109.95
X87.646 Y110.025
X87.624 Y110.097
X87.579 Y110.157
X87.517 Y110.2
X87.446 Y110.222
X87.371 Y110.223
X87.225 Y110.187
X87.115 Y110.085
X87.059 Y109.946
X87.064 Y109.796
X87.123 Y109.658
X87.226 Y109.549
X87.358 Y109.478
X87.505 Y109.449
X87.654 Y109.466
X87.793 Y109.523
X87.911 Y109.615
X88.001 Y109.735
X88.058 Y109.874
X88.08 Y110.023
X88.065 Y110.172
X88.017 Y110.314
X87.938 Y110.441
X87.833 Y110.549
X87.709 Y110.633
X87.571 Y110.692
X87.424 Y110.721
X87.274 Y110.723
X87.126 Y110.696
X86.986 Y110.643
X86.858 Y110.565
X86.746 Y110.465
X86.652 Y110.348
X86.581 Y110.216
X86.531 Y110.075
X86.506 Y109.927
X86.505 Y109.777
X86.528 Y109.628
X86.573 Y109.485
X86.639 Y109.351
X86.725 Y109.228
X86.827 Y109.118
X86.945 Y109.025
X87.074 Y108.949
X87.213 Y108.893
X87.359 Y108.855
X87.508 Y108.839
X87.658 Y108.842
X87.806 Y108.865
X87.95 Y108.907
X88.087 Y108.968
X88.216 Y109.045
X88.333 Y109.138
X88.438 Y109.245
X88.529 Y109.365
X88.605 Y109.494
X88.664 Y109.632
X88.708 Y109.775
X88.733 Y109.923
X88.741 Y110.073
X88.731 Y110.223
X88.704 Y110.37
X88.661 Y110.514
X88.602 Y110.652
X88.528 Y110.782
X88.441 Y110.904
X88.341 Y111.016
X88.229 Y111.116
X88.108 Y111.204
X87.978 Y111.279
X87.84 Y111.34
X87.698 Y111.386
X87.551 Y111.417
X87.402 Y111.433
X87.252 Y111.435
X87.103 Y111.421
X86.955 Y111.392
X86.812 Y111.35
X86.673 Y111.293
X86.54 Y111.223
X86.415 Y111.14
X86.298 Y111.047
X86.19 Y110.942
X86.093 Y110.828
X86.007 Y110.705
X85.933 Y110.574
X85.871 Y110.438
X85.822 Y110.296
X85.785 Y110.15
X85.763 Y110.002
X85.753 Y109.852
X85.757 Y109.703
X85.774 Y109.553
X85.803 Y109.406
X85.846 Y109.263
X85.901 Y109.123
X85.967 Y108.989
X86.045 Y108.86
X86.133 Y108.739
X86.232 Y108.626
X86.339 Y108.521
X86.455 Y108.425
X86.578 Y108.34
X86.707 Y108.264
X86.844 Y108.199
X86.984 Y108.146
X87.132 Y108.103
X87.279 Y108.073
X87.429 Y108.055
X87.586 Y108.049
X87.735 Y108.055
X87.891 Y108.074
X88.045 Y108.106
X88.191 Y108.148
X88.341 Y108.205
X88.483 Y108.273
X88.619 Y108.351
X88.753 Y108.443
X88.876 Y108.543
X88.991 Y108.654
X89.101 Y108.777
X89.197 Y108.906
X89.285 Y109.043
X89.363 Y109.191
X89.427 Y109.342
X89.48 Y109.498
X89.521 Y109.663
X89.548 Y109.829
X89.562 Y109.995
X89.563 Y110.167
X89.549 Y110.34
X89.523 Y110.507
X89.482 Y110.675
X89.427 Y110.843
X89.358 Y111.005
X89.279 Y111.158
X89.185 Y111.308
X89.076 Y111.454
X88.959 Y111.588
X88.831 Y111.712
X88.692 Y111.827
X88.541 Y111.932
X88.382 Y112.025
X88.218 Y112.104
X88.048 Y112.17
X87.869 Y112.223
X87.685 Y112.262
X87.499 Y112.286
X87.312 Y112.295
X87.125 Y112.288
X86.936 Y112.267
X86.747 Y112.23
X86.562 Y112.178
X86.381 Y112.111
X86.207 Y112.03
X86.039 Y111.935
X85.877 Y111.825
X85.723 Y111.702
X85.578 Y111.565
X85.445 Y111.418
X85.324 Y111.26
X85.216 Y111.093
X85.121 Y110.917
X85.04 Y110.732
X84.974 Y110.54
X84.923 Y110.342
X84.888 Y110.139
X84.869 Y109.933
X84.866 Y109.725
X84.881 Y109.518
X84.912 Y109.311
X84.959 Y109.107
X85.024 Y108.907
X85.104 Y108.712
X85.2 Y108.522
X85.312 Y108.34
X85.439 Y108.167
X85.58 Y108.003
X85.734 Y107.851
X85.902 Y107.711
X86.08 Y107.584
X86.269 Y107.471
X86.467 Y107.373
X86.674 Y107.292
X86.887 Y107.227
X87.106 Y107.179
X87.328 Y107.148
X87.554 Y107.136
X87.781 Y107.141
X88.007 Y107.165
X88.232 Y107.207
X88.454 Y107.268
X88.671 Y107.346
X88.882 Y107.442
X89.085 Y107.554
X89.279 Y107.684
X89.463 Y107.829
X89.636 Y107.989
X89.795 Y108.163
X89.941 Y108.35
X90.072 Y108.549
X90.187 Y108.759
X90.285 Y108.978
X90.366 Y109.205
X90.429 Y109.439
X90.472 Y109.678
X90.496 Y109.921
X90.501 Y110.167
X90.486 Y110.413
X90.452 Y110.658
X90.397 Y110.9
X90.323 Y111.138
X90.229 Y111.371
X90.117 Y111.596
X89.987 Y111.812
X89.838 Y112.018
X89.673 Y112.213
X89.493 Y112.394
X89.298 Y112.56
X89.089 Y112.711
X88.868 Y112.846
X88.635 Y112.963
X88.394 Y113.061
X88.144 Y113.139
X87.888 Y113.197
X87.627 Y113.235
X87.363 Y113.252
X87.097 Y113.248
X86.831 Y113.222
X86.568 Y113.175
X86.308 Y113.107
X86.054 Y113.017
X85.806 Y112.907
X85.567 Y112.777
X85.339 Y112.628
X85.122 Y112.46
X84.919 Y112.275
X84.732 Y112.073
X84.56 Y111.857
X84.405 Y111.626
X84.337 Y111.503
X84.325 Y111.479
X84.314 Y111.454
X84.161 Y111.083
X84.102 Y110.942
X84.075 Y110.871
X84.061 Y110.8
X83.968 Y110.091
X83.953 Y109.949
X83.97 Y109.808
X84.064 Y109.099
X84.071 Y109.063
X84.081 Y109.028
X84.404 Y108.248
X84.421 Y108.216
X84.442 Y108.183
X84.936 Y107.54
X84.968 Y107.502
X85.009 Y107.465
X85.65 Y106.973
X85.684 Y106.949
X85.718 Y106.93
X86.427 Y106.636
X86.498 Y106.607
X86.533 Y106.595
X86.569 Y106.587
X87.277 Y106.493
X87.419 Y106.476
X87.455
X87.49 Y106.479
X88.27 Y106.582
X88.341 Y106.595
X88.411 Y106.621
X89.12 Y106.914
X89.172 Y106.938
X89.224 Y106.973
X89.829 Y107.437
X89.884 Y107.481
X89.914 Y107.51
X89.938 Y107.54
X90.439 Y108.192
X90.456 Y108.22
X90.47 Y108.248
X90.793 Y109.028
X90.804 Y109.063
X90.811 Y109.099
X90.904 Y109.808
X90.921 Y109.949
X90.907 Y110.091
X90.814 Y110.8
X90.8 Y110.871
X90.772 Y110.942
X90.479 Y111.65
X90.445 Y111.716
X90.389 Y111.792
X89.954 Y112.359
X89.891 Y112.431
X89.829 Y112.482
X89.25 Y112.926
X89.185 Y112.973
X89.12 Y113.004
X88.411 Y113.298
X88.341 Y113.324
X88.27 Y113.337
X87.49 Y113.439
X87.455 Y113.443
X87.419 Y113.442
X87.277 Y113.425
X86.569 Y113.332
X86.533 Y113.323
X86.498 Y113.312
X85.718 Y112.988
X85.672 Y112.961
X85.576 Y112.889
X85.009 Y112.454
X84.959 Y112.407
X84.921 Y112.359
X84.442 Y111.734
X84.416 Y111.692
X84.396 Y111.65
X84.314 Y111.454
G3 X84.504 Y111.063 I0.281 J-0.105
G1 X84.55 Y111.056 Z0.004
X84.595 Y111.049 Z0.015
X84.652 Y111.063 Z0.042
X84.702 Y111.076 Z0.081
X84.742 Y111.087 Z0.129
X84.766 Y111.104 Z0.182
X84.781 Y111.114 Z0.24
X84.786 Y111.117 Z0.3
Z5.
X87.418 Y169.919
Z0.25
Z0. F40.
X87.44 Y169.949 F1000.
X87.407 Y169.965
X87.373 Y169.949
X87.359 Y169.914
X87.371 Y169.878
X87.401 Y169.856
X87.438 Y169.85
X87.475 Y169.858
X87.506 Y169.878
X87.527 Y169.91
X87.534 Y169.946
X87.53 Y169.984
X87.516 Y170.018
X87.468 Y170.076
X87.398 Y170.104
X87.323 Y170.099
X87.256 Y170.066
X87.205 Y170.011
X87.175 Y169.942
X87.169 Y169.868
X87.186 Y169.795
X87.222 Y169.729
X87.326 Y169.621
X87.469 Y169.576
X87.618 Y169.598
X87.745 Y169.677
X87.835 Y169.797
X87.878 Y169.941
X87.874 Y170.091
X87.825 Y170.233
X87.736 Y170.353
X87.617 Y170.445
X87.478 Y170.501
X87.329 Y170.519
X87.181 Y170.499
X87.041 Y170.443
X86.919 Y170.356
X86.82 Y170.243
X86.75 Y170.111
X86.709 Y169.967
X86.698 Y169.817
X86.716 Y169.668
X86.765 Y169.526
X86.838 Y169.395
X86.935 Y169.281
X87.051 Y169.186
X87.182 Y169.114
X87.325 Y169.067
X87.473 Y169.044
X87.623 Y169.048
X87.771 Y169.076
X87.911 Y169.129
X88.042 Y169.203
X88.159 Y169.296
X88.26 Y169.407
X88.343 Y169.532
X88.407 Y169.668
X88.451 Y169.811
X88.472 Y169.96
X88.473 Y170.11
X88.453 Y170.258
X88.413 Y170.403
X88.352 Y170.54
X88.275 Y170.668
X88.181 Y170.785
X88.072 Y170.889
X87.951 Y170.977
X87.82 Y171.05
X87.68 Y171.105
X87.535 Y171.143
X87.386 Y171.161
X87.236 Y171.163
X87.087 Y171.145
X86.941 Y171.111
X86.801 Y171.058
X86.667 Y170.991
X86.542 Y170.907
X86.428 Y170.81
X86.325 Y170.701
X86.235 Y170.581
X86.159 Y170.452
X86.097 Y170.315
X86.05 Y170.173
X86.019 Y170.026
X86.004 Y169.877
X86.005 Y169.727
X86.02 Y169.577
X86.052 Y169.431
X86.098 Y169.288
X86.158 Y169.151
X86.232 Y169.02
X86.319 Y168.898
X86.417 Y168.785
X86.526 Y168.682
X86.645 Y168.59
X86.772 Y168.51
X86.906 Y168.443
X87.046 Y168.388
X87.19 Y168.348
X87.338 Y168.32
X87.487 Y168.308
X87.637
X87.786 Y168.323
X87.934 Y168.351
X88.078 Y168.393
X88.218 Y168.447
X88.352 Y168.513
X88.48 Y168.592
X88.601 Y168.681
X88.713 Y168.78
X88.816 Y168.889
X88.91 Y169.006
X88.993 Y169.131
X89.065 Y169.263
X89.126 Y169.4
X89.175 Y169.542
X89.212 Y169.687
X89.237 Y169.835
X89.25 Y169.984
Y170.134
X89.238 Y170.285
X89.214 Y170.433
X89.177 Y170.583
X89.129 Y170.725
X89.07 Y170.864
X88.997 Y171.002
X88.917 Y171.129
X88.823 Y171.254
X88.719 Y171.372
X88.609 Y171.477
X88.484 Y171.579
X88.355 Y171.668
X88.219 Y171.746
X88.072 Y171.816
X87.924 Y171.872
X87.77 Y171.917
X87.609 Y171.95
X87.449 Y171.97
X87.287 Y171.977
X87.119 Y171.97
X86.957 Y171.951
X86.795 Y171.918
X86.632 Y171.871
X86.475 Y171.812
X86.324 Y171.741
X86.174 Y171.655
X86.032 Y171.557
X85.9 Y171.451
X85.775 Y171.332
X85.657 Y171.2
X85.551 Y171.059
X85.458 Y170.914
X85.375 Y170.757
X85.303 Y170.591
X85.246 Y170.421
X85.202 Y170.249
X85.173 Y170.071
X85.157 Y169.888
X85.156 Y169.703
X85.169 Y169.522
X85.198 Y169.342
X85.241 Y169.161
X85.3 Y168.981
X85.372 Y168.808
X85.458 Y168.642
X85.556 Y168.484
X85.669 Y168.331
X85.796 Y168.185
X85.934 Y168.051
X86.083 Y167.928
X86.239 Y167.818
X86.406 Y167.72
X86.582 Y167.634
X86.766 Y167.562
X86.956 Y167.506
X87.151 Y167.464
X87.348 Y167.438
X87.547 Y167.428
X87.746 Y167.434
X87.947 Y167.456
X88.146 Y167.495
X88.344 Y167.55
X88.537 Y167.621
X88.725 Y167.708
X88.906 Y167.809
X89.078 Y167.926
X89.242 Y168.056
X89.394 Y168.199
X89.536 Y168.355
X89.665 Y168.522
X89.78 Y168.7
X89.882 Y168.888
X89.969 Y169.085
X90.04 Y169.289
X90.095 Y169.498
X90.133 Y169.713
X90.153 Y169.931
X90.156 Y170.151
X90.141 Y170.372
X90.109 Y170.591
X90.059 Y170.809
X89.991 Y171.022
X89.906 Y171.23
X89.804 Y171.432
X89.686 Y171.626
X89.552 Y171.81
X89.403 Y171.983
X89.24 Y172.145
X89.064 Y172.294
X88.875 Y172.429
X88.676 Y172.548
X88.467 Y172.652
X88.249 Y172.739
X88.024 Y172.808
X87.794 Y172.859
X87.558 Y172.892
X87.321 Y172.906
X87.082 Y172.9
X86.843 Y172.876
X86.605 Y172.832
X86.372 Y172.769
X86.143 Y172.687
X85.92 Y172.587
X85.705 Y172.468
X85.5 Y172.332
X85.305 Y172.18
X85.122 Y172.011
X84.953 Y171.828
X84.798 Y171.63
X84.66 Y171.421
X84.538 Y171.2
X84.433 Y170.968
X84.347 Y170.728
X84.281 Y170.481
X84.234 Y170.229
X84.208 Y169.973
X84.202 Y169.714
X84.217 Y169.454
X84.253 Y169.196
X84.31 Y168.941
X84.388 Y168.69
X84.485 Y168.445
X84.603 Y168.207
X84.74 Y167.979
X84.895 Y167.762
X85.067 Y167.558
X85.256 Y167.367
X85.461 Y167.191
X85.68 Y167.032
X85.913 Y166.89
X86.156 Y166.767
X86.41 Y166.663
X86.671 Y166.58
X86.94 Y166.518
X87.213 Y166.478
X87.491 Y166.459
X87.629 Y166.462
X87.656 Y166.464
X87.683 Y166.467
X87.986 Y166.507
X88.27 Y166.544
X88.305 Y166.55
X88.341 Y166.56
X88.411 Y166.588
X89.12 Y166.882
X89.162 Y166.903
X89.204 Y166.932
X89.829 Y167.411
X89.874 Y167.448
X89.919 Y167.499
X90.396 Y168.122
X90.427 Y168.165
X90.451 Y168.208
X90.744 Y168.917
X90.773 Y168.988
X90.784 Y169.023
X90.791 Y169.058
X90.884 Y169.767
X90.901 Y169.909
X90.887 Y170.051
X90.794 Y170.759
X90.78 Y170.83
X90.753 Y170.901
X90.459 Y171.61
X90.433 Y171.663
X90.396 Y171.716
X89.934 Y172.319
X89.89 Y172.372
X89.859 Y172.402
X89.23 Y172.886
X89.175 Y172.927
X89.12 Y172.956
X88.411 Y173.25
X88.341 Y173.278
X88.305 Y173.288
X88.27 Y173.294
X87.561 Y173.387
X87.419 Y173.403
X87.277 Y173.388
X86.569 Y173.295
X86.498 Y173.279
X86.427 Y173.251
X85.718 Y172.957
X85.69 Y172.944
X85.661 Y172.928
X85.576 Y172.864
X84.978 Y172.404
X84.946 Y172.374
X84.901 Y172.319
X84.442 Y171.721
X84.403 Y171.665
X84.376 Y171.61
X84.082 Y170.901
X84.055 Y170.83
X84.041 Y170.759
X83.948 Y170.051
X83.934 Y169.909
X83.95 Y169.767
X84.044 Y169.058
X84.05 Y169.023
X84.062 Y168.988
X84.3 Y168.41
X84.384 Y168.208
X84.41 Y168.163
X84.442 Y168.117
X84.916 Y167.499
X84.963 Y167.448
X85.009 Y167.409
X85.631 Y166.932
X85.674 Y166.903
X85.718 Y166.881
X86.427 Y166.587
X86.498 Y166.559
X86.569 Y166.543
X87.277 Y166.45
X87.419 Y166.435
X87.561 Y166.451
X87.683 Y166.467
G3 X87.927 Y166.826 I-0.049 J0.296
G1 X87.903 Y166.873 Z0.005
X87.88 Y166.919 Z0.019
X87.859 Y166.962 Z0.042
X87.818 Y166.989 Z0.079
X87.785 Y167.012 Z0.126
X87.76 Y167.03 Z0.18
X87.744 Y167.04 Z0.238
X87.739 Y167.044 Z0.3
Z5.
X87.418 Y219.918
Z0.25
Z0. F40.
X87.432 Y219.884 F1000.
X87.463 Y219.905
X87.466 Y219.942
X87.442 Y219.971
X87.406 Y219.979
X87.371 Y219.964
X87.348 Y219.935
X87.336 Y219.9
X87.339 Y219.862
X87.355 Y219.829
X87.383 Y219.804
X87.418 Y219.788
X87.455 Y219.784
X87.529 Y219.796
X87.588 Y219.843
X87.621 Y219.91
X87.626 Y219.985
X87.604 Y220.056
X87.559 Y220.116
X87.497 Y220.159
X87.426 Y220.181
X87.351 Y220.183
X87.205 Y220.146
X87.095 Y220.045
X87.039 Y219.905
X87.044 Y219.755
X87.104 Y219.618
X87.207 Y219.508
X87.339 Y219.437
X87.486 Y219.409
X87.635 Y219.425
X87.774 Y219.483
X87.892 Y219.575
X87.982 Y219.695
X88.038 Y219.834
X88.06 Y219.983
X88.046 Y220.132
X87.997 Y220.274
X87.918 Y220.401
X87.813 Y220.508
X87.689 Y220.592
X87.551 Y220.651
X87.403 Y220.68
X87.253 Y220.682
X87.106 Y220.656
X86.966 Y220.602
X86.837 Y220.524
X86.726 Y220.424
X86.632 Y220.307
X86.561 Y220.175
X86.511 Y220.033
X86.486 Y219.885
X86.485 Y219.735
X86.508 Y219.587
X86.553 Y219.444
X86.62 Y219.31
X86.706 Y219.187
X86.808 Y219.077
X86.926 Y218.984
X87.055 Y218.908
X87.194 Y218.852
X87.34 Y218.815
X87.489 Y218.798
X87.639 Y218.801
X87.787 Y218.825
X87.931 Y218.867
X88.068 Y218.928
X88.196 Y219.005
X88.314 Y219.098
X88.419 Y219.205
X88.51 Y219.325
X88.586 Y219.454
X88.645 Y219.592
X88.688 Y219.736
X88.713 Y219.883
X88.721 Y220.033
X88.711 Y220.183
X88.684 Y220.331
X88.641 Y220.474
X88.582 Y220.612
X88.508 Y220.743
X88.421 Y220.864
X88.32 Y220.976
X88.209 Y221.076
X88.087 Y221.164
X87.957 Y221.238
X87.82 Y221.299
X87.677 Y221.345
X87.53 Y221.377
X87.381 Y221.393
X87.231 Y221.394
X87.082 Y221.38
X86.935 Y221.351
X86.791 Y221.309
X86.652 Y221.252
X86.519 Y221.182
X86.394 Y221.099
X86.277 Y221.005
X86.17 Y220.9
X86.073 Y220.786
X85.987 Y220.663
X85.913 Y220.533
X85.851 Y220.396
X85.802 Y220.254
X85.766 Y220.109
X85.743 Y219.96
X85.733 Y219.811
X85.737 Y219.661
X85.754 Y219.512
X85.784 Y219.365
X85.827 Y219.221
X85.882 Y219.081
X85.948 Y218.947
X86.026 Y218.819
X86.114 Y218.698
X86.213 Y218.584
X86.32 Y218.479
X86.436 Y218.384
X86.559 Y218.298
X86.689 Y218.223
X86.825 Y218.158
X86.966 Y218.105
X87.114 Y218.062
X87.261 Y218.033
X87.41 Y218.015
X87.567 Y218.009
X87.717 Y218.015
X87.873 Y218.034
X88.026 Y218.066
X88.173 Y218.108
X88.323 Y218.165
X88.465 Y218.233
X88.6 Y218.311
X88.734 Y218.403
X88.857 Y218.504
X88.972 Y218.615
X89.082 Y218.738
X89.178 Y218.866
X89.266 Y219.004
X89.343 Y219.152
X89.408 Y219.303
X89.46 Y219.459
X89.501 Y219.624
X89.529 Y219.79
X89.542 Y219.956
X89.543 Y220.128
X89.529 Y220.301
X89.502 Y220.468
X89.462 Y220.635
X89.406 Y220.803
X89.338 Y220.965
X89.258 Y221.119
X89.164 Y221.269
X89.056 Y221.414
X88.938 Y221.549
X88.81 Y221.672
X88.671 Y221.787
X88.52 Y221.892
X88.361 Y221.985
X88.197 Y222.064
X88.027 Y222.13
X87.848 Y222.183
X87.663 Y222.221
X87.477 Y222.245
X87.291 Y222.254
X87.104 Y222.248
X86.915 Y222.226
X86.726 Y222.189
X86.54 Y222.136
X86.359 Y222.069
X86.186 Y221.989
X86.018 Y221.893
X85.856 Y221.783
X85.702 Y221.66
X85.557 Y221.523
X85.424 Y221.376
X85.303 Y221.218
X85.195 Y221.05
X85.101 Y220.875
X85.02 Y220.69
X84.954 Y220.498
X84.903 Y220.299
X84.868 Y220.097
X84.849 Y219.89
X84.847 Y219.683
X84.861 Y219.475
X84.892 Y219.269
X84.94 Y219.065
X85.005 Y218.864
X85.085 Y218.669
X85.182 Y218.48
X85.294 Y218.298
X85.42 Y218.125
X85.562 Y217.961
X85.716 Y217.809
X85.883 Y217.669
X86.062 Y217.542
X86.251 Y217.43
X86.449 Y217.332
X86.656 Y217.251
X86.869 Y217.186
X87.088 Y217.138
X87.311 Y217.107
X87.536 Y217.095
X87.763 Y217.101
X87.989 Y217.125
X88.215 Y217.167
X88.436 Y217.228
X88.653 Y217.306
X88.864 Y217.402
X89.067 Y217.515
X89.261 Y217.644
X89.445 Y217.79
X89.617 Y217.95
X89.777 Y218.124
X89.923 Y218.311
X90.054 Y218.51
X90.168 Y218.72
X90.266 Y218.939
X90.347 Y219.167
X90.409 Y219.401
X90.453 Y219.64
X90.477 Y219.883
X90.481 Y220.129
X90.466 Y220.374
X90.431 Y220.619
X90.377 Y220.861
X90.302 Y221.1
X90.208 Y221.332
X90.096 Y221.557
X89.966 Y221.773
X89.817 Y221.979
X89.652 Y222.174
X89.471 Y222.355
X89.276 Y222.521
X89.067 Y222.672
X88.846 Y222.806
X88.613 Y222.923
X88.372 Y223.021
X88.122 Y223.099
X87.866 Y223.157
X87.605 Y223.195
X87.341 Y223.212
X87.075 Y223.207
X86.809 Y223.181
X86.546 Y223.134
X86.286 Y223.065
X86.032 Y222.976
X85.784 Y222.865
X85.545 Y222.735
X85.317 Y222.585
X85.101 Y222.418
X84.898 Y222.232
X84.71 Y222.031
X84.539 Y221.814
X84.384 Y221.583
X84.316 Y221.46
X84.304 Y221.435
X84.293 Y221.41
X84.159 Y221.086
X84.068 Y220.867
X84.055 Y220.832
X84.047 Y220.796
X84.017 Y220.577
X83.934 Y219.946
X83.933 Y219.911
X83.936 Y219.875
X84.039 Y219.096
X84.05 Y219.025
X84.075 Y218.954
X84.369 Y218.245
X84.398 Y218.181
X84.442 Y218.117
X84.888 Y217.536
X84.937 Y217.473
X84.973 Y217.437
X85.028 Y217.395
X85.65 Y216.918
X85.684 Y216.897
X85.718 Y216.881
X86.427 Y216.587
X86.495 Y216.56
X86.529 Y216.55
X86.569 Y216.543
X87.277 Y216.45
X87.419 Y216.435
X87.561 Y216.451
X88.271 Y216.544
X88.306 Y216.55
X88.341 Y216.56
X88.411 Y216.588
X89.12 Y216.882
X89.153 Y216.898
X89.186 Y216.919
X89.437 Y217.111
X89.829 Y217.411
X89.863 Y217.439
X89.898 Y217.474
X89.971 Y217.567
X90.396 Y218.122
X90.439 Y218.183
X90.466 Y218.245
X90.76 Y218.954
X90.785 Y219.025
X90.796 Y219.096
X90.899 Y219.875
X90.901 Y219.911
Y219.946
X90.808 Y220.655
X90.788 Y220.796
X90.779 Y220.832
X90.767 Y220.867
X90.502 Y221.505
X90.442 Y221.647
X90.396 Y221.716
X89.904 Y222.356
X89.867 Y222.396
X89.829 Y222.426
X89.181 Y222.923
X89.151 Y222.941
X89.12 Y222.956
X88.411 Y223.25
X88.341 Y223.278
X88.305 Y223.288
X88.27 Y223.294
X87.561 Y223.387
X87.419 Y223.403
X87.277 Y223.388
X86.569 Y223.295
X86.498 Y223.279
X86.427 Y223.251
X85.718 Y222.957
X85.687 Y222.942
X85.656 Y222.923
X85.576 Y222.864
X85.009 Y222.428
X84.97 Y222.397
X84.93 Y222.356
X84.415 Y221.684
X84.392 Y221.647
X84.293 Y221.41
G3 X84.482 Y221.02 I0.281 J-0.105
G1 X84.529 Y221.012 Z0.004
X84.574 Y221.005 Z0.015
X84.631 Y221.02 Z0.042
X84.681 Y221.033 Z0.081
X84.721 Y221.044 Z0.129
X84.745 Y221.06 Z0.182
X84.76 Y221.07 Z0.24
X84.765 Y221.074 Z0.3
Z5.
X87.417 Y269.919
Z0.25
Z0. F40.
X87.395 Y269.949 F1000.
X87.37 Y269.92
X87.377 Y269.883
X87.407 Y269.861
X87.445 Y269.863
X87.474 Y269.886
X87.49 Y269.921
X87.491 Y269.958
X87.479 Y269.993
X87.455 Y270.022
X87.421 Y270.038
X87.384 Y270.044
X87.347 Y270.039
X87.279 Y270.008
X87.233 Y269.948
X87.219 Y269.874
X87.233 Y269.801
X87.273 Y269.737
X87.332 Y269.691
X87.403 Y269.666
X87.478 Y269.663
X87.551 Y269.681
X87.682 Y269.753
X87.762 Y269.88
X87.779 Y270.029
X87.736 Y270.173
X87.643 Y270.29
X87.515 Y270.369
X87.369 Y270.404
X87.22 Y270.393
X87.08 Y270.339
X86.961 Y270.247
X86.871 Y270.128
X86.815 Y269.988
X86.796 Y269.84
X86.814 Y269.691
X86.866 Y269.55
X86.95 Y269.426
X87.059 Y269.323
X87.188 Y269.246
X87.33 Y269.197
X87.479 Y269.176
X87.628 Y269.186
X87.774 Y269.223
X87.909 Y269.287
X88.031 Y269.376
X88.135 Y269.484
X88.217 Y269.609
X88.277 Y269.747
X88.312 Y269.892
X88.323 Y270.042
X88.308 Y270.191
X88.271 Y270.337
X88.21 Y270.474
X88.13 Y270.6
X88.031 Y270.713
X87.916 Y270.81
X87.789 Y270.889
X87.651 Y270.948
X87.506 Y270.988
X87.357 Y271.006
X87.207 Y271.005
X87.059 Y270.982
X86.915 Y270.941
X86.778 Y270.88
X86.65 Y270.802
X86.533 Y270.708
X86.429 Y270.6
X86.34 Y270.479
X86.266 Y270.348
X86.209 Y270.21
X86.169 Y270.065
X86.147 Y269.917
X86.143 Y269.767
X86.157 Y269.617
X86.188 Y269.471
X86.237 Y269.329
X86.301 Y269.193
X86.38 Y269.065
X86.472 Y268.947
X86.577 Y268.84
X86.693 Y268.745
X86.819 Y268.664
X86.953 Y268.596
X87.093 Y268.542
X87.238 Y268.504
X87.386 Y268.481
X87.536 Y268.473
X87.686 Y268.481
X87.834 Y268.504
X87.979 Y268.541
X88.12 Y268.594
X88.255 Y268.659
X88.383 Y268.738
X88.502 Y268.829
X88.612 Y268.931
X88.712 Y269.043
X88.8 Y269.164
X88.877 Y269.293
X88.941 Y269.429
X88.992 Y269.57
X89.03 Y269.715
X89.055 Y269.863
X89.065 Y270.012
X89.063 Y270.162
X89.046 Y270.311
X89.017 Y270.458
X88.974 Y270.602
X88.919 Y270.742
X88.852 Y270.876
X88.774 Y271.004
X88.685 Y271.125
X88.585 Y271.237
X88.477 Y271.341
X88.36 Y271.435
X88.236 Y271.519
X88.105 Y271.593
X87.969 Y271.655
X87.828 Y271.706
X87.683 Y271.745
X87.534 Y271.772
X87.385 Y271.787
X87.231 Y271.79
X87.081 Y271.781
X86.932 Y271.759
X86.779 Y271.725
X86.636 Y271.68
X86.49 Y271.621
X86.35 Y271.551
X86.22 Y271.472
X86.09 Y271.378
X85.97 Y271.276
X85.859 Y271.165
X85.754 Y271.042
X85.661 Y270.913
X85.578 Y270.776
X85.505 Y270.628
X85.444 Y270.479
X85.396 Y270.324
X85.359 Y270.161
X85.336 Y269.998
X85.325 Y269.834
X85.329 Y269.664
X85.345 Y269.497
X85.375 Y269.333
X85.419 Y269.166
X85.477 Y269.003
X85.546 Y268.848
X85.629 Y268.697
X85.726 Y268.549
X85.833 Y268.41
X85.95 Y268.283
X86.08 Y268.162
X86.222 Y268.05
X86.371 Y267.951
X86.526 Y267.864
X86.69 Y267.789
X86.863 Y267.727
X87.041 Y267.678
X87.22 Y267.644
X87.401 Y267.625
X87.587 Y267.62
X87.776 Y267.63
X87.962 Y267.656
X88.145 Y267.696
X88.323 Y267.75
X88.5 Y267.82
X88.673 Y267.905
X88.839 Y268.003
X88.996 Y268.115
X89.143 Y268.238
X89.281 Y268.373
X89.409 Y268.521
X89.526 Y268.681
X89.63 Y268.85
X89.72 Y269.027
X89.796 Y269.21
X89.857 Y269.4
X89.903 Y269.595
X89.933 Y269.794
X89.947 Y269.997
X89.945 Y270.201
X89.927 Y270.406
X89.892 Y270.611
X89.84 Y270.811
X89.772 Y271.008
X89.689 Y271.2
X89.59 Y271.384
X89.476 Y271.561
X89.347 Y271.729
X89.205 Y271.887
X89.05 Y272.033
X88.883 Y272.168
X88.704 Y272.289
X88.515 Y272.396
X88.317 Y272.488
X88.112 Y272.565
X87.901 Y272.624
X87.684 Y272.667
X87.463 Y272.693
X87.24 Y272.7
X87.016 Y272.69
X86.794 Y272.662
X86.572 Y272.615
X86.355 Y272.551
X86.142 Y272.469
X85.936 Y272.37
X85.738 Y272.254
X85.549 Y272.122
X85.37 Y271.975
X85.203 Y271.813
X85.049 Y271.638
X84.908 Y271.45
X84.783 Y271.251
X84.674 Y271.042
X84.582 Y270.823
X84.507 Y270.597
X84.45 Y270.365
X84.412 Y270.128
X84.393 Y269.887
X84.394 Y269.645
X84.414 Y269.402
X84.453 Y269.161
X84.512 Y268.923
X84.591 Y268.689
X84.688 Y268.462
X84.803 Y268.242
X84.937 Y268.031
X85.088 Y267.831
X85.254 Y267.643
X85.436 Y267.468
X85.633 Y267.307
X85.843 Y267.162
X86.064 Y267.034
X86.295 Y266.924
X86.536 Y266.832
X86.785 Y266.76
X87.04 Y266.707
X87.299 Y266.675
X87.56 Y266.664
X87.822 Y266.674
X88.084 Y266.705
X88.344 Y266.758
X88.6 Y266.831
X88.849 Y266.925
X89.091 Y267.038
X89.324 Y267.172
X89.547 Y267.324
X89.758 Y267.495
X89.955 Y267.682
X90.137 Y267.886
X90.302 Y268.104
X90.45 Y268.335
X90.579 Y268.579
X90.689 Y268.832
X90.778 Y269.095
X90.811 Y269.228
X90.817 Y269.255
X90.821 Y269.282
X90.876 Y269.7
X90.894 Y269.841
X90.902 Y269.912
X90.896 Y269.983
X90.803 Y270.692
X90.779 Y270.834
X90.722 Y270.975
X90.458 Y271.613
X90.442 Y271.649
X90.42 Y271.684
X89.971 Y272.27
X89.869 Y272.393
X89.829 Y272.426
X89.191 Y272.915
X89.156 Y272.938
X89.12 Y272.956
X88.411 Y273.25
X88.341 Y273.278
X88.305 Y273.288
X88.27 Y273.294
X87.561 Y273.387
X87.419 Y273.403
X87.257 Y273.385
X86.569 Y273.295
X86.498 Y273.279
X86.408 Y273.243
X85.718 Y272.957
X85.683 Y272.94
X85.647 Y272.918
X85.009 Y272.428
X84.965 Y272.393
X84.868 Y272.275
X84.442 Y271.721
X84.415 Y271.684
X84.394 Y271.649
X84.377 Y271.613
X84.113 Y270.975
X84.056 Y270.834
X84.032 Y270.692
X83.939 Y269.983
X83.933 Y269.912
X83.941 Y269.841
X84.043 Y269.062
X84.05 Y269.026
X84.06 Y268.991
X84.383 Y268.211
X84.401 Y268.176
X84.425 Y268.14
X84.918 Y267.497
X84.945 Y267.464
X84.981 Y267.432
X85.009 Y267.409
X85.647 Y266.92
X85.683 Y266.898
X85.718 Y266.881
X86.441 Y266.581
X86.505 Y266.557
X86.569 Y266.543
X87.36 Y266.439
X87.419 Y266.435
X87.475 Y266.439
X88.27 Y266.544
X88.301 Y266.549
X88.332 Y266.557
X88.411 Y266.588
X89.12 Y266.882
X89.156 Y266.9
X89.191 Y266.922
X89.855 Y267.432
X89.891 Y267.466
X89.919 Y267.499
X90.411 Y268.14
X90.434 Y268.176
X90.452 Y268.211
X90.775 Y268.991
X90.785 Y269.026
X90.792 Y269.062
X90.821 Y269.282
G3 X90.537 Y269.61 I-0.299 J0.029
G1 X90.522 Y269.611
X90.47 Y269.597 Z0.008
X90.421 Y269.584 Z0.025
X90.375 Y269.572 Z0.052
X90.342 Y269.542 Z0.089
X90.315 Y269.518 Z0.134
X90.294 Y269.5 Z0.186
X90.282 Y269.489 Z0.242
X90.278 Y269.485 Z0.3
Z5.
X154.917 Y169.919
Z0.25
Z0. F40.
X154.94 Y169.949 F1000.
X154.907 Y169.965
X154.873 Y169.949
X154.859 Y169.914
X154.871 Y169.878
X154.901 Y169.856
X154.938 Y169.85
X154.974 Y169.858
X155.006 Y169.879
X155.026 Y169.91
X155.034 Y169.947
X155.03 Y169.984
X155.016 Y170.019
X154.967 Y170.076
X154.898 Y170.104
X154.823 Y170.1
X154.756 Y170.067
X154.705 Y170.012
X154.675 Y169.943
X154.669 Y169.868
X154.686 Y169.795
X154.722 Y169.729
X154.826 Y169.621
X154.969 Y169.576
X155.118 Y169.598
X155.245 Y169.677
X155.335 Y169.798
X155.378 Y169.941
X155.374 Y170.091
X155.325 Y170.233
X155.236 Y170.354
X155.117 Y170.445
X154.978 Y170.501
X154.829 Y170.519
X154.68 Y170.499
X154.541 Y170.443
X154.419 Y170.356
X154.32 Y170.243
X154.249 Y170.111
X154.209 Y169.967
X154.198 Y169.817
X154.216 Y169.668
X154.264 Y169.526
X154.338 Y169.395
X154.435 Y169.281
X154.551 Y169.186
X154.682 Y169.114
X154.825 Y169.067
X154.973 Y169.044
X155.123 Y169.048
X155.27 Y169.077
X155.411 Y169.129
X155.542 Y169.203
X155.659 Y169.297
X155.76 Y169.407
X155.843 Y169.532
X155.907 Y169.668
X155.951 Y169.811
X155.972 Y169.96
X155.973 Y170.11
X155.952 Y170.258
X155.912 Y170.403
X155.852 Y170.54
X155.775 Y170.669
X155.68 Y170.785
X155.572 Y170.889
X155.451 Y170.977
X155.319 Y171.05
X155.18 Y171.105
X155.035 Y171.143
X154.886 Y171.162
X154.736 Y171.163
X154.587 Y171.145
X154.441 Y171.111
X154.3 Y171.058
X154.167 Y170.991
X154.042 Y170.907
X153.927 Y170.81
X153.825 Y170.701
X153.735 Y170.581
X153.658 Y170.452
X153.597 Y170.315
X153.55 Y170.173
X153.519 Y170.026
X153.504 Y169.877
Y169.727
X153.52 Y169.577
X153.552 Y169.431
X153.598 Y169.288
X153.658 Y169.151
X153.732 Y169.02
X153.819 Y168.898
X153.917 Y168.785
X154.026 Y168.682
X154.145 Y168.59
X154.272 Y168.51
X154.406 Y168.443
X154.546 Y168.388
X154.69 Y168.348
X154.838 Y168.321
X154.987 Y168.308
X155.137 Y168.309
X155.286 Y168.323
X155.434 Y168.352
X155.578 Y168.393
X155.718 Y168.447
X155.852 Y168.514
X155.98 Y168.592
X156.101 Y168.681
X156.213 Y168.781
X156.316 Y168.89
X156.41 Y169.007
X156.493 Y169.132
X156.565 Y169.263
X156.626 Y169.4
X156.675 Y169.542
X156.712 Y169.687
X156.737 Y169.835
X156.75 Y169.985
Y170.135
X156.738 Y170.285
X156.714 Y170.433
X156.677 Y170.583
X156.629 Y170.725
X156.57 Y170.864
X156.497 Y171.003
X156.417 Y171.129
X156.322 Y171.255
X156.218 Y171.372
X156.108 Y171.478
X155.984 Y171.579
X155.854 Y171.668
X155.719 Y171.747
X155.572 Y171.816
X155.424 Y171.873
X155.27 Y171.917
X155.108 Y171.95
X154.949 Y171.97
X154.786 Y171.977
X154.619 Y171.97
X154.456 Y171.951
X154.295 Y171.918
X154.131 Y171.871
X153.974 Y171.812
X153.824 Y171.741
X153.674 Y171.655
X153.531 Y171.557
X153.4 Y171.45
X153.275 Y171.331
X153.157 Y171.199
X153.051 Y171.059
X152.958 Y170.913
X152.875 Y170.757
X152.803 Y170.591
X152.746 Y170.421
X152.702 Y170.249
X152.672 Y170.071
X152.657 Y169.888
X152.656 Y169.703
X152.669 Y169.522
X152.697 Y169.342
X152.741 Y169.161
X152.8 Y168.981
X152.872 Y168.808
X152.958 Y168.642
X153.056 Y168.483
X153.17 Y168.331
X153.296 Y168.185
X153.434 Y168.051
X153.583 Y167.928
X153.74 Y167.818
X153.906 Y167.72
X154.082 Y167.634
X154.266 Y167.563
X154.456 Y167.506
X154.651 Y167.464
X154.848 Y167.438
X155.047 Y167.428
X155.247 Y167.434
X155.447 Y167.457
X155.647 Y167.495
X155.844 Y167.55
X156.037 Y167.621
X156.225 Y167.708
X156.406 Y167.81
X156.579 Y167.926
X156.742 Y168.056
X156.894 Y168.199
X157.036 Y168.356
X157.165 Y168.523
X157.281 Y168.701
X157.382 Y168.889
X157.469 Y169.085
X157.54 Y169.289
X157.595 Y169.499
X157.632 Y169.714
X157.653 Y169.932
X157.656 Y170.152
X157.641 Y170.373
X157.609 Y170.592
X157.559 Y170.809
X157.491 Y171.023
X157.406 Y171.231
X157.304 Y171.433
X157.185 Y171.626
X157.051 Y171.81
X156.902 Y171.984
X156.739 Y172.146
X156.563 Y172.294
X156.374 Y172.429
X156.175 Y172.549
X155.966 Y172.652
X155.748 Y172.739
X155.523 Y172.808
X155.293 Y172.859
X155.058 Y172.892
X154.82 Y172.906
X154.581 Y172.901
X154.342 Y172.876
X154.105 Y172.832
X153.871 Y172.769
X153.642 Y172.687
X153.419 Y172.587
X153.204 Y172.468
X152.999 Y172.332
X152.805 Y172.179
X152.622 Y172.011
X152.453 Y171.827
X152.298 Y171.63
X152.159 Y171.42
X152.037 Y171.199
X151.933 Y170.968
X151.847 Y170.728
X151.781 Y170.481
X151.734 Y170.229
X151.708 Y169.972
X151.702 Y169.713
X151.717 Y169.454
X151.753 Y169.195
X151.81 Y168.94
X151.888 Y168.689
X151.985 Y168.444
X152.103 Y168.207
X152.24 Y167.979
X152.395 Y167.762
X152.568 Y167.557
X152.757 Y167.367
X152.962 Y167.191
X153.181 Y167.032
X153.413 Y166.89
X153.657 Y166.767
X153.91 Y166.663
X154.172 Y166.58
X154.44 Y166.518
X154.714 Y166.478
X154.991 Y166.46
X155.131 Y166.462
X155.158 Y166.464
X155.185 Y166.467
X155.464 Y166.504
X155.747 Y166.541
X155.818 Y166.553
X155.889 Y166.579
X156.598 Y166.873
X156.651 Y166.897
X156.704 Y166.932
X157.307 Y167.394
X157.363 Y167.438
X157.393 Y167.469
X157.419 Y167.499
X157.918 Y168.15
X157.936 Y168.179
X157.951 Y168.208
X158.244 Y168.917
X158.273 Y168.988
X158.284 Y169.023
X158.291 Y169.058
X158.384 Y169.767
X158.4 Y169.909
X158.387 Y170.051
X158.294 Y170.759
X158.28 Y170.83
X158.253 Y170.901
X157.959 Y171.61
X157.924 Y171.678
X157.869 Y171.752
X157.434 Y172.319
X157.37 Y172.391
X157.307 Y172.443
X156.73 Y172.886
X156.664 Y172.934
X156.598 Y172.965
X155.889 Y173.259
X155.818 Y173.284
X155.747 Y173.297
X155.038 Y173.39
X154.897 Y173.402
X154.755 Y173.385
X154.046 Y173.292
X154.011 Y173.283
X153.975 Y173.271
X153.337 Y173.007
X153.196 Y172.947
X153.173 Y172.935
X153.15 Y172.92
X152.487 Y172.411
X152.462 Y172.391
X152.438 Y172.365
X152.401 Y172.319
X151.92 Y171.692
X151.894 Y171.651
X151.876 Y171.61
X151.582 Y170.901
X151.555 Y170.83
X151.541 Y170.759
X151.447 Y170.051
X151.433 Y169.909
X151.45 Y169.767
X151.544 Y169.058
X151.551 Y169.023
X151.562 Y168.988
X151.825 Y168.35
X151.884 Y168.208
X151.9 Y168.177
X151.92 Y168.146
X152.416 Y167.499
X152.447 Y167.463
X152.487 Y167.426
X153.131 Y166.932
X153.163 Y166.909
X153.196 Y166.891
X153.904 Y166.596
X153.975 Y166.567
X154.011 Y166.555
X154.046 Y166.546
X154.755 Y166.453
X154.897 Y166.436
X154.932 Y166.435
X154.968 Y166.439
X155.185 Y166.467
G3 X155.429 Y166.826 I-0.049 J0.296
G1 X155.405 Y166.873 Z0.005
X155.382 Y166.919 Z0.019
X155.36 Y166.962 Z0.042
X155.32 Y166.99 Z0.079
X155.286 Y167.013 Z0.126
X155.261 Y167.03 Z0.18
X155.246 Y167.04 Z0.238
X155.241 Y167.044 Z0.3
Z5.
X154.917 Y219.919
Z0.25
Z0. F40.
X154.882 Y219.904 F1000.
X154.903 Y219.873
X154.941 Y219.87
X154.97 Y219.894
X154.978 Y219.931
X154.963 Y219.965
X154.934 Y219.989
X154.898 Y220.
X154.861 Y219.998
X154.827 Y219.981
X154.803 Y219.953
X154.787 Y219.919
X154.782 Y219.882
X154.795 Y219.808
X154.841 Y219.749
X154.908 Y219.715
X154.983 Y219.71
X155.055 Y219.732
X155.115 Y219.777
X155.158 Y219.839
X155.18 Y219.911
X155.181 Y219.986
X155.145 Y220.131
X155.044 Y220.241
X154.904 Y220.297
X154.754 Y220.292
X154.617 Y220.233
X154.507 Y220.13
X154.436 Y219.998
X154.407 Y219.851
X154.424 Y219.702
X154.481 Y219.563
X154.573 Y219.445
X154.693 Y219.355
X154.832 Y219.298
X154.981 Y219.277
X155.13 Y219.291
X155.272 Y219.339
X155.399 Y219.418
X155.507 Y219.523
X155.591 Y219.647
X155.65 Y219.785
X155.679 Y219.932
X155.681 Y220.082
X155.654 Y220.23
X155.601 Y220.37
X155.523 Y220.499
X155.423 Y220.61
X155.306 Y220.704
X155.174 Y220.776
X155.033 Y220.825
X154.885 Y220.85
X154.735 Y220.851
X154.587 Y220.829
X154.444 Y220.783
X154.309 Y220.717
X154.186 Y220.631
X154.076 Y220.529
X153.983 Y220.411
X153.907 Y220.282
X153.851 Y220.143
X153.813 Y219.998
X153.797 Y219.849
X153.8 Y219.699
X153.823 Y219.55
X153.865 Y219.406
X153.926 Y219.269
X154.003 Y219.141
X154.096 Y219.023
X154.203 Y218.918
X154.323 Y218.827
X154.452 Y218.751
X154.59 Y218.692
X154.733 Y218.649
X154.881 Y218.624
X155.031 Y218.615
X155.181 Y218.625
X155.328 Y218.652
X155.472 Y218.695
X155.61 Y218.754
X155.741 Y218.828
X155.862 Y218.915
X155.974 Y219.015
X156.074 Y219.127
X156.162 Y219.248
X156.237 Y219.379
X156.298 Y219.516
X156.344 Y219.658
X156.375 Y219.805
X156.391 Y219.954
X156.393 Y220.104
X156.379 Y220.254
X156.35 Y220.401
X156.308 Y220.545
X156.251 Y220.683
X156.181 Y220.816
X156.098 Y220.941
X156.005 Y221.058
X155.9 Y221.166
X155.786 Y221.263
X155.663 Y221.349
X155.532 Y221.423
X155.396 Y221.485
X155.254 Y221.534
X155.109 Y221.571
X154.96 Y221.593
X154.811 Y221.603
X154.661 Y221.599
X154.512 Y221.583
X154.365 Y221.553
X154.221 Y221.51
X154.081 Y221.456
X153.947 Y221.389
X153.818 Y221.311
X153.697 Y221.223
X153.584 Y221.125
X153.479 Y221.017
X153.383 Y220.902
X153.298 Y220.779
X153.222 Y220.649
X153.158 Y220.512
X153.104 Y220.372
X153.061 Y220.224
X153.031 Y220.077
X153.013 Y219.927
X153.007 Y219.771
X153.013 Y219.621
X153.032 Y219.465
X153.064 Y219.312
X153.106 Y219.165
X153.163 Y219.015
X153.231 Y218.873
X153.309 Y218.737
X153.401 Y218.604
X153.501 Y218.481
X153.612 Y218.365
X153.735 Y218.256
X153.864 Y218.159
X154.001 Y218.072
X154.149 Y217.994
X154.3 Y217.929
X154.456 Y217.877
X154.621 Y217.835
X154.787 Y217.808
X154.953 Y217.794
X155.125
X155.298 Y217.807
X155.465 Y217.834
X155.633 Y217.874
X155.801 Y217.929
X155.963 Y217.998
X156.116 Y218.077
X156.266 Y218.171
X156.412 Y218.28
X156.546 Y218.397
X156.67 Y218.525
X156.785 Y218.664
X156.89 Y218.815
X156.983 Y218.974
X157.062 Y219.138
X157.128 Y219.308
X157.181 Y219.487
X157.22 Y219.671
X157.244 Y219.858
X157.253 Y220.044
X157.247 Y220.231
X157.225 Y220.42
X157.188 Y220.609
X157.136 Y220.795
X157.069 Y220.975
X156.988 Y221.149
X156.893 Y221.317
X156.783 Y221.479
X156.66 Y221.633
X156.524 Y221.778
X156.376 Y221.911
X156.218 Y222.032
X156.051 Y222.14
X155.875 Y222.235
X155.69 Y222.316
X155.498 Y222.382
X155.3 Y222.433
X155.097 Y222.469
X154.891 Y222.488
X154.684 Y222.49
X154.476 Y222.476
X154.269 Y222.444
X154.066 Y222.397
X153.865 Y222.333
X153.67 Y222.252
X153.48 Y222.156
X153.298 Y222.044
X153.125 Y221.917
X152.961 Y221.776
X152.809 Y221.622
X152.669 Y221.455
X152.542 Y221.276
X152.429 Y221.087
X152.332 Y220.889
X152.25 Y220.683
X152.185 Y220.469
X152.137 Y220.25
X152.106 Y220.028
X152.094 Y219.802
X152.099 Y219.575
X152.123 Y219.349
X152.165 Y219.124
X152.226 Y218.902
X152.304 Y218.686
X152.4 Y218.475
X152.513 Y218.271
X152.642 Y218.077
X152.787 Y217.893
X152.947 Y217.72
X153.121 Y217.561
X153.308 Y217.415
X153.507 Y217.284
X153.717 Y217.169
X153.936 Y217.071
X154.163 Y216.99
X154.397 Y216.928
X154.636 Y216.884
X154.879 Y216.86
X155.125 Y216.855
X155.371 Y216.87
X155.616 Y216.905
X155.858 Y216.959
X156.096 Y217.033
X156.329 Y217.127
X156.554 Y217.239
X156.77 Y217.369
X156.976 Y217.518
X157.171 Y217.683
X157.352 Y217.863
X157.518 Y218.058
X157.669 Y218.267
X157.804 Y218.488
X157.921 Y218.721
X158.019 Y218.962
X158.097 Y219.212
X158.155 Y219.468
X158.193 Y219.729
X158.21 Y219.993
X158.206 Y220.259
X158.18 Y220.525
X158.133 Y220.788
X158.065 Y221.048
X157.975 Y221.302
X157.865 Y221.55
X157.735 Y221.789
X157.586 Y222.017
X157.418 Y222.234
X157.233 Y222.437
X157.032 Y222.625
X156.815 Y222.796
X156.584 Y222.951
X156.46 Y223.02
X156.436 Y223.032
X156.411 Y223.043
X156.031 Y223.2
X155.889 Y223.259
X155.818 Y223.284
X155.747 Y223.297
X154.968 Y223.399
X154.932 Y223.403
X154.897 Y223.402
X154.755 Y223.385
X154.046 Y223.292
X154.011 Y223.283
X153.975 Y223.271
X153.337 Y223.007
X153.196 Y222.947
X153.155 Y222.923
X153.054 Y222.847
X152.487 Y222.411
X152.458 Y222.386
X152.43 Y222.356
X151.92 Y221.691
X151.893 Y221.647
X151.832 Y221.505
X151.568 Y220.867
X151.556 Y220.832
X151.547 Y220.796
X151.509 Y220.513
X151.434 Y219.946
X151.433 Y219.911
X151.436 Y219.875
X151.539 Y219.096
X151.55 Y219.025
X151.575 Y218.954
X151.89 Y218.196
X151.903 Y218.171
X151.92 Y218.146
X152.431 Y217.481
X152.459 Y217.45
X152.487 Y217.426
X153.139 Y216.926
X153.167 Y216.906
X153.196 Y216.891
X153.975 Y216.567
X154.011 Y216.555
X154.046 Y216.546
X154.755 Y216.453
X154.897 Y216.436
X154.932 Y216.435
X154.968 Y216.439
X155.772 Y216.544
X155.83 Y216.557
X155.889 Y216.579
X156.598 Y216.873
X156.669 Y216.908
X156.752 Y216.969
X157.307 Y217.395
X157.39 Y217.465
X157.448 Y217.538
X157.882 Y218.103
X157.934 Y218.174
X157.966 Y218.245
X158.26 Y218.954
X158.285 Y219.025
X158.299 Y219.118
X158.398 Y219.875
X158.401 Y219.911
X158.4 Y219.946
X158.299 Y220.72
X158.288 Y220.796
X158.279 Y220.832
X158.267 Y220.867
X158.003 Y221.505
X157.942 Y221.647
X157.874 Y221.746
X157.405 Y222.356
X157.356 Y222.405
X156.74 Y222.878
X156.68 Y222.923
X156.639 Y222.947
X156.598 Y222.965
X156.411 Y223.043
G3 X156.02 Y222.853 I-0.105 J-0.281
G1 X156.013 Y222.807 Z0.004
X156.005 Y222.762 Z0.015
X156.02 Y222.705 Z0.042
X156.033 Y222.655 Z0.081
X156.044 Y222.615 Z0.13
X156.06 Y222.591 Z0.182
X156.07 Y222.576 Z0.24
X156.074 Y222.571 Z0.3
Z5.
X154.937 Y9.959
Z0.25
Z0. F40.
X154.952 Y9.924 F1000.
X154.983 Y9.945
X154.986 Y9.983
X154.962 Y10.012
X154.925 Y10.02
X154.891 Y10.005
X154.867 Y9.976
X154.856 Y9.94
X154.858 Y9.903
X154.875 Y9.869
X154.903 Y9.845
X154.937 Y9.829
X154.974 Y9.824
X155.048 Y9.837
X155.107 Y9.883
X155.141 Y9.95
X155.146 Y10.025
X155.124 Y10.097
X155.079 Y10.157
X155.017 Y10.2
X154.945 Y10.222
X154.87 Y10.223
X154.725 Y10.187
X154.615 Y10.085
X154.559 Y9.946
X154.564 Y9.796
X154.623 Y9.658
X154.726 Y9.549
X154.858 Y9.478
X155.005 Y9.449
X155.154 Y9.466
X155.293 Y9.523
X155.411 Y9.616
X155.501 Y9.736
X155.558 Y9.875
X155.579 Y10.023
X155.565 Y10.172
X155.517 Y10.314
X155.438 Y10.442
X155.333 Y10.549
X155.209 Y10.633
X155.071 Y10.692
X154.923 Y10.721
X154.773 Y10.723
X154.626 Y10.696
X154.486 Y10.643
X154.357 Y10.565
X154.246 Y10.465
X154.152 Y10.348
X154.08 Y10.216
X154.031 Y10.074
X154.006 Y9.927
X154.005 Y9.777
X154.028 Y9.628
X154.073 Y9.485
X154.139 Y9.351
X154.225 Y9.228
X154.327 Y9.118
X154.445 Y9.025
X154.575 Y8.949
X154.714 Y8.893
X154.859 Y8.855
X155.008 Y8.839
X155.158 Y8.842
X155.306 Y8.865
X155.45 Y8.907
X155.587 Y8.968
X155.716 Y9.045
X155.833 Y9.139
X155.938 Y9.246
X156.029 Y9.365
X156.105 Y9.494
X156.164 Y9.632
X156.208 Y9.776
X156.232 Y9.924
X156.241 Y10.073
X156.231 Y10.223
X156.204 Y10.371
X156.161 Y10.514
X156.102 Y10.652
X156.028 Y10.783
X155.941 Y10.905
X155.84 Y11.016
X155.729 Y11.116
X155.607 Y11.204
X155.477 Y11.279
X155.34 Y11.34
X155.197 Y11.386
X155.051 Y11.417
X154.901 Y11.433
X154.751 Y11.435
X154.602 Y11.421
X154.455 Y11.392
X154.311 Y11.349
X154.172 Y11.293
X154.039 Y11.223
X153.914 Y11.14
X153.797 Y11.046
X153.69 Y10.941
X153.593 Y10.827
X153.507 Y10.704
X153.433 Y10.574
X153.371 Y10.437
X153.322 Y10.296
X153.285 Y10.15
X153.263 Y10.002
X153.253 Y9.852
X153.257 Y9.702
X153.274 Y9.553
X153.303 Y9.406
X153.346 Y9.262
X153.401 Y9.123
X153.468 Y8.988
X153.545 Y8.86
X153.634 Y8.739
X153.732 Y8.625
X153.839 Y8.521
X153.955 Y8.425
X154.078 Y8.339
X154.208 Y8.264
X154.344 Y8.199
X154.484 Y8.146
X154.633 Y8.103
X154.78 Y8.073
X154.929 Y8.055
X155.086 Y8.049
X155.236 Y8.055
X155.391 Y8.075
X155.545 Y8.106
X155.692 Y8.149
X155.842 Y8.205
X155.984 Y8.273
X156.119 Y8.351
X156.253 Y8.444
X156.376 Y8.544
X156.492 Y8.655
X156.601 Y8.778
X156.698 Y8.906
X156.785 Y9.044
X156.863 Y9.192
X156.927 Y9.343
X156.98 Y9.499
X157.021 Y9.664
X157.048 Y9.83
X157.062 Y9.995
Y10.168
X157.049 Y10.341
X157.022 Y10.508
X156.982 Y10.675
X156.926 Y10.843
X156.858 Y11.005
X156.778 Y11.159
X156.684 Y11.309
X156.576 Y11.454
X156.458 Y11.589
X156.33 Y11.712
X156.191 Y11.827
X156.041 Y11.932
X155.881 Y12.026
X155.717 Y12.104
X155.547 Y12.17
X155.369 Y12.223
X155.184 Y12.262
X154.998 Y12.286
X154.811 Y12.295
X154.624 Y12.288
X154.435 Y12.267
X154.246 Y12.23
X154.061 Y12.177
X153.88 Y12.111
X153.706 Y12.03
X153.538 Y11.935
X153.376 Y11.825
X153.222 Y11.701
X153.078 Y11.565
X152.944 Y11.417
X152.823 Y11.259
X152.715 Y11.092
X152.621 Y10.916
X152.54 Y10.731
X152.474 Y10.539
X152.423 Y10.341
X152.387 Y10.138
X152.368 Y9.932
X152.366 Y9.725
X152.381 Y9.517
X152.412 Y9.31
X152.46 Y9.107
X152.524 Y8.906
X152.604 Y8.711
X152.701 Y8.522
X152.813 Y8.339
X152.939 Y8.166
X153.081 Y8.003
X153.235 Y7.851
X153.402 Y7.71
X153.581 Y7.583
X153.769 Y7.471
X153.968 Y7.373
X154.174 Y7.292
X154.388 Y7.227
X154.607 Y7.179
X154.829 Y7.148
X155.055 Y7.136
X155.282 Y7.141
X155.508 Y7.165
X155.733 Y7.208
X155.955 Y7.268
X156.171 Y7.346
X156.382 Y7.442
X156.586 Y7.555
X156.78 Y7.684
X156.964 Y7.83
X157.136 Y7.99
X157.296 Y8.164
X157.442 Y8.351
X157.573 Y8.55
X157.688 Y8.76
X157.786 Y8.979
X157.866 Y9.206
X157.929 Y9.44
X157.972 Y9.679
X157.996 Y9.923
X158.001 Y10.168
X157.986 Y10.414
X157.951 Y10.659
X157.897 Y10.901
X157.822 Y11.14
X157.729 Y11.372
X157.616 Y11.597
X157.486 Y11.813
X157.338 Y12.019
X157.173 Y12.214
X156.992 Y12.395
X156.797 Y12.561
X156.588 Y12.712
X156.367 Y12.846
X156.134 Y12.963
X155.893 Y13.061
X155.643 Y13.139
X155.387 Y13.198
X155.126 Y13.236
X154.861 Y13.252
X154.595 Y13.248
X154.33 Y13.222
X154.067 Y13.175
X153.807 Y13.106
X153.553 Y13.017
X153.305 Y12.907
X153.066 Y12.776
X152.838 Y12.627
X152.621 Y12.459
X152.419 Y12.274
X152.231 Y12.073
X152.059 Y11.856
X151.904 Y11.625
X151.837 Y11.504
X151.825 Y11.479
X151.814 Y11.454
X151.689 Y11.151
X151.63 Y11.009
X151.575 Y10.867
X151.551 Y10.726
X151.458 Y10.017
X151.454 Y9.946
X151.461 Y9.875
X151.564 Y9.096
X151.571 Y9.06
X151.583 Y9.025
X151.876 Y8.316
X151.92 Y8.217
X151.949 Y8.174
X152.384 Y7.607
X152.487 Y7.484
X152.508 Y7.465
X153.062 Y7.04
X153.196 Y6.942
X153.292 Y6.898
X154.011 Y6.601
X154.046 Y6.591
X154.188 Y6.571
X154.897 Y6.477
X154.932 Y6.475
X154.968 Y6.476
X155.747 Y6.579
X155.818 Y6.589
X155.854 Y6.598
X155.897 Y6.615
X156.598 Y6.905
X156.669 Y6.936
X156.74 Y6.984
X157.367 Y7.465
X157.39 Y7.485
X157.413 Y7.509
X157.448 Y7.552
X157.925 Y8.174
X157.95 Y8.21
X157.969 Y8.245
X158.292 Y9.025
X158.299 Y9.045
X158.307 Y9.075
X158.312 Y9.105
X158.413 Y9.875
X158.42 Y9.946
X158.417 Y10.017
X158.323 Y10.726
X158.3 Y10.867
X158.244 Y11.009
X158.009 Y11.576
X157.943 Y11.718
X157.837 Y11.86
X157.448 Y12.366
X157.396 Y12.427
X157.307 Y12.499
X156.74 Y12.934
X156.692 Y12.969
X156.645 Y12.994
X155.889 Y13.307
X155.854 Y13.32
X155.818 Y13.329
X155.747 Y13.34
X154.968 Y13.442
X154.932 Y13.444
X154.897 Y13.441
X154.188 Y13.348
X154.046 Y13.327
X154.013 Y13.318
X153.904 Y13.273
X153.229 Y12.994
X153.196 Y12.977
X153.028 Y12.852
X152.629 Y12.545
X152.487 Y12.434
X152.479 Y12.427
X152.364 Y12.285
X152.038 Y11.86
X151.93 Y11.718
X151.92 Y11.701
X151.865 Y11.576
X151.814 Y11.454
G3 X152.004 Y11.063 I0.281 J-0.105
G1 X152.05 Y11.056 Z0.004
X152.095 Y11.049 Z0.015
X152.152 Y11.064 Z0.042
X152.202 Y11.077 Z0.08
X152.242 Y11.088 Z0.129
X152.267 Y11.104 Z0.182
X152.281 Y11.114 Z0.24
X152.286 Y11.118 Z0.3
Z5.
X154.937 Y59.959
Z0.25
Z0. F40.
X154.972 Y59.974 F1000.
X154.951 Y60.005
X154.914 Y60.007
X154.884 Y59.984
X154.876 Y59.947
X154.891 Y59.913
X154.92 Y59.889
X154.956 Y59.877
X154.993 Y59.88
X155.027 Y59.897
X155.052 Y59.925
X155.067 Y59.959
X155.072 Y59.996
X155.059 Y60.07
X155.013 Y60.129
X154.946 Y60.163
X154.871 Y60.168
X154.799 Y60.145
X154.739 Y60.1
X154.696 Y60.039
X154.674 Y59.967
X154.673 Y59.892
X154.709 Y59.747
X154.811 Y59.636
X154.95 Y59.581
X155.1 Y59.586
X155.238 Y59.645
X155.347 Y59.748
X155.418 Y59.88
X155.447 Y60.027
X155.43 Y60.176
X155.373 Y60.315
X155.281 Y60.433
X155.16 Y60.523
X155.021 Y60.58
X154.873 Y60.601
X154.724 Y60.587
X154.582 Y60.538
X154.454 Y60.459
X154.347 Y60.354
X154.263 Y60.23
X154.204 Y60.092
X154.175 Y59.945
X154.173 Y59.795
X154.2 Y59.647
X154.254 Y59.507
X154.331 Y59.379
X154.431 Y59.267
X154.549 Y59.174
X154.68 Y59.102
X154.822 Y59.053
X154.97 Y59.028
X155.12 Y59.027
X155.268 Y59.05
X155.411 Y59.095
X155.546 Y59.161
X155.669 Y59.247
X155.778 Y59.35
X155.871 Y59.467
X155.947 Y59.597
X156.003 Y59.736
X156.041 Y59.881
X156.057 Y60.03
X156.054 Y60.18
X156.031 Y60.328
X155.989 Y60.472
X155.928 Y60.609
X155.851 Y60.738
X155.757 Y60.855
X155.65 Y60.961
X155.531 Y61.051
X155.402 Y61.127
X155.264 Y61.186
X155.12 Y61.229
X154.972 Y61.254
X154.822 Y61.262
X154.673 Y61.252
X154.525 Y61.226
X154.381 Y61.182
X154.243 Y61.123
X154.113 Y61.05
X153.991 Y60.962
X153.88 Y60.862
X153.779 Y60.75
X153.691 Y60.629
X153.617 Y60.498
X153.556 Y60.361
X153.51 Y60.218
X153.479 Y60.072
X153.463 Y59.923
X153.461 Y59.773
X153.475 Y59.623
X153.504 Y59.476
X153.547 Y59.332
X153.604 Y59.194
X153.674 Y59.061
X153.757 Y58.936
X153.85 Y58.819
X153.955 Y58.712
X154.07 Y58.614
X154.193 Y58.528
X154.323 Y58.454
X154.46 Y58.392
X154.601 Y58.343
X154.747 Y58.307
X154.895 Y58.284
X155.045 Y58.275
X155.195 Y58.279
X155.344 Y58.296
X155.491 Y58.326
X155.635 Y58.368
X155.774 Y58.423
X155.909 Y58.49
X156.037 Y58.568
X156.158 Y58.656
X156.271 Y58.754
X156.376 Y58.862
X156.471 Y58.977
X156.557 Y59.101
X156.632 Y59.23
X156.697 Y59.367
X156.75 Y59.507
X156.793 Y59.655
X156.823 Y59.802
X156.841 Y59.952
X156.847 Y60.109
X156.841 Y60.259
X156.821 Y60.414
X156.79 Y60.568
X156.747 Y60.714
X156.69 Y60.864
X156.623 Y61.006
X156.545 Y61.142
X156.452 Y61.276
X156.352 Y61.398
X156.241 Y61.514
X156.118 Y61.623
X155.989 Y61.72
X155.852 Y61.807
X155.704 Y61.885
X155.553 Y61.949
X155.397 Y62.002
X155.232 Y62.043
X155.066 Y62.07
X154.9 Y62.084
X154.728
X154.555 Y62.071
X154.388 Y62.044
X154.22 Y62.003
X154.052 Y61.948
X153.89 Y61.879
X153.737 Y61.8
X153.587 Y61.705
X153.441 Y61.597
X153.307 Y61.479
X153.183 Y61.352
X153.069 Y61.212
X152.963 Y61.062
X152.87 Y60.902
X152.791 Y60.739
X152.726 Y60.568
X152.673 Y60.39
X152.634 Y60.205
X152.61 Y60.019
X152.602 Y59.832
X152.608 Y59.645
X152.63 Y59.456
X152.667 Y59.267
X152.719 Y59.082
X152.786 Y58.901
X152.867 Y58.727
X152.962 Y58.559
X153.072 Y58.397
X153.196 Y58.243
X153.332 Y58.099
X153.48 Y57.965
X153.638 Y57.845
X153.805 Y57.737
X153.981 Y57.642
X154.166 Y57.562
X154.358 Y57.495
X154.556 Y57.444
X154.759 Y57.409
X154.965 Y57.39
X155.172 Y57.388
X155.38 Y57.403
X155.587 Y57.434
X155.79 Y57.482
X155.991 Y57.546
X156.186 Y57.627
X156.376 Y57.723
X156.558 Y57.835
X156.731 Y57.962
X156.894 Y58.103
X157.046 Y58.258
X157.187 Y58.425
X157.313 Y58.603
X157.426 Y58.792
X157.523 Y58.991
X157.605 Y59.197
X157.67 Y59.411
X157.718 Y59.63
X157.748 Y59.852
X157.76 Y60.078
X157.755 Y60.305
X157.731 Y60.531
X157.688 Y60.756
X157.628 Y60.978
X157.549 Y61.194
X157.453 Y61.405
X157.34 Y61.608
X157.211 Y61.802
X157.066 Y61.987
X156.906 Y62.159
X156.732 Y62.318
X156.544 Y62.464
X156.345 Y62.595
X156.136 Y62.71
X155.916 Y62.808
X155.689 Y62.888
X155.455 Y62.951
X155.216 Y62.994
X154.972 Y63.018
X154.727 Y63.023
X154.481 Y63.008
X154.236 Y62.973
X153.994 Y62.918
X153.756 Y62.844
X153.523 Y62.75
X153.298 Y62.638
X153.082 Y62.507
X152.876 Y62.359
X152.682 Y62.194
X152.501 Y62.013
X152.334 Y61.818
X152.184 Y61.609
X152.049 Y61.388
X151.933 Y61.155
X151.835 Y60.913
X151.757 Y60.664
X151.698 Y60.408
X151.661 Y60.147
X151.644 Y59.882
X151.648 Y59.616
X151.674 Y59.351
X151.722 Y59.087
X151.79 Y58.828
X151.88 Y58.573
X151.99 Y58.326
X152.121 Y58.087
X152.27 Y57.859
X152.438 Y57.642
X152.623 Y57.44
X152.825 Y57.252
X153.041 Y57.08
X153.272 Y56.926
X153.393 Y56.859
X153.418 Y56.847
X153.443 Y56.836
X153.763 Y56.704
X154.011 Y56.601
X154.046 Y56.591
X154.188 Y56.571
X154.897 Y56.478
X154.932 Y56.475
X154.968 Y56.476
X155.747 Y56.579
X155.818 Y56.589
X155.854 Y56.598
X155.889 Y56.611
X156.598 Y56.905
X156.668 Y56.936
X156.74 Y56.984
X157.307 Y57.419
X157.408 Y57.503
X157.448 Y57.552
X157.874 Y58.107
X157.951 Y58.211
X158.015 Y58.357
X158.249 Y58.92
X158.299 Y59.045
X158.303 Y59.062
X158.325 Y59.204
X158.418 Y59.912
X158.421 Y59.948
X158.42 Y59.983
X158.319 Y60.763
X158.299 Y60.873
X158.288 Y60.904
X157.994 Y61.613
X157.963 Y61.684
X157.943 Y61.72
X157.874 Y61.811
X157.448 Y62.366
X157.408 Y62.415
X157.38 Y62.442
X156.74 Y62.934
X156.669 Y62.982
X156.598 Y63.013
X155.87 Y63.314
X155.809 Y63.331
X154.968 Y63.442
X154.932 Y63.444
X154.897 Y63.441
X154.188 Y63.348
X154.046 Y63.327
X154.003 Y63.314
X153.318 Y63.031
X153.196 Y62.977
X153.076 Y62.889
X152.522 Y62.464
X152.487 Y62.435
X152.46 Y62.407
X152.436 Y62.378
X151.957 Y61.755
X151.92 Y61.701
X151.88 Y61.613
X151.587 Y60.904
X151.575 Y60.869
X151.566 Y60.834
X151.537 Y60.621
X151.454 Y59.983
X151.453 Y59.948
X151.456 Y59.912
X151.55 Y59.204
X151.571 Y59.062
X151.626 Y58.92
X151.86 Y58.353
X151.92 Y58.217
X151.923 Y58.211
X152.061 Y58.028
X152.356 Y57.644
X152.468 Y57.503
X152.487 Y57.484
X152.645 Y57.361
X153.054 Y57.047
X153.196 Y56.942
X153.207 Y56.936
X153.337 Y56.88
X153.443 Y56.836
G3 X153.833 Y57.025 I0.105 J0.281
G1 X153.841 Y57.072 Z0.004
X153.848 Y57.117 Z0.015
X153.833 Y57.174 Z0.042
X153.82 Y57.223 Z0.081
X153.809 Y57.264 Z0.129
X153.793 Y57.288 Z0.182
X153.783 Y57.303 Z0.24
X153.779 Y57.308 Z0.3
Z5.
X154.937 Y109.96
Z0.25
Z0. F40.
X154.951 Y109.995 F1000.
