(1008)
(DRILL GUIDE IN ALUMINIUM)
(MACHINE)
(  VENDOR HOMEMADE)
(  DESCRIPTION GENERIC 3-AXIS)
(T2  D=3. CR=0. - ZMIN=-6. - FLAT END MILL)
G90 G94 G91.1 G40 G49 G17
G21
G28 G91 Z0.
G90

(DRILL1 2)
M5
T2 M6
S9000 M3
G54
G0 X21. Y5.
G43 Z0. H2
Z4.
Z1.
G1 Z-1.75 F20.
G0 Z4.
Z0.25
G1 Z-2.5 F20.
G0 Z4.
Z-0.5
G1 Z-3.25 F20.
G0 Z4.
Z-1.25
G1 Z-4. F20.
G0 Z4.
Z-2.
G1 Z-4.75 F20.
G0 Z4.
Z-2.75
G1 Z-5.5 F20.
G0 Z4.
Z-3.5
G1 Z-6. F20.
G4 P0.5
G0 Z4.
X20.999 Y17.005
Z1.
G1 Z-1.75 F20.
G0 Z4.
Z0.25
G1 Z-2.5 F20.
G0 Z4.
Z-0.5
G1 Z-3.25 F20.
G0 Z4.
Z-1.25
G1 Z-4. F20.
G0 Z4.
Z-2.
G1 Z-4.75 F20.
G0 Z4.
Z-2.75
G1 Z-5.5 F20.
G0 Z4.
Z-3.5
G1 Z-6. F20.
G4 P0.5
G0 Z4.
X21. Y29.
Z1.
G1 Z-1.75 F20.
G0 Z4.
Z0.25
G1 Z-2.5 F20.
G0 Z4.
Z-0.5
G1 Z-3.25 F20.
G0 Z4.
Z-1.25
G1 Z-4. F20.
G0 Z4.
Z-2.
G1 Z-4.75 F20.
G0 Z4.
Z-2.75
G1 Z-5.5 F20.
G0 Z4.
Z-3.5
G1 Z-6. F20.
G4 P0.5
G0 Z4.
Y41.
Z1.
G1 Z-1.75 F20.
G0 Z4.
Z0.25
G1 Z-2.5 F20.
G0 Z4.
Z-0.5
G1 Z-3.25 F20.
G0 Z4.
Z-1.25
G1 Z-4. F20.
G0 Z4.
Z-2.
G1 Z-4.75 F20.
G0 Z4.
Z-2.75
G1 Z-5.5 F20.
G0 Z4.
Z-3.5
G1 Z-6. F20.
G4 P0.5
G0 Z4.
Y53.
Z1.
G1 Z-1.75 F20.
G0 Z4.
Z0.25
G1 Z-2.5 F20.
G0 Z4.
Z-0.5
G1 Z-3.25 F20.
G0 Z4.
Z-1.25
G1 Z-4. F20.
G0 Z4.
Z-2.
G1 Z-4.75 F20.
G0 Z4.
Z-2.75
G1 Z-5.5 F20.
G0 Z4.
Z-3.5
G1 Z-6. F20.
G4 P0.5
G0 Z4.
X41. Y86.
Z1.
G1 Z-1.75 F20.
G0 Z4.
Z0.25
G1 Z-2.5 F20.
G0 Z4.
Z-0.5
G1 Z-3.25 F20.
G0 Z4.
Z-1.25
G1 Z-4. F20.
G0 Z4.
Z-2.
G1 Z-4.75 F20.
G0 Z4.
Z-2.75
G1 Z-5.5 F20.
G0 Z4.
Z-3.5
G1 Z-6. F20.
G4 P0.5
G0 Z4.
X26. Y106.
Z1.
G1 Z-1.75 F20.
G0 Z4.
Z0.25
G1 Z-2.5 F20.
G0 Z4.
Z-0.5
G1 Z-3.25 F20.
G0 Z4.
Z-1.25
G1 Z-4. F20.
G0 Z4.
Z-2.
G1 Z-4.75 F20.
G0 Z4.
Z-2.75
G1 Z-5.5 F20.
G0 Z4.
Z-3.5
G1 Z-6. F20.
G4 P0.5
G0 Z4.
X41. Y111.
Z1.
G1 Z-1.75 F20.
G0 Z4.
Z0.25
G1 Z-2.5 F20.
G0 Z4.
Z-0.5
G1 Z-3.25 F20.
G0 Z4.
Z-1.25
G1 Z-4. F20.
G0 Z4.
Z-2.
G1 Z-4.75 F20.
G0 Z4.
Z-2.75
G1 Z-5.5 F20.
G0 Z4.
Z-3.5
G1 Z-6. F20.
G4 P0.5
G0 Z4.
Z0.
(WHEN USING FUSION 360 FOR PERSONAL USE, THE FEEDRATE OF)
(RAPID MOVES IS REDUCED TO MATCH THE FEEDRATE OF CUTTING)
(MOVES, WHICH CAN INCREASE MACHINING TIME. UNRESTRICTED RAPID)
(MOVES ARE AVAILABLE WITH A FUSION 360 SUBSCRIPTION.)

(BORE1 2)
G0 Z4.
X21.15 Y5.3
G1 Z1. F100.
Z-0.7
G18 G3 X20.85 Z-1. I-0.3 K0.
G1 X20.7
G17 G3 X20.4 Y5. I0. J-0.3
X21.6 Z-1.073 I0.6 J0.
X20.4 Z-1.147 I-0.6 J0.
X21.6 Z-1.22 I0.6 J0.
X20.4 Z-1.293 I-0.6 J0.
X21.6 Z-1.367 I0.6 J0.
X20.4 Z-1.44 I-0.6 J0.
X21.6 Z-1.513 I0.6 J0.
X20.4 Z-1.587 I-0.6 J0.
X21.6 Z-1.66 I0.6 J0.
X20.4 Z-1.733 I-0.6 J0.
X21.6 Z-1.807 I0.6 J0.
X20.4 Z-1.88 I-0.6 J0.
X21.6 Z-1.953 I0.6 J0.
X20.4 Z-2.027 I-0.6 J0.
X21.6 Z-2.1 I0.6 J0.
X20.4 Z-2.173 I-0.6 J0.
X21.6 Z-2.247 I0.6 J0.
X20.4 Z-2.32 I-0.6 J0.
X21.6 Z-2.393 I0.6 J0.
X20.4 Z-2.467 I-0.6 J0.
X21.6 Z-2.54 I0.6 J0.
X20.4 Z-2.613 I-0.6 J0.
X21.6 Z-2.687 I0.6 J0.
X20.4 Z-2.76 I-0.6 J0.
X21.6 Z-2.833 I0.6 J0.
X20.4 Z-2.907 I-0.6 J0.
X21.6 Z-2.98 I0.6 J0.
X20.4 Z-3.053 I-0.6 J0.
X21.6 Z-3.127 I0.6 J0.
X20.4 Z-3.2 I-0.6 J0.
X21.6 Z-3.273 I0.6 J0.
X20.4 Z-3.347 I-0.6 J0.
X21.6 Z-3.42 I0.6 J0.
X20.4 Z-3.493 I-0.6 J0.
X21.6 Z-3.567 I0.6 J0.
X20.4 Z-3.64 I-0.6 J0.
X21.6 Z-3.713 I0.6 J0.
X20.4 Z-3.787 I-0.6 J0.
X21.6 Z-3.86 I0.6 J0.
X20.4 Z-3.933 I-0.6 J0.
X21.6 Z-4.007 I0.6 J0.
X20.4 Z-4.08 I-0.6 J0.
X21.6 Z-4.153 I0.6 J0.
X20.4 Z-4.227 I-0.6 J0.
X21.6 Z-4.3 I0.6 J0.
X20.4 Z-4.373 I-0.6 J0.
X21.6 Z-4.447 I0.6 J0.
X20.4 Z-4.52 I-0.6 J0.
X21.6 Z-4.593 I0.6 J0.
X20.4 Z-4.667 I-0.6 J0.
X21.6 Z-4.74 I0.6 J0.
X20.4 Z-4.813 I-0.6 J0.
X21.6 Z-4.887 I0.6 J0.
X20.4 Z-4.96 I-0.6 J0.
X21.6 Z-5.033 I0.6 J0.
X20.4 Z-5.107 I-0.6 J0.
X21.6 Z-5.18 I0.6 J0.
X20.4 Z-5.253 I-0.6 J0.
X21.6 Z-5.327 I0.6 J0.
X20.4 Z-5.4 I-0.6 J0.
X21.6 Z-5.473 I0.6 J0.
X20.4 Z-5.547 I-0.6 J0.
X21.6 Z-5.62 I0.6 J0.
X20.4 Z-5.693 I-0.6 J0.
X21.6 Z-5.767 I0.6 J0.
X20.4 Z-5.84 I-0.6 J0.
X21.6 Z-5.913 I0.6 J0.
X20.4 Z-5.987 I-0.6 J0.
X20.495 Y4.676 Z-6. I0.6 J0.
X21.505 Y5.324 I0.505 J0.324
X20.495 Y4.676 I-0.505 J-0.324
X20.909 Y4.586 I0.253 J0.162
G1 X21.036 Y4.666
X21.092 Y4.703 Z-5.992
X21.145 Y4.737 Z-5.97
X21.193 Y4.767 Z-5.935
X21.233 Y4.793 Z-5.887
X21.263 Y4.812 Z-5.83
X21.282 Y4.824 Z-5.767
X21.288 Y4.828 Z-5.7
Z2.
X21.149 Y17.305
Z1.
Z-0.7
G18 G3 X20.849 Z-1. I-0.3 K0.
G1 X20.699
G17 G3 X20.399 Y17.005 I0. J-0.3
X21.599 Z-1.073 I0.6 J0.
X20.399 Z-1.147 I-0.6 J0.
X21.599 Z-1.22 I0.6 J0.
X20.399 Z-1.293 I-0.6 J0.
X21.599 Z-1.367 I0.6 J0.
X20.399 Z-1.44 I-0.6 J0.
X21.599 Z-1.513 I0.6 J0.
X20.399 Z-1.587 I-0.6 J0.
X21.599 Z-1.66 I0.6 J0.
X20.399 Z-1.733 I-0.6 J0.
X21.599 Z-1.807 I0.6 J0.
X20.399 Z-1.88 I-0.6 J0.
X21.599 Z-1.953 I0.6 J0.
X20.399 Z-2.027 I-0.6 J0.
X21.599 Z-2.1 I0.6 J0.
X20.399 Z-2.173 I-0.6 J0.
X21.599 Z-2.247 I0.6 J0.
X20.399 Z-2.32 I-0.6 J0.
X21.599 Z-2.393 I0.6 J0.
X20.399 Z-2.467 I-0.6 J0.
X21.599 Z-2.54 I0.6 J0.
X20.399 Z-2.613 I-0.6 J0.
X21.599 Z-2.687 I0.6 J0.
X20.399 Z-2.76 I-0.6 J0.
X21.599 Z-2.833 I0.6 J0.
X20.399 Z-2.907 I-0.6 J0.
X21.599 Z-2.98 I0.6 J0.
X20.399 Z-3.053 I-0.6 J0.
X21.599 Z-3.127 I0.6 J0.
X20.399 Z-3.2 I-0.6 J0.
X21.599 Z-3.273 I0.6 J0.
X20.399 Z-3.347 I-0.6 J0.
X21.599 Z-3.42 I0.6 J0.
X20.399 Z-3.493 I-0.6 J0.
X21.599 Z-3.567 I0.6 J0.
X20.399 Z-3.64 I-0.6 J0.
X21.599 Z-3.713 I0.6 J0.
X20.399 Z-3.787 I-0.6 J0.
X21.599 Z-3.86 I0.6 J0.
X20.399 Z-3.933 I-0.6 J0.
X21.599 Z-4.007 I0.6 J0.
X20.399 Z-4.08 I-0.6 J0.
X21.599 Z-4.153 I0.6 J0.
X20.399 Z-4.227 I-0.6 J0.
X21.599 Z-4.3 I0.6 J0.
X20.399 Z-4.373 I-0.6 J0.
X21.599 Z-4.447 I0.6 J0.
X20.399 Z-4.52 I-0.6 J0.
X21.599 Z-4.593 I0.6 J0.
X20.399 Z-4.667 I-0.6 J0.
X21.599 Z-4.74 I0.6 J0.
X20.399 Z-4.813 I-0.6 J0.
X21.599 Z-4.887 I0.6 J0.
X20.399 Z-4.96 I-0.6 J0.
X21.599 Z-5.033 I0.6 J0.
X20.399 Z-5.107 I-0.6 J0.
X21.599 Z-5.18 I0.6 J0.
X20.399 Z-5.253 I-0.6 J0.
X21.599 Z-5.327 I0.6 J0.
X20.399 Z-5.4 I-0.6 J0.
X21.599 Z-5.473 I0.6 J0.
X20.399 Z-5.547 I-0.6 J0.
X21.599 Z-5.62 I0.6 J0.
X20.399 Z-5.693 I-0.6 J0.
X21.599 Z-5.767 I0.6 J0.
X20.399 Z-5.84 I-0.6 J0.
X21.599 Z-5.913 I0.6 J0.
X20.399 Z-5.987 I-0.6 J0.
X20.494 Y16.681 Z-6. I0.6 J0.
X21.504 Y17.329 I0.505 J0.324
X20.494 Y16.681 I-0.505 J-0.324
X20.908 Y16.591 I0.253 J0.162
G1 X21.034 Y16.672
X21.091 Y16.708 Z-5.992
X21.144 Y16.742 Z-5.97
X21.192 Y16.773 Z-5.935
X21.232 Y16.798 Z-5.887
X21.262 Y16.818 Z-5.83
X21.281 Y16.83 Z-5.767
X21.287 Y16.834 Z-5.7
Z2.
X21.15 Y29.3
Z1.
Z-0.7
G18 G3 X20.85 Z-1. I-0.3 K0.
G1 X20.7
G17 G3 X20.4 Y29. I0. J-0.3
X21.6 Z-1.073 I0.6 J0.
X20.4 Z-1.147 I-0.6 J0.
X21.6 Z-1.22 I0.6 J0.
X20.4 Z-1.293 I-0.6 J0.
X21.6 Z-1.367 I0.6 J0.
X20.4 Z-1.44 I-0.6 J0.
X21.6 Z-1.513 I0.6 J0.
X20.4 Z-1.587 I-0.6 J0.
X21.6 Z-1.66 I0.6 J0.
X20.4 Z-1.733 I-0.6 J0.
X21.6 Z-1.807 I0.6 J0.
X20.4 Z-1.88 I-0.6 J0.
X21.6 Z-1.953 I0.6 J0.
X20.4 Z-2.027 I-0.6 J0.
X21.6 Z-2.1 I0.6 J0.
X20.4 Z-2.173 I-0.6 J0.
X21.6 Z-2.247 I0.6 J0.
X20.4 Z-2.32 I-0.6 J0.
X21.6 Z-2.393 I0.6 J0.
X20.4 Z-2.467 I-0.6 J0.
X21.6 Z-2.54 I0.6 J0.
X20.4 Z-2.613 I-0.6 J0.
X21.6 Z-2.687 I0.6 J0.
X20.4 Z-2.76 I-0.6 J0.
X21.6 Z-2.833 I0.6 J0.
X20.4 Z-2.907 I-0.6 J0.
X21.6 Z-2.98 I0.6 J0.
X20.4 Z-3.053 I-0.6 J0.
X21.6 Z-3.127 I0.6 J0.
X20.4 Z-3.2 I-0.6 J0.
X21.6 Z-3.273 I0.6 J0.
X20.4 Z-3.347 I-0.6 J0.
X21.6 Z-3.42 I0.6 J0.
X20.4 Z-3.493 I-0.6 J0.
X21.6 Z-3.567 I0.6 J0.
X20.4 Z-3.64 I-0.6 J0.
X21.6 Z-3.713 I0.6 J0.
X20.4 Z-3.787 I-0.6 J0.
X21.6 Z-3.86 I0.6 J0.
X20.4 Z-3.933 I-0.6 J0.
X21.6 Z-4.007 I0.6 J0.
X20.4 Z-4.08 I-0.6 J0.
X21.6 Z-4.153 I0.6 J0.
X20.4 Z-4.227 I-0.6 J0.
X21.6 Z-4.3 I0.6 J0.
X20.4 Z-4.373 I-0.6 J0.
X21.6 Z-4.447 I0.6 J0.
X20.4 Z-4.52 I-0.6 J0.
X21.6 Z-4.593 I0.6 J0.
X20.4 Z-4.667 I-0.6 J0.
X21.6 Z-4.74 I0.6 J0.
X20.4 Z-4.813 I-0.6 J0.
X21.6 Z-4.887 I0.6 J0.
X20.4 Z-4.96 I-0.6 J0.
X21.6 Z-5.033 I0.6 J0.
X20.4 Z-5.107 I-0.6 J0.
X21.6 Z-5.18 I0.6 J0.
X20.4 Z-5.253 I-0.6 J0.
X21.6 Z-5.327 I0.6 J0.
X20.4 Z-5.4 I-0.6 J0.
X21.6 Z-5.473 I0.6 J0.
X20.4 Z-5.547 I-0.6 J0.
X21.6 Z-5.62 I0.6 J0.
X20.4 Z-5.693 I-0.6 J0.
X21.6 Z-5.767 I0.6 J0.
X20.4 Z-5.84 I-0.6 J0.
X21.6 Z-5.913 I0.6 J0.
X20.4 Z-5.987 I-0.6 J0.
X20.495 Y28.676 Z-6. I0.6 J0.
X21.505 Y29.324 I0.505 J0.324
X20.495 Y28.676 I-0.505 J-0.324
X20.909 Y28.586 I0.253 J0.162
G1 X21.036 Y28.666
X21.092 Y28.703 Z-5.992
X21.145 Y28.737 Z-5.97
X21.193 Y28.767 Z-5.935
X21.233 Y28.793 Z-5.887
X21.263 Y28.812 Z-5.83
X21.282 Y28.824 Z-5.767
X21.288 Y28.828 Z-5.7
Z2.
X21.15 Y41.3
Z1.
Z-0.7
G18 G3 X20.85 Z-1. I-0.3 K0.
G1 X20.7
G17 G3 X20.4 Y41. I0. J-0.3
X21.6 Z-1.073 I0.6 J0.
X20.4 Z-1.147 I-0.6 J0.
X21.6 Z-1.22 I0.6 J0.
X20.4 Z-1.293 I-0.6 J0.
X21.6 Z-1.367 I0.6 J0.
X20.4 Z-1.44 I-0.6 J0.
X21.6 Z-1.513 I0.6 J0.
X20.4 Z-1.587 I-0.6 J0.
X21.6 Z-1.66 I0.6 J0.
X20.4 Z-1.733 I-0.6 J0.
X21.6 Z-1.807 I0.6 J0.
X20.4 Z-1.88 I-0.6 J0.
X21.6 Z-1.953 I0.6 J0.
X20.4 Z-2.027 I-0.6 J0.
X21.6 Z-2.1 I0.6 J0.
X20.4 Z-2.173 I-0.6 J0.
X21.6 Z-2.247 I0.6 J0.
X20.4 Z-2.32 I-0.6 J0.
X21.6 Z-2.393 I0.6 J0.
X20.4 Z-2.467 I-0.6 J0.
X21.6 Z-2.54 I0.6 J0.
X20.4 Z-2.613 I-0.6 J0.
X21.6 Z-2.687 I0.6 J0.
X20.4 Z-2.76 I-0.6 J0.
X21.6 Z-2.833 I0.6 J0.
X20.4 Z-2.907 I-0.6 J0.
X21.6 Z-2.98 I0.6 J0.
X20.4 Z-3.053 I-0.6 J0.
X21.6 Z-3.127 I0.6 J0.
X20.4 Z-3.2 I-0.6 J0.
X21.6 Z-3.273 I0.6 J0.
X20.4 Z-3.347 I-0.6 J0.
X21.6 Z-3.42 I0.6 J0.
X20.4 Z-3.493 I-0.6 J0.
X21.6 Z-3.567 I0.6 J0.
X20.4 Z-3.64 I-0.6 J0.
X21.6 Z-3.713 I0.6 J0.
X20.4 Z-3.787 I-0.6 J0.
X21.6 Z-3.86 I0.6 J0.
X20.4 Z-3.933 I-0.6 J0.
X21.6 Z-4.007 I0.6 J0.
X20.4 Z-4.08 I-0.6 J0.
X21.6 Z-4.153 I0.6 J0.
X20.4 Z-4.227 I-0.6 J0.
X21.6 Z-4.3 I0.6 J0.
X20.4 Z-4.373 I-0.6 J0.
X21.6 Z-4.447 I0.6 J0.
X20.4 Z-4.52 I-0.6 J0.
X21.6 Z-4.593 I0.6 J0.
X20.4 Z-4.667 I-0.6 J0.
X21.6 Z-4.74 I0.6 J0.
X20.4 Z-4.813 I-0.6 J0.
X21.6 Z-4.887 I0.6 J0.
X20.4 Z-4.96 I-0.6 J0.
X21.6 Z-5.033 I0.6 J0.
X20.4 Z-5.107 I-0.6 J0.
X21.6 Z-5.18 I0.6 J0.
X20.4 Z-5.253 I-0.6 J0.
X21.6 Z-5.327 I0.6 J0.
X20.4 Z-5.4 I-0.6 J0.
X21.6 Z-5.473 I0.6 J0.
X20.4 Z-5.547 I-0.6 J0.
X21.6 Z-5.62 I0.6 J0.
X20.4 Z-5.693 I-0.6 J0.
X21.6 Z-5.767 I0.6 J0.
X20.4 Z-5.84 I-0.6 J0.
X21.6 Z-5.913 I0.6 J0.
X20.4 Z-5.987 I-0.6 J0.
X20.495 Y40.676 Z-6. I0.6 J0.
X21.505 Y41.324 I0.505 J0.324
X20.495 Y40.676 I-0.505 J-0.324
X20.909 Y40.586 I0.253 J0.162
G1 X21.036 Y40.667
X21.092 Y40.703 Z-5.992
X21.145 Y40.737 Z-5.97
X21.193 Y40.767 Z-5.935
X21.233 Y40.793 Z-5.887
X21.263 Y40.812 Z-5.83
X21.282 Y40.824 Z-5.767
X21.288 Y40.828 Z-5.7
Z2.
X21.15 Y53.3
Z1.
Z-0.7
G18 G3 X20.85 Z-1. I-0.3 K0.
G1 X20.7
G17 G3 X20.4 Y53. I0. J-0.3
X21.6 Z-1.073 I0.6 J0.
X20.4 Z-1.147 I-0.6 J0.
X21.6 Z-1.22 I0.6 J0.
X20.4 Z-1.293 I-0.6 J0.
X21.6 Z-1.367 I0.6 J0.
X20.4 Z-1.44 I-0.6 J0.
X21.6 Z-1.513 I0.6 J0.
X20.4 Z-1.587 I-0.6 J0.
X21.6 Z-1.66 I0.6 J0.
X20.4 Z-1.733 I-0.6 J0.
X21.6 Z-1.807 I0.6 J0.
X20.4 Z-1.88 I-0.6 J0.
X21.6 Z-1.953 I0.6 J0.
X20.4 Z-2.027 I-0.6 J0.
X21.6 Z-2.1 I0.6 J0.
X20.4 Z-2.173 I-0.6 J0.
X21.6 Z-2.247 I0.6 J0.
X20.4 Z-2.32 I-0.6 J0.
X21.6 Z-2.393 I0.6 J0.
X20.4 Z-2.467 I-0.6 J0.
X21.6 Z-2.54 I0.6 J0.
X20.4 Z-2.613 I-0.6 J0.
X21.6 Z-2.687 I0.6 J0.
X20.4 Z-2.76 I-0.6 J0.
X21.6 Z-2.833 I0.6 J0.
X20.4 Z-2.907 I-0.6 J0.
X21.6 Z-2.98 I0.6 J0.
X20.4 Z-3.053 I-0.6 J0.
X21.6 Z-3.127 I0.6 J0.
X20.4 Z-3.2 I-0.6 J0.
X21.6 Z-3.273 I0.6 J0.
X20.4 Z-3.347 I-0.6 J0.
X21.6 Z-3.42 I0.6 J0.
X20.4 Z-3.493 I-0.6 J0.
X21.6 Z-3.567 I0.6 J0.
X20.4 Z-3.64 I-0.6 J0.
X21.6 Z-3.713 I0.6 J0.
X20.4 Z-3.787 I-0.6 J0.
X21.6 Z-3.86 I0.6 J0.
X20.4 Z-3.933 I-0.6 J0.
X21.6 Z-4.007 I0.6 J0.
X20.4 Z-4.08 I-0.6 J0.
X21.6 Z-4.153 I0.6 J0.
X20.4 Z-4.227 I-0.6 J0.
X21.6 Z-4.3 I0.6 J0.
X20.4 Z-4.373 I-0.6 J0.
X21.6 Z-4.447 I0.6 J0.
X20.4 Z-4.52 I-0.6 J0.
X21.6 Z-4.593 I0.6 J0.
X20.4 Z-4.667 I-0.6 J0.
X21.6 Z-4.74 I0.6 J0.
X20.4 Z-4.813 I-0.6 J0.
X21.6 Z-4.887 I0.6 J0.
X20.4 Z-4.96 I-0.6 J0.
X21.6 Z-5.033 I0.6 J0.
X20.4 Z-5.107 I-0.6 J0.
X21.6 Z-5.18 I0.6 J0.
X20.4 Z-5.253 I-0.6 J0.
X21.6 Z-5.327 I0.6 J0.
X20.4 Z-5.4 I-0.6 J0.
X21.6 Z-5.473 I0.6 J0.
X20.4 Z-5.547 I-0.6 J0.
X21.6 Z-5.62 I0.6 J0.
X20.4 Z-5.693 I-0.6 J0.
X21.6 Z-5.767 I0.6 J0.
X20.4 Z-5.84 I-0.6 J0.
X21.6 Z-5.913 I0.6 J0.
X20.4 Z-5.987 I-0.6 J0.
X20.495 Y52.676 Z-6. I0.6 J0.
X21.505 Y53.324 I0.505 J0.324
X20.495 Y52.676 I-0.505 J-0.324
X20.909 Y52.586 I0.253 J0.162
G1 X21.036 Y52.667
X21.092 Y52.703 Z-5.992
X21.145 Y52.737 Z-5.97
X21.193 Y52.767 Z-5.935
X21.233 Y52.793 Z-5.887
X21.263 Y52.812 Z-5.83
X21.282 Y52.824 Z-5.767
X21.288 Y52.828 Z-5.7
Z2.
X26.15 Y106.3
Z1.
Z-0.7
G18 G3 X25.85 Z-1. I-0.3 K0.
G1 X25.7
G17 G3 X25.4 Y106. I0. J-0.3
X26.6 Z-1.073 I0.6 J0.
X25.4 Z-1.147 I-0.6 J0.
X26.6 Z-1.22 I0.6 J0.
X25.4 Z-1.293 I-0.6 J0.
X26.6 Z-1.367 I0.6 J0.
X25.4 Z-1.44 I-0.6 J0.
X26.6 Z-1.513 I0.6 J0.
X25.4 Z-1.587 I-0.6 J0.
X26.6 Z-1.66 I0.6 J0.
X25.4 Z-1.733 I-0.6 J0.
X26.6 Z-1.807 I0.6 J0.
X25.4 Z-1.88 I-0.6 J0.
X26.6 Z-1.953 I0.6 J0.
X25.4 Z-2.027 I-0.6 J0.
X26.6 Z-2.1 I0.6 J0.
X25.4 Z-2.173 I-0.6 J0.
X26.6 Z-2.247 I0.6 J0.
X25.4 Z-2.32 I-0.6 J0.
X26.6 Z-2.393 I0.6 J0.
X25.4 Z-2.467 I-0.6 J0.
X26.6 Z-2.54 I0.6 J0.
X25.4 Z-2.613 I-0.6 J0.
X26.6 Z-2.687 I0.6 J0.
X25.4 Z-2.76 I-0.6 J0.
X26.6 Z-2.833 I0.6 J0.
X25.4 Z-2.907 I-0.6 J0.
X26.6 Z-2.98 I0.6 J0.
X25.4 Z-3.053 I-0.6 J0.
X26.6 Z-3.127 I0.6 J0.
X25.4 Z-3.2 I-0.6 J0.
X26.6 Z-3.273 I0.6 J0.
X25.4 Z-3.347 I-0.6 J0.
X26.6 Z-3.42 I0.6 J0.
X25.4 Z-3.493 I-0.6 J0.
X26.6 Z-3.567 I0.6 J0.
X25.4 Z-3.64 I-0.6 J0.
X26.6 Z-3.713 I0.6 J0.
X25.4 Z-3.787 I-0.6 J0.
X26.6 Z-3.86 I0.6 J0.
X25.4 Z-3.933 I-0.6 J0.
X26.6 Z-4.007 I0.6 J0.
X25.4 Z-4.08 I-0.6 J0.
X26.6 Z-4.153 I0.6 J0.
X25.4 Z-4.227 I-0.6 J0.
X26.6 Z-4.3 I0.6 J0.
X25.4 Z-4.373 I-0.6 J0.
X26.6 Z-4.447 I0.6 J0.
X25.4 Z-4.52 I-0.6 J0.
X26.6 Z-4.593 I0.6 J0.
X25.4 Z-4.667 I-0.6 J0.
X26.6 Z-4.74 I0.6 J0.
X25.4 Z-4.813 I-0.6 J0.
X26.6 Z-4.887 I0.6 J0.
X25.4 Z-4.96 I-0.6 J0.
X26.6 Z-5.033 I0.6 J0.
X25.4 Z-5.107 I-0.6 J0.
X26.6 Z-5.18 I0.6 J0.
X25.4 Z-5.253 I-0.6 J0.
X26.6 Z-5.327 I0.6 J0.
X25.4 Z-5.4 I-0.6 J0.
X26.6 Z-5.473 I0.6 J0.
X25.4 Z-5.547 I-0.6 J0.
X26.6 Z-5.62 I0.6 J0.
X25.4 Z-5.693 I-0.6 J0.
X26.6 Z-5.767 I0.6 J0.
X25.4 Z-5.84 I-0.6 J0.
X26.6 Z-5.913 I0.6 J0.
X25.4 Z-5.987 I-0.6 J0.
X25.495 Y105.676 Z-6. I0.6 J0.
X26.505 Y106.324 I0.505 J0.324
X25.495 Y105.676 I-0.505 J-0.324
X25.909 Y105.586 I0.253 J0.162
G1 X26.036 Y105.666
X26.092 Y105.703 Z-5.992
X26.145 Y105.737 Z-5.97
X26.193 Y105.767 Z-5.935
X26.233 Y105.793 Z-5.887
X26.263 Y105.812 Z-5.83
X26.282 Y105.824 Z-5.767
X26.288 Y105.828 Z-5.7
Z4.
(WHEN USING FUSION 360 FOR PERSONAL USE, THE FEEDRATE OF)
(RAPID MOVES IS REDUCED TO MATCH THE FEEDRATE OF CUTTING)
(MOVES, WHICH CAN INCREASE MACHINING TIME. UNRESTRICTED RAPID)
(MOVES ARE AVAILABLE WITH A FUSION 360 SUBSCRIPTION.)

(BORE2 2)
G0 Z15.
X41.175 Y86.275
G1 Z1. F100.
Z-0.7
G18 G3 X40.875 Z-1. I-0.3 K0.
G1 X40.725
G17 G3 X40.45 Y86. I0. J-0.275
X41.55 Z-1.072 I0.55 J0.
X40.45 Z-1.143 I-0.55 J0.
X41.55 Z-1.215 I0.55 J0.
X40.45 Z-1.286 I-0.55 J0.
X41.55 Z-1.358 I0.55 J0.
X40.45 Z-1.43 I-0.55 J0.
X41.55 Z-1.501 I0.55 J0.
X40.45 Z-1.573 I-0.55 J0.
X41.55 Z-1.644 I0.55 J0.
X40.45 Z-1.716 I-0.55 J0.
X41.55 Z-1.787 I0.55 J0.
X40.45 Z-1.859 I-0.55 J0.
X41.55 Z-1.931 I0.55 J0.
X40.45 Z-2.002 I-0.55 J0.
X41.55 Z-2.074 I0.55 J0.
X40.45 Z-2.145 I-0.55 J0.
X41.55 Z-2.217 I0.55 J0.
X40.45 Z-2.289 I-0.55 J0.
X41.55 Z-2.36 I0.55 J0.
X40.45 Z-2.432 I-0.55 J0.
X41.55 Z-2.503 I0.55 J0.
X40.45 Z-2.575 I-0.55 J0.
X41.55 Z-2.647 I0.55 J0.
X40.45 Z-2.718 I-0.55 J0.
X41.55 Z-2.79 I0.55 J0.
X40.45 Z-2.861 I-0.55 J0.
X41.55 Z-2.933 I0.55 J0.
X40.45 Z-3.004 I-0.55 J0.
X41.55 Z-3.076 I0.55 J0.
X40.45 Z-3.148 I-0.55 J0.
X41.55 Z-3.219 I0.55 J0.
X40.45 Z-3.291 I-0.55 J0.
X41.55 Z-3.362 I0.55 J0.
X40.45 Z-3.434 I-0.55 J0.
X41.55 Z-3.506 I0.55 J0.
X40.45 Z-3.577 I-0.55 J0.
X41.55 Z-3.649 I0.55 J0.
X40.45 Z-3.72 I-0.55 J0.
X41.55 Z-3.792 I0.55 J0.
X40.45 Z-3.864 I-0.55 J0.
X41.55 Z-3.935 I0.55 J0.
X40.45 Z-4.007 I-0.55 J0.
X41.55 Z-4.078 I0.55 J0.
X40.45 Z-4.15 I-0.55 J0.
X41.55 Z-4.221 I0.55 J0.
X40.45 Z-4.293 I-0.55 J0.
X41.55 Z-4.365 I0.55 J0.
X40.45 Z-4.436 I-0.55 J0.
X41.55 Z-4.508 I0.55 J0.
X40.45 Z-4.579 I-0.55 J0.
X41.55 Z-4.651 I0.55 J0.
X40.45 Z-4.723 I-0.55 J0.
X41.55 Z-4.794 I0.55 J0.
X40.45 Z-4.866 I-0.55 J0.
X41.55 Z-4.937 I0.55 J0.
X40.45 Z-5.009 I-0.55 J0.
X41.55 Z-5.08 I0.55 J0.
X40.45 Z-5.152 I-0.55 J0.
X41.55 Z-5.224 I0.55 J0.
X40.45 Z-5.295 I-0.55 J0.
X41.55 Z-5.367 I0.55 J0.
X40.45 Z-5.438 I-0.55 J0.
X41.55 Z-5.51 I0.55 J0.
X40.45 Z-5.582 I-0.55 J0.
X41.55 Z-5.653 I0.55 J0.
X40.45 Z-5.725 I-0.55 J0.
X41.55 Z-5.796 I0.55 J0.
X40.45 Z-5.868 I-0.55 J0.
X41.55 Z-5.94 I0.55 J0.
X40.514 Y86.258 Z-6. I-0.55 J0.
X41.486 Y85.742 I0.486 J-0.258
X40.514 Y86.258 I-0.486 J0.258
X40.628 Y85.886 I0.243 J-0.129
G1 X40.761 Y85.816
X40.82 Y85.784 Z-5.992
X40.876 Y85.755 Z-5.97
X40.926 Y85.728 Z-5.935
X40.968 Y85.706 Z-5.887
X40.999 Y85.689 Z-5.83
X41.019 Y85.679 Z-5.767
X41.025 Y85.675 Z-5.7
Z5.
X41.175 Y111.275
Z1.
Z-0.7
G18 G3 X40.875 Z-1. I-0.3 K0.
G1 X40.725
G17 G3 X40.45 Y111. I0. J-0.275
X41.55 Z-1.072 I0.55 J0.
X40.45 Z-1.143 I-0.55 J0.
X41.55 Z-1.215 I0.55 J0.
X40.45 Z-1.286 I-0.55 J0.
X41.55 Z-1.358 I0.55 J0.
X40.45 Z-1.43 I-0.55 J0.
X41.55 Z-1.501 I0.55 J0.
X40.45 Z-1.573 I-0.55 J0.
X41.55 Z-1.644 I0.55 J0.
X40.45 Z-1.716 I-0.55 J0.
X41.55 Z-1.787 I0.55 J0.
X40.45 Z-1.859 I-0.55 J0.
X41.55 Z-1.931 I0.55 J0.
X40.45 Z-2.002 I-0.55 J0.
X41.55 Z-2.074 I0.55 J0.
X40.45 Z-2.145 I-0.55 J0.
X41.55 Z-2.217 I0.55 J0.
X40.45 Z-2.289 I-0.55 J0.
X41.55 Z-2.36 I0.55 J0.
X40.45 Z-2.432 I-0.55 J0.
X41.55 Z-2.503 I0.55 J0.
X40.45 Z-2.575 I-0.55 J0.
X41.55 Z-2.647 I0.55 J0.
X40.45 Z-2.718 I-0.55 J0.
X41.55 Z-2.79 I0.55 J0.
X40.45 Z-2.861 I-0.55 J0.
X41.55 Z-2.933 I0.55 J0.
X40.45 Z-3.004 I-0.55 J0.
X41.55 Z-3.076 I0.55 J0.
X40.45 Z-3.148 I-0.55 J0.
X41.55 Z-3.219 I0.55 J0.
X40.45 Z-3.291 I-0.55 J0.
X41.55 Z-3.362 I0.55 J0.
X40.45 Z-3.434 I-0.55 J0.
X41.55 Z-3.506 I0.55 J0.
X40.45 Z-3.577 I-0.55 J0.
X41.55 Z-3.649 I0.55 J0.
X40.45 Z-3.72 I-0.55 J0.
X41.55 Z-3.792 I0.55 J0.
X40.45 Z-3.864 I-0.55 J0.
X41.55 Z-3.935 I0.55 J0.
X40.45 Z-4.007 I-0.55 J0.
X41.55 Z-4.078 I0.55 J0.
X40.45 Z-4.15 I-0.55 J0.
X41.55 Z-4.221 I0.55 J0.
X40.45 Z-4.293 I-0.55 J0.
X41.55 Z-4.365 I0.55 J0.
X40.45 Z-4.436 I-0.55 J0.
X41.55 Z-4.508 I0.55 J0.
X40.45 Z-4.579 I-0.55 J0.
X41.55 Z-4.651 I0.55 J0.
X40.45 Z-4.723 I-0.55 J0.
X41.55 Z-4.794 I0.55 J0.
X40.45 Z-4.866 I-0.55 J0.
X41.55 Z-4.937 I0.55 J0.
X40.45 Z-5.009 I-0.55 J0.
X41.55 Z-5.08 I0.55 J0.
X40.45 Z-5.152 I-0.55 J0.
X41.55 Z-5.224 I0.55 J0.
X40.45 Z-5.295 I-0.55 J0.
X41.55 Z-5.367 I0.55 J0.
X40.45 Z-5.438 I-0.55 J0.
X41.55 Z-5.51 I0.55 J0.
X40.45 Z-5.582 I-0.55 J0.
X41.55 Z-5.653 I0.55 J0.
X40.45 Z-5.725 I-0.55 J0.
X41.55 Z-5.796 I0.55 J0.
X40.45 Z-5.868 I-0.55 J0.
X41.55 Z-5.94 I0.55 J0.
X40.514 Y111.258 Z-6. I-0.55 J0.
X41.486 Y110.742 I0.486 J-0.258
X40.514 Y111.258 I-0.486 J0.258
X40.628 Y110.886 I0.243 J-0.129
G1 X40.761 Y110.816
X40.82 Y110.784 Z-5.992
X40.876 Y110.755 Z-5.97
X40.926 Y110.728 Z-5.935
X40.968 Y110.706 Z-5.887
X40.999 Y110.689 Z-5.83
X41.019 Y110.679 Z-5.767
X41.025 Y110.675 Z-5.7
Z15.
(WHEN USING FUSION 360 FOR PERSONAL USE, THE FEEDRATE OF)
(RAPID MOVES IS REDUCED TO MATCH THE FEEDRATE OF CUTTING)
(MOVES, WHICH CAN INCREASE MACHINING TIME. UNRESTRICTED RAPID)
(MOVES ARE AVAILABLE WITH A FUSION 360 SUBSCRIPTION.)

(2D CONTOUR1 2)
G0 X-1.4 Y141.3
G1 Z3. F200.
Z2.
Z-0.7 F30.
G18 G2 X-1.1 Z-1. I0.3 K0. F200.
G1 X-0.8
G17 G2 X-0.5 Y141. I0. J-0.3
G1 Y1.
G3 X1. Y-0.5 I1.5 J0.
G1 X51.
G3 X52.5 Y1. I0. J1.5
G1 Y110.957
G3 X51.773 Y112.243 I-1.5 J0.
G1 X1.773 Y142.286
G3 X-0.5 Y141. I-0.773 J-1.286
G2 X-0.8 Y140.7 I-0.3 J0.
G1 X-1.1
G18 G3 X-1.4 Z-0.7 I0. K0.3
G1 Z3.
Y141.3
Z1.
Z-1.7 F30.
G2 X-1.1 Z-2. I0.3 K0. F200.
G1 X-0.8
G17 G2 X-0.5 Y141. I0. J-0.3
G1 Y1.
G3 X1. Y-0.5 I1.5 J0.
G1 X51.
G3 X52.5 Y1. I0. J1.5
G1 Y110.957
G3 X51.773 Y112.243 I-1.5 J0.
G1 X1.773 Y142.286
G3 X-0.5 Y141. I-0.773 J-1.286
G2 X-0.8 Y140.7 I-0.3 J0.
G1 X-1.1
G18 G3 X-1.4 Z-1.7 I0. K0.3
G1 Z3.
Y141.3
Z1.
Z0. F30.
Z-2.7
G2 X-1.1 Z-3. I0.3 K0. F200.
G1 X-0.8
G17 G2 X-0.5 Y141. I0. J-0.3
G1 Y1.
G3 X1. Y-0.5 I1.5 J0.
G1 X51.
G3 X52.5 Y1. I0. J1.5
G1 Y110.957
G3 X51.773 Y112.243 I-1.5 J0.
G1 X1.773 Y142.286
G3 X-0.5 Y141. I-0.773 J-1.286
G2 X-0.8 Y140.7 I-0.3 J0.
G1 X-1.1
G18 G3 X-1.4 Z-2.7 I0. K0.3
G1 Z3.
Y141.3
Z1.
Z-1. F30.
Z-3.7
G2 X-1.1 Z-4. I0.3 K0. F200.
G1 X-0.8
G17 G2 X-0.5 Y141. I0. J-0.3
G1 Y1.
G3 X1. Y-0.5 I1.5 J0.
G1 X51.
G3 X52.5 Y1. I0. J1.5
G1 Y110.957
G3 X51.773 Y112.243 I-1.5 J0.
G1 X1.773 Y142.286
G3 X-0.5 Y141. I-0.773 J-1.286
G2 X-0.8 Y140.7 I-0.3 J0.
G1 X-1.1
G18 G3 X-1.4 Z-3.7 I0. K0.3
G1 Z3.
Y141.3
Z1.
Z-2. F30.
Z-4.7
G2 X-1.1 Z-5. I0.3 K0. F200.
G1 X-0.8
G17 G2 X-0.5 Y141. I0. J-0.3
G1 Y1.
G3 X1. Y-0.5 I1.5 J0.
G1 X51.
G3 X52.5 Y1. I0. J1.5
G1 Y110.957
G3 X51.773 Y112.243 I-1.5 J0.
G1 X1.773 Y142.286
G3 X-0.5 Y141. I-0.773 J-1.286
G2 X-0.8 Y140.7 I-0.3 J0.
G1 X-1.1
G18 G3 X-1.4 Z-4.7 I0. K0.3
G1 Z3.
Y141.3
Z1.
Z-3. F30.
Z-5.7
G2 X-1.1 Z-6. I0.3 K0. F200.
G1 X-0.8
G17 G2 X-0.5 Y141. I0. J-0.3
G1 Y1.
G3 X1. Y-0.5 I1.5 J0.
G1 X51.
G3 X52.5 Y1. I0. J1.5
G1 Y110.957
G3 X51.773 Y112.243 I-1.5 J0.
G1 X1.773 Y142.286
G3 X-0.5 Y141. I-0.773 J-1.286
G2 X-0.8 Y140.7 I-0.3 J0.
G1 X-1.1
G18 G3 X-1.4 Z-5.7 I0. K0.3
G1 Z3.
G17

G28 G91 Z0.
G90
G28 G91 X0. Y0.
G90
M30
