(1009CRECUTTODEPTH)
(MACHINE)
(  VENDOR HOMEMADE)
(  DESCRIPTION GENERIC 3-AXIS)
(T2  D=3. CR=0. - ZMIN=-6. - FLAT END MILL)
G90 G94 G91.1 G40 G49 G17
G21
(WHEN USING FUSION 360 FOR PERSONAL USE, THE FEEDRATE OF)
(RAPID MOVES IS REDUCED TO MATCH THE FEEDRATE OF CUTTING)
(MOVES, WHICH CAN INCREASE MACHINING TIME. UNRESTRICTED RAPID)
(MOVES ARE AVAILABLE WITH A FUSION 360 SUBSCRIPTION.)
G28 G91 Z0.
G90

(FINISHTODEPTH)
M5
T2 M6
S9000 M3
G54
G0 X12.7 Y40.4
G43 Z5. H2
G1 Z2.5 F30.
Z-1.2
G19 G2 Y40.1 Z-1.5 J-0.3 K0. F75.
G1 Y39.8
G17 G3 X13. Y39.5 I0.3 J0.
G1 X26. F50.
G2 X29.5 Y36. I0. J-3.5
G1 Y2.
G2 X26. Y-1.5 I-3.5 J0.
G1 X0.
G2 X-3.5 Y2. I0. J3.5
G1 Y36.
G2 X0. Y39.5 I3.5 J0.
G1 X13.
G3 X13.3 Y39.8 I0. J0.3 F75.
G1 Y40.1
G19 G3 Y40.4 Z-1.2 J0. K0.3
G1 Z5.
X12.7
Z1. F30.
Z-2.7
G2 Y40.1 Z-3. J-0.3 K0. F75.
G1 Y39.8
G17 G3 X13. Y39.5 I0.3 J0.
G1 X26. F50.
G2 X29.5 Y36. I0. J-3.5
G1 Y2.
G2 X26. Y-1.5 I-3.5 J0.
G1 X0.
G2 X-3.5 Y2. I0. J3.5
G1 Y36.
G2 X0. Y39.5 I3.5 J0.
G1 X13.
G3 X13.3 Y39.8 I0. J0.3 F75.
G1 Y40.1
G19 G3 Y40.4 Z-2.7 J0. K0.3
G1 Z5.
X12.7
Z-0.5 F30.
Z-4.2
G2 Y40.1 Z-4.5 J-0.3 K0. F75.
G1 Y39.8
G17 G3 X13. Y39.5 I0.3 J0.
G1 X26. F50.
G2 X29.5 Y36. I0. J-3.5
G1 Y2.
G2 X26. Y-1.5 I-3.5 J0.
G1 X0.
G2 X-3.5 Y2. I0. J3.5
G1 Y36.
G2 X0. Y39.5 I3.5 J0.
G1 X13.
G3 X13.3 Y39.8 I0. J0.3 F75.
G1 Y40.1
G19 G3 Y40.4 Z-4.2 J0. K0.3
G1 Z5.
X12.7
Z-2. F30.
Z-5.7
G2 Y40.1 Z-6. J-0.3 K0. F75.
G1 Y39.8
G17 G3 X13. Y39.5 I0.3 J0.
G1 X20.372 F50.
Z-5.75
X26.
G2 X26.372 Y39.48 I0. J-3.5
G1 Z-6. F30.
G2 X29.5 Y36. I-0.372 J-3.48 F50.
G1 Y18.257
Z-5.75
Y12.257
Z-6. F30.
Y2. F50.
G2 X26. Y-1.5 I-3.5 J0.
G1 X18.885
Z-5.75
X12.885
Z-6. F30.
X0. F50.
G2 X-3.5 Y2. I0. J3.5
G1 Y6.487
Z-5.75
Y12.487
Z-6. F30.
Y33. F50.
Z-5.75
Y36.
G2 X-1.803 Y39. I3.5 J0.
G1 Z-6. F30.
G2 X0. Y39.5 I1.803 J-3. F50.
G1 X13.
G3 X13.3 Y39.8 I0. J0.3 F75.
G1 Y40.1
G19 G3 Y40.4 Z-5.7 J0. K0.3
G1 Z5.
G17

G28 G91 Z0.
G90
G28 G91 X0. Y0.
G90
M30
