(1009DRILLENDSTOP)
(DRILLENDSTOP)
(MACHINE)
(  VENDOR HOMEMADE)
(  DESCRIPTION GENERIC 3-AXIS)
(T2  D=3. CR=0. - ZMIN=-5.8 - FLAT END MILL)
G90 G94 G91.1 G40 G49 G17
G21
G28 G91 Z0.
G90

(DRILL3)
M5
T2 M6
S9000 M3
G54
G0 X8. Y20.
G43 Z5. H2
Z2.
G1 Z-0.75 F30.
G0 Z5.
Z1.25
G1 Z-1.5 F30.
G0 Z5.
Z0.5
G1 Z-2.25 F30.
G0 Z5.
Z-0.25
G1 Z-3. F30.
G0 Z5.
Z-1.
G1 Z-3.75 F30.
G0 Z5.
Z-1.75
G1 Z-4.5 F30.
G0 Z5.
Z-2.5
G1 Z-5.25 F30.
G0 Z5.
Z-3.25
G1 Z-5.8 F30.
G4 P0.2
G0 Z5.
X28.
Z2.
G1 Z-0.75 F30.
G0 Z5.
Z1.25
G1 Z-1.5 F30.
G0 Z5.
Z0.5
G1 Z-2.25 F30.
G0 Z5.
Z-0.25
G1 Z-3. F30.
G0 Z5.
Z-1.
G1 Z-3.75 F30.
G0 Z5.
Z-1.75
G1 Z-4.5 F30.
G0 Z5.
Z-2.5
G1 Z-5.25 F30.
G0 Z5.
Z-3.25
G1 Z-5.8 F30.
G4 P0.2
G0 Z5.
(WHEN USING FUSION 360 FOR PERSONAL USE, THE FEEDRATE OF)
(RAPID MOVES IS REDUCED TO MATCH THE FEEDRATE OF CUTTING)
(MOVES, WHICH CAN INCREASE MACHINING TIME. UNRESTRICTED RAPID)
(MOVES ARE AVAILABLE WITH A FUSION 360 SUBSCRIPTION.)

(BORE5)
G0 X7.975 Y19.875
G1 Z5. F30.
Z1.7
Z0.
X8.125
X8.164 Y19.881
X8.198 Y19.899
X8.226 Y19.927
X8.244 Y19.961
X8.25 Y20.
G3 X7.75 Z-0.061 I-0.25 J0.
X8.25 Z-0.122 I0.25 J0.
X7.75 Z-0.183 I-0.25 J0.
X8.25 Z-0.244 I0.25 J0.
X7.75 Z-0.306 I-0.25 J0.
X8.25 Z-0.367 I0.25 J0.
X7.75 Z-0.428 I-0.25 J0.
X8.25 Z-0.489 I0.25 J0.
X7.75 Z-0.55 I-0.25 J0.
X8.25 Z-0.611 I0.25 J0.
X7.75 Z-0.672 I-0.25 J0.
X8.25 Z-0.733 I0.25 J0.
X7.75 Z-0.794 I-0.25 J0.
X8.25 Z-0.856 I0.25 J0.
X7.75 Z-0.917 I-0.25 J0.
X8.25 Z-0.978 I0.25 J0.
X7.75 Z-1.039 I-0.25 J0.
X8.25 Z-1.1 I0.25 J0.
X7.75 Z-1.161 I-0.25 J0.
X8.25 Z-1.222 I0.25 J0.
X7.75 Z-1.283 I-0.25 J0.
X8.25 Z-1.344 I0.25 J0.
X7.75 Z-1.406 I-0.25 J0.
X8.25 Z-1.467 I0.25 J0.
X7.75 Z-1.528 I-0.25 J0.
X8.25 Z-1.589 I0.25 J0.
X7.75 Z-1.65 I-0.25 J0.
X8.25 Z-1.711 I0.25 J0.
X7.75 Z-1.772 I-0.25 J0.
X8.25 Z-1.833 I0.25 J0.
X7.75 Z-1.894 I-0.25 J0.
X8.25 Z-1.956 I0.25 J0.
X7.75 Z-2.017 I-0.25 J0.
X8.25 Z-2.078 I0.25 J0.
X7.75 Z-2.139 I-0.25 J0.
X8.25 Z-2.2 I0.25 J0.
X7.75 Z-2.261 I-0.25 J0.
X8.25 Z-2.322 I0.25 J0.
X7.75 Z-2.383 I-0.25 J0.
X8.25 Z-2.444 I0.25 J0.
X7.75 Z-2.506 I-0.25 J0.
X8.25 Z-2.567 I0.25 J0.
X7.75 Z-2.628 I-0.25 J0.
X8.25 Z-2.689 I0.25 J0.
X7.75 Z-2.75 I-0.25 J0.
X8.25 Z-2.811 I0.25 J0.
X7.75 Z-2.872 I-0.25 J0.
X8.25 Z-2.933 I0.25 J0.
X7.75 Z-2.994 I-0.25 J0.
X8.25 Z-3.056 I0.25 J0.
X7.75 Z-3.117 I-0.25 J0.
X8.25 Z-3.178 I0.25 J0.
X7.75 Z-3.239 I-0.25 J0.
X8.25 Z-3.3 I0.25 J0.
X7.75 Z-3.361 I-0.25 J0.
X8.25 Z-3.422 I0.25 J0.
X7.75 Z-3.483 I-0.25 J0.
X8.25 Z-3.544 I0.25 J0.
X7.75 Z-3.606 I-0.25 J0.
X8.25 Z-3.667 I0.25 J0.
X7.75 Z-3.728 I-0.25 J0.
X8.25 Z-3.789 I0.25 J0.
X7.75 Z-3.85 I-0.25 J0.
X8.25 Z-3.911 I0.25 J0.
X7.75 Z-3.972 I-0.25 J0.
X8.25 Z-4.033 I0.25 J0.
X7.75 Z-4.094 I-0.25 J0.
X8.25 Z-4.156 I0.25 J0.
X7.75 Z-4.217 I-0.25 J0.
X8.25 Z-4.278 I0.25 J0.
X7.75 Z-4.339 I-0.25 J0.
X8.25 Z-4.4 I0.25 J0.
X7.75 Z-4.461 I-0.25 J0.
X8.25 Z-4.522 I0.25 J0.
X7.75 Z-4.583 I-0.25 J0.
X8.25 Z-4.644 I0.25 J0.
X7.75 Z-4.706 I-0.25 J0.
X8.25 Z-4.767 I0.25 J0.
X7.75 Z-4.828 I-0.25 J0.
X8.25 Z-4.889 I0.25 J0.
X7.75 Z-4.95 I-0.25 J0.
X8.25 Z-5.011 I0.25 J0.
X7.75 Z-5.072 I-0.25 J0.
X8.25 Z-5.133 I0.25 J0.
X7.75 Z-5.194 I-0.25 J0.
X8.25 Z-5.256 I0.25 J0.
X7.75 Z-5.317 I-0.25 J0.
X8.25 Z-5.378 I0.25 J0.
X7.75 Z-5.439 I-0.25 J0.
X8.25 Z-5.5 I0.25 J0.
X7.75 Z-5.561 I-0.25 J0.
X8.25 Z-5.622 I0.25 J0.
X7.75 Z-5.683 I-0.25 J0.
X8.25 Z-5.744 I0.25 J0.
X7.76 Y20.071 Z-5.8 I-0.25 J0.
X8.24 Y19.929 I0.24 J-0.071
X7.76 Y20.071 I-0.24 J0.071
G1 X7.755 Y20.032
X7.762 Y19.993
X7.781 Y19.959
X7.809 Y19.932
X7.845 Y19.915
X7.989 Y19.873
Z5.
X7.825 Y19.725
Z-3.8
Z-5.5
G18 G2 X8.125 Z-5.8 I0.3 K0.
G1 X8.275
G17 G3 X8.55 Y20. I0. J0.275
X7.45 I-0.55 J0.
X8.55 I0.55 J0.
X8.275 Y20.275 I-0.275 J0.
G1 X8.125
G18 G3 X7.825 Z-5.5 I0. K0.3
G1 Z5.
X27.975 Y19.875
Z1.7
Z0.
X28.125
X28.164 Y19.881
X28.198 Y19.899
X28.226 Y19.927
X28.244 Y19.961
X28.25 Y20.
G17 G3 X27.75 Z-0.061 I-0.25 J0.
X28.25 Z-0.122 I0.25 J0.
X27.75 Z-0.183 I-0.25 J0.
X28.25 Z-0.244 I0.25 J0.
X27.75 Z-0.306 I-0.25 J0.
X28.25 Z-0.367 I0.25 J0.
X27.75 Z-0.428 I-0.25 J0.
X28.25 Z-0.489 I0.25 J0.
X27.75 Z-0.55 I-0.25 J0.
X28.25 Z-0.611 I0.25 J0.
X27.75 Z-0.672 I-0.25 J0.
X28.25 Z-0.733 I0.25 J0.
X27.75 Z-0.794 I-0.25 J0.
X28.25 Z-0.856 I0.25 J0.
X27.75 Z-0.917 I-0.25 J0.
X28.25 Z-0.978 I0.25 J0.
X27.75 Z-1.039 I-0.25 J0.
X28.25 Z-1.1 I0.25 J0.
X27.75 Z-1.161 I-0.25 J0.
X28.25 Z-1.222 I0.25 J0.
X27.75 Z-1.283 I-0.25 J0.
X28.25 Z-1.344 I0.25 J0.
X27.75 Z-1.406 I-0.25 J0.
X28.25 Z-1.467 I0.25 J0.
X27.75 Z-1.528 I-0.25 J0.
X28.25 Z-1.589 I0.25 J0.
X27.75 Z-1.65 I-0.25 J0.
X28.25 Z-1.711 I0.25 J0.
X27.75 Z-1.772 I-0.25 J0.
X28.25 Z-1.833 I0.25 J0.
X27.75 Z-1.894 I-0.25 J0.
X28.25 Z-1.956 I0.25 J0.
X27.75 Z-2.017 I-0.25 J0.
X28.25 Z-2.078 I0.25 J0.
X27.75 Z-2.139 I-0.25 J0.
X28.25 Z-2.2 I0.25 J0.
X27.75 Z-2.261 I-0.25 J0.
X28.25 Z-2.322 I0.25 J0.
X27.75 Z-2.383 I-0.25 J0.
X28.25 Z-2.444 I0.25 J0.
X27.75 Z-2.506 I-0.25 J0.
X28.25 Z-2.567 I0.25 J0.
X27.75 Z-2.628 I-0.25 J0.
X28.25 Z-2.689 I0.25 J0.
X27.75 Z-2.75 I-0.25 J0.
X28.25 Z-2.811 I0.25 J0.
X27.75 Z-2.872 I-0.25 J0.
X28.25 Z-2.933 I0.25 J0.
X27.75 Z-2.994 I-0.25 J0.
X28.25 Z-3.056 I0.25 J0.
X27.75 Z-3.117 I-0.25 J0.
X28.25 Z-3.178 I0.25 J0.
X27.75 Z-3.239 I-0.25 J0.
X28.25 Z-3.3 I0.25 J0.
X27.75 Z-3.361 I-0.25 J0.
X28.25 Z-3.422 I0.25 J0.
X27.75 Z-3.483 I-0.25 J0.
X28.25 Z-3.544 I0.25 J0.
X27.75 Z-3.606 I-0.25 J0.
X28.25 Z-3.667 I0.25 J0.
X27.75 Z-3.728 I-0.25 J0.
X28.25 Z-3.789 I0.25 J0.
X27.75 Z-3.85 I-0.25 J0.
X28.25 Z-3.911 I0.25 J0.
X27.75 Z-3.972 I-0.25 J0.
X28.25 Z-4.033 I0.25 J0.
X27.75 Z-4.094 I-0.25 J0.
X28.25 Z-4.156 I0.25 J0.
X27.75 Z-4.217 I-0.25 J0.
X28.25 Z-4.278 I0.25 J0.
X27.75 Z-4.339 I-0.25 J0.
X28.25 Z-4.4 I0.25 J0.
X27.75 Z-4.461 I-0.25 J0.
X28.25 Z-4.522 I0.25 J0.
X27.75 Z-4.583 I-0.25 J0.
X28.25 Z-4.644 I0.25 J0.
X27.75 Z-4.706 I-0.25 J0.
X28.25 Z-4.767 I0.25 J0.
X27.75 Z-4.828 I-0.25 J0.
X28.25 Z-4.889 I0.25 J0.
X27.75 Z-4.95 I-0.25 J0.
X28.25 Z-5.011 I0.25 J0.
X27.75 Z-5.072 I-0.25 J0.
X28.25 Z-5.133 I0.25 J0.
X27.75 Z-5.194 I-0.25 J0.
X28.25 Z-5.256 I0.25 J0.
X27.75 Z-5.317 I-0.25 J0.
X28.25 Z-5.378 I0.25 J0.
X27.75 Z-5.439 I-0.25 J0.
X28.25 Z-5.5 I0.25 J0.
X27.75 Z-5.561 I-0.25 J0.
X28.25 Z-5.622 I0.25 J0.
X27.75 Z-5.683 I-0.25 J0.
X28.25 Z-5.744 I0.25 J0.
X27.76 Y20.071 Z-5.8 I-0.25 J0.
X28.24 Y19.929 I0.24 J-0.071
X27.76 Y20.071 I-0.24 J0.071
G1 X27.755 Y20.032
X27.762 Y19.993
X27.781 Y19.959
X27.809 Y19.932
X27.845 Y19.915
X27.989 Y19.873
Z5.
X27.825 Y19.725
Z-3.8
Z-5.5
G18 G2 X28.125 Z-5.8 I0.3 K0.
G1 X28.275
G17 G3 X28.55 Y20. I0. J0.275
X27.45 I-0.55 J0.
X28.55 I0.55 J0.
X28.275 Y20.275 I-0.275 J0.
G1 X28.125
G18 G3 X27.825 Z-5.5 I0. K0.3
G1 Z5.
G17
(WHEN USING FUSION 360 FOR PERSONAL USE, THE FEEDRATE OF)
(RAPID MOVES IS REDUCED TO MATCH THE FEEDRATE OF CUTTING)
(MOVES, WHICH CAN INCREASE MACHINING TIME. UNRESTRICTED RAPID)
(MOVES ARE AVAILABLE WITH A FUSION 360 SUBSCRIPTION.)

(2D ADAPTIVE2)
G0 X7.896 Y30.824
G1 Z5. F100.
Z2.
S2000
G3 X7.657 Y30.112 Z1.969 I0.104 J-0.431 F75.
X8.401 Y30.206 Z1.938 I0.342 J0.28
X7.995 Y30.834 Z1.906 I-0.401 J0.187
X7.605 Y30.196 Z1.875 I0.005 J-0.441
X8.348 Y30.122 Z1.844 I0.395 J0.196
X8.093 Y30.823 Z1.813 I-0.348 J0.27
X7.572 Y30.29 Z1.781 I-0.093 J-0.43
X8.277 Y30.052 Z1.75 I0.427 J0.103
X8.186 Y30.79 Z1.719 I-0.278 J0.34
X7.562 Y30.388 Z1.688 I-0.186 J-0.397
X8.194 Y30.001 Z1.656 I0.438 J0.005
X8.269 Y30.737 Z1.625 I-0.194 J0.392
X7.574 Y30.485 Z1.594 I-0.268 J-0.344
X8.101 Y29.969 Z1.563 I0.426 J-0.092
X8.337 Y30.667 Z1.531 I-0.101 J0.424
X7.606 Y30.577 Z1.5 I-0.337 J-0.275
X8.004 Y29.958 Z1.469 I0.393 J-0.184
X8.389 Y30.584 Z1.438 I-0.004 J0.434
X7.659 Y30.659 Z1.406 I-0.389 J-0.192
X7.908 Y29.97 Z1.375 I0.341 J-0.266
X8.42 Y30.493 Z1.344 I0.092 J0.422
X7.728 Y30.727 Z1.313 I-0.42 J-0.1
X7.816 Y30.003 Z1.281 I0.272 J-0.335
X8.43 Y30.396 Z1.25 I0.183 J0.39
X7.81 Y30.778 Z1.219 I-0.43 J-0.004
X7.735 Y30.055 Z1.188 I0.19 J-0.385
X8.419 Y30.301 Z1.156 I0.265 J0.338
X7.901 Y30.809 Z1.125 I-0.418 J0.092
X7.668 Y30.123 Z1.094 I0.099 J-0.416
X8.386 Y30.21 Z1.063 I0.332 J0.269
X7.997 Y30.819 Z1.031 I-0.386 J0.182
X7.617 Y30.205 Z1. I0.003 J-0.426
X8.334 Y30.13 Z0.969 I0.382 J0.188
X8.092 Y30.807 Z0.938 I-0.334 J0.263
X7.587 Y30.295 Z0.906 I-0.091 J-0.415
X8.266 Y30.063 Z0.875 I0.413 J0.097
X8.181 Y30.775 Z0.844 I-0.266 J0.329
X7.577 Y30.39 Z0.813 I-0.181 J-0.382
X8.185 Y30.013 Z0.781 I0.422 J0.003
X8.261 Y30.724 Z0.75 I-0.186 J0.379
X7.589 Y30.484 Z0.719 I-0.261 J-0.331
X8.096 Y29.983 Z0.688 I0.411 J-0.091
X8.327 Y30.656 Z0.656 I-0.096 J0.409
X7.621 Y30.573 Z0.625 I-0.327 J-0.264
X8.002 Y29.974 Z0.594 I0.379 J-0.18
X8.376 Y30.576 Z0.563 I-0.002 J0.419
X7.672 Y30.651 Z0.531 I-0.376 J-0.183
X7.909 Y29.985 Z0.5 I0.328 J-0.259
X8.406 Y30.487 Z0.469 I0.091 J0.407
X7.739 Y30.717 Z0.438 I-0.406 J-0.095
X7.821 Y30.017 Z0.406 I0.261 J-0.324
X8.415 Y30.394 Z0.375 I0.178 J0.375
X7.819 Y30.765 Z0.344 I-0.415 J-0.002
X7.743 Y30.068 Z0.313 I0.181 J-0.372
X8.403 Y30.302 Z0.281 I0.257 J0.325
X7.907 Y30.795 Z0.25 I-0.403 J0.09
X7.678 Y30.134 Z0.219 I0.093 J-0.402
X8.371 Y30.215 Z0.188 I0.321 J0.258
X7.999 Y30.804 Z0.156 I-0.371 J0.177
X7.63 Y30.213 Z0.125 I0.001 J-0.411
X8.321 Y30.138 Z0.094 I0.369 J0.179
X8.09 Y30.792 Z0.063 I-0.321 J0.255
X7.601 Y30.301 Z0.031 I-0.09 J-0.399
X8.255 Y30.074 Z0. I0.398 J0.092
X8.176 Y30.76 Z-0.031 I-0.255 J0.319
X7.592 Y30.392 Z-0.063 I-0.176 J-0.368
X8.177 Y30.026 Z-0.094 I0.407 J0.001
X8.253 Y30.711 Z-0.125 I-0.177 J0.366
X7.604 Y30.482 Z-0.156 I-0.253 J-0.318
X8.091 Y29.998 Z-0.188 I0.395 J-0.09
X8.316 Y30.645 Z-0.219 I-0.091 J0.395
X7.636 Y30.568 Z-0.25 I-0.316 J-0.253
X8. Y29.989 Z-0.281 I0.364 J-0.175
X8.363 Y30.568 Z-0.313 I0. J0.403
X7.685 Y30.643 Z-0.344 I-0.363 J-0.175
X7.911 Y30.001 Z-0.375 I0.315 J-0.251
X8.391 Y30.482 Z-0.406 I0.089 J0.392
X7.75 Y30.706 Z-0.438 I-0.391 J-0.089
X7.826 Y30.032 Z-0.469 I0.25 J-0.313
X8.4 Y30.392 Z-0.5 I0.174 J0.36
X7.6 I-0.4 J0.
X8.4 I0.4 J0.
S9000
G1 X8.442 Y30.643 F100.
X8.456 Y30.793
X8.405 Y30.934
X8.312 Y31.052
X8.191 Y31.14
X8.052 Y31.196
X7.903 Y31.22
X7.754 Y31.213
X7.608 Y31.177
X7.472 Y31.113
X7.35 Y31.026
X7.246 Y30.918
X7.162 Y30.794
X7.1 Y30.657
X7.062 Y30.512
X7.048 Y30.363
X7.059 Y30.213
X7.094 Y30.067
X7.152 Y29.929
X7.231 Y29.801
X7.329 Y29.688
X7.443 Y29.591
X7.571 Y29.513
X7.71 Y29.456
X7.856 Y29.421
X8.005 Y29.409
X8.155 Y29.42
X8.301 Y29.454
X8.44 Y29.51
X8.57 Y29.586
X8.686 Y29.68
X8.792 Y29.786
X8.842 Y29.847
X8.928 Y29.982
X8.982 Y30.132
X9. Y30.29
Y30.754
X8.993 Y30.904
X8.963 Y31.051
X8.912 Y31.192
X8.841 Y31.325
X8.753 Y31.446
X8.65 Y31.555
X8.533 Y31.649
X8.406 Y31.729
X8.27 Y31.792
X8.127 Y31.838
X7.98 Y31.868
X7.831 Y31.881
X7.681 Y31.878
X7.606 Y31.867
X7.414 Y31.813
X7.244 Y31.705
X7.112 Y31.554
X7.029 Y31.372
X7. Y31.174
Y30.18
X7.008 Y30.109
X7.092 Y29.684
X7.098 Y29.661
X7.109 Y29.631
X7.123 Y29.602
X7.161 Y29.542
X7.256 Y29.401
X7.303 Y29.335
X7.342 Y29.297
X7.381 Y29.269
X7.523 Y29.174
X7.613 Y29.117
X7.639 Y29.106
X7.664 Y29.097
X7.806 Y29.068
X7.948 Y29.04
X7.983 Y29.036
X8.018 Y29.037
X8.089 Y29.047
X8.302 Y29.089
X8.337 Y29.098
X8.372 Y29.111
X8.386 Y29.117
X8.514 Y29.198
X8.604 Y29.259
X8.655 Y29.295
X8.707 Y29.348
X8.744 Y29.401
X8.839 Y29.542
X8.883 Y29.613
X8.898 Y29.649
X8.908 Y29.684
X8.992 Y30.109
X9. Y30.18
Y30.29
G3 X8.7 Y30.59 Z-0.3 I-0.3 J0.
G1 X8.636 Y30.583
X8.574 Y30.563
X8.518 Y30.529
X8.456 Y30.482
X8.339 Y30.393
G3 X8.702 Y29.915 I0.182 J-0.239
X8.779 Y30.001 I-0.182 J0.239
X8.914 Y30.293 I-1.36 J0.809
X9. Y30.754 Z-0.5 I-1.496 J0.517
G1 Y31.498
X8.993 Y31.648
X8.955 Y31.793
X8.893 Y31.93
X8.811 Y32.056
X8.713 Y32.169
X8.602 Y32.27
X8.481 Y32.358
X8.35 Y32.432
X8.213 Y32.492
X8.07 Y32.537
X7.923 Y32.567
X7.773 Y32.581
X7.619 Y32.58
X7.423 Y32.527
X7.25 Y32.421
X7.115 Y32.269
X7.029 Y32.085
X7. Y31.884
Y31.174
G3 X7.31 Y30.884 Z-0.3 I0.3 J0.01
G1 X7.368 Y30.892
X7.578 Y30.941
X8.425 Y31.137
X8.691 Y31.199
X8.768 Y31.216 Z-0.333
G3 X9. Y31.498 Z-0.5 I-0.068 J0.292
G1 Y32.172
X8.993 Y32.322
X8.955 Y32.467
X8.895 Y32.604
X8.815 Y32.731
X8.719 Y32.847
X8.611 Y32.95
X8.491 Y33.041
X8.363 Y33.119
X8.227 Y33.182
X8.085 Y33.231
X7.939 Y33.265
X7.79 Y33.282
X7.64 Y33.284
X7.631 Y33.283
X7.432 Y33.233
X7.256 Y33.127
X7.118 Y32.975
X7.03 Y32.789
X7. Y32.586
Y31.884
G3 X7.31 Y31.595 Z-0.3 I0.3 J0.01
G1 X7.36 Y31.601
X7.579 Y31.646
X8.423 Y31.819
X8.691 Y31.874
X8.761 Y31.889 Z-0.33
G3 X9. Y32.172 Z-0.5 I-0.06 J0.294
G1 Y32.881
X8.993 Y33.031
X8.953 Y33.175
X8.89 Y33.312
X8.809 Y33.438
X8.713 Y33.553
X8.604 Y33.656
X8.484 Y33.746
X8.356 Y33.824
X8.219 Y33.886
X8.077 Y33.934
X7.931 Y33.967
X7.782 Y33.983
X7.632 Y33.984
X7.626
X7.428 Y33.933
X7.254 Y33.827
X7.117 Y33.675
X7.03 Y33.49
X7. Y33.288
Y32.586
G3 X7.31 Y32.297 Z-0.3 I0.3 J0.01
G1 X7.362 Y32.303
X7.579 Y32.349
X8.423 Y32.526
X8.691 Y32.583
X8.762 Y32.598 Z-0.331
G3 X9. Y32.881 Z-0.5 I-0.062 J0.294
G1 Y33.554
X8.993 Y33.704
X8.958 Y33.85
X8.899 Y33.988
X8.822 Y34.117
X8.728 Y34.234
X8.621 Y34.339
X8.503 Y34.432
X8.377 Y34.512
X8.241 Y34.577
X8.1 Y34.628
X7.954 Y34.663
X7.806 Y34.682
X7.656 Y34.686
X7.64 Y34.685
X7.439 Y34.637
X7.26 Y34.532
X7.12 Y34.379
X7.031 Y34.192
X7. Y33.987
Y33.288
G3 X7.31 Y32.998 Z-0.3 I0.3 J0.01
G1 X7.356 Y33.004
X7.579 Y33.046
X8.422 Y33.207
X8.691 Y33.258
X8.756 Y33.27 Z-0.328
G3 X9. Y33.554 Z-0.5 I-0.056 J0.295
G1 Y34.263
X8.993 Y34.413
X8.956 Y34.559
X8.896 Y34.696
X8.817 Y34.824
X8.723 Y34.94
X8.615 Y35.045
X8.497 Y35.137
X8.37 Y35.216
X8.234 Y35.28
X8.093 Y35.33
X7.947 Y35.365
X7.798 Y35.383
X7.648 Y35.386
X7.635 Y35.384
X7.435 Y35.335
X7.258 Y35.23
X7.119 Y35.078
X7.03 Y34.891
X7. Y34.687
Y33.987
G3 X7.31 Y33.698 Z-0.3 I0.3 J0.01
G1 X7.358 Y33.703
X7.579 Y33.747
X8.422 Y33.913
X8.691 Y33.966
X8.758 Y33.979 Z-0.329
G3 X9. Y34.263 Z-0.5 I-0.058 J0.294
G1 Y34.972
X8.993 Y35.122
X8.954 Y35.267
X8.893 Y35.404
X8.813 Y35.531
X8.718 Y35.647
X8.61 Y35.75
X8.491 Y35.842
X8.363 Y35.92
X8.227 Y35.984
X8.085 Y36.033
X7.939 Y36.066
X7.79 Y36.084
X7.64 Y36.086
X7.631 Y36.085
X7.432 Y36.035
X7.256 Y35.929
X7.118 Y35.777
X7.03 Y35.591
X7. Y35.388
Y34.687
G3 X7.31 Y34.398 Z-0.3 I0.3 J0.01
G1 X7.36 Y34.404
X7.579 Y34.448
X8.423 Y34.62
X8.691 Y34.674
X8.76 Y34.688 Z-0.33
G3 X9. Y34.972 Z-0.5 I-0.06 J0.294
G1 Y35.638
X8.993 Y35.788
X8.961 Y35.934
X8.905 Y36.074
X8.83 Y36.203
X8.738 Y36.322
X8.633 Y36.429
X8.516 Y36.523
X8.39 Y36.604
X8.255 Y36.671
X8.115 Y36.723
X7.97 Y36.761
X7.821 Y36.781
X7.671 Y36.786
X7.649 Y36.785
X7.445 Y36.739
X7.264 Y36.634
X7.122 Y36.481
X7.031 Y36.293
X7. Y36.087
Y35.388
G3 X7.31 Y35.099 Z-0.3 I0.3 J0.01
G1 X7.352 Y35.103
X7.58 Y35.144
X8.421 Y35.294
X8.691 Y35.342
X8.753 Y35.353 Z-0.327
G3 X9. Y35.638 Z-0.5 I-0.053 J0.295
G1 Y36.347
X8.993 Y36.497
X8.959 Y36.643
X8.902 Y36.781
X8.825 Y36.91
X8.732 Y37.028
X8.626 Y37.134
X8.509 Y37.228
X8.382 Y37.308
X8.247 Y37.373
X8.106 Y37.425
X7.961 Y37.461
X7.812 Y37.481
X7.662 Y37.485
X7.643 Y37.484
X7.44 Y37.436
X7.261 Y37.331
X7.12 Y37.179
X7.031 Y36.991
X7. Y36.786
Y36.087
G3 X7.31 Y35.797 Z-0.3 I0.3 J0.01
G1 X7.355 Y35.802
X7.58 Y35.844
X8.422 Y36.
X8.691 Y36.05
X8.755 Y36.062 Z-0.328
G3 X9. Y36.347 Z-0.5 I-0.055 J0.295
G1 Y37.055
X8.993 Y37.205
X8.957 Y37.351
X8.899 Y37.489
X8.821 Y37.617
X8.727 Y37.734
X8.62 Y37.839
X8.502 Y37.932
X8.375 Y38.012
X8.239 Y38.076
X8.098 Y38.127
X7.952 Y38.162
X7.804 Y38.181
X7.654 Y38.184
X7.638 Y38.183
X7.437 Y38.135
X7.259 Y38.03
X7.119 Y37.877
X7.031 Y37.69
X7. Y37.486
Y36.786
G3 X7.31 Y36.497 Z-0.3 I0.3 J0.01
G1 X7.357 Y36.502
X7.579 Y36.545
X8.422 Y36.707
X8.691 Y36.759
X8.757 Y36.771 Z-0.329
G3 X9. Y37.055 Z-0.5 I-0.057 J0.295
G1 Y37.764
X8.993 Y37.914
X8.956 Y38.059
X8.896 Y38.197
X8.816 Y38.324
X8.722 Y38.441
X8.614 Y38.545
X8.496 Y38.637
X8.368 Y38.716
X8.232 Y38.78
X8.091 Y38.83
X7.945 Y38.864
X7.796 Y38.882
X7.646 Y38.884
X7.634 Y38.883
X7.434 Y38.834
X7.257 Y38.728
X7.119 Y38.576
X7.03 Y38.39
X7. Y38.186
Y37.486
G3 X7.31 Y37.197 Z-0.3 I0.3 J0.01
G1 X7.358 Y37.202
X7.579 Y37.246
X8.422 Y37.414
X8.691 Y37.467
X8.759 Y37.481 Z-0.329
G3 X9. Y37.764 Z-0.5 I-0.059 J0.294
G1 Y38.473
X8.993 Y38.623
X8.954 Y38.768
X8.893 Y38.905
X8.812 Y39.031
X8.717 Y39.147
X8.608 Y39.251
X8.489 Y39.342
X8.361 Y39.42
X8.225 Y39.483
X8.084 Y39.532
X7.937 Y39.566
X7.788 Y39.583
X7.638 Y39.585
X7.63 Y39.584
X7.431 Y39.534
X7.255 Y39.428
X7.118 Y39.276
X7.03 Y39.09
X7. Y38.887
Y38.186
G3 X7.31 Y37.897 Z-0.3 I0.3 J0.01
G1 X7.36 Y37.903
X7.579 Y37.948
X8.423 Y38.121
X8.691 Y38.175
X8.76 Y38.19 Z-0.33
G3 X9. Y38.473 Z-0.5 I-0.06 J0.294
G1 Y39.182
X8.993 Y39.332
X8.953 Y39.476
X8.89 Y39.613
X8.809 Y39.739
X8.712 Y39.854
X8.603 Y39.957
X8.484 Y40.047
X8.355 Y40.125
X8.219 Y40.187
X8.077 Y40.236
X7.931 Y40.268
X7.781 Y40.284
X7.631 Y40.285
X7.626
X7.428 Y40.234
X7.254 Y40.128
X7.117 Y39.976
X7.03 Y39.791
X7. Y39.589
Y38.887
G3 X7.31 Y38.598 Z-0.3 I0.3 J0.01
G1 X7.362 Y38.604
X7.579 Y38.65
X8.423 Y38.827
X8.691 Y38.884
X8.762 Y38.899 Z-0.331
G3 X9. Y39.182 Z-0.5 I-0.062 J0.294
G1 Y39.862
X8.993 Y40.012
X8.957 Y40.157
X8.897 Y40.295
X8.818 Y40.423
X8.724 Y40.54
X8.617 Y40.644
X8.499 Y40.737
X8.371 Y40.816
X8.236 Y40.88
X8.095 Y40.931
X7.949 Y40.966
X7.8 Y40.984
X7.65 Y40.987
X7.637 Y40.986
X7.436 Y40.937
X7.259 Y40.832
X7.119 Y40.679
X7.03 Y40.493
X7. Y40.289
Y39.589
G3 X7.31 Y39.299 Z-0.3 I0.3 J0.01
G1 X7.357 Y39.305
X7.579 Y39.348
X8.422 Y39.513
X8.691 Y39.565
X8.758 Y39.578 Z-0.329
G3 X9. Y39.862 Z-0.5 I-0.057 J0.294
G1 Y40.536
X8.993 Y40.685
X8.962 Y40.832
X8.906 Y40.972
X8.831 Y41.101
X8.739 Y41.22
X8.634 Y41.327
X8.518 Y41.422
X8.392 Y41.503
X8.258 Y41.57
X8.117 Y41.623
X7.972 Y41.66
X7.823 Y41.681
X7.674 Y41.687
X7.65 Y41.685
X7.446 Y41.639
X7.265 Y41.535
X7.122 Y41.382
X7.031 Y41.194
X7. Y40.987
Y40.289
G3 X7.31 Y39.999 Z-0.3 I0.3 J0.01
G1 X7.352 Y40.004
X7.58 Y40.044
X8.421 Y40.192
X8.691 Y40.24
X8.752 Y40.251 Z-0.327
G3 X9. Y40.536 Z-0.5 I-0.052 J0.295
G1 Y41.244
X8.993 Y41.394
X8.96 Y41.541
X8.903 Y41.679
X8.826 Y41.808
X8.734 Y41.926
X8.628 Y42.033
X8.511 Y42.126
X8.384 Y42.207
X8.249 Y42.273
X8.109 Y42.325
X7.963 Y42.361
X7.814 Y42.381
X7.664 Y42.386
X7.644 Y42.384
X7.441 Y42.337
X7.262 Y42.232
X7.121 Y42.079
X7.031 Y41.892
X7. Y41.686
Y40.987
G3 X7.31 Y40.698 Z-0.3 I0.3 J0.01
G1 X7.354 Y40.702
X7.58 Y40.744
X8.422 Y40.899
X8.691 Y40.948
X8.754 Y40.96 Z-0.328
G3 X9. Y41.244 Z-0.5 I-0.054 J0.295
G1 Y41.953
X8.993 Y42.103
X8.958 Y42.249
X8.899 Y42.387
X8.822 Y42.515
X8.728 Y42.633
X8.621 Y42.738
X8.504 Y42.831
X8.377 Y42.911
X8.241 Y42.976
X8.1 Y43.027
X7.955 Y43.062
X7.806 Y43.081
X7.656 Y43.085
X7.639 Y43.083
X7.438 Y43.035
X7.26 Y42.93
X7.12 Y42.777
X7.031 Y42.591
X7. Y42.386
Y41.686
G3 X7.31 Y41.397 Z-0.3 I0.3 J0.01
G1 X7.356 Y41.402
X7.579 Y41.445
X8.422 Y41.605
X8.691 Y41.656
X8.756 Y41.669 Z-0.328
G3 X9. Y41.953 Z-0.5 I-0.056 J0.295
G1 Y42.662
X8.993 Y42.812
X8.956 Y42.957
X8.896 Y43.095
X8.817 Y43.222
X8.723 Y43.339
X8.615 Y43.444
X8.497 Y43.536
X8.37 Y43.615
X8.234 Y43.679
X8.093 Y43.729
X7.947 Y43.763
X7.798 Y43.781
X7.648 Y43.784
X7.635 Y43.783
X7.435 Y43.734
X7.258 Y43.629
X7.119 Y43.476
X7.03 Y43.29
X7. Y43.086
Y42.386
G3 X7.31 Y42.096 Z-0.3 I0.3 J0.01
G1 X7.358 Y42.102
X7.579 Y42.146
X8.422 Y42.312
X8.691 Y42.365
X8.758 Y42.378 Z-0.329
G3 X9. Y42.662 Z-0.5 I-0.058 J0.294
G1 Y43.371
X8.993 Y43.521
X8.954 Y43.666
X8.893 Y43.803
X8.813 Y43.93
X8.718 Y44.045
X8.61 Y44.149
X8.491 Y44.241
X8.363 Y44.319
X8.227 Y44.382
X8.085 Y44.432
X7.939 Y44.465
X7.79 Y44.482
X7.64 Y44.484
X7.631
X7.432 Y44.434
X7.256 Y44.328
X7.118 Y44.176
X7.03 Y43.99
X7. Y43.787
Y43.086
G3 X7.31 Y42.797 Z-0.3 I0.3 J0.01
G1 X7.36 Y42.803
X7.579 Y42.847
X8.423 Y43.019
X8.691 Y43.073
X8.76 Y43.087 Z-0.33
G3 X9. Y43.371 Z-0.5 I-0.06 J0.294
G1 Y44.08
X8.993 Y44.229
X8.953 Y44.374
X8.891 Y44.511
X8.81 Y44.637
X8.713 Y44.752
X8.605 Y44.855
X8.485 Y44.946
X8.357 Y45.024
X8.221 Y45.086
X8.079 Y45.135
X7.932 Y45.167
X7.783 Y45.184
X7.633 Y45.185
X7.627
X7.429 Y45.134
X7.254 Y45.028
X7.117 Y44.876
X7.03 Y44.691
X7. Y44.488
Y43.787
G3 X7.31 Y43.498 Z-0.3 I0.3 J0.01
G1 X7.361 Y43.504
X7.579 Y43.549
X8.423 Y43.726
X8.691 Y43.782
X8.762 Y43.796 Z-0.331
G3 X9. Y44.08 Z-0.5 I-0.061 J0.294
G1 Y44.788
X8.993 Y44.938
X8.952 Y45.082
X8.888 Y45.218
X8.806 Y45.344
X8.709 Y45.459
X8.6 Y45.561
X8.48 Y45.651
X8.351 Y45.728
X8.215 Y45.79
X8.072 Y45.838
X7.926 Y45.87
X7.777 Y45.886
X7.624
X7.427 Y45.835
X7.252 Y45.729
X7.116 Y45.577
X7.03 Y45.392
X7. Y45.19
Y44.488
G3 X7.31 Y44.199 Z-0.3 I0.3 J0.01
G1 X7.363 Y44.205
X7.578 Y44.252
X8.423 Y44.433
X8.691 Y44.49
X8.763 Y44.505 Z-0.331
G3 X9. Y44.788 Z-0.5 I-0.063 J0.293
G1 Y45.462
X8.993 Y45.612
X8.957 Y45.758
X8.898 Y45.895
X8.819 Y46.023
X8.725 Y46.14
X8.618 Y46.245
X8.5 Y46.337
X8.372 Y46.417
X8.237 Y46.481
X8.096 Y46.532
X7.95 Y46.567
X7.801 Y46.585
X7.651 Y46.588
X7.638 Y46.587
X7.437 Y46.539
X7.259 Y46.434
X7.119 Y46.281
X7.031 Y46.094
X7. Y45.89
Y45.19
G3 X7.31 Y44.901 Z-0.3 I0.3 J0.01
G1 X7.357 Y44.906
X7.579 Y44.949
X8.422 Y45.113
X8.691 Y45.165
X8.757 Y45.178 Z-0.329
G3 X9. Y45.462 Z-0.5 I-0.057 J0.295
G1 Y46.171
X8.993 Y46.321
X8.955 Y46.466
X8.895 Y46.603
X8.815 Y46.73
X8.72 Y46.846
X8.612 Y46.951
X8.494 Y47.043
X8.366 Y47.121
X8.23 Y47.185
X8.088 Y47.234
X7.942 Y47.268
X7.793 Y47.286
X7.643 Y47.288
X7.633 Y47.287
X7.433 Y47.238
X7.256 Y47.132
X7.118 Y46.98
X7.03 Y46.794
X7. Y46.591
Y45.89
G3 X7.31 Y45.601 Z-0.3 I0.3 J0.01
G1 X7.359 Y45.606
X7.579 Y45.65
X8.423 Y45.82
X8.691 Y45.873
X8.759 Y45.887 Z-0.33
G3 X9. Y46.171 Z-0.5 I-0.059 J0.294
G1 Y46.88
X8.993 Y47.029
X8.954 Y47.174
X8.892 Y47.311
X8.811 Y47.438
X8.715 Y47.553
X8.607 Y47.656
X8.488 Y47.748
X8.36 Y47.826
X8.223 Y47.888
X8.082 Y47.937
X7.935 Y47.97
X7.786 Y47.987
X7.636 Y47.989
X7.629 Y47.988
X7.43 Y47.938
X7.255 Y47.832
X7.117 Y47.68
X7.03 Y47.494
X7. Y47.292
Y46.591
G3 X7.31 Y46.301 Z-0.3 I0.3 J0.01
G1 X7.36 Y46.307
X7.579 Y46.352
X8.423 Y46.527
X8.691 Y46.582
X8.761 Y46.596 Z-0.33
G3 X9. Y46.88 Z-0.5 I-0.061 J0.294
G1 Y47.546
X8.993 Y47.695
X8.96 Y47.842
X8.904 Y47.981
X8.828 Y48.11
X8.735 Y48.228
X8.63 Y48.335
X8.513 Y48.429
X8.387 Y48.51
X8.252 Y48.576
X8.111 Y48.628
X7.966 Y48.665
X7.817 Y48.685
X7.667 Y48.69
X7.647 Y48.688
X7.444 Y48.642
X7.263 Y48.537
X7.121 Y48.384
X7.031 Y48.196
X7. Y47.99
Y47.292
G3 X7.31 Y47.002 Z-0.3 I0.3 J0.01
G1 X7.353 Y47.007
X7.58 Y47.048
X8.421 Y47.201
X8.691 Y47.249
X8.754 Y47.261 Z-0.327
G3 X9. Y47.546 Z-0.5 I-0.054 J0.295
G1 Y48.254
X8.993 Y48.404
X8.958 Y48.55
X8.9 Y48.689
X8.823 Y48.817
X8.73 Y48.935
X8.623 Y49.04
X8.506 Y49.134
X8.379 Y49.214
X8.244 Y49.279
X8.103 Y49.33
X7.957 Y49.366
X7.808 Y49.385
X7.659 Y49.389
X7.641 Y49.387
X7.439 Y49.339
X7.26 Y49.234
X7.12 Y49.082
X7.031 Y48.895
X7. Y48.69
Y47.99
G3 X7.31 Y47.701 Z-0.3 I0.3 J0.01
G1 X7.355 Y47.706
X7.579 Y47.748
X8.422 Y47.907
X8.691 Y47.958
X8.756 Y47.97 Z-0.328
G3 X9. Y48.254 Z-0.5 I-0.056 J0.295
G1 Y48.963
X8.993 Y49.113
X8.957 Y49.259
X8.897 Y49.396
X8.819 Y49.524
X8.724 Y49.641
X8.617 Y49.746
X8.499 Y49.838
X8.372 Y49.918
X8.236 Y49.982
X8.095 Y50.032
X7.949 Y50.067
X7.8 Y50.085
X7.65 Y50.088
X7.636 Y50.087
X7.436 Y50.038
X7.258 Y49.933
X7.119 Y49.78
X7.03 Y49.594
X7. Y49.39
Y48.69
G3 X7.31 Y48.4 Z-0.3 I0.3 J0.01
G1 X7.357 Y48.406
X7.579 Y48.449
X8.422 Y48.614
X8.691 Y48.666
X8.758 Y48.679 Z-0.329
G3 X9. Y48.963 Z-0.5 I-0.057 J0.294
G1 Y49.672
X8.993 Y49.822
X8.955 Y49.967
X8.894 Y50.104
X8.815 Y50.231
X8.72 Y50.347
X8.612 Y50.451
X8.493 Y50.543
X8.365 Y50.622
X8.229 Y50.685
X8.088 Y50.735
X7.941 Y50.769
X7.793 Y50.786
X7.643 Y50.788
X7.632 Y50.787
X7.433 Y50.738
X7.256 Y50.632
X7.118 Y50.48
X7.03 Y50.294
X7. Y50.091
Y49.39
G3 X7.31 Y49.101 Z-0.3 I0.3 J0.01
G1 X7.359 Y49.106
X7.579 Y49.151
X8.423 Y49.32
X8.691 Y49.374
X8.759 Y49.388 Z-0.33
G3 X9. Y49.672 Z-0.5 I-0.059 J0.294
G1 Y50.381
X8.993 Y50.531
X8.953 Y50.675
X8.891 Y50.812
X8.811 Y50.938
X8.715 Y51.054
X8.606 Y51.157
X8.487 Y51.248
X8.359 Y51.326
X8.223 Y51.389
X8.081 Y51.438
X7.934 Y51.471
X7.785 Y51.487
X7.635 Y51.489
X7.628 Y51.488
X7.43 Y51.438
X7.255 Y51.332
X7.117 Y51.18
X7.03 Y50.994
X7. Y50.792
Y50.091
G3 X7.31 Y49.801 Z-0.3 I0.3 J0.01
G1 X7.361 Y49.807
X7.579 Y49.852
X8.423 Y50.027
X8.691 Y50.083
X8.761 Y50.097 Z-0.33
G3 X9. Y50.381 Z-0.5 I-0.061 J0.294
G1 Y51.089
X8.993 Y51.239
X8.952 Y51.384
X8.889 Y51.52
X8.807 Y51.646
X8.711 Y51.76
X8.601 Y51.863
X8.482 Y51.954
X8.353 Y52.031
X8.217 Y52.093
X8.074 Y52.141
X7.928 Y52.173
X7.779 Y52.189
X7.625 Y52.19
X7.427 Y52.138
X7.253 Y52.032
X7.117 Y51.88
X7.03 Y51.696
X7. Y51.494
Y50.792
G3 X7.31 Y50.502 Z-0.3 I0.3 J0.01
G1 X7.362 Y50.509
X7.578 Y50.555
X8.423 Y50.734
X8.691 Y50.791
X8.763 Y50.807 Z-0.331
G3 X9. Y51.089 Z-0.5 I-0.062 J0.293
G1 Y51.77
X8.993 Y51.919
X8.956 Y52.065
X8.896 Y52.202
X8.817 Y52.33
X8.723 Y52.446
X8.615 Y52.551
X8.497 Y52.643
X8.369 Y52.722
X8.234 Y52.786
X8.092 Y52.836
X7.946 Y52.871
X7.797 Y52.889
X7.647 Y52.892
X7.636 Y52.891
X7.435 Y52.842
X7.258 Y52.736
X7.119 Y52.584
X7.03 Y52.398
X7. Y52.194
Y51.494
G3 X7.31 Y51.204 Z-0.3 I0.3 J0.01
G1 X7.358 Y51.21
X7.579 Y51.253
X8.422 Y51.42
X8.691 Y51.472
X8.758 Y51.486 Z-0.329
G3 X9. Y51.77 Z-0.5 I-0.058 J0.294
G1 Y52.443
X8.993 Y52.593
X8.961 Y52.74
X8.905 Y52.879
X8.83 Y53.008
X8.738 Y53.127
X8.632 Y53.234
X8.516 Y53.328
X8.39 Y53.41
X8.255 Y53.476
X8.115 Y53.529
X7.97 Y53.566
X7.821 Y53.586
X7.671 Y53.592
X7.648 Y53.59
X7.445 Y53.544
X7.264 Y53.44
X7.122 Y53.287
X7.031 Y53.099
X7. Y52.892
Y52.194
G3 X7.31 Y51.904 Z-0.3 I0.3 J0.01
G1 X7.352 Y51.909
X7.58 Y51.949
X8.421 Y52.099
X8.691 Y52.147
X8.753 Y52.158 Z-0.327
G3 X9. Y52.443 Z-0.5 I-0.053 J0.295
G1 Y53.152
X8.993 Y53.302
X8.959 Y53.448
X8.902 Y53.587
X8.825 Y53.716
X8.732 Y53.833
X8.626 Y53.939
X8.509 Y54.033
X8.382 Y54.113
X8.247 Y54.179
X8.106 Y54.231
X7.961 Y54.266
X7.812 Y54.286
X7.662 Y54.291
X7.643 Y54.289
X7.44 Y54.241
X7.261 Y54.137
X7.12 Y53.984
X7.031 Y53.797
X7. Y53.591
Y52.892
G3 X7.31 Y52.603 Z-0.3 I0.3 J0.01
G1 X7.355 Y52.608
X7.58 Y52.649
X8.422 Y52.806
X8.691 Y52.856
X8.755 Y52.868 Z-0.328
G3 X9. Y53.152 Z-0.5 I-0.055 J0.295
G1 Y53.861
X8.993 Y54.011
X8.957 Y54.156
X8.899 Y54.294
X8.821 Y54.423
X8.727 Y54.54
X8.62 Y54.645
X8.502 Y54.738
X8.375 Y54.817
X8.239 Y54.882
X8.098 Y54.933
X7.952 Y54.968
X7.804 Y54.986
X7.654 Y54.99
X7.638 Y54.988
X7.437 Y54.94
X7.259 Y54.835
X7.119 Y54.682
X7.031 Y54.496
X7. Y54.291
Y53.591
G3 X7.31 Y53.302 Z-0.3 I0.3 J0.01
G1 X7.357 Y53.307
X7.579 Y53.35
X8.422 Y53.512
X8.691 Y53.564
X8.757 Y53.577 Z-0.329
G3 X9. Y53.861 Z-0.5 I-0.057 J0.295
G1 Y54.57
X8.993 Y54.719
X8.956 Y54.865
X8.896 Y55.002
X8.816 Y55.13
X8.722 Y55.246
X8.614 Y55.35
X8.495 Y55.442
X8.368 Y55.521
X8.232 Y55.585
X8.091 Y55.635
X7.945 Y55.669
X7.796 Y55.687
X7.646 Y55.69
X7.634 Y55.689
X7.434 Y55.639
X7.257 Y55.534
X7.119 Y55.381
X7.03 Y55.195
X7. Y54.992
Y54.291
G3 X7.31 Y54.002 Z-0.3 I0.3 J0.01
G1 X7.358 Y54.007
X7.579 Y54.051
X8.422 Y54.219
X8.691 Y54.272
X8.759 Y54.286 Z-0.329
G3 X9. Y54.57 Z-0.5 I-0.059 J0.294
G1 Y55.278
X8.993 Y55.428
X8.954 Y55.573
X8.893 Y55.71
X8.812 Y55.837
X8.717 Y55.952
X8.608 Y56.056
X8.489 Y56.148
X8.361 Y56.226
X8.225 Y56.289
X8.084 Y56.338
X7.937 Y56.371
X7.788 Y56.388
X7.638 Y56.39
X7.63 Y56.389
X7.431 Y56.339
X7.255 Y56.233
X7.118 Y56.081
X7.03 Y55.896
X7. Y55.693
Y54.992
G3 X7.31 Y54.702 Z-0.3 I0.3 J0.01
G1 X7.36 Y54.708
X7.579 Y54.753
X8.423 Y54.926
X8.691 Y54.981
X8.76 Y54.995 Z-0.33
G3 X9. Y55.278 Z-0.5 I-0.06 J0.294
G1 Y55.987
X8.993 Y56.137
X8.953 Y56.282
X8.89 Y56.418
X8.809 Y56.544
X8.712 Y56.659
X8.603 Y56.762
X8.484 Y56.853
X8.355 Y56.93
X8.219 Y56.992
X8.077 Y57.041
X7.931 Y57.073
X7.781 Y57.09
X7.631 Y57.091
X7.626 Y57.09
X7.428 Y57.039
X7.254 Y56.933
X7.117 Y56.781
X7.03 Y56.596
X7. Y56.394
Y55.693
G3 X7.31 Y55.403 Z-0.3 I0.3 J0.01
G1 X7.362 Y55.41
X7.579 Y55.455
X8.423 Y55.633
X8.691 Y55.689
X8.762 Y55.704 Z-0.331
G3 X9. Y55.987 Z-0.5 I-0.062 J0.294
G1 Y56.661
X8.993 Y56.811
X8.958 Y56.957
X8.899 Y57.095
X8.822 Y57.223
X8.728 Y57.34
X8.621 Y57.446
X8.503 Y57.538
X8.376 Y57.618
X8.241 Y57.683
X8.1 Y57.734
X7.954 Y57.77
X7.806 Y57.788
X7.656 Y57.792
X7.64 Y57.791
X7.439 Y57.743
X7.26 Y57.638
X7.12 Y57.485
X7.031 Y57.298
X7. Y57.094
Y56.394
G3 X7.31 Y56.105 Z-0.3 I0.3 J0.01
G1 X7.356 Y56.11
X7.579 Y56.153
X8.422 Y56.313
X8.691 Y56.364
X8.756 Y56.377 Z-0.328
G3 X9. Y56.661 Z-0.5 I-0.056 J0.295
G1 Y57.37
X8.993 Y57.52
X8.956 Y57.665
X8.896 Y57.803
X8.817 Y57.93
X8.723 Y58.047
X8.615 Y58.151
X8.497 Y58.244
X8.37 Y58.323
X8.234 Y58.386
X8.093 Y58.437
X7.946 Y58.471
X7.798 Y58.489
X7.648 Y58.492
X7.635 Y58.491
X7.435 Y58.442
X7.258 Y58.336
X7.119 Y58.184
X7.03 Y57.998
X7. Y57.794
Y57.094
G3 X7.31 Y56.804 Z-0.3 I0.3 J0.01
G1 X7.358 Y56.81
X7.579 Y56.853
X8.422 Y57.02
X8.691 Y57.073
X8.758 Y57.086 Z-0.329
G3 X9. Y57.37 Z-0.5 I-0.058 J0.294
G1 Y58.078
X8.993 Y58.228
X8.954 Y58.373
X8.893 Y58.51
X8.813 Y58.637
X8.718 Y58.753
X8.61 Y58.857
X8.491 Y58.949
X8.363 Y59.027
X8.227 Y59.09
X8.085 Y59.139
X7.939 Y59.173
X7.79 Y59.19
X7.64 Y59.192
X7.631 Y59.191
X7.432 Y59.141
X7.256 Y59.036
X7.118 Y58.883
X7.03 Y58.698
X7. Y58.495
Y57.794
G3 X7.31 Y57.504 Z-0.3 I0.3 J0.01
G1 X7.36 Y57.51
X7.579 Y57.555
X8.423 Y57.726
X8.691 Y57.781
X8.76 Y57.795 Z-0.33
G3 X9. Y58.078 Z-0.5 I-0.06 J0.294
G1 Y58.744
X8.993 Y58.894
X8.961 Y59.041
X8.905 Y59.18
X8.83 Y59.31
X8.738 Y59.428
X8.632 Y59.535
X8.516 Y59.629
X8.39 Y59.711
X8.255 Y59.777
X8.115 Y59.83
X7.97 Y59.867
X7.821 Y59.887
X7.671 Y59.893
X7.649 Y59.891
X7.445 Y59.845
X7.264 Y59.741
X7.122 Y59.588
X7.031 Y59.4
X7. Y59.193
Y58.495
G3 X7.31 Y58.205 Z-0.3 I0.3 J0.01
G1 X7.352 Y58.21
X7.58 Y58.25
X8.421 Y58.4
X8.691 Y58.448
X8.753 Y58.46 Z-0.327
G3 X9. Y58.744 Z-0.5 I-0.053 J0.295
G1 Y59.453
X8.993 Y59.603
X8.959 Y59.749
X8.902 Y59.888
X8.825 Y60.017
X8.732 Y60.134
X8.626 Y60.24
X8.509 Y60.334
X8.382 Y60.414
X8.247 Y60.48
X8.106 Y60.532
X7.961 Y60.568
X7.812 Y60.587
X7.742 Y60.589
X7.548 Y60.568
X7.366 Y60.493
X7.213 Y60.371
X7.099 Y60.211
X7.035 Y60.026
G3 X7.225 Y59.697 Z-0.325 I0.296 J-0.048
G1 X7.281 Y59.676 Z-0.3
X7.537 Y59.58
X8.43 Y59.245
X8.595 Y59.183
X8.642 Y59.169
X8.69 Y59.164
G3 X9. Y59.453 Z-0.5 I0.01 J0.3
G1 Y59.808
X8.999 Y59.843
X8.995 Y59.878
X8.91 Y60.304
X8.902 Y60.339
X8.889 Y60.375
X8.847 Y60.445
X8.753 Y60.587
X8.712 Y60.646
X8.686 Y60.675
X8.655 Y60.705
X8.622 Y60.729
X8.409 Y60.871
X8.372 Y60.888
X8.337 Y60.902
X8.302 Y60.911
X8.089 Y60.953
X8.018 Y60.963
X7.983 Y60.964
X7.948 Y60.96
X7.806 Y60.932
X7.664 Y60.903
X7.628 Y60.89
X7.591 Y60.871
X7.523 Y60.826
X7.378 Y60.729
X7.337 Y60.698
X7.297 Y60.658
X7.24 Y60.576
X7.153 Y60.445
X7.12 Y60.392
X7.107 Y60.366
X7.098 Y60.339
X7.09 Y60.304
X7.005 Y59.878
X7.001 Y59.843
X7. Y59.808
Y59.193
G3 X7.299 Y58.904 I0.3 J0.01
G1 X7.3
X7.324 Y58.905
X7.374 Y58.922 Z-0.495
X7.423 Y58.939 Z-0.481
X7.468 Y58.955 Z-0.458
X7.501 Y58.992 Z-0.421
X7.528 Y59.022 Z-0.374
X7.548 Y59.044 Z-0.32
X7.56 Y59.058 Z-0.262
X7.565 Y59.063 Z-0.2
Z5.
X7.896 Y30.824
Z1.5
S2000
G3 X7.657 Y30.112 Z1.469 I0.104 J-0.431 F75.
X8.401 Y30.206 Z1.438 I0.342 J0.28
X7.995 Y30.834 Z1.406 I-0.401 J0.187
X7.605 Y30.196 Z1.375 I0.005 J-0.441
X8.348 Y30.122 Z1.344 I0.395 J0.196
X8.093 Y30.823 Z1.313 I-0.348 J0.27
X7.572 Y30.29 Z1.281 I-0.093 J-0.43
X8.277 Y30.052 Z1.25 I0.427 J0.103
X8.186 Y30.79 Z1.219 I-0.278 J0.34
X7.562 Y30.388 Z1.188 I-0.186 J-0.397
X8.194 Y30.001 Z1.156 I0.438 J0.005
X8.269 Y30.737 Z1.125 I-0.194 J0.392
X7.574 Y30.485 Z1.094 I-0.268 J-0.344
X8.101 Y29.969 Z1.063 I0.426 J-0.092
X8.337 Y30.667 Z1.031 I-0.101 J0.424
X7.606 Y30.577 Z1. I-0.337 J-0.275
X8.004 Y29.958 Z0.969 I0.393 J-0.184
X8.389 Y30.584 Z0.938 I-0.004 J0.434
X7.659 Y30.659 Z0.906 I-0.389 J-0.192
X7.908 Y29.97 Z0.875 I0.341 J-0.266
X8.42 Y30.493 Z0.844 I0.092 J0.422
X7.728 Y30.727 Z0.813 I-0.42 J-0.1
X7.816 Y30.003 Z0.781 I0.272 J-0.335
X8.43 Y30.396 Z0.75 I0.183 J0.39
X7.81 Y30.778 Z0.719 I-0.43 J-0.004
X7.735 Y30.055 Z0.688 I0.19 J-0.385
X8.419 Y30.301 Z0.656 I0.265 J0.338
X7.901 Y30.809 Z0.625 I-0.418 J0.092
X7.668 Y30.123 Z0.594 I0.099 J-0.416
X8.386 Y30.21 Z0.563 I0.332 J0.269
X7.997 Y30.819 Z0.531 I-0.386 J0.182
X7.617 Y30.205 Z0.5 I0.003 J-0.426
X8.334 Y30.13 Z0.469 I0.382 J0.188
X8.092 Y30.807 Z0.438 I-0.334 J0.263
X7.587 Y30.295 Z0.406 I-0.091 J-0.415
X8.266 Y30.063 Z0.375 I0.413 J0.097
X8.181 Y30.775 Z0.344 I-0.266 J0.329
X7.577 Y30.39 Z0.313 I-0.181 J-0.382
X8.185 Y30.013 Z0.281 I0.422 J0.003
X8.261 Y30.724 Z0.25 I-0.186 J0.379
X7.589 Y30.484 Z0.219 I-0.261 J-0.331
X8.096 Y29.983 Z0.188 I0.411 J-0.091
X8.327 Y30.656 Z0.156 I-0.096 J0.409
X7.621 Y30.573 Z0.125 I-0.327 J-0.264
X8.002 Y29.974 Z0.094 I0.379 J-0.18
X8.376 Y30.576 Z0.063 I-0.002 J0.419
X7.672 Y30.651 Z0.031 I-0.376 J-0.183
X7.909 Y29.985 Z0. I0.328 J-0.259
X8.406 Y30.487 Z-0.031 I0.091 J0.407
X7.739 Y30.717 Z-0.063 I-0.406 J-0.095
X7.821 Y30.017 Z-0.094 I0.261 J-0.324
X8.415 Y30.394 Z-0.125 I0.178 J0.375
X7.819 Y30.765 Z-0.156 I-0.415 J-0.002
X7.743 Y30.068 Z-0.188 I0.181 J-0.372
X8.403 Y30.302 Z-0.219 I0.257 J0.325
X7.907 Y30.795 Z-0.25 I-0.403 J0.09
X7.678 Y30.134 Z-0.281 I0.093 J-0.402
X8.371 Y30.215 Z-0.313 I0.321 J0.258
X7.999 Y30.804 Z-0.344 I-0.371 J0.177
X7.63 Y30.213 Z-0.375 I0.001 J-0.411
X8.321 Y30.138 Z-0.406 I0.369 J0.179
X8.09 Y30.792 Z-0.438 I-0.321 J0.255
X7.601 Y30.301 Z-0.469 I-0.09 J-0.399
X8.255 Y30.074 Z-0.5 I0.398 J0.092
X8.176 Y30.76 Z-0.531 I-0.255 J0.319
X7.592 Y30.392 Z-0.563 I-0.176 J-0.368
X8.177 Y30.026 Z-0.594 I0.407 J0.001
X8.253 Y30.711 Z-0.625 I-0.177 J0.366
X7.604 Y30.482 Z-0.656 I-0.253 J-0.318
X8.091 Y29.998 Z-0.688 I0.395 J-0.09
X8.316 Y30.645 Z-0.719 I-0.091 J0.395
X7.636 Y30.568 Z-0.75 I-0.316 J-0.253
X8. Y29.989 Z-0.781 I0.364 J-0.175
X8.363 Y30.568 Z-0.813 I0. J0.403
X7.685 Y30.643 Z-0.844 I-0.363 J-0.175
X7.911 Y30.001 Z-0.875 I0.315 J-0.251
X8.391 Y30.482 Z-0.906 I0.089 J0.392
X7.75 Y30.706 Z-0.938 I-0.391 J-0.089
X7.826 Y30.032 Z-0.969 I0.25 J-0.313
X8.4 Y30.392 Z-1. I0.174 J0.36
X7.6 I-0.4 J0.
X8.4 I0.4 J0.
S9000
G1 X8.442 Y30.643 F100.
X8.456 Y30.793
X8.405 Y30.934
X8.312 Y31.052
X8.191 Y31.14
X8.052 Y31.196
X7.903 Y31.22
X7.754 Y31.213
X7.608 Y31.177
X7.472 Y31.113
X7.35 Y31.026
X7.246 Y30.918
X7.162 Y30.794
X7.1 Y30.657
X7.062 Y30.512
X7.048 Y30.363
X7.059 Y30.213
X7.094 Y30.067
X7.152 Y29.929
X7.231 Y29.801
X7.329 Y29.688
X7.443 Y29.591
X7.571 Y29.513
X7.71 Y29.456
X7.856 Y29.421
X8.005 Y29.409
X8.155 Y29.42
X8.301 Y29.454
X8.44 Y29.51
X8.57 Y29.586
X8.686 Y29.68
X8.792 Y29.786
X8.842 Y29.847
X8.928 Y29.982
X8.982 Y30.132
X9. Y30.29
Y30.754
X8.993 Y30.904
X8.963 Y31.051
X8.912 Y31.192
X8.841 Y31.325
X8.753 Y31.446
X8.65 Y31.555
X8.533 Y31.649
X8.406 Y31.729
X8.27 Y31.792
X8.127 Y31.838
X7.98 Y31.868
X7.831 Y31.881
X7.681 Y31.878
X7.606 Y31.867
X7.414 Y31.813
X7.244 Y31.705
X7.112 Y31.554
X7.029 Y31.372
X7. Y31.174
Y30.18
X7.008 Y30.109
X7.092 Y29.684
X7.098 Y29.661
X7.109 Y29.631
X7.123 Y29.602
X7.161 Y29.542
X7.256 Y29.401
X7.303 Y29.335
X7.342 Y29.297
X7.381 Y29.269
X7.523 Y29.174
X7.613 Y29.117
X7.639 Y29.106
X7.664 Y29.097
X7.806 Y29.068
X7.948 Y29.04
X7.983 Y29.036
X8.018 Y29.037
X8.089 Y29.047
X8.302 Y29.089
X8.337 Y29.098
X8.372 Y29.111
X8.386 Y29.117
X8.514 Y29.198
X8.604 Y29.259
X8.655 Y29.295
X8.707 Y29.348
X8.744 Y29.401
X8.839 Y29.542
X8.883 Y29.613
X8.898 Y29.649
X8.908 Y29.684
X8.992 Y30.109
X9. Y30.18
Y30.29
G3 X8.7 Y30.59 Z-0.8 I-0.3 J0.
G1 X8.636 Y30.583
X8.574 Y30.563
X8.518 Y30.529
X8.456 Y30.482
X8.339 Y30.393
G3 X8.702 Y29.915 I0.182 J-0.239
X8.779 Y30.001 I-0.182 J0.239
X8.914 Y30.293 I-1.36 J0.809
X9. Y30.754 Z-1. I-1.496 J0.517
G1 Y31.498
X8.993 Y31.648
X8.955 Y31.793
X8.893 Y31.93
X8.811 Y32.056
X8.713 Y32.169
X8.602 Y32.27
X8.481 Y32.358
X8.35 Y32.432
X8.213 Y32.492
X8.07 Y32.537
X7.923 Y32.567
X7.773 Y32.581
X7.619 Y32.58
X7.423 Y32.527
X7.25 Y32.421
X7.115 Y32.269
X7.029 Y32.085
X7. Y31.884
Y31.174
G3 X7.31 Y30.884 Z-0.8 I0.3 J0.01
G1 X7.368 Y30.892
X7.578 Y30.941
X8.425 Y31.137
X8.691 Y31.199
X8.768 Y31.216 Z-0.833
G3 X9. Y31.498 Z-1. I-0.068 J0.292
G1 Y32.172
X8.993 Y32.322
X8.955 Y32.467
X8.895 Y32.604
X8.815 Y32.731
X8.719 Y32.847
X8.611 Y32.95
X8.491 Y33.041
X8.363 Y33.119
X8.227 Y33.182
X8.085 Y33.231
X7.939 Y33.265
X7.79 Y33.282
X7.64 Y33.284
X7.631 Y33.283
X7.432 Y33.233
X7.256 Y33.127
X7.118 Y32.975
X7.03 Y32.789
X7. Y32.586
Y31.884
G3 X7.31 Y31.595 Z-0.8 I0.3 J0.01
G1 X7.36 Y31.601
X7.579 Y31.646
X8.423 Y31.819
X8.691 Y31.874
X8.761 Y31.889 Z-0.83
G3 X9. Y32.172 Z-1. I-0.06 J0.294
G1 Y32.881
X8.993 Y33.031
X8.953 Y33.175
X8.89 Y33.312
X8.809 Y33.438
X8.713 Y33.553
X8.604 Y33.656
X8.484 Y33.746
X8.356 Y33.824
X8.219 Y33.886
X8.077 Y33.934
X7.931 Y33.967
X7.782 Y33.983
X7.632 Y33.984
X7.626
X7.428 Y33.933
X7.254 Y33.827
X7.117 Y33.675
X7.03 Y33.49
X7. Y33.288
Y32.586
G3 X7.31 Y32.297 Z-0.8 I0.3 J0.01
G1 X7.362 Y32.303
X7.579 Y32.349
X8.423 Y32.526
X8.691 Y32.583
X8.762 Y32.598 Z-0.831
G3 X9. Y32.881 Z-1. I-0.062 J0.294
G1 Y33.554
X8.993 Y33.704
X8.958 Y33.85
X8.899 Y33.988
X8.822 Y34.117
X8.728 Y34.234
X8.621 Y34.339
X8.503 Y34.432
X8.377 Y34.512
X8.241 Y34.577
X8.1 Y34.628
X7.954 Y34.663
X7.806 Y34.682
X7.656 Y34.686
X7.64 Y34.685
X7.439 Y34.637
X7.26 Y34.532
X7.12 Y34.379
X7.031 Y34.192
X7. Y33.987
Y33.288
G3 X7.31 Y32.998 Z-0.8 I0.3 J0.01
G1 X7.356 Y33.004
X7.579 Y33.046
X8.422 Y33.207
X8.691 Y33.258
X8.756 Y33.27 Z-0.828
G3 X9. Y33.554 Z-1. I-0.056 J0.295
G1 Y34.263
X8.993 Y34.413
X8.956 Y34.559
X8.896 Y34.696
X8.817 Y34.824
X8.723 Y34.94
X8.615 Y35.045
X8.497 Y35.137
X8.37 Y35.216
X8.234 Y35.28
X8.093 Y35.33
X7.947 Y35.365
X7.798 Y35.383
X7.648 Y35.386
X7.635 Y35.384
X7.435 Y35.335
X7.258 Y35.23
X7.119 Y35.078
X7.03 Y34.891
X7. Y34.687
Y33.987
G3 X7.31 Y33.698 Z-0.8 I0.3 J0.01
G1 X7.358 Y33.703
X7.579 Y33.747
X8.422 Y33.913
X8.691 Y33.966
X8.758 Y33.979 Z-0.829
G3 X9. Y34.263 Z-1. I-0.058 J0.294
G1 Y34.972
X8.993 Y35.122
X8.954 Y35.267
X8.893 Y35.404
X8.813 Y35.531
X8.718 Y35.647
X8.61 Y35.75
X8.491 Y35.842
X8.363 Y35.92
X8.227 Y35.984
X8.085 Y36.033
X7.939 Y36.066
X7.79 Y36.084
X7.64 Y36.086
X7.631 Y36.085
X7.432 Y36.035
X7.256 Y35.929
X7.118 Y35.777
X7.03 Y35.591
X7. Y35.388
Y34.687
G3 X7.31 Y34.398 Z-0.8 I0.3 J0.01
G1 X7.36 Y34.404
X7.579 Y34.448
X8.423 Y34.62
X8.691 Y34.674
X8.76 Y34.688 Z-0.83
G3 X9. Y34.972 Z-1. I-0.06 J0.294
G1 Y35.638
X8.993 Y35.788
X8.961 Y35.934
X8.905 Y36.074
X8.83 Y36.203
X8.738 Y36.322
X8.633 Y36.429
X8.516 Y36.523
X8.39 Y36.604
X8.255 Y36.671
X8.115 Y36.723
X7.97 Y36.761
X7.821 Y36.781
X7.671 Y36.786
X7.649 Y36.785
X7.445 Y36.739
X7.264 Y36.634
X7.122 Y36.481
X7.031 Y36.293
X7. Y36.087
Y35.388
G3 X7.31 Y35.099 Z-0.8 I0.3 J0.01
G1 X7.352 Y35.103
X7.58 Y35.144
X8.421 Y35.294
X8.691 Y35.342
X8.753 Y35.353 Z-0.827
G3 X9. Y35.638 Z-1. I-0.053 J0.295
G1 Y36.347
X8.993 Y36.497
X8.959 Y36.643
X8.902 Y36.781
X8.825 Y36.91
X8.732 Y37.028
X8.626 Y37.134
X8.509 Y37.228
X8.382 Y37.308
X8.247 Y37.373
X8.106 Y37.425
X7.961 Y37.461
X7.812 Y37.481
X7.662 Y37.485
X7.643 Y37.484
X7.44 Y37.436
X7.261 Y37.331
X7.12 Y37.179
X7.031 Y36.991
X7. Y36.786
Y36.087
G3 X7.31 Y35.797 Z-0.8 I0.3 J0.01
G1 X7.355 Y35.802
X7.58 Y35.844
X8.422 Y36.
X8.691 Y36.05
X8.755 Y36.062 Z-0.828
G3 X9. Y36.347 Z-1. I-0.055 J0.295
G1 Y37.055
X8.993 Y37.205
X8.957 Y37.351
X8.899 Y37.489
X8.821 Y37.617
X8.727 Y37.734
X8.62 Y37.839
X8.502 Y37.932
X8.375 Y38.012
X8.239 Y38.076
X8.098 Y38.127
X7.952 Y38.162
X7.804 Y38.181
X7.654 Y38.184
X7.638 Y38.183
X7.437 Y38.135
X7.259 Y38.03
X7.119 Y37.877
X7.031 Y37.69
X7. Y37.486
Y36.786
G3 X7.31 Y36.497 Z-0.8 I0.3 J0.01
G1 X7.357 Y36.502
X7.579 Y36.545
X8.422 Y36.707
X8.691 Y36.759
X8.757 Y36.771 Z-0.829
G3 X9. Y37.055 Z-1. I-0.057 J0.295
G1 Y37.764
X8.993 Y37.914
X8.956 Y38.059
X8.896 Y38.197
X8.816 Y38.324
X8.722 Y38.441
X8.614 Y38.545
X8.496 Y38.637
X8.368 Y38.716
X8.232 Y38.78
X8.091 Y38.83
X7.945 Y38.864
X7.796 Y38.882
X7.646 Y38.884
X7.634 Y38.883
X7.434 Y38.834
X7.257 Y38.728
X7.119 Y38.576
X7.03 Y38.39
X7. Y38.186
Y37.486
G3 X7.31 Y37.197 Z-0.8 I0.3 J0.01
G1 X7.358 Y37.202
X7.579 Y37.246
X8.422 Y37.414
X8.691 Y37.467
X8.759 Y37.481 Z-0.829
G3 X9. Y37.764 Z-1. I-0.059 J0.294
G1 Y38.473
X8.993 Y38.623
X8.954 Y38.768
X8.893 Y38.905
X8.812 Y39.031
X8.717 Y39.147
X8.608 Y39.251
X8.489 Y39.342
X8.361 Y39.42
X8.225 Y39.483
X8.084 Y39.532
X7.937 Y39.566
X7.788 Y39.583
X7.638 Y39.585
X7.63 Y39.584
X7.431 Y39.534
X7.255 Y39.428
X7.118 Y39.276
X7.03 Y39.09
X7. Y38.887
Y38.186
G3 X7.31 Y37.897 Z-0.8 I0.3 J0.01
G1 X7.36 Y37.903
X7.579 Y37.948
X8.423 Y38.121
X8.691 Y38.175
X8.76 Y38.19 Z-0.83
G3 X9. Y38.473 Z-1. I-0.06 J0.294
G1 Y39.182
X8.993 Y39.332
X8.953 Y39.476
X8.89 Y39.613
X8.809 Y39.739
X8.712 Y39.854
X8.603 Y39.957
X8.484 Y40.047
X8.355 Y40.125
X8.219 Y40.187
X8.077 Y40.236
X7.931 Y40.268
X7.781 Y40.284
X7.631 Y40.285
X7.626
X7.428 Y40.234
X7.254 Y40.128
X7.117 Y39.976
X7.03 Y39.791
X7. Y39.589
Y38.887
G3 X7.31 Y38.598 Z-0.8 I0.3 J0.01
G1 X7.362 Y38.604
X7.579 Y38.65
X8.423 Y38.827
X8.691 Y38.884
X8.762 Y38.899 Z-0.831
G3 X9. Y39.182 Z-1. I-0.062 J0.294
G1 Y39.862
X8.993 Y40.012
X8.957 Y40.157
X8.897 Y40.295
X8.818 Y40.423
X8.724 Y40.54
X8.617 Y40.644
X8.499 Y40.737
X8.371 Y40.816
X8.236 Y40.88
X8.095 Y40.931
X7.949 Y40.966
X7.8 Y40.984
X7.65 Y40.987
X7.637 Y40.986
X7.436 Y40.937
X7.259 Y40.832
X7.119 Y40.679
X7.03 Y40.493
X7. Y40.289
Y39.589
G3 X7.31 Y39.299 Z-0.8 I0.3 J0.01
G1 X7.357 Y39.305
X7.579 Y39.348
X8.422 Y39.513
X8.691 Y39.565
X8.758 Y39.578 Z-0.829
G3 X9. Y39.862 Z-1. I-0.057 J0.294
G1 Y40.536
X8.993 Y40.685
X8.962 Y40.832
X8.906 Y40.972
X8.831 Y41.101
X8.739 Y41.22
X8.634 Y41.327
X8.518 Y41.422
X8.392 Y41.503
X8.258 Y41.57
X8.117 Y41.623
X7.972 Y41.66
X7.823 Y41.681
X7.674 Y41.687
X7.65 Y41.685
X7.446 Y41.639
X7.265 Y41.535
X7.122 Y41.382
X7.031 Y41.194
X7. Y40.987
Y40.289
G3 X7.31 Y39.999 Z-0.8 I0.3 J0.01
G1 X7.352 Y40.004
X7.58 Y40.044
X8.421 Y40.192
X8.691 Y40.24
X8.752 Y40.251 Z-0.827
G3 X9. Y40.536 Z-1. I-0.052 J0.295
G1 Y41.244
X8.993 Y41.394
X8.96 Y41.541
X8.903 Y41.679
X8.826 Y41.808
X8.734 Y41.926
X8.628 Y42.033
X8.511 Y42.126
X8.384 Y42.207
X8.249 Y42.273
X8.109 Y42.325
X7.963 Y42.361
X7.814 Y42.381
X7.664 Y42.386
X7.644 Y42.384
X7.441 Y42.337
X7.262 Y42.232
X7.121 Y42.079
X7.031 Y41.892
X7. Y41.686
Y40.987
G3 X7.31 Y40.698 Z-0.8 I0.3 J0.01
G1 X7.354 Y40.702
X7.58 Y40.744
X8.422 Y40.899
X8.691 Y40.948
X8.754 Y40.96 Z-0.828
G3 X9. Y41.244 Z-1. I-0.054 J0.295
G1 Y41.953
X8.993 Y42.103
X8.958 Y42.249
X8.899 Y42.387
X8.822 Y42.515
X8.728 Y42.633
X8.621 Y42.738
X8.504 Y42.831
X8.377 Y42.911
X8.241 Y42.976
X8.1 Y43.027
X7.955 Y43.062
X7.806 Y43.081
X7.656 Y43.085
X7.639 Y43.083
X7.438 Y43.035
X7.26 Y42.93
X7.12 Y42.777
X7.031 Y42.591
X7. Y42.386
Y41.686
G3 X7.31 Y41.397 Z-0.8 I0.3 J0.01
G1 X7.356 Y41.402
X7.579 Y41.445
X8.422 Y41.605
X8.691 Y41.656
X8.756 Y41.669 Z-0.828
G3 X9. Y41.953 Z-1. I-0.056 J0.295
G1 Y42.662
X8.993 Y42.812
X8.956 Y42.957
X8.896 Y43.095
X8.817 Y43.222
X8.723 Y43.339
X8.615 Y43.444
X8.497 Y43.536
X8.37 Y43.615
X8.234 Y43.679
X8.093 Y43.729
X7.947 Y43.763
X7.798 Y43.781
X7.648 Y43.784
X7.635 Y43.783
X7.435 Y43.734
X7.258 Y43.629
X7.119 Y43.476
X7.03 Y43.29
X7. Y43.086
Y42.386
G3 X7.31 Y42.096 Z-0.8 I0.3 J0.01
G1 X7.358 Y42.102
X7.579 Y42.146
X8.422 Y42.312
X8.691 Y42.365
X8.758 Y42.378 Z-0.829
G3 X9. Y42.662 Z-1. I-0.058 J0.294
G1 Y43.371
X8.993 Y43.521
X8.954 Y43.666
X8.893 Y43.803
X8.813 Y43.93
X8.718 Y44.045
X8.61 Y44.149
X8.491 Y44.241
X8.363 Y44.319
X8.227 Y44.382
X8.085 Y44.432
X7.939 Y44.465
X7.79 Y44.482
X7.64 Y44.484
X7.631
X7.432 Y44.434
X7.256 Y44.328
X7.118 Y44.176
X7.03 Y43.99
X7. Y43.787
Y43.086
G3 X7.31 Y42.797 Z-0.8 I0.3 J0.01
G1 X7.36 Y42.803
X7.579 Y42.847
X8.423 Y43.019
X8.691 Y43.073
X8.76 Y43.087 Z-0.83
G3 X9. Y43.371 Z-1. I-0.06 J0.294
G1 Y44.08
X8.993 Y44.229
X8.953 Y44.374
X8.891 Y44.511
X8.81 Y44.637
X8.713 Y44.752
X8.605 Y44.855
X8.485 Y44.946
X8.357 Y45.024
X8.221 Y45.086
X8.079 Y45.135
X7.932 Y45.167
X7.783 Y45.184
X7.633 Y45.185
X7.627
X7.429 Y45.134
X7.254 Y45.028
X7.117 Y44.876
X7.03 Y44.691
X7. Y44.488
Y43.787
G3 X7.31 Y43.498 Z-0.8 I0.3 J0.01
G1 X7.361 Y43.504
X7.579 Y43.549
X8.423 Y43.726
X8.691 Y43.782
X8.762 Y43.796 Z-0.831
G3 X9. Y44.08 Z-1. I-0.061 J0.294
G1 Y44.788
X8.993 Y44.938
X8.952 Y45.082
X8.888 Y45.218
X8.806 Y45.344
X8.709 Y45.459
X8.6 Y45.561
X8.48 Y45.651
X8.351 Y45.728
X8.215 Y45.79
X8.072 Y45.838
X7.926 Y45.87
X7.777 Y45.886
X7.624
X7.427 Y45.835
X7.252 Y45.729
X7.116 Y45.577
X7.03 Y45.392
X7. Y45.19
Y44.488
G3 X7.31 Y44.199 Z-0.8 I0.3 J0.01
G1 X7.363 Y44.205
X7.578 Y44.252
X8.423 Y44.433
X8.691 Y44.49
X8.763 Y44.505 Z-0.831
G3 X9. Y44.788 Z-1. I-0.063 J0.293
G1 Y45.462
X8.993 Y45.612
X8.957 Y45.758
X8.898 Y45.895
X8.819 Y46.023
X8.725 Y46.14
X8.618 Y46.245
X8.5 Y46.337
X8.372 Y46.417
X8.237 Y46.481
X8.096 Y46.532
X7.95 Y46.567
X7.801 Y46.585
X7.651 Y46.588
X7.638 Y46.587
X7.437 Y46.539
X7.259 Y46.434
X7.119 Y46.281
X7.031 Y46.094
X7. Y45.89
Y45.19
G3 X7.31 Y44.901 Z-0.8 I0.3 J0.01
G1 X7.357 Y44.906
X7.579 Y44.949
X8.422 Y45.113
X8.691 Y45.165
X8.757 Y45.178 Z-0.829
G3 X9. Y45.462 Z-1. I-0.057 J0.295
G1 Y46.171
X8.993 Y46.321
X8.955 Y46.466
X8.895 Y46.603
X8.815 Y46.73
X8.72 Y46.846
X8.612 Y46.951
X8.494 Y47.043
X8.366 Y47.121
X8.23 Y47.185
X8.088 Y47.234
X7.942 Y47.268
X7.793 Y47.286
X7.643 Y47.288
X7.633 Y47.287
X7.433 Y47.238
X7.256 Y47.132
X7.118 Y46.98
X7.03 Y46.794
X7. Y46.591
Y45.89
G3 X7.31 Y45.601 Z-0.8 I0.3 J0.01
G1 X7.359 Y45.606
X7.579 Y45.65
X8.423 Y45.82
X8.691 Y45.873
X8.759 Y45.887 Z-0.83
G3 X9. Y46.171 Z-1. I-0.059 J0.294
G1 Y46.88
X8.993 Y47.029
X8.954 Y47.174
X8.892 Y47.311
X8.811 Y47.438
X8.715 Y47.553
X8.607 Y47.656
X8.488 Y47.748
X8.36 Y47.826
X8.223 Y47.888
X8.082 Y47.937
X7.935 Y47.97
X7.786 Y47.987
X7.636 Y47.989
X7.629 Y47.988
X7.43 Y47.938
X7.255 Y47.832
X7.117 Y47.68
X7.03 Y47.494
X7. Y47.292
Y46.591
G3 X7.31 Y46.301 Z-0.8 I0.3 J0.01
G1 X7.36 Y46.307
X7.579 Y46.352
X8.423 Y46.527
X8.691 Y46.582
X8.761 Y46.596 Z-0.83
G3 X9. Y46.88 Z-1. I-0.061 J0.294
G1 Y47.546
X8.993 Y47.695
X8.96 Y47.842
X8.904 Y47.981
X8.828 Y48.11
X8.735 Y48.228
X8.63 Y48.335
X8.513 Y48.429
X8.387 Y48.51
X8.252 Y48.576
X8.111 Y48.628
X7.966 Y48.665
X7.817 Y48.685
X7.667 Y48.69
X7.647 Y48.688
X7.444 Y48.642
X7.263 Y48.537
X7.121 Y48.384
X7.031 Y48.196
X7. Y47.99
Y47.292
G3 X7.31 Y47.002 Z-0.8 I0.3 J0.01
G1 X7.353 Y47.007
X7.58 Y47.048
X8.421 Y47.201
X8.691 Y47.249
X8.754 Y47.261 Z-0.827
G3 X9. Y47.546 Z-1. I-0.054 J0.295
G1 Y48.254
X8.993 Y48.404
X8.958 Y48.55
X8.9 Y48.689
X8.823 Y48.817
X8.73 Y48.935
X8.623 Y49.04
X8.506 Y49.134
X8.379 Y49.214
X8.244 Y49.279
X8.103 Y49.33
X7.957 Y49.366
X7.808 Y49.385
X7.659 Y49.389
X7.641 Y49.387
X7.439 Y49.339
X7.26 Y49.234
X7.12 Y49.082
X7.031 Y48.895
X7. Y48.69
Y47.99
G3 X7.31 Y47.701 Z-0.8 I0.3 J0.01
G1 X7.355 Y47.706
X7.579 Y47.748
X8.422 Y47.907
X8.691 Y47.958
X8.756 Y47.97 Z-0.828
G3 X9. Y48.254 Z-1. I-0.056 J0.295
G1 Y48.963
X8.993 Y49.113
X8.957 Y49.259
X8.897 Y49.396
X8.819 Y49.524
X8.724 Y49.641
X8.617 Y49.746
X8.499 Y49.838
X8.372 Y49.918
X8.236 Y49.982
X8.095 Y50.032
X7.949 Y50.067
X7.8 Y50.085
X7.65 Y50.088
X7.636 Y50.087
X7.436 Y50.038
X7.258 Y49.933
X7.119 Y49.78
X7.03 Y49.594
X7. Y49.39
Y48.69
G3 X7.31 Y48.4 Z-0.8 I0.3 J0.01
G1 X7.357 Y48.406
X7.579 Y48.449
X8.422 Y48.614
X8.691 Y48.666
X8.758 Y48.679 Z-0.829
G3 X9. Y48.963 Z-1. I-0.057 J0.294
G1 Y49.672
X8.993 Y49.822
X8.955 Y49.967
X8.894 Y50.104
X8.815 Y50.231
X8.72 Y50.347
X8.612 Y50.451
X8.493 Y50.543
X8.365 Y50.622
X8.229 Y50.685
X8.088 Y50.735
X7.941 Y50.769
X7.793 Y50.786
X7.643 Y50.788
X7.632 Y50.787
X7.433 Y50.738
X7.256 Y50.632
X7.118 Y50.48
X7.03 Y50.294
X7. Y50.091
Y49.39
G3 X7.31 Y49.101 Z-0.8 I0.3 J0.01
G1 X7.359 Y49.106
X7.579 Y49.151
X8.423 Y49.32
X8.691 Y49.374
X8.759 Y49.388 Z-0.83
G3 X9. Y49.672 Z-1. I-0.059 J0.294
G1 Y50.381
X8.993 Y50.531
X8.953 Y50.675
X8.891 Y50.812
X8.811 Y50.938
X8.715 Y51.054
X8.606 Y51.157
X8.487 Y51.248
X8.359 Y51.326
X8.223 Y51.389
X8.081 Y51.438
X7.934 Y51.471
X7.785 Y51.487
X7.635 Y51.489
X7.628 Y51.488
X7.43 Y51.438
X7.255 Y51.332
X7.117 Y51.18
X7.03 Y50.994
X7. Y50.792
Y50.091
G3 X7.31 Y49.801 Z-0.8 I0.3 J0.01
G1 X7.361 Y49.807
X7.579 Y49.852
X8.423 Y50.027
X8.691 Y50.083
X8.761 Y50.097 Z-0.83
G3 X9. Y50.381 Z-1. I-0.061 J0.294
G1 Y51.089
X8.993 Y51.239
X8.952 Y51.384
X8.889 Y51.52
X8.807 Y51.646
X8.711 Y51.76
X8.601 Y51.863
X8.482 Y51.954
X8.353 Y52.031
X8.217 Y52.093
X8.074 Y52.141
X7.928 Y52.173
X7.779 Y52.189
X7.625 Y52.19
X7.427 Y52.138
X7.253 Y52.032
X7.117 Y51.88
X7.03 Y51.696
X7. Y51.494
Y50.792
G3 X7.31 Y50.502 Z-0.8 I0.3 J0.01
G1 X7.362 Y50.509
X7.578 Y50.555
X8.423 Y50.734
X8.691 Y50.791
X8.763 Y50.807 Z-0.831
G3 X9. Y51.089 Z-1. I-0.062 J0.293
G1 Y51.77
X8.993 Y51.919
X8.956 Y52.065
X8.896 Y52.202
X8.817 Y52.33
X8.723 Y52.446
X8.615 Y52.551
X8.497 Y52.643
X8.369 Y52.722
X8.234 Y52.786
X8.092 Y52.836
X7.946 Y52.871
X7.797 Y52.889
X7.647 Y52.892
X7.636 Y52.891
X7.435 Y52.842
X7.258 Y52.736
X7.119 Y52.584
X7.03 Y52.398
X7. Y52.194
Y51.494
G3 X7.31 Y51.204 Z-0.8 I0.3 J0.01
G1 X7.358 Y51.21
X7.579 Y51.253
X8.422 Y51.42
X8.691 Y51.472
X8.758 Y51.486 Z-0.829
G3 X9. Y51.77 Z-1. I-0.058 J0.294
G1 Y52.443
X8.993 Y52.593
X8.961 Y52.74
X8.905 Y52.879
X8.83 Y53.008
X8.738 Y53.127
X8.632 Y53.234
X8.516 Y53.328
X8.39 Y53.41
X8.255 Y53.476
X8.115 Y53.529
X7.97 Y53.566
X7.821 Y53.586
X7.671 Y53.592
X7.648 Y53.59
X7.445 Y53.544
X7.264 Y53.44
X7.122 Y53.287
X7.031 Y53.099
X7. Y52.892
Y52.194
G3 X7.31 Y51.904 Z-0.8 I0.3 J0.01
G1 X7.352 Y51.909
X7.58 Y51.949
X8.421 Y52.099
X8.691 Y52.147
X8.753 Y52.158 Z-0.827
G3 X9. Y52.443 Z-1. I-0.053 J0.295
G1 Y53.152
X8.993 Y53.302
X8.959 Y53.448
X8.902 Y53.587
X8.825 Y53.716
X8.732 Y53.833
X8.626 Y53.939
X8.509 Y54.033
X8.382 Y54.113
X8.247 Y54.179
X8.106 Y54.231
X7.961 Y54.266
X7.812 Y54.286
X7.662 Y54.291
X7.643 Y54.289
X7.44 Y54.241
X7.261 Y54.137
X7.12 Y53.984
X7.031 Y53.797
X7. Y53.591
Y52.892
G3 X7.31 Y52.603 Z-0.8 I0.3 J0.01
G1 X7.355 Y52.608
X7.58 Y52.649
X8.422 Y52.806
X8.691 Y52.856
X8.755 Y52.868 Z-0.828
G3 X9. Y53.152 Z-1. I-0.055 J0.295
G1 Y53.861
X8.993 Y54.011
X8.957 Y54.156
X8.899 Y54.294
X8.821 Y54.423
X8.727 Y54.54
X8.62 Y54.645
X8.502 Y54.738
X8.375 Y54.817
X8.239 Y54.882
X8.098 Y54.933
X7.952 Y54.968
X7.804 Y54.986
X7.654 Y54.99
X7.638 Y54.988
X7.437 Y54.94
X7.259 Y54.835
X7.119 Y54.682
X7.031 Y54.496
X7. Y54.291
Y53.591
G3 X7.31 Y53.302 Z-0.8 I0.3 J0.01
G1 X7.357 Y53.307
X7.579 Y53.35
X8.422 Y53.512
X8.691 Y53.564
X8.757 Y53.577 Z-0.829
G3 X9. Y53.861 Z-1. I-0.057 J0.295
G1 Y54.57
X8.993 Y54.719
X8.956 Y54.865
X8.896 Y55.002
X8.816 Y55.13
X8.722 Y55.246
X8.614 Y55.35
X8.495 Y55.442
X8.368 Y55.521
X8.232 Y55.585
X8.091 Y55.635
X7.945 Y55.669
X7.796 Y55.687
X7.646 Y55.69
X7.634 Y55.689
X7.434 Y55.639
X7.257 Y55.534
X7.119 Y55.381
X7.03 Y55.195
X7. Y54.992
Y54.291
G3 X7.31 Y54.002 Z-0.8 I0.3 J0.01
G1 X7.358 Y54.007
X7.579 Y54.051
X8.422 Y54.219
X8.691 Y54.272
X8.759 Y54.286 Z-0.829
G3 X9. Y54.57 Z-1. I-0.059 J0.294
G1 Y55.278
X8.993 Y55.428
X8.954 Y55.573
X8.893 Y55.71
X8.812 Y55.837
X8.717 Y55.952
X8.608 Y56.056
X8.489 Y56.148
X8.361 Y56.226
X8.225 Y56.289
X8.084 Y56.338
X7.937 Y56.371
X7.788 Y56.388
X7.638 Y56.39
X7.63 Y56.389
X7.431 Y56.339
X7.255 Y56.233
X7.118 Y56.081
X7.03 Y55.896
X7. Y55.693
Y54.992
G3 X7.31 Y54.702 Z-0.8 I0.3 J0.01
G1 X7.36 Y54.708
X7.579 Y54.753
X8.423 Y54.926
X8.691 Y54.981
X8.76 Y54.995 Z-0.83
G3 X9. Y55.278 Z-1. I-0.06 J0.294
G1 Y55.987
X8.993 Y56.137
X8.953 Y56.282
X8.89 Y56.418
X8.809 Y56.544
X8.712 Y56.659
X8.603 Y56.762
X8.484 Y56.853
X8.355 Y56.93
X8.219 Y56.992
X8.077 Y57.041
X7.931 Y57.073
X7.781 Y57.09
X7.631 Y57.091
X7.626 Y57.09
X7.428 Y57.039
X7.254 Y56.933
X7.117 Y56.781
X7.03 Y56.596
X7. Y56.394
Y55.693
G3 X7.31 Y55.403 Z-0.8 I0.3 J0.01
G1 X7.362 Y55.41
X7.579 Y55.455
X8.423 Y55.633
X8.691 Y55.689
X8.762 Y55.704 Z-0.831
G3 X9. Y55.987 Z-1. I-0.062 J0.294
G1 Y56.661
X8.993 Y56.811
X8.958 Y56.957
X8.899 Y57.095
X8.822 Y57.223
X8.728 Y57.34
X8.621 Y57.446
X8.503 Y57.538
X8.376 Y57.618
X8.241 Y57.683
X8.1 Y57.734
X7.954 Y57.77
X7.806 Y57.788
X7.656 Y57.792
X7.64 Y57.791
X7.439 Y57.743
X7.26 Y57.638
X7.12 Y57.485
X7.031 Y57.298
X7. Y57.094
Y56.394
G3 X7.31 Y56.105 Z-0.8 I0.3 J0.01
G1 X7.356 Y56.11
X7.579 Y56.153
X8.422 Y56.313
X8.691 Y56.364
X8.756 Y56.377 Z-0.828
G3 X9. Y56.661 Z-1. I-0.056 J0.295
G1 Y57.37
X8.993 Y57.52
X8.956 Y57.665
X8.896 Y57.803
X8.817 Y57.93
X8.723 Y58.047
X8.615 Y58.151
X8.497 Y58.244
X8.37 Y58.323
X8.234 Y58.386
X8.093 Y58.437
X7.946 Y58.471
X7.798 Y58.489
X7.648 Y58.492
X7.635 Y58.491
X7.435 Y58.442
X7.258 Y58.336
X7.119 Y58.184
X7.03 Y57.998
X7. Y57.794
Y57.094
G3 X7.31 Y56.804 Z-0.8 I0.3 J0.01
G1 X7.358 Y56.81
X7.579 Y56.853
X8.422 Y57.02
X8.691 Y57.073
X8.758 Y57.086 Z-0.829
G3 X9. Y57.37 Z-1. I-0.058 J0.294
G1 Y58.078
X8.993 Y58.228
X8.954 Y58.373
X8.893 Y58.51
X8.813 Y58.637
X8.718 Y58.753
X8.61 Y58.857
X8.491 Y58.949
X8.363 Y59.027
X8.227 Y59.09
X8.085 Y59.139
X7.939 Y59.173
X7.79 Y59.19
X7.64 Y59.192
X7.631 Y59.191
X7.432 Y59.141
X7.256 Y59.036
X7.118 Y58.883
X7.03 Y58.698
X7. Y58.495
Y57.794
G3 X7.31 Y57.504 Z-0.8 I0.3 J0.01
G1 X7.36 Y57.51
X7.579 Y57.555
X8.423 Y57.726
X8.691 Y57.781
X8.76 Y57.795 Z-0.83
G3 X9. Y58.078 Z-1. I-0.06 J0.294
G1 Y58.744
X8.993 Y58.894
X8.961 Y59.041
X8.905 Y59.18
X8.83 Y59.31
X8.738 Y59.428
X8.632 Y59.535
X8.516 Y59.629
X8.39 Y59.711
X8.255 Y59.777
X8.115 Y59.83
X7.97 Y59.867
X7.821 Y59.887
X7.671 Y59.893
X7.649 Y59.891
X7.445 Y59.845
X7.264 Y59.741
X7.122 Y59.588
X7.031 Y59.4
X7. Y59.193
Y58.495
G3 X7.31 Y58.205 Z-0.8 I0.3 J0.01
G1 X7.352 Y58.21
X7.58 Y58.25
X8.421 Y58.4
X8.691 Y58.448
X8.753 Y58.46 Z-0.827
G3 X9. Y58.744 Z-1. I-0.053 J0.295
G1 Y59.453
X8.993 Y59.603
X8.959 Y59.749
X8.902 Y59.888
X8.825 Y60.017
X8.732 Y60.134
X8.626 Y60.24
X8.509 Y60.334
X8.382 Y60.414
X8.247 Y60.48
X8.106 Y60.532
X7.961 Y60.568
X7.812 Y60.587
X7.742 Y60.589
X7.548 Y60.568
X7.366 Y60.493
X7.213 Y60.371
X7.099 Y60.211
X7.035 Y60.026
G3 X7.225 Y59.697 Z-0.825 I0.296 J-0.048
G1 X7.281 Y59.676 Z-0.8
X7.537 Y59.58
X8.43 Y59.245
X8.595 Y59.183
X8.642 Y59.169
X8.69 Y59.164
G3 X9. Y59.453 Z-1. I0.01 J0.3
G1 Y59.808
X8.999 Y59.843
X8.995 Y59.878
X8.91 Y60.304
X8.902 Y60.339
X8.889 Y60.375
X8.847 Y60.445
X8.753 Y60.587
X8.712 Y60.646
X8.686 Y60.675
X8.655 Y60.705
X8.622 Y60.729
X8.409 Y60.871
X8.372 Y60.888
X8.337 Y60.902
X8.302 Y60.911
X8.089 Y60.953
X8.018 Y60.963
X7.983 Y60.964
X7.948 Y60.96
X7.806 Y60.932
X7.664 Y60.903
X7.628 Y60.89
X7.591 Y60.871
X7.523 Y60.826
X7.378 Y60.729
X7.337 Y60.698
X7.297 Y60.658
X7.24 Y60.576
X7.153 Y60.445
X7.12 Y60.392
X7.107 Y60.366
X7.098 Y60.339
X7.09 Y60.304
X7.005 Y59.878
X7.001 Y59.843
X7. Y59.808
Y59.193
G3 X7.299 Y58.904 I0.3 J0.01
G1 X7.3
X7.324 Y58.905
X7.374 Y58.922 Z-0.995
X7.423 Y58.939 Z-0.981
X7.468 Y58.955 Z-0.958
X7.501 Y58.992 Z-0.921
X7.528 Y59.022 Z-0.874
X7.548 Y59.044 Z-0.82
X7.56 Y59.058 Z-0.762
X7.565 Y59.063 Z-0.7
Z5.
X7.896 Y30.824
Z1.
S2000
G3 X7.657 Y30.112 Z0.969 I0.104 J-0.431 F75.
X8.401 Y30.206 Z0.938 I0.342 J0.28
X7.995 Y30.834 Z0.906 I-0.401 J0.187
X7.605 Y30.196 Z0.875 I0.005 J-0.441
X8.348 Y30.122 Z0.844 I0.395 J0.196
X8.093 Y30.823 Z0.813 I-0.348 J0.27
X7.572 Y30.29 Z0.781 I-0.093 J-0.43
X8.277 Y30.052 Z0.75 I0.427 J0.103
X8.186 Y30.79 Z0.719 I-0.278 J0.34
X7.562 Y30.388 Z0.688 I-0.186 J-0.397
X8.194 Y30.001 Z0.656 I0.438 J0.005
X8.269 Y30.737 Z0.625 I-0.194 J0.392
X7.574 Y30.485 Z0.594 I-0.268 J-0.344
X8.101 Y29.969 Z0.563 I0.426 J-0.092
X8.337 Y30.667 Z0.531 I-0.101 J0.424
X7.606 Y30.577 Z0.5 I-0.337 J-0.275
X8.004 Y29.958 Z0.469 I0.393 J-0.184
X8.389 Y30.584 Z0.438 I-0.004 J0.434
X7.659 Y30.659 Z0.406 I-0.389 J-0.192
X7.908 Y29.97 Z0.375 I0.341 J-0.266
X8.42 Y30.493 Z0.344 I0.092 J0.422
X7.728 Y30.727 Z0.313 I-0.42 J-0.1
X7.816 Y30.003 Z0.281 I0.272 J-0.335
X8.43 Y30.396 Z0.25 I0.183 J0.39
X7.81 Y30.778 Z0.219 I-0.43 J-0.004
X7.735 Y30.055 Z0.188 I0.19 J-0.385
X8.419 Y30.301 Z0.156 I0.265 J0.338
X7.901 Y30.809 Z0.125 I-0.418 J0.092
X7.668 Y30.123 Z0.094 I0.099 J-0.416
X8.386 Y30.21 Z0.063 I0.332 J0.269
X7.997 Y30.819 Z0.031 I-0.386 J0.182
X7.617 Y30.205 Z0. I0.003 J-0.426
X8.334 Y30.13 Z-0.031 I0.382 J0.188
X8.092 Y30.807 Z-0.063 I-0.334 J0.263
X7.587 Y30.295 Z-0.094 I-0.091 J-0.415
X8.266 Y30.063 Z-0.125 I0.413 J0.097
X8.181 Y30.775 Z-0.156 I-0.266 J0.329
X7.577 Y30.39 Z-0.188 I-0.181 J-0.382
X8.185 Y30.013 Z-0.219 I0.422 J0.003
X8.261 Y30.724 Z-0.25 I-0.186 J0.379
X7.589 Y30.484 Z-0.281 I-0.261 J-0.331
X8.096 Y29.983 Z-0.313 I0.411 J-0.091
X8.327 Y30.656 Z-0.344 I-0.096 J0.409
X7.621 Y30.573 Z-0.375 I-0.327 J-0.264
X8.002 Y29.974 Z-0.406 I0.379 J-0.18
X8.376 Y30.576 Z-0.438 I-0.002 J0.419
X7.672 Y30.651 Z-0.469 I-0.376 J-0.183
X7.909 Y29.985 Z-0.5 I0.328 J-0.259
X8.406 Y30.487 Z-0.531 I0.091 J0.407
X7.739 Y30.717 Z-0.563 I-0.406 J-0.095
X7.821 Y30.017 Z-0.594 I0.261 J-0.324
X8.415 Y30.394 Z-0.625 I0.178 J0.375
X7.819 Y30.765 Z-0.656 I-0.415 J-0.002
X7.743 Y30.068 Z-0.688 I0.181 J-0.372
X8.403 Y30.302 Z-0.719 I0.257 J0.325
X7.907 Y30.795 Z-0.75 I-0.403 J0.09
X7.678 Y30.134 Z-0.781 I0.093 J-0.402
X8.371 Y30.215 Z-0.813 I0.321 J0.258
X7.999 Y30.804 Z-0.844 I-0.371 J0.177
X7.63 Y30.213 Z-0.875 I0.001 J-0.411
X8.321 Y30.138 Z-0.906 I0.369 J0.179
X8.09 Y30.792 Z-0.938 I-0.321 J0.255
X7.601 Y30.301 Z-0.969 I-0.09 J-0.399
X8.255 Y30.074 Z-1. I0.398 J0.092
X8.176 Y30.76 Z-1.031 I-0.255 J0.319
X7.592 Y30.392 Z-1.063 I-0.176 J-0.368
X8.177 Y30.026 Z-1.094 I0.407 J0.001
X8.253 Y30.711 Z-1.125 I-0.177 J0.366
X7.604 Y30.482 Z-1.156 I-0.253 J-0.318
X8.091 Y29.998 Z-1.188 I0.395 J-0.09
X8.316 Y30.645 Z-1.219 I-0.091 J0.395
X7.636 Y30.568 Z-1.25 I-0.316 J-0.253
X8. Y29.989 Z-1.281 I0.364 J-0.175
X8.363 Y30.568 Z-1.313 I0. J0.403
X7.685 Y30.643 Z-1.344 I-0.363 J-0.175
X7.911 Y30.001 Z-1.375 I0.315 J-0.251
X8.391 Y30.482 Z-1.406 I0.089 J0.392
X7.75 Y30.706 Z-1.438 I-0.391 J-0.089
X7.826 Y30.032 Z-1.469 I0.25 J-0.313
X8.4 Y30.392 Z-1.5 I0.174 J0.36
X7.6 I-0.4 J0.
X8.4 I0.4 J0.
S9000
G1 X8.442 Y30.643 F100.
X8.456 Y30.793
X8.405 Y30.934
X8.312 Y31.052
X8.191 Y31.14
X8.052 Y31.196
X7.903 Y31.22
X7.754 Y31.213
X7.608 Y31.177
X7.472 Y31.113
X7.35 Y31.026
X7.246 Y30.918
X7.162 Y30.794
X7.1 Y30.657
X7.062 Y30.512
X7.048 Y30.363
X7.059 Y30.213
X7.094 Y30.067
X7.152 Y29.929
X7.231 Y29.801
X7.329 Y29.688
X7.443 Y29.591
X7.571 Y29.513
X7.71 Y29.456
X7.856 Y29.421
X8.005 Y29.409
X8.155 Y29.42
X8.301 Y29.454
X8.44 Y29.51
X8.57 Y29.586
X8.686 Y29.68
X8.792 Y29.786
X8.842 Y29.847
X8.928 Y29.982
X8.982 Y30.132
X9. Y30.29
Y30.754
X8.993 Y30.904
X8.963 Y31.051
X8.912 Y31.192
X8.841 Y31.325
X8.753 Y31.446
X8.65 Y31.555
X8.533 Y31.649
X8.406 Y31.729
X8.27 Y31.792
X8.127 Y31.838
X7.98 Y31.868
X7.831 Y31.881
X7.681 Y31.878
X7.606 Y31.867
X7.414 Y31.813
X7.244 Y31.705
X7.112 Y31.554
X7.029 Y31.372
X7. Y31.174
Y30.18
X7.008 Y30.109
X7.092 Y29.684
X7.098 Y29.661
X7.109 Y29.631
X7.123 Y29.602
X7.161 Y29.542
X7.256 Y29.401
X7.303 Y29.335
X7.342 Y29.297
X7.381 Y29.269
X7.523 Y29.174
X7.613 Y29.117
X7.639 Y29.106
X7.664 Y29.097
X7.806 Y29.068
X7.948 Y29.04
X7.983 Y29.036
X8.018 Y29.037
X8.089 Y29.047
X8.302 Y29.089
X8.337 Y29.098
X8.372 Y29.111
X8.386 Y29.117
X8.514 Y29.198
X8.604 Y29.259
X8.655 Y29.295
X8.707 Y29.348
X8.744 Y29.401
X8.839 Y29.542
X8.883 Y29.613
X8.898 Y29.649
X8.908 Y29.684
X8.992 Y30.109
X9. Y30.18
Y30.29
G3 X8.7 Y30.59 Z-1.3 I-0.3 J0.
G1 X8.636 Y30.583
X8.574 Y30.563
X8.518 Y30.529
X8.456 Y30.482
X8.339 Y30.393
G3 X8.702 Y29.915 I0.182 J-0.239
X8.779 Y30.001 I-0.182 J0.239
X8.914 Y30.293 I-1.36 J0.809
X9. Y30.754 Z-1.5 I-1.496 J0.517
G1 Y31.498
X8.993 Y31.648
X8.955 Y31.793
X8.893 Y31.93
X8.811 Y32.056
X8.713 Y32.169
X8.602 Y32.27
X8.481 Y32.358
X8.35 Y32.432
X8.213 Y32.492
X8.07 Y32.537
X7.923 Y32.567
X7.773 Y32.581
X7.619 Y32.58
X7.423 Y32.527
X7.25 Y32.421
X7.115 Y32.269
X7.029 Y32.085
X7. Y31.884
Y31.174
G3 X7.31 Y30.884 Z-1.3 I0.3 J0.01
G1 X7.368 Y30.892
X7.578 Y30.941
X8.425 Y31.137
X8.691 Y31.199
X8.768 Y31.216 Z-1.333
G3 X9. Y31.498 Z-1.5 I-0.068 J0.292
G1 Y32.172
X8.993 Y32.322
X8.955 Y32.467
X8.895 Y32.604
X8.815 Y32.731
X8.719 Y32.847
X8.611 Y32.95
X8.491 Y33.041
X8.363 Y33.119
X8.227 Y33.182
X8.085 Y33.231
X7.939 Y33.265
X7.79 Y33.282
X7.64 Y33.284
X7.631 Y33.283
X7.432 Y33.233
X7.256 Y33.127
X7.118 Y32.975
X7.03 Y32.789
X7. Y32.586
Y31.884
G3 X7.31 Y31.595 Z-1.3 I0.3 J0.01
G1 X7.36 Y31.601
X7.579 Y31.646
X8.423 Y31.819
X8.691 Y31.874
X8.761 Y31.889 Z-1.33
G3 X9. Y32.172 Z-1.5 I-0.06 J0.294
G1 Y32.881
X8.993 Y33.031
X8.953 Y33.175
X8.89 Y33.312
X8.809 Y33.438
X8.713 Y33.553
X8.604 Y33.656
X8.484 Y33.746
X8.356 Y33.824
X8.219 Y33.886
X8.077 Y33.934
X7.931 Y33.967
X7.782 Y33.983
X7.632 Y33.984
X7.626
X7.428 Y33.933
X7.254 Y33.827
X7.117 Y33.675
X7.03 Y33.49
X7. Y33.288
Y32.586
G3 X7.31 Y32.297 Z-1.3 I0.3 J0.01
G1 X7.362 Y32.303
X7.579 Y32.349
X8.423 Y32.526
X8.691 Y32.583
X8.762 Y32.598 Z-1.331
G3 X9. Y32.881 Z-1.5 I-0.062 J0.294
G1 Y33.554
X8.993 Y33.704
X8.958 Y33.85
X8.899 Y33.988
X8.822 Y34.117
X8.728 Y34.234
X8.621 Y34.339
X8.503 Y34.432
X8.377 Y34.512
X8.241 Y34.577
X8.1 Y34.628
X7.954 Y34.663
X7.806 Y34.682
X7.656 Y34.686
X7.64 Y34.685
X7.439 Y34.637
X7.26 Y34.532
X7.12 Y34.379
X7.031 Y34.192
X7. Y33.987
Y33.288
G3 X7.31 Y32.998 Z-1.3 I0.3 J0.01
G1 X7.356 Y33.004
X7.579 Y33.046
X8.422 Y33.207
X8.691 Y33.258
X8.756 Y33.27 Z-1.328
G3 X9. Y33.554 Z-1.5 I-0.056 J0.295
G1 Y34.263
X8.993 Y34.413
X8.956 Y34.559
X8.896 Y34.696
X8.817 Y34.824
X8.723 Y34.94
X8.615 Y35.045
X8.497 Y35.137
X8.37 Y35.216
X8.234 Y35.28
X8.093 Y35.33
X7.947 Y35.365
X7.798 Y35.383
X7.648 Y35.386
X7.635 Y35.384
X7.435 Y35.335
X7.258 Y35.23
X7.119 Y35.078
X7.03 Y34.891
X7. Y34.687
Y33.987
G3 X7.31 Y33.698 Z-1.3 I0.3 J0.01
G1 X7.358 Y33.703
X7.579 Y33.747
X8.422 Y33.913
X8.691 Y33.966
X8.758 Y33.979 Z-1.329
G3 X9. Y34.263 Z-1.5 I-0.058 J0.294
G1 Y34.972
X8.993 Y35.122
X8.954 Y35.267
X8.893 Y35.404
X8.813 Y35.531
X8.718 Y35.647
X8.61 Y35.75
X8.491 Y35.842
X8.363 Y35.92
X8.227 Y35.984
X8.085 Y36.033
X7.939 Y36.066
X7.79 Y36.084
X7.64 Y36.086
X7.631 Y36.085
X7.432 Y36.035
X7.256 Y35.929
X7.118 Y35.777
X7.03 Y35.591
X7. Y35.388
Y34.687
G3 X7.31 Y34.398 Z-1.3 I0.3 J0.01
G1 X7.36 Y34.404
X7.579 Y34.448
X8.423 Y34.62
X8.691 Y34.674
X8.76 Y34.688 Z-1.33
G3 X9. Y34.972 Z-1.5 I-0.06 J0.294
G1 Y35.638
X8.993 Y35.788
X8.961 Y35.934
X8.905 Y36.074
X8.83 Y36.203
X8.738 Y36.322
X8.633 Y36.429
X8.516 Y36.523
X8.39 Y36.604
X8.255 Y36.671
X8.115 Y36.723
X7.97 Y36.761
X7.821 Y36.781
X7.671 Y36.786
X7.649 Y36.785
X7.445 Y36.739
X7.264 Y36.634
X7.122 Y36.481
X7.031 Y36.293
X7. Y36.087
Y35.388
G3 X7.31 Y35.099 Z-1.3 I0.3 J0.01
G1 X7.352 Y35.103
X7.58 Y35.144
X8.421 Y35.294
X8.691 Y35.342
X8.753 Y35.353 Z-1.327
G3 X9. Y35.638 Z-1.5 I-0.053 J0.295
G1 Y36.347
X8.993 Y36.497
X8.959 Y36.643
X8.902 Y36.781
X8.825 Y36.91
X8.732 Y37.028
X8.626 Y37.134
X8.509 Y37.228
X8.382 Y37.308
X8.247 Y37.373
X8.106 Y37.425
X7.961 Y37.461
X7.812 Y37.481
X7.662 Y37.485
X7.643 Y37.484
X7.44 Y37.436
X7.261 Y37.331
X7.12 Y37.179
X7.031 Y36.991
X7. Y36.786
Y36.087
G3 X7.31 Y35.797 Z-1.3 I0.3 J0.01
G1 X7.355 Y35.802
X7.58 Y35.844
X8.422 Y36.
X8.691 Y36.05
X8.755 Y36.062 Z-1.328
G3 X9. Y36.347 Z-1.5 I-0.055 J0.295
G1 Y37.055
X8.993 Y37.205
X8.957 Y37.351
X8.899 Y37.489
X8.821 Y37.617
X8.727 Y37.734
X8.62 Y37.839
X8.502 Y37.932
X8.375 Y38.012
X8.239 Y38.076
X8.098 Y38.127
X7.952 Y38.162
X7.804 Y38.181
X7.654 Y38.184
X7.638 Y38.183
X7.437 Y38.135
X7.259 Y38.03
X7.119 Y37.877
X7.031 Y37.69
X7. Y37.486
Y36.786
G3 X7.31 Y36.497 Z-1.3 I0.3 J0.01
G1 X7.357 Y36.502
X7.579 Y36.545
X8.422 Y36.707
X8.691 Y36.759
X8.757 Y36.771 Z-1.329
G3 X9. Y37.055 Z-1.5 I-0.057 J0.295
G1 Y37.764
X8.993 Y37.914
X8.956 Y38.059
X8.896 Y38.197
X8.816 Y38.324
X8.722 Y38.441
X8.614 Y38.545
X8.496 Y38.637
X8.368 Y38.716
X8.232 Y38.78
X8.091 Y38.83
X7.945 Y38.864
X7.796 Y38.882
X7.646 Y38.884
X7.634 Y38.883
X7.434 Y38.834
X7.257 Y38.728
X7.119 Y38.576
X7.03 Y38.39
X7. Y38.186
Y37.486
G3 X7.31 Y37.197 Z-1.3 I0.3 J0.01
G1 X7.358 Y37.202
X7.579 Y37.246
X8.422 Y37.414
X8.691 Y37.467
X8.759 Y37.481 Z-1.329
G3 X9. Y37.764 Z-1.5 I-0.059 J0.294
G1 Y38.473
X8.993 Y38.623
X8.954 Y38.768
X8.893 Y38.905
X8.812 Y39.031
X8.717 Y39.147
X8.608 Y39.251
X8.489 Y39.342
X8.361 Y39.42
X8.225 Y39.483
X8.084 Y39.532
X7.937 Y39.566
X7.788 Y39.583
X7.638 Y39.585
X7.63 Y39.584
X7.431 Y39.534
X7.255 Y39.428
X7.118 Y39.276
X7.03 Y39.09
X7. Y38.887
Y38.186
G3 X7.31 Y37.897 Z-1.3 I0.3 J0.01
G1 X7.36 Y37.903
X7.579 Y37.948
X8.423 Y38.121
X8.691 Y38.175
X8.76 Y38.19 Z-1.33
G3 X9. Y38.473 Z-1.5 I-0.06 J0.294
G1 Y39.182
X8.993 Y39.332
X8.953 Y39.476
X8.89 Y39.613
X8.809 Y39.739
X8.712 Y39.854
X8.603 Y39.957
X8.484 Y40.047
X8.355 Y40.125
X8.219 Y40.187
X8.077 Y40.236
X7.931 Y40.268
X7.781 Y40.284
X7.631 Y40.285
X7.626
X7.428 Y40.234
X7.254 Y40.128
X7.117 Y39.976
X7.03 Y39.791
X7. Y39.589
Y38.887
G3 X7.31 Y38.598 Z-1.3 I0.3 J0.01
G1 X7.362 Y38.604
X7.579 Y38.65
X8.423 Y38.827
X8.691 Y38.884
X8.762 Y38.899 Z-1.331
G3 X9. Y39.182 Z-1.5 I-0.062 J0.294
G1 Y39.862
X8.993 Y40.012
X8.957 Y40.157
X8.897 Y40.295
X8.818 Y40.423
X8.724 Y40.54
X8.617 Y40.644
X8.499 Y40.737
X8.371 Y40.816
X8.236 Y40.88
X8.095 Y40.931
X7.949 Y40.966
X7.8 Y40.984
X7.65 Y40.987
X7.637 Y40.986
X7.436 Y40.937
X7.259 Y40.832
X7.119 Y40.679
X7.03 Y40.493
X7. Y40.289
Y39.589
G3 X7.31 Y39.299 Z-1.3 I0.3 J0.01
G1 X7.357 Y39.305
X7.579 Y39.348
X8.422 Y39.513
X8.691 Y39.565
X8.758 Y39.578 Z-1.329
G3 X9. Y39.862 Z-1.5 I-0.057 J0.294
G1 Y40.536
X8.993 Y40.685
X8.962 Y40.832
X8.906 Y40.972
X8.831 Y41.101
X8.739 Y41.22
X8.634 Y41.327
X8.518 Y41.422
X8.392 Y41.503
X8.258 Y41.57
X8.117 Y41.623
X7.972 Y41.66
X7.823 Y41.681
X7.674 Y41.687
X7.65 Y41.685
X7.446 Y41.639
X7.265 Y41.535
X7.122 Y41.382
X7.031 Y41.194
X7. Y40.987
Y40.289
G3 X7.31 Y39.999 Z-1.3 I0.3 J0.01
G1 X7.352 Y40.004
X7.58 Y40.044
X8.421 Y40.192
X8.691 Y40.24
X8.752 Y40.251 Z-1.327
G3 X9. Y40.536 Z-1.5 I-0.052 J0.295
G1 Y41.244
X8.993 Y41.394
X8.96 Y41.541
X8.903 Y41.679
X8.826 Y41.808
X8.734 Y41.926
X8.628 Y42.033
X8.511 Y42.126
X8.384 Y42.207
X8.249 Y42.273
X8.109 Y42.325
X7.963 Y42.361
X7.814 Y42.381
X7.664 Y42.386
X7.644 Y42.384
X7.441 Y42.337
X7.262 Y42.232
X7.121 Y42.079
X7.031 Y41.892
X7. Y41.686
Y40.987
G3 X7.31 Y40.698 Z-1.3 I0.3 J0.01
G1 X7.354 Y40.702
X7.58 Y40.744
X8.422 Y40.899
X8.691 Y40.948
X8.754 Y40.96 Z-1.328
G3 X9. Y41.244 Z-1.5 I-0.054 J0.295
G1 Y41.953
X8.993 Y42.103
X8.958 Y42.249
X8.899 Y42.387
X8.822 Y42.515
X8.728 Y42.633
X8.621 Y42.738
X8.504 Y42.831
X8.377 Y42.911
X8.241 Y42.976
X8.1 Y43.027
X7.955 Y43.062
X7.806 Y43.081
X7.656 Y43.085
X7.639 Y43.083
X7.438 Y43.035
X7.26 Y42.93
X7.12 Y42.777
X7.031 Y42.591
X7. Y42.386
Y41.686
G3 X7.31 Y41.397 Z-1.3 I0.3 J0.01
G1 X7.356 Y41.402
X7.579 Y41.445
X8.422 Y41.605
X8.691 Y41.656
X8.756 Y41.669 Z-1.328
G3 X9. Y41.953 Z-1.5 I-0.056 J0.295
G1 Y42.662
X8.993 Y42.812
X8.956 Y42.957
X8.896 Y43.095
X8.817 Y43.222
X8.723 Y43.339
X8.615 Y43.444
X8.497 Y43.536
X8.37 Y43.615
X8.234 Y43.679
X8.093 Y43.729
X7.947 Y43.763
X7.798 Y43.781
X7.648 Y43.784
X7.635 Y43.783
X7.435 Y43.734
X7.258 Y43.629
X7.119 Y43.476
X7.03 Y43.29
X7. Y43.086
Y42.386
G3 X7.31 Y42.096 Z-1.3 I0.3 J0.01
G1 X7.358 Y42.102
X7.579 Y42.146
X8.422 Y42.312
X8.691 Y42.365
X8.758 Y42.378 Z-1.329
G3 X9. Y42.662 Z-1.5 I-0.058 J0.294
G1 Y43.371
X8.993 Y43.521
X8.954 Y43.666
X8.893 Y43.803
X8.813 Y43.93
X8.718 Y44.045
X8.61 Y44.149
X8.491 Y44.241
X8.363 Y44.319
X8.227 Y44.382
X8.085 Y44.432
X7.939 Y44.465
X7.79 Y44.482
X7.64 Y44.484
X7.631
X7.432 Y44.434
X7.256 Y44.328
X7.118 Y44.176
X7.03 Y43.99
X7. Y43.787
Y43.086
G3 X7.31 Y42.797 Z-1.3 I0.3 J0.01
G1 X7.36 Y42.803
X7.579 Y42.847
X8.423 Y43.019
X8.691 Y43.073
X8.76 Y43.087 Z-1.33
G3 X9. Y43.371 Z-1.5 I-0.06 J0.294
G1 Y44.08
X8.993 Y44.229
X8.953 Y44.374
X8.891 Y44.511
X8.81 Y44.637
X8.713 Y44.752
X8.605 Y44.855
X8.485 Y44.946
X8.357 Y45.024
X8.221 Y45.086
X8.079 Y45.135
X7.932 Y45.167
X7.783 Y45.184
X7.633 Y45.185
X7.627
X7.429 Y45.134
X7.254 Y45.028
X7.117 Y44.876
X7.03 Y44.691
X7. Y44.488
Y43.787
G3 X7.31 Y43.498 Z-1.3 I0.3 J0.01
G1 X7.361 Y43.504
X7.579 Y43.549
X8.423 Y43.726
X8.691 Y43.782
X8.762 Y43.796 Z-1.331
G3 X9. Y44.08 Z-1.5 I-0.061 J0.294
G1 Y44.788
X8.993 Y44.938
X8.952 Y45.082
X8.888 Y45.218
X8.806 Y45.344
X8.709 Y45.459
X8.6 Y45.561
X8.48 Y45.651
X8.351 Y45.728
X8.215 Y45.79
X8.072 Y45.838
X7.926 Y45.87
X7.777 Y45.886
X7.624
X7.427 Y45.835
X7.252 Y45.729
X7.116 Y45.577
X7.03 Y45.392
X7. Y45.19
Y44.488
G3 X7.31 Y44.199 Z-1.3 I0.3 J0.01
G1 X7.363 Y44.205
X7.578 Y44.252
X8.423 Y44.433
X8.691 Y44.49
X8.763 Y44.505 Z-1.331
G3 X9. Y44.788 Z-1.5 I-0.063 J0.293
G1 Y45.462
X8.993 Y45.612
X8.957 Y45.758
X8.898 Y45.895
X8.819 Y46.023
X8.725 Y46.14
X8.618 Y46.245
X8.5 Y46.337
X8.372 Y46.417
X8.237 Y46.481
X8.096 Y46.532
X7.95 Y46.567
X7.801 Y46.585
X7.651 Y46.588
X7.638 Y46.587
X7.437 Y46.539
X7.259 Y46.434
X7.119 Y46.281
X7.031 Y46.094
X7. Y45.89
Y45.19
G3 X7.31 Y44.901 Z-1.3 I0.3 J0.01
G1 X7.357 Y44.906
X7.579 Y44.949
X8.422 Y45.113
X8.691 Y45.165
X8.757 Y45.178 Z-1.329
G3 X9. Y45.462 Z-1.5 I-0.057 J0.295
G1 Y46.171
X8.993 Y46.321
X8.955 Y46.466
X8.895 Y46.603
X8.815 Y46.73
X8.72 Y46.846
X8.612 Y46.951
X8.494 Y47.043
X8.366 Y47.121
X8.23 Y47.185
X8.088 Y47.234
X7.942 Y47.268
X7.793 Y47.286
X7.643 Y47.288
X7.633 Y47.287
X7.433 Y47.238
X7.256 Y47.132
X7.118 Y46.98
X7.03 Y46.794
X7. Y46.591
Y45.89
G3 X7.31 Y45.601 Z-1.3 I0.3 J0.01
G1 X7.359 Y45.606
X7.579 Y45.65
X8.423 Y45.82
X8.691 Y45.873
X8.759 Y45.887 Z-1.33
G3 X9. Y46.171 Z-1.5 I-0.059 J0.294
G1 Y46.88
X8.993 Y47.029
X8.954 Y47.174
X8.892 Y47.311
X8.811 Y47.438
X8.715 Y47.553
X8.607 Y47.656
X8.488 Y47.748
X8.36 Y47.826
X8.223 Y47.888
X8.082 Y47.937
X7.935 Y47.97
X7.786 Y47.987
X7.636 Y47.989
X7.629 Y47.988
X7.43 Y47.938
X7.255 Y47.832
X7.117 Y47.68
X7.03 Y47.494
X7. Y47.292
Y46.591
G3 X7.31 Y46.301 Z-1.3 I0.3 J0.01
G1 X7.36 Y46.307
X7.579 Y46.352
X8.423 Y46.527
X8.691 Y46.582
X8.761 Y46.596 Z-1.33
G3 X9. Y46.88 Z-1.5 I-0.061 J0.294
G1 Y47.546
X8.993 Y47.695
X8.96 Y47.842
X8.904 Y47.981
X8.828 Y48.11
X8.735 Y48.228
X8.63 Y48.335
X8.513 Y48.429
X8.387 Y48.51
X8.252 Y48.576
X8.111 Y48.628
X7.966 Y48.665
X7.817 Y48.685
X7.667 Y48.69
X7.647 Y48.688
X7.444 Y48.642
X7.263 Y48.537
X7.121 Y48.384
X7.031 Y48.196
X7. Y47.99
Y47.292
G3 X7.31 Y47.002 Z-1.3 I0.3 J0.01
G1 X7.353 Y47.007
X7.58 Y47.048
X8.421 Y47.201
X8.691 Y47.249
X8.754 Y47.261 Z-1.327
G3 X9. Y47.546 Z-1.5 I-0.054 J0.295
G1 Y48.254
X8.993 Y48.404
X8.958 Y48.55
X8.9 Y48.689
X8.823 Y48.817
X8.73 Y48.935
X8.623 Y49.04
X8.506 Y49.134
X8.379 Y49.214
X8.244 Y49.279
X8.103 Y49.33
X7.957 Y49.366
X7.808 Y49.385
X7.659 Y49.389
X7.641 Y49.387
X7.439 Y49.339
X7.26 Y49.234
X7.12 Y49.082
X7.031 Y48.895
X7. Y48.69
Y47.99
G3 X7.31 Y47.701 Z-1.3 I0.3 J0.01
G1 X7.355 Y47.706
X7.579 Y47.748
X8.422 Y47.907
X8.691 Y47.958
X8.756 Y47.97 Z-1.328
G3 X9. Y48.254 Z-1.5 I-0.056 J0.295
G1 Y48.963
X8.993 Y49.113
X8.957 Y49.259
X8.897 Y49.396
X8.819 Y49.524
X8.724 Y49.641
X8.617 Y49.746
X8.499 Y49.838
X8.372 Y49.918
X8.236 Y49.982
X8.095 Y50.032
X7.949 Y50.067
X7.8 Y50.085
X7.65 Y50.088
X7.636 Y50.087
X7.436 Y50.038
X7.258 Y49.933
X7.119 Y49.78
X7.03 Y49.594
X7. Y49.39
Y48.69
G3 X7.31 Y48.4 Z-1.3 I0.3 J0.01
G1 X7.357 Y48.406
X7.579 Y48.449
X8.422 Y48.614
X8.691 Y48.666
X8.758 Y48.679 Z-1.329
G3 X9. Y48.963 Z-1.5 I-0.057 J0.294
G1 Y49.672
X8.993 Y49.822
X8.955 Y49.967
X8.894 Y50.104
X8.815 Y50.231
X8.72 Y50.347
X8.612 Y50.451
X8.493 Y50.543
X8.365 Y50.622
X8.229 Y50.685
X8.088 Y50.735
X7.941 Y50.769
X7.793 Y50.786
X7.643 Y50.788
X7.632 Y50.787
X7.433 Y50.738
X7.256 Y50.632
X7.118 Y50.48
X7.03 Y50.294
X7. Y50.091
Y49.39
G3 X7.31 Y49.101 Z-1.3 I0.3 J0.01
G1 X7.359 Y49.106
X7.579 Y49.151
X8.423 Y49.32
X8.691 Y49.374
X8.759 Y49.388 Z-1.33
G3 X9. Y49.672 Z-1.5 I-0.059 J0.294
G1 Y50.381
X8.993 Y50.531
X8.953 Y50.675
X8.891 Y50.812
X8.811 Y50.938
X8.715 Y51.054
X8.606 Y51.157
X8.487 Y51.248
X8.359 Y51.326
X8.223 Y51.389
X8.081 Y51.438
X7.934 Y51.471
X7.785 Y51.487
X7.635 Y51.489
X7.628 Y51.488
X7.43 Y51.438
X7.255 Y51.332
X7.117 Y51.18
X7.03 Y50.994
X7. Y50.792
Y50.091
G3 X7.31 Y49.801 Z-1.3 I0.3 J0.01
G1 X7.361 Y49.807
X7.579 Y49.852
X8.423 Y50.027
X8.691 Y50.083
X8.761 Y50.097 Z-1.33
G3 X9. Y50.381 Z-1.5 I-0.061 J0.294
G1 Y51.089
X8.993 Y51.239
X8.952 Y51.384
X8.889 Y51.52
X8.807 Y51.646
X8.711 Y51.76
X8.601 Y51.863
X8.482 Y51.954
X8.353 Y52.031
X8.217 Y52.093
X8.074 Y52.141
X7.928 Y52.173
X7.779 Y52.189
X7.625 Y52.19
X7.427 Y52.138
X7.253 Y52.032
X7.117 Y51.88
X7.03 Y51.696
X7. Y51.494
Y50.792
G3 X7.31 Y50.502 Z-1.3 I0.3 J0.01
G1 X7.362 Y50.509
X7.578 Y50.555
X8.423 Y50.734
X8.691 Y50.791
X8.763 Y50.807 Z-1.331
G3 X9. Y51.089 Z-1.5 I-0.062 J0.293
G1 Y51.77
X8.993 Y51.919
X8.956 Y52.065
X8.896 Y52.202
X8.817 Y52.33
X8.723 Y52.446
X8.615 Y52.551
X8.497 Y52.643
X8.369 Y52.722
X8.234 Y52.786
X8.092 Y52.836
X7.946 Y52.871
X7.797 Y52.889
X7.647 Y52.892
X7.636 Y52.891
X7.435 Y52.842
X7.258 Y52.736
X7.119 Y52.584
X7.03 Y52.398
X7. Y52.194
Y51.494
G3 X7.31 Y51.204 Z-1.3 I0.3 J0.01
G1 X7.358 Y51.21
X7.579 Y51.253
X8.422 Y51.42
X8.691 Y51.472
X8.758 Y51.486 Z-1.329
G3 X9. Y51.77 Z-1.5 I-0.058 J0.294
G1 Y52.443
X8.993 Y52.593
X8.961 Y52.74
X8.905 Y52.879
X8.83 Y53.008
X8.738 Y53.127
X8.632 Y53.234
X8.516 Y53.328
X8.39 Y53.41
X8.255 Y53.476
X8.115 Y53.529
X7.97 Y53.566
X7.821 Y53.586
X7.671 Y53.592
X7.648 Y53.59
X7.445 Y53.544
X7.264 Y53.44
X7.122 Y53.287
X7.031 Y53.099
X7. Y52.892
Y52.194
G3 X7.31 Y51.904 Z-1.3 I0.3 J0.01
G1 X7.352 Y51.909
X7.58 Y51.949
X8.421 Y52.099
X8.691 Y52.147
X8.753 Y52.158 Z-1.327
G3 X9. Y52.443 Z-1.5 I-0.053 J0.295
G1 Y53.152
X8.993 Y53.302
X8.959 Y53.448
X8.902 Y53.587
X8.825 Y53.716
X8.732 Y53.833
X8.626 Y53.939
X8.509 Y54.033
X8.382 Y54.113
X8.247 Y54.179
X8.106 Y54.231
X7.961 Y54.266
X7.812 Y54.286
X7.662 Y54.291
X7.643 Y54.289
X7.44 Y54.241
X7.261 Y54.137
X7.12 Y53.984
X7.031 Y53.797
X7. Y53.591
Y52.892
G3 X7.31 Y52.603 Z-1.3 I0.3 J0.01
G1 X7.355 Y52.608
X7.58 Y52.649
X8.422 Y52.806
X8.691 Y52.856
X8.755 Y52.868 Z-1.328
G3 X9. Y53.152 Z-1.5 I-0.055 J0.295
G1 Y53.861
X8.993 Y54.011
X8.957 Y54.156
X8.899 Y54.294
X8.821 Y54.423
X8.727 Y54.54
X8.62 Y54.645
X8.502 Y54.738
X8.375 Y54.817
X8.239 Y54.882
X8.098 Y54.933
X7.952 Y54.968
X7.804 Y54.986
X7.654 Y54.99
X7.638 Y54.988
X7.437 Y54.94
X7.259 Y54.835
X7.119 Y54.682
X7.031 Y54.496
X7. Y54.291
Y53.591
G3 X7.31 Y53.302 Z-1.3 I0.3 J0.01
G1 X7.357 Y53.307
X7.579 Y53.35
X8.422 Y53.512
X8.691 Y53.564
X8.757 Y53.577 Z-1.329
G3 X9. Y53.861 Z-1.5 I-0.057 J0.295
G1 Y54.57
X8.993 Y54.719
X8.956 Y54.865
X8.896 Y55.002
X8.816 Y55.13
X8.722 Y55.246
X8.614 Y55.35
X8.495 Y55.442
X8.368 Y55.521
X8.232 Y55.585
X8.091 Y55.635
X7.945 Y55.669
X7.796 Y55.687
X7.646 Y55.69
X7.634 Y55.689
X7.434 Y55.639
X7.257 Y55.534
X7.119 Y55.381
X7.03 Y55.195
X7. Y54.992
Y54.291
G3 X7.31 Y54.002 Z-1.3 I0.3 J0.01
G1 X7.358 Y54.007
X7.579 Y54.051
X8.422 Y54.219
X8.691 Y54.272
X8.759 Y54.286 Z-1.329
G3 X9. Y54.57 Z-1.5 I-0.059 J0.294
G1 Y55.278
X8.993 Y55.428
X8.954 Y55.573
X8.893 Y55.71
X8.812 Y55.837
X8.717 Y55.952
X8.608 Y56.056
X8.489 Y56.148
X8.361 Y56.226
X8.225 Y56.289
X8.084 Y56.338
X7.937 Y56.371
X7.788 Y56.388
X7.638 Y56.39
X7.63 Y56.389
X7.431 Y56.339
X7.255 Y56.233
X7.118 Y56.081
X7.03 Y55.896
X7. Y55.693
Y54.992
G3 X7.31 Y54.702 Z-1.3 I0.3 J0.01
G1 X7.36 Y54.708
X7.579 Y54.753
X8.423 Y54.926
X8.691 Y54.981
X8.76 Y54.995 Z-1.33
G3 X9. Y55.278 Z-1.5 I-0.06 J0.294
G1 Y55.987
X8.993 Y56.137
X8.953 Y56.282
X8.89 Y56.418
X8.809 Y56.544
X8.712 Y56.659
X8.603 Y56.762
X8.484 Y56.853
X8.355 Y56.93
X8.219 Y56.992
X8.077 Y57.041
X7.931 Y57.073
X7.781 Y57.09
X7.631 Y57.091
X7.626 Y57.09
X7.428 Y57.039
X7.254 Y56.933
X7.117 Y56.781
X7.03 Y56.596
X7. Y56.394
Y55.693
G3 X7.31 Y55.403 Z-1.3 I0.3 J0.01
G1 X7.362 Y55.41
X7.579 Y55.455
X8.423 Y55.633
X8.691 Y55.689
X8.762 Y55.704 Z-1.331
G3 X9. Y55.987 Z-1.5 I-0.062 J0.294
G1 Y56.661
X8.993 Y56.811
X8.958 Y56.957
X8.899 Y57.095
X8.822 Y57.223
X8.728 Y57.34
X8.621 Y57.446
X8.503 Y57.538
X8.376 Y57.618
X8.241 Y57.683
X8.1 Y57.734
X7.954 Y57.77
X7.806 Y57.788
X7.656 Y57.792
X7.64 Y57.791
X7.439 Y57.743
X7.26 Y57.638
X7.12 Y57.485
X7.031 Y57.298
X7. Y57.094
Y56.394
G3 X7.31 Y56.105 Z-1.3 I0.3 J0.01
G1 X7.356 Y56.11
X7.579 Y56.153
X8.422 Y56.313
X8.691 Y56.364
X8.756 Y56.377 Z-1.328
G3 X9. Y56.661 Z-1.5 I-0.056 J0.295
G1 Y57.37
X8.993 Y57.52
X8.956 Y57.665
X8.896 Y57.803
X8.817 Y57.93
X8.723 Y58.047
X8.615 Y58.151
X8.497 Y58.244
X8.37 Y58.323
X8.234 Y58.386
X8.093 Y58.437
X7.946 Y58.471
X7.798 Y58.489
X7.648 Y58.492
X7.635 Y58.491
X7.435 Y58.442
X7.258 Y58.336
X7.119 Y58.184
X7.03 Y57.998
X7. Y57.794
Y57.094
G3 X7.31 Y56.804 Z-1.3 I0.3 J0.01
G1 X7.358 Y56.81
X7.579 Y56.853
X8.422 Y57.02
X8.691 Y57.073
X8.758 Y57.086 Z-1.329
G3 X9. Y57.37 Z-1.5 I-0.058 J0.294
G1 Y58.078
X8.993 Y58.228
X8.954 Y58.373
X8.893 Y58.51
X8.813 Y58.637
X8.718 Y58.753
X8.61 Y58.857
X8.491 Y58.949
X8.363 Y59.027
X8.227 Y59.09
X8.085 Y59.139
X7.939 Y59.173
X7.79 Y59.19
X7.64 Y59.192
X7.631 Y59.191
X7.432 Y59.141
X7.256 Y59.036
X7.118 Y58.883
X7.03 Y58.698
X7. Y58.495
Y57.794
G3 X7.31 Y57.504 Z-1.3 I0.3 J0.01
G1 X7.36 Y57.51
X7.579 Y57.555
X8.423 Y57.726
X8.691 Y57.781
X8.76 Y57.795 Z-1.33
G3 X9. Y58.078 Z-1.5 I-0.06 J0.294
G1 Y58.744
X8.993 Y58.894
X8.961 Y59.041
X8.905 Y59.18
X8.83 Y59.31
X8.738 Y59.428
X8.632 Y59.535
X8.516 Y59.629
X8.39 Y59.711
X8.255 Y59.777
X8.115 Y59.83
X7.97 Y59.867
X7.821 Y59.887
X7.671 Y59.893
X7.649 Y59.891
X7.445 Y59.845
X7.264 Y59.741
X7.122 Y59.588
X7.031 Y59.4
X7. Y59.193
Y58.495
G3 X7.31 Y58.205 Z-1.3 I0.3 J0.01
G1 X7.352 Y58.21
X7.58 Y58.25
X8.421 Y58.4
X8.691 Y58.448
X8.753 Y58.46 Z-1.327
G3 X9. Y58.744 Z-1.5 I-0.053 J0.295
G1 Y59.453
X8.993 Y59.603
X8.959 Y59.749
X8.902 Y59.888
X8.825 Y60.017
X8.732 Y60.134
X8.626 Y60.24
X8.509 Y60.334
X8.382 Y60.414
X8.247 Y60.48
X8.106 Y60.532
X7.961 Y60.568
X7.812 Y60.587
X7.742 Y60.589
X7.548 Y60.568
X7.366 Y60.493
X7.213 Y60.371
X7.099 Y60.211
X7.035 Y60.026
G3 X7.225 Y59.697 Z-1.325 I0.296 J-0.048
G1 X7.281 Y59.676 Z-1.3
X7.537 Y59.58
X8.43 Y59.245
X8.595 Y59.183
X8.642 Y59.169
X8.69 Y59.164
G3 X9. Y59.453 Z-1.5 I0.01 J0.3
G1 Y59.808
X8.999 Y59.843
X8.995 Y59.878
X8.91 Y60.304
X8.902 Y60.339
X8.889 Y60.375
X8.847 Y60.445
X8.753 Y60.587
X8.712 Y60.646
X8.686 Y60.675
X8.655 Y60.705
X8.622 Y60.729
X8.409 Y60.871
X8.372 Y60.888
X8.337 Y60.902
X8.302 Y60.911
X8.089 Y60.953
X8.018 Y60.963
X7.983 Y60.964
X7.948 Y60.96
X7.806 Y60.932
X7.664 Y60.903
X7.628 Y60.89
X7.591 Y60.871
X7.523 Y60.826
X7.378 Y60.729
X7.337 Y60.698
X7.297 Y60.658
X7.24 Y60.576
X7.153 Y60.445
X7.12 Y60.392
X7.107 Y60.366
X7.098 Y60.339
X7.09 Y60.304
X7.005 Y59.878
X7.001 Y59.843
X7. Y59.808
Y59.193
G3 X7.299 Y58.904 I0.3 J0.01
G1 X7.3
X7.324 Y58.905
X7.374 Y58.922 Z-1.495
X7.423 Y58.939 Z-1.481
X7.468 Y58.955 Z-1.458
X7.501 Y58.992 Z-1.421
X7.528 Y59.022 Z-1.374
X7.548 Y59.044 Z-1.32
X7.56 Y59.058 Z-1.262
X7.565 Y59.063 Z-1.2
Z5.
X7.896 Y30.824
Z0.5
S2000
G3 X7.657 Y30.112 Z0.469 I0.104 J-0.431 F75.
X8.401 Y30.206 Z0.438 I0.342 J0.28
X7.995 Y30.834 Z0.406 I-0.401 J0.187
X7.605 Y30.196 Z0.375 I0.005 J-0.441
X8.348 Y30.122 Z0.344 I0.395 J0.196
X8.093 Y30.823 Z0.313 I-0.348 J0.27
X7.572 Y30.29 Z0.281 I-0.093 J-0.43
X8.277 Y30.052 Z0.25 I0.427 J0.103
X8.186 Y30.79 Z0.219 I-0.278 J0.34
X7.562 Y30.388 Z0.188 I-0.186 J-0.397
X8.194 Y30.001 Z0.156 I0.438 J0.005
X8.269 Y30.737 Z0.125 I-0.194 J0.392
X7.574 Y30.485 Z0.094 I-0.268 J-0.344
X8.101 Y29.969 Z0.063 I0.426 J-0.092
X8.337 Y30.667 Z0.031 I-0.101 J0.424
X7.606 Y30.577 Z0. I-0.337 J-0.275
X8.004 Y29.958 Z-0.031 I0.393 J-0.184
X8.389 Y30.584 Z-0.063 I-0.004 J0.434
X7.659 Y30.659 Z-0.094 I-0.389 J-0.192
X7.908 Y29.97 Z-0.125 I0.341 J-0.266
X8.42 Y30.493 Z-0.156 I0.092 J0.422
X7.728 Y30.727 Z-0.188 I-0.42 J-0.1
X7.816 Y30.003 Z-0.219 I0.272 J-0.335
X8.43 Y30.396 Z-0.25 I0.183 J0.39
X7.81 Y30.778 Z-0.281 I-0.43 J-0.004
X7.735 Y30.055 Z-0.313 I0.19 J-0.385
X8.419 Y30.301 Z-0.344 I0.265 J0.338
X7.901 Y30.809 Z-0.375 I-0.418 J0.092
X7.668 Y30.123 Z-0.406 I0.099 J-0.416
X8.386 Y30.21 Z-0.438 I0.332 J0.269
X7.997 Y30.819 Z-0.469 I-0.386 J0.182
X7.617 Y30.205 Z-0.5 I0.003 J-0.426
X8.334 Y30.13 Z-0.531 I0.382 J0.188
X8.092 Y30.807 Z-0.563 I-0.334 J0.263
X7.587 Y30.295 Z-0.594 I-0.091 J-0.415
X8.266 Y30.063 Z-0.625 I0.413 J0.097
X8.181 Y30.775 Z-0.656 I-0.266 J0.329
X7.577 Y30.39 Z-0.688 I-0.181 J-0.382
X8.185 Y30.013 Z-0.719 I0.422 J0.003
X8.261 Y30.724 Z-0.75 I-0.186 J0.379
X7.589 Y30.484 Z-0.781 I-0.261 J-0.331
X8.096 Y29.983 Z-0.813 I0.411 J-0.091
X8.327 Y30.656 Z-0.844 I-0.096 J0.409
X7.621 Y30.573 Z-0.875 I-0.327 J-0.264
X8.002 Y29.974 Z-0.906 I0.379 J-0.18
X8.376 Y30.576 Z-0.938 I-0.002 J0.419
X7.672 Y30.651 Z-0.969 I-0.376 J-0.183
X7.909 Y29.985 Z-1. I0.328 J-0.259
X8.406 Y30.487 Z-1.031 I0.091 J0.407
X7.739 Y30.717 Z-1.063 I-0.406 J-0.095
X7.821 Y30.017 Z-1.094 I0.261 J-0.324
X8.415 Y30.394 Z-1.125 I0.178 J0.375
X7.819 Y30.765 Z-1.156 I-0.415 J-0.002
X7.743 Y30.068 Z-1.188 I0.181 J-0.372
X8.403 Y30.302 Z-1.219 I0.257 J0.325
X7.907 Y30.795 Z-1.25 I-0.403 J0.09
X7.678 Y30.134 Z-1.281 I0.093 J-0.402
X8.371 Y30.215 Z-1.313 I0.321 J0.258
X7.999 Y30.804 Z-1.344 I-0.371 J0.177
X7.63 Y30.213 Z-1.375 I0.001 J-0.411
X8.321 Y30.138 Z-1.406 I0.369 J0.179
X8.09 Y30.792 Z-1.438 I-0.321 J0.255
X7.601 Y30.301 Z-1.469 I-0.09 J-0.399
X8.255 Y30.074 Z-1.5 I0.398 J0.092
X8.176 Y30.76 Z-1.531 I-0.255 J0.319
X7.592 Y30.392 Z-1.563 I-0.176 J-0.368
X8.177 Y30.026 Z-1.594 I0.407 J0.001
X8.253 Y30.711 Z-1.625 I-0.177 J0.366
X7.604 Y30.482 Z-1.656 I-0.253 J-0.318
X8.091 Y29.998 Z-1.688 I0.395 J-0.09
X8.316 Y30.645 Z-1.719 I-0.091 J0.395
X7.636 Y30.568 Z-1.75 I-0.316 J-0.253
X8. Y29.989 Z-1.781 I0.364 J-0.175
X8.363 Y30.568 Z-1.813 I0. J0.403
X7.685 Y30.643 Z-1.844 I-0.363 J-0.175
X7.911 Y30.001 Z-1.875 I0.315 J-0.251
X8.391 Y30.482 Z-1.906 I0.089 J0.392
X7.75 Y30.706 Z-1.938 I-0.391 J-0.089
X7.826 Y30.032 Z-1.969 I0.25 J-0.313
X8.4 Y30.392 Z-2. I0.174 J0.36
X7.6 I-0.4 J0.
X8.4 I0.4 J0.
S9000
G1 X8.442 Y30.643 F100.
X8.456 Y30.793
X8.405 Y30.934
X8.312 Y31.052
X8.191 Y31.14
X8.052 Y31.196
X7.903 Y31.22
X7.754 Y31.213
X7.608 Y31.177
X7.472 Y31.113
X7.35 Y31.026
X7.246 Y30.918
X7.162 Y30.794
X7.1 Y30.657
X7.062 Y30.512
X7.048 Y30.363
X7.059 Y30.213
X7.094 Y30.067
X7.152 Y29.929
X7.231 Y29.801
X7.329 Y29.688
X7.443 Y29.591
X7.571 Y29.513
X7.71 Y29.456
X7.856 Y29.421
X8.005 Y29.409
X8.155 Y29.42
X8.301 Y29.454
X8.44 Y29.51
X8.57 Y29.586
X8.686 Y29.68
X8.792 Y29.786
X8.842 Y29.847
X8.928 Y29.982
X8.982 Y30.132
X9. Y30.29
Y30.754
X8.993 Y30.904
X8.963 Y31.051
X8.912 Y31.192
X8.841 Y31.325
X8.753 Y31.446
X8.65 Y31.555
X8.533 Y31.649
X8.406 Y31.729
X8.27 Y31.792
X8.127 Y31.838
X7.98 Y31.868
X7.831 Y31.881
X7.681 Y31.878
X7.606 Y31.867
X7.414 Y31.813
X7.244 Y31.705
X7.112 Y31.554
X7.029 Y31.372
X7. Y31.174
Y30.18
X7.008 Y30.109
X7.092 Y29.684
X7.098 Y29.661
X7.109 Y29.631
X7.123 Y29.602
X7.161 Y29.542
X7.256 Y29.401
X7.303 Y29.335
X7.342 Y29.297
X7.381 Y29.269
X7.523 Y29.174
X7.613 Y29.117
X7.639 Y29.106
X7.664 Y29.097
X7.806 Y29.068
X7.948 Y29.04
X7.983 Y29.036
X8.018 Y29.037
X8.089 Y29.047
X8.302 Y29.089
X8.337 Y29.098
X8.372 Y29.111
X8.386 Y29.117
X8.514 Y29.198
X8.604 Y29.259
X8.655 Y29.295
X8.707 Y29.348
X8.744 Y29.401
X8.839 Y29.542
X8.883 Y29.613
X8.898 Y29.649
X8.908 Y29.684
X8.992 Y30.109
X9. Y30.18
Y30.29
G3 X8.7 Y30.59 Z-1.8 I-0.3 J0.
G1 X8.636 Y30.583
X8.574 Y30.563
X8.518 Y30.529
X8.456 Y30.482
X8.339 Y30.393
G3 X8.702 Y29.915 I0.182 J-0.239
X8.779 Y30.001 I-0.182 J0.239
X8.914 Y30.293 I-1.36 J0.809
X9. Y30.754 Z-2. I-1.496 J0.517
G1 Y31.498
X8.993 Y31.648
X8.955 Y31.793
X8.893 Y31.93
X8.811 Y32.056
X8.713 Y32.169
X8.602 Y32.27
X8.481 Y32.358
X8.35 Y32.432
X8.213 Y32.492
X8.07 Y32.537
X7.923 Y32.567
X7.773 Y32.581
X7.619 Y32.58
X7.423 Y32.527
X7.25 Y32.421
X7.115 Y32.269
X7.029 Y32.085
X7. Y31.884
Y31.174
G3 X7.31 Y30.884 Z-1.8 I0.3 J0.01
G1 X7.368 Y30.892
X7.578 Y30.941
X8.425 Y31.137
X8.691 Y31.199
X8.768 Y31.216 Z-1.833
G3 X9. Y31.498 Z-2. I-0.068 J0.292
G1 Y32.172
X8.993 Y32.322
X8.955 Y32.467
X8.895 Y32.604
X8.815 Y32.731
X8.719 Y32.847
X8.611 Y32.95
X8.491 Y33.041
X8.363 Y33.119
X8.227 Y33.182
X8.085 Y33.231
X7.939 Y33.265
X7.79 Y33.282
X7.64 Y33.284
X7.631 Y33.283
X7.432 Y33.233
X7.256 Y33.127
X7.118 Y32.975
X7.03 Y32.789
X7. Y32.586
Y31.884
G3 X7.31 Y31.595 Z-1.8 I0.3 J0.01
G1 X7.36 Y31.601
X7.579 Y31.646
X8.423 Y31.819
X8.691 Y31.874
X8.761 Y31.889 Z-1.83
G3 X9. Y32.172 Z-2. I-0.06 J0.294
G1 Y32.881
X8.993 Y33.031
X8.953 Y33.175
X8.89 Y33.312
X8.809 Y33.438
X8.713 Y33.553
X8.604 Y33.656
X8.484 Y33.746
X8.356 Y33.824
X8.219 Y33.886
X8.077 Y33.934
X7.931 Y33.967
X7.782 Y33.983
X7.632 Y33.984
X7.626
X7.428 Y33.933
X7.254 Y33.827
X7.117 Y33.675
X7.03 Y33.49
X7. Y33.288
Y32.586
G3 X7.31 Y32.297 Z-1.8 I0.3 J0.01
G1 X7.362 Y32.303
X7.579 Y32.349
X8.423 Y32.526
X8.691 Y32.583
X8.762 Y32.598 Z-1.831
G3 X9. Y32.881 Z-2. I-0.062 J0.294
G1 Y33.554
X8.993 Y33.704
X8.958 Y33.85
X8.899 Y33.988
X8.822 Y34.117
X8.728 Y34.234
X8.621 Y34.339
X8.503 Y34.432
X8.377 Y34.512
X8.241 Y34.577
X8.1 Y34.628
X7.954 Y34.663
X7.806 Y34.682
X7.656 Y34.686
X7.64 Y34.685
X7.439 Y34.637
X7.26 Y34.532
X7.12 Y34.379
X7.031 Y34.192
X7. Y33.987
Y33.288
G3 X7.31 Y32.998 Z-1.8 I0.3 J0.01
G1 X7.356 Y33.004
X7.579 Y33.046
X8.422 Y33.207
X8.691 Y33.258
X8.756 Y33.27 Z-1.828
G3 X9. Y33.554 Z-2. I-0.056 J0.295
G1 Y34.263
X8.993 Y34.413
X8.956 Y34.559
X8.896 Y34.696
X8.817 Y34.824
X8.723 Y34.94
X8.615 Y35.045
X8.497 Y35.137
X8.37 Y35.216
X8.234 Y35.28
X8.093 Y35.33
X7.947 Y35.365
X7.798 Y35.383
X7.648 Y35.386
X7.635 Y35.384
X7.435 Y35.335
X7.258 Y35.23
X7.119 Y35.078
X7.03 Y34.891
X7. Y34.687
Y33.987
G3 X7.31 Y33.698 Z-1.8 I0.3 J0.01
G1 X7.358 Y33.703
X7.579 Y33.747
X8.422 Y33.913
X8.691 Y33.966
X8.758 Y33.979 Z-1.829
G3 X9. Y34.263 Z-2. I-0.058 J0.294
G1 Y34.972
X8.993 Y35.122
X8.954 Y35.267
X8.893 Y35.404
X8.813 Y35.531
X8.718 Y35.647
X8.61 Y35.75
X8.491 Y35.842
X8.363 Y35.92
X8.227 Y35.984
X8.085 Y36.033
X7.939 Y36.066
X7.79 Y36.084
X7.64 Y36.086
X7.631 Y36.085
X7.432 Y36.035
X7.256 Y35.929
X7.118 Y35.777
X7.03 Y35.591
X7. Y35.388
Y34.687
G3 X7.31 Y34.398 Z-1.8 I0.3 J0.01
G1 X7.36 Y34.404
X7.579 Y34.448
X8.423 Y34.62
X8.691 Y34.674
X8.76 Y34.688 Z-1.83
G3 X9. Y34.972 Z-2. I-0.06 J0.294
G1 Y35.638
X8.993 Y35.788
X8.961 Y35.934
X8.905 Y36.074
X8.83 Y36.203
X8.738 Y36.322
X8.633 Y36.429
X8.516 Y36.523
X8.39 Y36.604
X8.255 Y36.671
X8.115 Y36.723
X7.97 Y36.761
X7.821 Y36.781
X7.671 Y36.786
X7.649 Y36.785
X7.445 Y36.739
X7.264 Y36.634
X7.122 Y36.481
X7.031 Y36.293
X7. Y36.087
Y35.388
G3 X7.31 Y35.099 Z-1.8 I0.3 J0.01
G1 X7.352 Y35.103
X7.58 Y35.144
X8.421 Y35.294
X8.691 Y35.342
X8.753 Y35.353 Z-1.827
G3 X9. Y35.638 Z-2. I-0.053 J0.295
G1 Y36.347
X8.993 Y36.497
X8.959 Y36.643
X8.902 Y36.781
X8.825 Y36.91
X8.732 Y37.028
X8.626 Y37.134
X8.509 Y37.228
X8.382 Y37.308
X8.247 Y37.373
X8.106 Y37.425
X7.961 Y37.461
X7.812 Y37.481
X7.662 Y37.485
X7.643 Y37.484
X7.44 Y37.436
X7.261 Y37.331
X7.12 Y37.179
X7.031 Y36.991
X7. Y36.786
Y36.087
G3 X7.31 Y35.797 Z-1.8 I0.3 J0.01
G1 X7.355 Y35.802
X7.58 Y35.844
X8.422 Y36.
X8.691 Y36.05
X8.755 Y36.062 Z-1.828
G3 X9. Y36.347 Z-2. I-0.055 J0.295
G1 Y37.055
X8.993 Y37.205
X8.957 Y37.351
X8.899 Y37.489
X8.821 Y37.617
X8.727 Y37.734
X8.62 Y37.839
X8.502 Y37.932
X8.375 Y38.012
X8.239 Y38.076
X8.098 Y38.127
X7.952 Y38.162
X7.804 Y38.181
X7.654 Y38.184
X7.638 Y38.183
X7.437 Y38.135
X7.259 Y38.03
X7.119 Y37.877
X7.031 Y37.69
X7. Y37.486
Y36.786
G3 X7.31 Y36.497 Z-1.8 I0.3 J0.01
G1 X7.357 Y36.502
X7.579 Y36.545
X8.422 Y36.707
X8.691 Y36.759
X8.757 Y36.771 Z-1.829
G3 X9. Y37.055 Z-2. I-0.057 J0.295
G1 Y37.764
X8.993 Y37.914
X8.956 Y38.059
X8.896 Y38.197
X8.816 Y38.324
X8.722 Y38.441
X8.614 Y38.545
X8.496 Y38.637
X8.368 Y38.716
X8.232 Y38.78
X8.091 Y38.83
X7.945 Y38.864
X7.796 Y38.882
X7.646 Y38.884
X7.634 Y38.883
X7.434 Y38.834
X7.257 Y38.728
X7.119 Y38.576
X7.03 Y38.39
X7. Y38.186
Y37.486
G3 X7.31 Y37.197 Z-1.8 I0.3 J0.01
G1 X7.358 Y37.202
X7.579 Y37.246
X8.422 Y37.414
X8.691 Y37.467
X8.759 Y37.481 Z-1.829
G3 X9. Y37.764 Z-2. I-0.059 J0.294
G1 Y38.473
X8.993 Y38.623
X8.954 Y38.768
X8.893 Y38.905
X8.812 Y39.031
X8.717 Y39.147
X8.608 Y39.251
X8.489 Y39.342
X8.361 Y39.42
X8.225 Y39.483
X8.084 Y39.532
X7.937 Y39.566
X7.788 Y39.583
X7.638 Y39.585
X7.63 Y39.584
X7.431 Y39.534
X7.255 Y39.428
X7.118 Y39.276
X7.03 Y39.09
X7. Y38.887
Y38.186
G3 X7.31 Y37.897 Z-1.8 I0.3 J0.01
G1 X7.36 Y37.903
X7.579 Y37.948
X8.423 Y38.121
X8.691 Y38.175
X8.76 Y38.19 Z-1.83
G3 X9. Y38.473 Z-2. I-0.06 J0.294
G1 Y39.182
X8.993 Y39.332
X8.953 Y39.476
X8.89 Y39.613
X8.809 Y39.739
X8.712 Y39.854
X8.603 Y39.957
X8.484 Y40.047
X8.355 Y40.125
X8.219 Y40.187
X8.077 Y40.236
X7.931 Y40.268
X7.781 Y40.284
X7.631 Y40.285
X7.626
X7.428 Y40.234
X7.254 Y40.128
X7.117 Y39.976
X7.03 Y39.791
X7. Y39.589
Y38.887
G3 X7.31 Y38.598 Z-1.8 I0.3 J0.01
G1 X7.362 Y38.604
X7.579 Y38.65
X8.423 Y38.827
X8.691 Y38.884
X8.762 Y38.899 Z-1.831
G3 X9. Y39.182 Z-2. I-0.062 J0.294
G1 Y39.862
X8.993 Y40.012
X8.957 Y40.157
X8.897 Y40.295
X8.818 Y40.423
X8.724 Y40.54
X8.617 Y40.644
X8.499 Y40.737
X8.371 Y40.816
X8.236 Y40.88
X8.095 Y40.931
X7.949 Y40.966
X7.8 Y40.984
X7.65 Y40.987
X7.637 Y40.986
X7.436 Y40.937
X7.259 Y40.832
X7.119 Y40.679
X7.03 Y40.493
X7. Y40.289
Y39.589
G3 X7.31 Y39.299 Z-1.8 I0.3 J0.01
G1 X7.357 Y39.305
X7.579 Y39.348
X8.422 Y39.513
X8.691 Y39.565
X8.758 Y39.578 Z-1.829
G3 X9. Y39.862 Z-2. I-0.057 J0.294
G1 Y40.536
X8.993 Y40.685
X8.962 Y40.832
X8.906 Y40.972
X8.831 Y41.101
X8.739 Y41.22
X8.634 Y41.327
X8.518 Y41.422
X8.392 Y41.503
X8.258 Y41.57
X8.117 Y41.623
X7.972 Y41.66
X7.823 Y41.681
X7.674 Y41.687
X7.65 Y41.685
X7.446 Y41.639
X7.265 Y41.535
X7.122 Y41.382
X7.031 Y41.194
X7. Y40.987
Y40.289
G3 X7.31 Y39.999 Z-1.8 I0.3 J0.01
G1 X7.352 Y40.004
X7.58 Y40.044
X8.421 Y40.192
X8.691 Y40.24
X8.752 Y40.251 Z-1.827
G3 X9. Y40.536 Z-2. I-0.052 J0.295
G1 Y41.244
X8.993 Y41.394
X8.96 Y41.541
X8.903 Y41.679
X8.826 Y41.808
X8.734 Y41.926
X8.628 Y42.033
X8.511 Y42.126
X8.384 Y42.207
X8.249 Y42.273
X8.109 Y42.325
X7.963 Y42.361
X7.814 Y42.381
X7.664 Y42.386
X7.644 Y42.384
X7.441 Y42.337
X7.262 Y42.232
X7.121 Y42.079
X7.031 Y41.892
X7. Y41.686
Y40.987
G3 X7.31 Y40.698 Z-1.8 I0.3 J0.01
G1 X7.354 Y40.702
X7.58 Y40.744
X8.422 Y40.899
X8.691 Y40.948
X8.754 Y40.96 Z-1.828
G3 X9. Y41.244 Z-2. I-0.054 J0.295
G1 Y41.953
X8.993 Y42.103
X8.958 Y42.249
X8.899 Y42.387
X8.822 Y42.515
X8.728 Y42.633
X8.621 Y42.738
X8.504 Y42.831
X8.377 Y42.911
X8.241 Y42.976
X8.1 Y43.027
X7.955 Y43.062
X7.806 Y43.081
X7.656 Y43.085
X7.639 Y43.083
X7.438 Y43.035
X7.26 Y42.93
X7.12 Y42.777
X7.031 Y42.591
X7. Y42.386
Y41.686
G3 X7.31 Y41.397 Z-1.8 I0.3 J0.01
G1 X7.356 Y41.402
X7.579 Y41.445
X8.422 Y41.605
X8.691 Y41.656
X8.756 Y41.669 Z-1.828
G3 X9. Y41.953 Z-2. I-0.056 J0.295
G1 Y42.662
X8.993 Y42.812
X8.956 Y42.957
X8.896 Y43.095
X8.817 Y43.222
X8.723 Y43.339
X8.615 Y43.444
X8.497 Y43.536
X8.37 Y43.615
X8.234 Y43.679
X8.093 Y43.729
X7.947 Y43.763
X7.798 Y43.781
X7.648 Y43.784
X7.635 Y43.783
X7.435 Y43.734
X7.258 Y43.629
X7.119 Y43.476
X7.03 Y43.29
X7. Y43.086
Y42.386
G3 X7.31 Y42.096 Z-1.8 I0.3 J0.01
G1 X7.358 Y42.102
X7.579 Y42.146
X8.422 Y42.312
X8.691 Y42.365
X8.758 Y42.378 Z-1.829
G3 X9. Y42.662 Z-2. I-0.058 J0.294
G1 Y43.371
X8.993 Y43.521
X8.954 Y43.666
X8.893 Y43.803
X8.813 Y43.93
X8.718 Y44.045
X8.61 Y44.149
X8.491 Y44.241
X8.363 Y44.319
X8.227 Y44.382
X8.085 Y44.432
X7.939 Y44.465
X7.79 Y44.482
X7.64 Y44.484
X7.631
X7.432 Y44.434
X7.256 Y44.328
X7.118 Y44.176
X7.03 Y43.99
X7. Y43.787
Y43.086
G3 X7.31 Y42.797 Z-1.8 I0.3 J0.01
G1 X7.36 Y42.803
X7.579 Y42.847
X8.423 Y43.019
X8.691 Y43.073
X8.76 Y43.087 Z-1.83
G3 X9. Y43.371 Z-2. I-0.06 J0.294
G1 Y44.08
X8.993 Y44.229
X8.953 Y44.374
X8.891 Y44.511
X8.81 Y44.637
X8.713 Y44.752
X8.605 Y44.855
X8.485 Y44.946
X8.357 Y45.024
X8.221 Y45.086
X8.079 Y45.135
X7.932 Y45.167
X7.783 Y45.184
X7.633 Y45.185
X7.627
X7.429 Y45.134
X7.254 Y45.028
X7.117 Y44.876
X7.03 Y44.691
X7. Y44.488
Y43.787
G3 X7.31 Y43.498 Z-1.8 I0.3 J0.01
G1 X7.361 Y43.504
X7.579 Y43.549
X8.423 Y43.726
X8.691 Y43.782
X8.762 Y43.796 Z-1.831
G3 X9. Y44.08 Z-2. I-0.061 J0.294
G1 Y44.788
X8.993 Y44.938
X8.952 Y45.082
X8.888 Y45.218
X8.806 Y45.344
X8.709 Y45.459
X8.6 Y45.561
X8.48 Y45.651
X8.351 Y45.728
X8.215 Y45.79
X8.072 Y45.838
X7.926 Y45.87
X7.777 Y45.886
X7.624
X7.427 Y45.835
X7.252 Y45.729
X7.116 Y45.577
X7.03 Y45.392
X7. Y45.19
Y44.488
G3 X7.31 Y44.199 Z-1.8 I0.3 J0.01
G1 X7.363 Y44.205
X7.578 Y44.252
X8.423 Y44.433
X8.691 Y44.49
X8.763 Y44.505 Z-1.831
G3 X9. Y44.788 Z-2. I-0.063 J0.293
G1 Y45.462
X8.993 Y45.612
X8.957 Y45.758
X8.898 Y45.895
X8.819 Y46.023
X8.725 Y46.14
X8.618 Y46.245
X8.5 Y46.337
X8.372 Y46.417
X8.237 Y46.481
X8.096 Y46.532
X7.95 Y46.567
X7.801 Y46.585
X7.651 Y46.588
X7.638 Y46.587
X7.437 Y46.539
X7.259 Y46.434
X7.119 Y46.281
X7.031 Y46.094
X7. Y45.89
Y45.19
G3 X7.31 Y44.901 Z-1.8 I0.3 J0.01
G1 X7.357 Y44.906
X7.579 Y44.949
X8.422 Y45.113
X8.691 Y45.165
X8.757 Y45.178 Z-1.829
G3 X9. Y45.462 Z-2. I-0.057 J0.295
G1 Y46.171
X8.993 Y46.321
X8.955 Y46.466
X8.895 Y46.603
X8.815 Y46.73
X8.72 Y46.846
X8.612 Y46.951
X8.494 Y47.043
X8.366 Y47.121
X8.23 Y47.185
X8.088 Y47.234
X7.942 Y47.268
X7.793 Y47.286
X7.643 Y47.288
X7.633 Y47.287
X7.433 Y47.238
X7.256 Y47.132
X7.118 Y46.98
X7.03 Y46.794
X7. Y46.591
Y45.89
G3 X7.31 Y45.601 Z-1.8 I0.3 J0.01
G1 X7.359 Y45.606
X7.579 Y45.65
X8.423 Y45.82
X8.691 Y45.873
X8.759 Y45.887 Z-1.83
G3 X9. Y46.171 Z-2. I-0.059 J0.294
G1 Y46.88
X8.993 Y47.029
X8.954 Y47.174
X8.892 Y47.311
X8.811 Y47.438
X8.715 Y47.553
X8.607 Y47.656
X8.488 Y47.748
X8.36 Y47.826
X8.223 Y47.888
X8.082 Y47.937
X7.935 Y47.97
X7.786 Y47.987
X7.636 Y47.989
X7.629 Y47.988
X7.43 Y47.938
X7.255 Y47.832
X7.117 Y47.68
X7.03 Y47.494
X7. Y47.292
Y46.591
G3 X7.31 Y46.301 Z-1.8 I0.3 J0.01
G1 X7.36 Y46.307
X7.579 Y46.352
X8.423 Y46.527
X8.691 Y46.582
X8.761 Y46.596 Z-1.83
G3 X9. Y46.88 Z-2. I-0.061 J0.294
G1 Y47.546
X8.993 Y47.695
X8.96 Y47.842
X8.904 Y47.981
X8.828 Y48.11
X8.735 Y48.228
X8.63 Y48.335
X8.513 Y48.429
X8.387 Y48.51
X8.252 Y48.576
X8.111 Y48.628
X7.966 Y48.665
X7.817 Y48.685
X7.667 Y48.69
X7.647 Y48.688
X7.444 Y48.642
X7.263 Y48.537
X7.121 Y48.384
X7.031 Y48.196
X7. Y47.99
Y47.292
G3 X7.31 Y47.002 Z-1.8 I0.3 J0.01
G1 X7.353 Y47.007
X7.58 Y47.048
X8.421 Y47.201
X8.691 Y47.249
X8.754 Y47.261 Z-1.827
G3 X9. Y47.546 Z-2. I-0.054 J0.295
G1 Y48.254
X8.993 Y48.404
X8.958 Y48.55
X8.9 Y48.689
X8.823 Y48.817
X8.73 Y48.935
X8.623 Y49.04
X8.506 Y49.134
X8.379 Y49.214
X8.244 Y49.279
X8.103 Y49.33
X7.957 Y49.366
X7.808 Y49.385
X7.659 Y49.389
X7.641 Y49.387
X7.439 Y49.339
X7.26 Y49.234
X7.12 Y49.082
X7.031 Y48.895
X7. Y48.69
Y47.99
G3 X7.31 Y47.701 Z-1.8 I0.3 J0.01
G1 X7.355 Y47.706
X7.579 Y47.748
X8.422 Y47.907
X8.691 Y47.958
X8.756 Y47.97 Z-1.828
G3 X9. Y48.254 Z-2. I-0.056 J0.295
G1 Y48.963
X8.993 Y49.113
X8.957 Y49.259
X8.897 Y49.396
X8.819 Y49.524
X8.724 Y49.641
X8.617 Y49.746
X8.499 Y49.838
X8.372 Y49.918
X8.236 Y49.982
X8.095 Y50.032
X7.949 Y50.067
X7.8 Y50.085
X7.65 Y50.088
X7.636 Y50.087
X7.436 Y50.038
X7.258 Y49.933
X7.119 Y49.78
X7.03 Y49.594
X7. Y49.39
Y48.69
G3 X7.31 Y48.4 Z-1.8 I0.3 J0.01
G1 X7.357 Y48.406
X7.579 Y48.449
X8.422 Y48.614
X8.691 Y48.666
X8.758 Y48.679 Z-1.829
G3 X9. Y48.963 Z-2. I-0.057 J0.294
G1 Y49.672
X8.993 Y49.822
X8.955 Y49.967
X8.894 Y50.104
X8.815 Y50.231
X8.72 Y50.347
X8.612 Y50.451
X8.493 Y50.543
X8.365 Y50.622
X8.229 Y50.685
X8.088 Y50.735
X7.941 Y50.769
X7.793 Y50.786
X7.643 Y50.788
X7.632 Y50.787
X7.433 Y50.738
X7.256 Y50.632
X7.118 Y50.48
