(1009A)
(DRILLCLAMP)
(MACHINE)
(  VENDOR HOMEMADE)
(  DESCRIPTION GENERIC 3-AXIS)
(T2  D=3. CR=0. - ZMIN=-10.05 - FLAT END MILL)
G90 G94 G91.1 G40 G49 G17
G21
G28 G91 Z0.
G90

(DRILL4)
M5
T2 M6
S9000 M3
G54
G0 X0. Y-13.
G43 Z5. H2
Z2.
G1 Z-0.5 F30.
G0 Z5.
Z1.5
G1 Z-1. F30.
G0 Z5.
Z1.
G1 Z-1.5 F30.
G0 Z5.
Z0.5
G1 Z-2. F30.
G0 Z5.
Z0.
G1 Z-2.5 F30.
G0 Z5.
Z-0.5
G1 Z-3. F30.
G0 Z5.
Z-1.
G1 Z-3.5 F30.
G0 Z5.
Z-1.5
G1 Z-4. F30.
G0 Z5.
Z-2.
G1 Z-4.5 F30.
G0 Z5.
Z-2.5
G1 Z-5. F30.
G0 Z5.
Z-3.
G1 Z-5.5 F30.
G0 Z5.
Z-3.5
G1 Z-5.8 F30.
G4 P0.2
G0 Z5.
Y-1.
Z2.
G1 Z-0.5 F30.
G0 Z5.
Z1.5
G1 Z-1. F30.
G0 Z5.
Z1.
G1 Z-1.5 F30.
G0 Z5.
Z0.5
G1 Z-2. F30.
G0 Z5.
Z0.
G1 Z-2.5 F30.
G0 Z5.
Z-0.5
G1 Z-3. F30.
G0 Z5.
Z-1.
G1 Z-3.5 F30.
G0 Z5.
Z-1.5
G1 Z-4. F30.
G0 Z5.
Z-2.
G1 Z-4.5 F30.
G0 Z5.
Z-2.5
G1 Z-5. F30.
G0 Z5.
Z-3.
G1 Z-5.5 F30.
G0 Z5.
Z-3.5
G1 Z-5.8 F30.
G4 P0.2
G0 Z5.
(WHEN USING FUSION 360 FOR PERSONAL USE, THE FEEDRATE OF)
(RAPID MOVES IS REDUCED TO MATCH THE FEEDRATE OF CUTTING)
(MOVES, WHICH CAN INCREASE MACHINING TIME. UNRESTRICTED RAPID)
(MOVES ARE AVAILABLE WITH A FUSION 360 SUBSCRIPTION.)

(BORE6)
G0 X0. Y-13.15
G1 Z5. F75.
Z1.7
Z0.
X0.15
X0.196 Y-13.143
X0.238 Y-13.121
X0.271 Y-13.088
X0.293 Y-13.046
X0.3 Y-13.
G3 X-0.3 Z-0.063 I-0.3 J0.
X0.3 Z-0.126 I0.3 J0.
X-0.3 Z-0.189 I-0.3 J0.
X0.3 Z-0.251 I0.3 J0.
X-0.3 Z-0.314 I-0.3 J0.
X0.3 Z-0.377 I0.3 J0.
X-0.3 Z-0.44 I-0.3 J0.
X0.3 Z-0.503 I0.3 J0.
X-0.3 Z-0.566 I-0.3 J0.
X0.3 Z-0.629 I0.3 J0.
X-0.3 Z-0.691 I-0.3 J0.
X0.3 Z-0.754 I0.3 J0.
X-0.3 Z-0.817 I-0.3 J0.
X0.3 Z-0.88 I0.3 J0.
X-0.3 Z-0.943 I-0.3 J0.
X0.3 Z-1.006 I0.3 J0.
X-0.3 Z-1.069 I-0.3 J0.
X0.3 Z-1.131 I0.3 J0.
X-0.3 Z-1.194 I-0.3 J0.
X0.3 Z-1.257 I0.3 J0.
X-0.3 Z-1.32 I-0.3 J0.
X0.3 Z-1.383 I0.3 J0.
X-0.3 Z-1.446 I-0.3 J0.
X0.3 Z-1.509 I0.3 J0.
X-0.3 Z-1.571 I-0.3 J0.
X0.3 Z-1.634 I0.3 J0.
X-0.3 Z-1.697 I-0.3 J0.
X0.3 Z-1.76 I0.3 J0.
X-0.3 Z-1.823 I-0.3 J0.
X0.3 Z-1.886 I0.3 J0.
X-0.3 Z-1.949 I-0.3 J0.
X0.3 Z-2.011 I0.3 J0.
X-0.3 Z-2.074 I-0.3 J0.
X0.3 Z-2.137 I0.3 J0.
X-0.3 Z-2.2 I-0.3 J0.
X0.3 Z-2.263 I0.3 J0.
X-0.3 Z-2.326 I-0.3 J0.
X0.3 Z-2.389 I0.3 J0.
X-0.3 Z-2.451 I-0.3 J0.
X0.3 Z-2.514 I0.3 J0.
X-0.3 Z-2.577 I-0.3 J0.
X0.3 Z-2.64 I0.3 J0.
X-0.3 Z-2.703 I-0.3 J0.
X0.3 Z-2.766 I0.3 J0.
X-0.3 Z-2.829 I-0.3 J0.
X0.3 Z-2.891 I0.3 J0.
X-0.3 Z-2.954 I-0.3 J0.
X0.3 Z-3.017 I0.3 J0.
X-0.3 Z-3.08 I-0.3 J0.
X0.3 Z-3.143 I0.3 J0.
X-0.3 Z-3.206 I-0.3 J0.
X0.3 Z-3.269 I0.3 J0.
X-0.3 Z-3.331 I-0.3 J0.
X0.3 Z-3.394 I0.3 J0.
X-0.3 Z-3.457 I-0.3 J0.
X0.3 Z-3.52 I0.3 J0.
X-0.3 Z-3.583 I-0.3 J0.
X0.3 Z-3.646 I0.3 J0.
X-0.3 Z-3.709 I-0.3 J0.
X0.3 Z-3.771 I0.3 J0.
X-0.3 Z-3.834 I-0.3 J0.
X0.3 Z-3.897 I0.3 J0.
X-0.3 Z-3.96 I-0.3 J0.
X0.3 Z-4.023 I0.3 J0.
X-0.3 Z-4.086 I-0.3 J0.
X0.3 Z-4.149 I0.3 J0.
X-0.3 Z-4.211 I-0.3 J0.
X0.3 Z-4.274 I0.3 J0.
X-0.3 Z-4.337 I-0.3 J0.
X0.3 Z-4.4 I0.3 J0.
X-0.3 Z-4.463 I-0.3 J0.
X0.3 Z-4.526 I0.3 J0.
X-0.3 Z-4.589 I-0.3 J0.
X0.3 Z-4.651 I0.3 J0.
X-0.3 Z-4.714 I-0.3 J0.
X0.3 Z-4.777 I0.3 J0.
X-0.3 Z-4.84 I-0.3 J0.
X0.3 Z-4.903 I0.3 J0.
X-0.3 Z-4.966 I-0.3 J0.
X0.3 Z-5.029 I0.3 J0.
X-0.3 Z-5.091 I-0.3 J0.
X0.3 Z-5.154 I0.3 J0.
X-0.3 Z-5.217 I-0.3 J0.
X0.3 Z-5.28 I0.3 J0.
X-0.3 Z-5.343 I-0.3 J0.
X0.3 Z-5.406 I0.3 J0.
X-0.3 Z-5.469 I-0.3 J0.
X0.3 Z-5.531 I0.3 J0.
X-0.3 Z-5.594 I-0.3 J0.
X0.3 Z-5.657 I0.3 J0.
X-0.3 Z-5.72 I-0.3 J0.
X0.3 Z-5.783 I0.3 J0.
X0.197 Y-12.773 Z-5.8 I-0.3 J0.
X-0.197 Y-13.227 I-0.197 J-0.227
X0.197 Y-12.773 I0.197 J0.227
G1 X0.157 Y-12.749
X0.111 Y-12.737
X0.065 Y-12.741
X0.021 Y-12.758
X-0.015 Y-12.788
X-0.113 Y-12.902
Z5.
X-0.15 Y-13.3
Z-3.8
Z-5.5
G18 G2 X0.15 Z-5.8 I0.3 K0.
G1 X0.3
G17 G3 X0.6 Y-13. I0. J0.3
X-0.6 I-0.6 J0.
X0.6 I0.6 J0.
X0.3 Y-12.7 I-0.3 J0.
G1 X0.15
G18 G3 X-0.15 Z-5.5 I0. K0.3
G1 Z5.
X0.05 Y-1.3
Z2.
Z0.3
G2 X0.35 Z0. I0.3 K0.
G1 X0.5
G17 G3 X0.8 Y-1. I0. J0.3
X-0.8 Z-0.08 I-0.8 J0.
X0.8 Z-0.161 I0.8 J0.
X-0.8 Z-0.241 I-0.8 J0.
X0.8 Z-0.321 I0.8 J0.
X-0.8 Z-0.402 I-0.8 J0.
X0.8 Z-0.482 I0.8 J0.
X-0.8 Z-0.562 I-0.8 J0.
X0.8 Z-0.643 I0.8 J0.
X-0.8 Z-0.723 I-0.8 J0.
X0.8 Z-0.803 I0.8 J0.
X-0.8 Z-0.883 I-0.8 J0.
X0.8 Z-0.964 I0.8 J0.
X-0.8 Z-1.044 I-0.8 J0.
X0.8 Z-1.124 I0.8 J0.
X-0.8 Z-1.205 I-0.8 J0.
X0.8 Z-1.285 I0.8 J0.
X-0.8 Z-1.365 I-0.8 J0.
X0.8 Z-1.446 I0.8 J0.
X-0.8 Z-1.526 I-0.8 J0.
X0.8 Z-1.606 I0.8 J0.
X-0.8 Z-1.687 I-0.8 J0.
X0.8 Z-1.767 I0.8 J0.
X-0.8 Z-1.847 I-0.8 J0.
X0.8 Z-1.928 I0.8 J0.
X-0.8 Z-2.008 I-0.8 J0.
X0.8 Z-2.088 I0.8 J0.
X-0.8 Z-2.169 I-0.8 J0.
X0.8 Z-2.249 I0.8 J0.
X-0.8 Z-2.329 I-0.8 J0.
X0.8 Z-2.41 I0.8 J0.
X-0.8 Z-2.49 I-0.8 J0.
X0.8 Z-2.57 I0.8 J0.
X-0.8 Z-2.65 I-0.8 J0.
X0.8 Z-2.731 I0.8 J0.
X-0.8 Z-2.811 I-0.8 J0.
X0.8 Z-2.891 I0.8 J0.
X-0.8 Z-2.972 I-0.8 J0.
X0.8 Z-3.052 I0.8 J0.
X-0.8 Z-3.132 I-0.8 J0.
X0.8 Z-3.213 I0.8 J0.
X-0.8 Z-3.293 I-0.8 J0.
X0.8 Z-3.373 I0.8 J0.
X-0.8 Z-3.454 I-0.8 J0.
X0.8 Z-3.534 I0.8 J0.
X-0.8 Z-3.614 I-0.8 J0.
X0.8 Z-3.695 I0.8 J0.
X-0.8 Z-3.775 I-0.8 J0.
X0.8 Z-3.855 I0.8 J0.
X-0.8 Z-3.936 I-0.8 J0.
X0.8 Z-4.016 I0.8 J0.
X-0.8 Z-4.096 I-0.8 J0.
X0.8 Z-4.177 I0.8 J0.
X-0.8 Z-4.257 I-0.8 J0.
X0.8 Z-4.337 I0.8 J0.
X-0.8 Z-4.417 I-0.8 J0.
X0.8 Z-4.498 I0.8 J0.
X-0.8 Z-4.578 I-0.8 J0.
X0.8 Z-4.658 I0.8 J0.
X-0.8 Z-4.739 I-0.8 J0.
X0.8 Z-4.819 I0.8 J0.
X-0.8 Z-4.899 I-0.8 J0.
X0.8 Z-4.98 I0.8 J0.
X-0.8 Z-5.06 I-0.8 J0.
X0.8 Z-5.14 I0.8 J0.
X-0.8 Z-5.221 I-0.8 J0.
X0.8 Z-5.301 I0.8 J0.
X-0.8 Z-5.381 I-0.8 J0.
X0.8 Z-5.462 I0.8 J0.
X-0.8 Z-5.542 I-0.8 J0.
X0.8 Z-5.622 I0.8 J0.
X-0.8 Z-5.703 I-0.8 J0.
X0.8 Z-5.783 I0.8 J0.
X0.627 Y-0.503 Z-5.8 I-0.8 J0.
X-0.627 Y-1.497 I-0.627 J-0.497
X0.627 Y-0.503 I0.627 J0.497
X0.206 Y-0.454 I-0.235 J-0.186
G1 X0.088 Y-0.548
X0.036 Y-0.589 Z-5.792
X-0.014 Y-0.628 Z-5.77
X-0.058 Y-0.664 Z-5.735
X-0.096 Y-0.693 Z-5.687
X-0.124 Y-0.715 Z-5.63
X-0.141 Y-0.729 Z-5.567
X-0.147 Y-0.734 Z-5.5
Z5.
X0.35 Y-1.3
Z-3.8
Z-5.5
G18 G2 X0.65 Z-5.8 I0.3 K0.
G1 X0.8
G17 G3 X1.1 Y-1. I0. J0.3
X-1.1 I-1.1 J0.
X1.1 I1.1 J0.
X0.8 Y-0.7 I-0.3 J0.
G1 X0.65
G18 G3 X0.35 Z-5.5 I0. K0.3
G1 Z5.
G17
(WHEN USING FUSION 360 FOR PERSONAL USE, THE FEEDRATE OF)
(RAPID MOVES IS REDUCED TO MATCH THE FEEDRATE OF CUTTING)
(MOVES, WHICH CAN INCREASE MACHINING TIME. UNRESTRICTED RAPID)
(MOVES ARE AVAILABLE WITH A FUSION 360 SUBSCRIPTION.)

(2D POCKET3)
G0 X17.837 Y7.78
G1 Z5. F30.
Z-0.2
X17.831 Y7.776 Z-0.267 F75.
X17.813 Y7.762 Z-0.33
X17.785 Y7.74 Z-0.387
X17.748 Y7.711 Z-0.435
X17.703 Y7.676 Z-0.47
X17.653 Y7.637 Z-0.492
X17.6 Y7.596 Z-0.5
X16.395 Y6.663
G2 X15.608 Y6.151 I-3.471 J4.478
G3 Y5.849 I0.081 J-0.151
G2 X16.398 Y5.336 I-2.684 J-4.989
X16.275 Y4.977 I-0.123 J-0.158
G1 X-16.273 Y4.979
G2 X-16.395 Y5.337 I0. J0.2
X-15.608 Y5.849 I3.471 J-4.478
G3 Y6.151 I-0.081 J0.151
G2 X-16.398 Y6.664 I2.684 J4.989
G3 X-16.72 Y6.509 I-0.123 J-0.158
G1 X-16.775 Y2.797
G3 X-16.397 Y2.704 I0.2 J-0.003
G2 X-13. Y4.8 I3.397 J-1.704
G1 X13.
G2 X16.399 Y2.699 I0. J-3.8
G3 X16.778 Y2.789 I0.179 J0.089
G1 X16.775 Y9.206
G3 X16.397 Y9.296 I-0.2 J0.
G2 X13. Y7.2 I-3.397 J1.704
G1 X-13.
G2 X-16.399 Y9.301 I0. J3.8
G3 X-16.778 Y9.212 I-0.179 J-0.089
G1 X-16.794 Y1.881
G3 X-16.399 Y1.833 I0.2 J0.
G2 X-13. Y4.5 I3.399 J-0.833 F50.
G1 X13.
G2 X16.397 Y1.845 I0. J-3.5
G3 X16.791 Y1.893 I0.194 J0.048 F75.
G1 X16.794 Y10.119
G3 X16.399 Y10.167 I-0.2 J0.
G2 X13. Y7.5 I-3.399 J0.833 F50.
G1 X-13.
G2 X-16.397 Y10.155 I0. J3.5
G3 X-16.79 Y10.123 I-0.194 J-0.048 F75.
G1 X-17.194 Y5.142
G3 X-16.872 Y4.968 I0.199 J-0.016
G1 X-16.825 Y5.004 Z-0.506
X-16.78 Y5.039 Z-0.524
X-16.738 Y5.072 Z-0.553
X-16.702 Y5.1 Z-0.591
X-16.672 Y5.123 Z-0.639
X-16.651 Y5.139 Z-0.692
X-16.638 Y5.149 Z-0.75
X-16.626 Y5.159 Z-0.808
X-16.604 Y5.175 Z-0.861
X-16.575 Y5.198 Z-0.909
X-16.539 Y5.226 Z-0.947
X-16.497 Y5.258 Z-0.976
X-16.452 Y5.294 Z-0.994
X-16.405 Y5.33 Z-1.
X-16.395 Y5.337
G2 X-15.608 Y5.849 I3.471 J-4.478
G3 Y6.151 I-0.081 J0.151
G2 X-16.398 Y6.664 I2.684 J4.989
X-16.275 Y7.023 I0.123 J0.158
G1 X16.273 Y7.021
G2 X16.395 Y6.663 I0. J-0.2
X15.608 Y6.151 I-3.471 J4.478
G3 Y5.849 I0.081 J-0.151
G2 X16.398 Y5.336 I-2.684 J-4.989
G3 X16.72 Y5.491 I0.123 J0.158
G1 X16.775 Y9.203
G3 X16.397 Y9.296 I-0.2 J0.003
G2 X13. Y7.2 I-3.397 J1.704
G1 X-13.
G2 X-16.399 Y9.301 I0. J3.8
G3 X-16.778 Y9.211 I-0.179 J-0.089
G1 X-16.775 Y2.794
G3 X-16.397 Y2.704 I0.2 J0.
G2 X-13. Y4.8 I3.397 J-1.704
G1 X13.
G2 X16.399 Y2.699 I0. J-3.8
G3 X16.778 Y2.788 I0.179 J0.089
G1 X16.794 Y10.119
G3 X16.399 Y10.167 I-0.2 J0.
G2 X13. Y7.5 I-3.399 J0.833 F50.
G1 X-13.
G2 X-16.397 Y10.155 I0. J3.5
G3 X-16.791 Y10.107 I-0.194 J-0.048 F75.
G1 X-16.794 Y1.881
G3 X-16.399 Y1.833 I0.2 J0.
G2 X-13. Y4.5 I3.399 J-0.833 F50.
G1 X13.
G2 X16.397 Y1.845 I0. J-3.5
G3 X16.79 Y1.877 I0.194 J0.048 F75.
G1 X17.194 Y6.858
G3 X16.872 Y7.032 I-0.199 J0.016
G1 X16.825 Y6.996 Z-1.006
X16.78 Y6.961 Z-1.024
X16.738 Y6.928 Z-1.053
X16.702 Y6.9 Z-1.091
X16.672 Y6.877 Z-1.139
X16.651 Y6.861 Z-1.192
X16.638 Y6.851 Z-1.25
X16.626 Y6.841 Z-1.308
X16.604 Y6.825 Z-1.361
X16.575 Y6.802 Z-1.409
X16.539 Y6.774 Z-1.447
X16.497 Y6.742 Z-1.476
X16.452 Y6.706 Z-1.494
X16.405 Y6.67 Z-1.5
X16.395 Y6.663
G2 X15.608 Y6.151 I-3.471 J4.478
G3 Y5.849 I0.081 J-0.151
G2 X16.398 Y5.336 I-2.684 J-4.989
X16.275 Y4.977 I-0.123 J-0.158
G1 X-16.273 Y4.979
G2 X-16.395 Y5.337 I0. J0.2
X-15.608 Y5.849 I3.471 J-4.478
G3 Y6.151 I-0.081 J0.151
G2 X-16.398 Y6.664 I2.684 J4.989
G3 X-16.72 Y6.509 I-0.123 J-0.158
G1 X-16.775 Y2.797
G3 X-16.397 Y2.704 I0.2 J-0.003
G2 X-13. Y4.8 I3.397 J-1.704
G1 X13.
G2 X16.399 Y2.699 I0. J-3.8
G3 X16.778 Y2.789 I0.179 J0.089
G1 X16.775 Y9.206
G3 X16.397 Y9.296 I-0.2 J0.
G2 X13. Y7.2 I-3.397 J1.704
G1 X-13.
G2 X-16.399 Y9.301 I0. J3.8
G3 X-16.778 Y9.212 I-0.179 J-0.089
G1 X-16.794 Y1.881
G3 X-16.399 Y1.833 I0.2 J0.
G2 X-13. Y4.5 I3.399 J-0.833 F50.
G1 X13.
G2 X16.397 Y1.845 I0. J-3.5
G3 X16.791 Y1.893 I0.194 J0.048 F75.
G1 X16.794 Y10.119
G3 X16.399 Y10.167 I-0.2 J0.
G2 X13. Y7.5 I-3.399 J0.833 F50.
G1 X-13.
G2 X-16.397 Y10.155 I0. J3.5
G3 X-16.79 Y10.123 I-0.194 J-0.048 F75.
G1 X-17.194 Y5.142
G3 X-16.872 Y4.968 I0.199 J-0.016
G1 X-16.825 Y5.004 Z-1.506
X-16.78 Y5.039 Z-1.524
X-16.738 Y5.072 Z-1.553
X-16.702 Y5.1 Z-1.591
X-16.672 Y5.123 Z-1.639
X-16.651 Y5.139 Z-1.692
X-16.638 Y5.149 Z-1.75
X-16.626 Y5.159 Z-1.808
X-16.604 Y5.175 Z-1.861
X-16.575 Y5.198 Z-1.909
X-16.539 Y5.226 Z-1.947
X-16.497 Y5.258 Z-1.976
X-16.452 Y5.294 Z-1.994
X-16.405 Y5.33 Z-2.
X-16.395 Y5.337
G2 X-15.608 Y5.849 I3.471 J-4.478
G3 Y6.151 I-0.081 J0.151
G2 X-16.398 Y6.664 I2.684 J4.989
X-16.275 Y7.023 I0.123 J0.158
G1 X16.273 Y7.021
G2 X16.395 Y6.663 I0. J-0.2
X15.608 Y6.151 I-3.471 J4.478
G3 Y5.849 I0.081 J-0.151
G2 X16.398 Y5.336 I-2.684 J-4.989
G3 X16.72 Y5.491 I0.123 J0.158
G1 X16.775 Y9.203
G3 X16.397 Y9.296 I-0.2 J0.003
G2 X13. Y7.2 I-3.397 J1.704
G1 X-13.
G2 X-16.399 Y9.301 I0. J3.8
G3 X-16.778 Y9.211 I-0.179 J-0.089
G1 X-16.775 Y2.794
G3 X-16.397 Y2.704 I0.2 J0.
G2 X-13. Y4.8 I3.397 J-1.704
G1 X13.
G2 X16.399 Y2.699 I0. J-3.8
G3 X16.778 Y2.788 I0.179 J0.089
G1 X16.794 Y10.119
G3 X16.399 Y10.167 I-0.2 J0.
G2 X13. Y7.5 I-3.399 J0.833 F50.
G1 X-13.
G2 X-16.397 Y10.155 I0. J3.5
G3 X-16.791 Y10.107 I-0.194 J-0.048 F75.
G1 X-16.794 Y1.881
G3 X-16.399 Y1.833 I0.2 J0.
G2 X-13. Y4.5 I3.399 J-0.833 F50.
G1 X13.
G2 X16.397 Y1.845 I0. J-3.5
G1 X16.688 Y0.673 F75.
X16.704 Y0.609 Z-1.992
X16.719 Y0.547 Z-1.97
X16.733 Y0.492 Z-1.935
X16.744 Y0.446 Z-1.887
X16.753 Y0.411 Z-1.83
X16.758 Y0.389 Z-1.767
X16.76 Y0.382 Z-1.7
Z5.
(WHEN USING FUSION 360 FOR PERSONAL USE, THE FEEDRATE OF)
(RAPID MOVES IS REDUCED TO MATCH THE FEEDRATE OF CUTTING)
(MOVES, WHICH CAN INCREASE MACHINING TIME. UNRESTRICTED RAPID)
(MOVES ARE AVAILABLE WITH A FUSION 360 SUBSCRIPTION.)

(2D CONTOUR4)
G0 X-0.3 Y21.7
G1 Z5. F30.
Z1.5
Z-0.2
G19 G2 Y21.4 Z-0.5 J-0.3 K0. F75.
G1 Y21.1
G17 G3 X0. Y20.8 I0.3 J0.
G1 X13.
G2 X16.8 Y17. I0. J-3.8
G1 Y-17.
G2 X13. Y-20.8 I-3.8 J0.
G1 X-13.
G2 X-16.8 Y-17. I0. J3.8
G1 Y17.
G2 X-13. Y20.8 I3.8 J0.
G1 X0.
G3 X0.3 Y21.1 I0. J0.3
G1 Y21.4
G19 G3 Y21.7 Z-0.2 J0. K0.3
G1 Z5.
X-0.3
Z1. F30.
Z-0.7
G2 Y21.4 Z-1. J-0.3 K0. F75.
G1 Y21.1
G17 G3 X0. Y20.8 I0.3 J0.
G1 X13.
G2 X16.8 Y17. I0. J-3.8
G1 Y-17.
G2 X13. Y-20.8 I-3.8 J0.
G1 X-13.
G2 X-16.8 Y-17. I0. J3.8
G1 Y17.
G2 X-13. Y20.8 I3.8 J0.
G1 X0.
G3 X0.3 Y21.1 I0. J0.3
G1 Y21.4
G19 G3 Y21.7 Z-0.7 J0. K0.3
G1 Z5.
X-0.3
Z0.5 F30.
Z-1.2
G2 Y21.4 Z-1.5 J-0.3 K0. F75.
G1 Y21.1
G17 G3 X0. Y20.8 I0.3 J0.
G1 X13.
G2 X16.8 Y17. I0. J-3.8
G1 Y-17.
G2 X13. Y-20.8 I-3.8 J0.
G1 X-13.
G2 X-16.8 Y-17. I0. J3.8
G1 Y17.
G2 X-13. Y20.8 I3.8 J0.
G1 X0.
G3 X0.3 Y21.1 I0. J0.3
G1 Y21.4
G19 G3 Y21.7 Z-1.2 J0. K0.3
G1 Z5.
X-0.3
Z0. F30.
Z-1.7
G2 Y21.4 Z-2. J-0.3 K0. F75.
G1 Y21.1
G17 G3 X0. Y20.8 I0.3 J0.
G1 X13.
G2 X16.8 Y17. I0. J-3.8
G1 Y-17.
G2 X13. Y-20.8 I-3.8 J0.
G1 X-13.
G2 X-16.8 Y-17. I0. J3.8
G1 Y17.
G2 X-13. Y20.8 I3.8 J0.
G1 X0.
G3 X0.3 Y21.1 I0. J0.3
G1 Y21.4
G19 G3 Y21.7 Z-1.7 J0. K0.3
G1 Z5.
X-0.3
Z-0.5 F30.
Z-2.2
G2 Y21.4 Z-2.5 J-0.3 K0. F75.
G1 Y21.1
G17 G3 X0. Y20.8 I0.3 J0.
G1 X13.
G2 X16.8 Y17. I0. J-3.8
G1 Y-17.
G2 X13. Y-20.8 I-3.8 J0.
G1 X-13.
G2 X-16.8 Y-17. I0. J3.8
G1 Y17.
G2 X-13. Y20.8 I3.8 J0.
G1 X0.
G3 X0.3 Y21.1 I0. J0.3
G1 Y21.4
G19 G3 Y21.7 Z-2.2 J0. K0.3
G1 Z5.
X-0.3
Z-1. F30.
Z-2.7
G2 Y21.4 Z-3. J-0.3 K0. F75.
G1 Y21.1
G17 G3 X0. Y20.8 I0.3 J0.
G1 X13.
G2 X16.8 Y17. I0. J-3.8
G1 Y-17.
G2 X13. Y-20.8 I-3.8 J0.
G1 X-13.
G2 X-16.8 Y-17. I0. J3.8
G1 Y17.
G2 X-13. Y20.8 I3.8 J0.
G1 X0.
G3 X0.3 Y21.1 I0. J0.3
G1 Y21.4
G19 G3 Y21.7 Z-2.7 J0. K0.3
G1 Z5.
X-0.3
Z-1.5 F30.
Z-3.2
G2 Y21.4 Z-3.5 J-0.3 K0. F75.
G1 Y21.1
G17 G3 X0. Y20.8 I0.3 J0.
G1 X13.
G2 X16.8 Y17. I0. J-3.8
G1 Y-17.
G2 X13. Y-20.8 I-3.8 J0.
G1 X-13.
G2 X-16.8 Y-17. I0. J3.8
G1 Y17.
G2 X-13. Y20.8 I3.8 J0.
G1 X0.
G3 X0.3 Y21.1 I0. J0.3
G1 Y21.4
G19 G3 Y21.7 Z-3.2 J0. K0.3
G1 Z5.
X-0.3
Z-2. F30.
Z-3.7
G2 Y21.4 Z-4. J-0.3 K0. F75.
G1 Y21.1
G17 G3 X0. Y20.8 I0.3 J0.
G1 X13.
G2 X16.8 Y17. I0. J-3.8
G1 Y-17.
G2 X13. Y-20.8 I-3.8 J0.
G1 X-13.
G2 X-16.8 Y-17. I0. J3.8
G1 Y17.
G2 X-13. Y20.8 I3.8 J0.
G1 X0.
G3 X0.3 Y21.1 I0. J0.3
G1 Y21.4
G19 G3 Y21.7 Z-3.7 J0. K0.3
G1 Z5.
X-0.3
Z-2.5 F30.
Z-4.2
G2 Y21.4 Z-4.5 J-0.3 K0. F75.
G1 Y21.1
G17 G3 X0. Y20.8 I0.3 J0.
G1 X13.
G2 X16.8 Y17. I0. J-3.8
G1 Y-17.
G2 X13. Y-20.8 I-3.8 J0.
G1 X-13.
G2 X-16.8 Y-17. I0. J3.8
G1 Y17.
G2 X-13. Y20.8 I3.8 J0.
G1 X0.
G3 X0.3 Y21.1 I0. J0.3
G1 Y21.4
G19 G3 Y21.7 Z-4.2 J0. K0.3
G1 Z5.
X-0.3
Z-3. F30.
Z-4.7
G2 Y21.4 Z-5. J-0.3 K0. F75.
G1 Y21.1
G17 G3 X0. Y20.8 I0.3 J0.
G1 X13.
G2 X16.8 Y17. I0. J-3.8
G1 Y-17.
G2 X13. Y-20.8 I-3.8 J0.
G1 X-13.
G2 X-16.8 Y-17. I0. J3.8
G1 Y17.
G2 X-13. Y20.8 I3.8 J0.
G1 X0.
G3 X0.3 Y21.1 I0. J0.3
G1 Y21.4
G19 G3 Y21.7 Z-4.7 J0. K0.3
G1 Z5.
X-0.3
Z-3.5 F30.
Z-5.2
G2 Y21.4 Z-5.5 J-0.3 K0. F75.
G1 Y21.1
G17 G3 X0. Y20.8 I0.3 J0.
G1 X13.
G2 X16.8 Y17. I0. J-3.8
G1 Y-17.
G2 X13. Y-20.8 I-3.8 J0.
G1 X-13.
G2 X-16.8 Y-17. I0. J3.8
G1 Y17.
G2 X-13. Y20.8 I3.8 J0.
G1 X0.
G3 X0.3 Y21.1 I0. J0.3
G1 Y21.4
G19 G3 Y21.7 Z-5.2 J0. K0.3
G1 Z5.
X-0.3
Z-4. F30.
Z-5.7
G2 Y21.4 Z-6. J-0.3 K0. F75.
G1 Y21.1
G17 G3 X0. Y20.8 I0.3 J0.
G1 X13.
G2 X16.8 Y17. I0. J-3.8
G1 Y-17.
G2 X13. Y-20.8 I-3.8 J0.
G1 X-13.
G2 X-16.8 Y-17. I0. J3.8
G1 Y17.
G2 X-13. Y20.8 I3.8 J0.
G1 X0.
G3 X0.3 Y21.1 I0. J0.3
G1 Y21.4
G19 G3 Y21.7 Z-5.7 J0. K0.3
G1 Z5.
X-0.3
Z-4.5 F30.
Z-6.2
G2 Y21.4 Z-6.5 J-0.3 K0. F75.
G1 Y21.1
G17 G3 X0. Y20.8 I0.3 J0.
G1 X13.
G2 X16.8 Y17. I0. J-3.8
G1 Y-17.
G2 X13. Y-20.8 I-3.8 J0.
G1 X-13.
G2 X-16.8 Y-17. I0. J3.8
G1 Y17.
G2 X-13. Y20.8 I3.8 J0.
G1 X0.
G3 X0.3 Y21.1 I0. J0.3
G1 Y21.4
G19 G3 Y21.7 Z-6.2 J0. K0.3
G1 Z5.
X-0.3
Z-5. F30.
Z-6.7
G2 Y21.4 Z-7. J-0.3 K0. F75.
G1 Y21.1
G17 G3 X0. Y20.8 I0.3 J0.
G1 X13.
G2 X16.8 Y17. I0. J-3.8
G1 Y-17.
G2 X13. Y-20.8 I-3.8 J0.
G1 X-13.
G2 X-16.8 Y-17. I0. J3.8
G1 Y17.
G2 X-13. Y20.8 I3.8 J0.
G1 X0.
G3 X0.3 Y21.1 I0. J0.3
G1 Y21.4
G19 G3 Y21.7 Z-6.7 J0. K0.3
G1 Z5.
X-0.3
Z-5.5 F30.
Z-7.2
G2 Y21.4 Z-7.5 J-0.3 K0. F75.
G1 Y21.1
G17 G3 X0. Y20.8 I0.3 J0.
G1 X13.
G2 X16.8 Y17. I0. J-3.8
G1 Y-17.
G2 X13. Y-20.8 I-3.8 J0.
G1 X-13.
G2 X-16.8 Y-17. I0. J3.8
G1 Y17.
G2 X-13. Y20.8 I3.8 J0.
G1 X0.
G3 X0.3 Y21.1 I0. J0.3
G1 Y21.4
G19 G3 Y21.7 Z-7.2 J0. K0.3
G1 Z5.
X-0.3
Z-6. F30.
Z-7.7
G2 Y21.4 Z-8. J-0.3 K0. F75.
G1 Y21.1
G17 G3 X0. Y20.8 I0.3 J0.
G1 X13.
G2 X16.8 Y17. I0. J-3.8
G1 Y-17.
G2 X13. Y-20.8 I-3.8 J0.
G1 X-13.
G2 X-16.8 Y-17. I0. J3.8
G1 Y17.
G2 X-13. Y20.8 I3.8 J0.
G1 X0.
G3 X0.3 Y21.1 I0. J0.3
G1 Y21.4
G19 G3 Y21.7 Z-7.7 J0. K0.3
G1 Z5.
X-0.3
Z-6.5 F30.
Z-8.2
G2 Y21.4 Z-8.5 J-0.3 K0. F75.
G1 Y21.1
G17 G3 X0. Y20.8 I0.3 J0.
G1 X13.
G2 X16.8 Y17. I0. J-3.8
G1 Y-17.
G2 X13. Y-20.8 I-3.8 J0.
G1 X-13.
G2 X-16.8 Y-17. I0. J3.8
G1 Y17.
G2 X-13. Y20.8 I3.8 J0.
G1 X0.
G3 X0.3 Y21.1 I0. J0.3
G1 Y21.4
G19 G3 Y21.7 Z-8.2 J0. K0.3
G1 Z5.
X-0.3
Z-7. F30.
Z-8.7
G2 Y21.4 Z-9. J-0.3 K0. F75.
G1 Y21.1
G17 G3 X0. Y20.8 I0.3 J0.
G1 X13.
G2 X16.8 Y17. I0. J-3.8
G1 Y-17.
G2 X13. Y-20.8 I-3.8 J0.
G1 X-13.
G2 X-16.8 Y-17. I0. J3.8
G1 Y17.
G2 X-13. Y20.8 I3.8 J0.
G1 X0.
G3 X0.3 Y21.1 I0. J0.3
G1 Y21.4
G19 G3 Y21.7 Z-8.7 J0. K0.3
G1 Z5.
X-0.3
Z-7.5 F30.
Z-9.2
G2 Y21.4 Z-9.5 J-0.3 K0. F75.
G1 Y21.1
G17 G3 X0. Y20.8 I0.3 J0.
G1 X13.
G2 X16.8 Y17. I0. J-3.8
G1 Y-17.
G2 X13. Y-20.8 I-3.8 J0.
G1 X-13.
G2 X-16.8 Y-17. I0. J3.8
G1 Y17.
G2 X-13. Y20.8 I3.8 J0.
G1 X0.
G3 X0.3 Y21.1 I0. J0.3
G1 Y21.4
G19 G3 Y21.7 Z-9.2 J0. K0.3
G1 Z5.
X-0.3
Z-8. F30.
Z-9.475
G2 Y21.4 Z-9.775 J-0.3 K0. F75.
G1 Y21.1
G17 G3 X0. Y20.8 I0.3 J0.
G1 X13.
G2 X16.8 Y17. I0. J-3.8
G1 Y-17.
G2 X13. Y-20.8 I-3.8 J0.
G1 X-13.
G2 X-16.8 Y-17. I0. J3.8
G1 Y17.
G2 X-13. Y20.8 I3.8 J0.
G1 X0.
G3 X0.3 Y21.1 I0. J0.3
G1 Y21.4
G19 G3 Y21.7 Z-9.475 J0. K0.3
G1 Z5.
X-0.3
Z-8.275 F30.
Z-9.75
G2 Y21.4 Z-10.05 J-0.3 K0. F75.
G1 Y21.1
G17 G3 X0. Y20.8 I0.3 J0.
G1 X7.372
Z-9.8
X13.
G2 X13.372 Y20.782 I0. J-3.8
G1 Z-10.05 F30.
G2 X16.8 Y17. I-0.372 J-3.782 F75.
G1 Y-0.743
Z-9.8
Y-6.743
Z-10.05 F30.
Y-17. F75.
G2 X13. Y-20.8 I-3.8 J0.
G1 X5.885
Z-9.8
X-0.115
Z-10.05 F30.
X-13. F75.
G2 X-16.8 Y-17. I0. J3.8
G1 Y-12.513
Z-9.8
Y-6.513
Z-10.05 F30.
Y14. F75.
Z-9.8
Y17.
G2 X-15.332 Y20. I3.8 J0.
G1 Z-10.05 F30.
G2 X-13. Y20.8 I2.332 J-3. F75.
G1 X0.
G2 X0.225 Y20.65 I0. J-0.244
G3 X0.45 Y20.5 I0.225 J0.094
G1 X7.372 F50.
Z-9.8
X13.
G2 X13.372 Y20.48 I0. J-3.5
G1 Z-10.05 F30.
G2 X16.5 Y17. I-0.372 J-3.48 F50.
G1 Y-0.743
Z-9.8
Y-6.743
Z-10.05 F30.
Y-17. F50.
G2 X13. Y-20.5 I-3.5 J0.
G1 X5.885
Z-9.8
X-0.115
Z-10.05 F30.
X-13. F50.
G2 X-16.5 Y-17. I0. J3.5
G1 Y-12.513
Z-9.8
Y-6.513
Z-10.05 F30.
Y14. F50.
Z-9.8
Y17.
G2 X-14.803 Y20. I3.5 J0.
G1 Z-10.05 F30.
G2 X-13. Y20.5 I1.803 J-3. F50.
G1 X0.45
G3 X0.75 Y20.8 I0. J0.3 F75.
G1 Y21.1
G19 G3 Y21.4 Z-9.75 J0. K0.3
G1 Z5.
G17

G28 G91 Z0.
G90
G28 G91 X0. Y0.
G90
M30
