(1009)
(DRILLENDSTOPBASE)
(MACHINE)
(  VENDOR HOMEMADE)
(  DESCRIPTION GENERIC 3-AXIS)
(T2  D=3. CR=0. - ZMIN=-5.8 - FLAT END MILL)
G90 G94 G91.1 G40 G49 G17
G21
G28 G91 Z0.
G90

(DRILL3)
M5
T2 M6
S9000 M3
G54
G0 X15. Y25.
G43 Z5. H2
Z2.
G1 Z-0.75 F30.
G0 Z5.
Z1.25
G1 Z-1.5 F30.
G0 Z5.
Z0.5
G1 Z-2.25 F30.
G0 Z5.
Z-0.25
G1 Z-3. F30.
G0 Z5.
Z-1.
G1 Z-3.75 F30.
G0 Z5.
Z-1.75
G1 Z-4.5 F30.
G0 Z5.
Z-2.5
G1 Z-5.25 F30.
G0 Z5.
Z-3.25
G1 Z-5.8 F30.
G4 P0.2
G0 Z5.
X35.
Z2.
G1 Z-0.75 F30.
G0 Z5.
Z1.25
G1 Z-1.5 F30.
G0 Z5.
Z0.5
G1 Z-2.25 F30.
G0 Z5.
Z-0.25
G1 Z-3. F30.
G0 Z5.
Z-1.
G1 Z-3.75 F30.
G0 Z5.
Z-1.75
G1 Z-4.5 F30.
G0 Z5.
Z-2.5
G1 Z-5.25 F30.
G0 Z5.
Z-3.25
G1 Z-5.8 F30.
G4 P0.2
G0 Z5.
(WHEN USING FUSION 360 FOR PERSONAL USE, THE FEEDRATE OF)
(RAPID MOVES IS REDUCED TO MATCH THE FEEDRATE OF CUTTING)
(MOVES, WHICH CAN INCREASE MACHINING TIME. UNRESTRICTED RAPID)
(MOVES ARE AVAILABLE WITH A FUSION 360 SUBSCRIPTION.)

(BORE5)
G0 X14.975 Y24.875
G1 Z5. F30.
Z1.7
Z0.
X15.125
X15.164 Y24.881
X15.198 Y24.899
X15.226 Y24.927
X15.244 Y24.961
X15.25 Y25.
G3 X14.75 Z-0.061 I-0.25 J0.
X15.25 Z-0.122 I0.25 J0.
X14.75 Z-0.183 I-0.25 J0.
X15.25 Z-0.244 I0.25 J0.
X14.75 Z-0.306 I-0.25 J0.
X15.25 Z-0.367 I0.25 J0.
X14.75 Z-0.428 I-0.25 J0.
X15.25 Z-0.489 I0.25 J0.
X14.75 Z-0.55 I-0.25 J0.
X15.25 Z-0.611 I0.25 J0.
X14.75 Z-0.672 I-0.25 J0.
X15.25 Z-0.733 I0.25 J0.
X14.75 Z-0.794 I-0.25 J0.
X15.25 Z-0.856 I0.25 J0.
X14.75 Z-0.917 I-0.25 J0.
X15.25 Z-0.978 I0.25 J0.
X14.75 Z-1.039 I-0.25 J0.
X15.25 Z-1.1 I0.25 J0.
X14.75 Z-1.161 I-0.25 J0.
X15.25 Z-1.222 I0.25 J0.
X14.75 Z-1.283 I-0.25 J0.
X15.25 Z-1.344 I0.25 J0.
X14.75 Z-1.406 I-0.25 J0.
X15.25 Z-1.467 I0.25 J0.
X14.75 Z-1.528 I-0.25 J0.
X15.25 Z-1.589 I0.25 J0.
X14.75 Z-1.65 I-0.25 J0.
X15.25 Z-1.711 I0.25 J0.
X14.75 Z-1.772 I-0.25 J0.
X15.25 Z-1.833 I0.25 J0.
X14.75 Z-1.894 I-0.25 J0.
X15.25 Z-1.956 I0.25 J0.
X14.75 Z-2.017 I-0.25 J0.
X15.25 Z-2.078 I0.25 J0.
X14.75 Z-2.139 I-0.25 J0.
X15.25 Z-2.2 I0.25 J0.
X14.75 Z-2.261 I-0.25 J0.
X15.25 Z-2.322 I0.25 J0.
X14.75 Z-2.383 I-0.25 J0.
X15.25 Z-2.444 I0.25 J0.
X14.75 Z-2.506 I-0.25 J0.
X15.25 Z-2.567 I0.25 J0.
X14.75 Z-2.628 I-0.25 J0.
X15.25 Z-2.689 I0.25 J0.
X14.75 Z-2.75 I-0.25 J0.
X15.25 Z-2.811 I0.25 J0.
X14.75 Z-2.872 I-0.25 J0.
X15.25 Z-2.933 I0.25 J0.
X14.75 Z-2.994 I-0.25 J0.
X15.25 Z-3.056 I0.25 J0.
X14.75 Z-3.117 I-0.25 J0.
X15.25 Z-3.178 I0.25 J0.
X14.75 Z-3.239 I-0.25 J0.
X15.25 Z-3.3 I0.25 J0.
X14.75 Z-3.361 I-0.25 J0.
X15.25 Z-3.422 I0.25 J0.
X14.75 Z-3.483 I-0.25 J0.
X15.25 Z-3.544 I0.25 J0.
X14.75 Z-3.606 I-0.25 J0.
X15.25 Z-3.667 I0.25 J0.
X14.75 Z-3.728 I-0.25 J0.
X15.25 Z-3.789 I0.25 J0.
X14.75 Z-3.85 I-0.25 J0.
X15.25 Z-3.911 I0.25 J0.
X14.75 Z-3.972 I-0.25 J0.
X15.25 Z-4.033 I0.25 J0.
X14.75 Z-4.094 I-0.25 J0.
X15.25 Z-4.156 I0.25 J0.
X14.75 Z-4.217 I-0.25 J0.
X15.25 Z-4.278 I0.25 J0.
X14.75 Z-4.339 I-0.25 J0.
X15.25 Z-4.4 I0.25 J0.
X14.75 Z-4.461 I-0.25 J0.
X15.25 Z-4.522 I0.25 J0.
X14.75 Z-4.583 I-0.25 J0.
X15.25 Z-4.644 I0.25 J0.
X14.75 Z-4.706 I-0.25 J0.
X15.25 Z-4.767 I0.25 J0.
X14.75 Z-4.828 I-0.25 J0.
X15.25 Z-4.889 I0.25 J0.
X14.75 Z-4.95 I-0.25 J0.
X15.25 Z-5.011 I0.25 J0.
X14.75 Z-5.072 I-0.25 J0.
X15.25 Z-5.133 I0.25 J0.
X14.75 Z-5.194 I-0.25 J0.
X15.25 Z-5.256 I0.25 J0.
X14.75 Z-5.317 I-0.25 J0.
X15.25 Z-5.378 I0.25 J0.
X14.75 Z-5.439 I-0.25 J0.
X15.25 Z-5.5 I0.25 J0.
X14.75 Z-5.561 I-0.25 J0.
X15.25 Z-5.622 I0.25 J0.
X14.75 Z-5.683 I-0.25 J0.
X15.25 Z-5.744 I0.25 J0.
X14.76 Y25.071 Z-5.8 I-0.25 J0.
X15.24 Y24.929 I0.24 J-0.071
X14.76 Y25.071 I-0.24 J0.071
G1 X14.755 Y25.032
X14.762 Y24.993
X14.781 Y24.959
X14.809 Y24.932
X14.845 Y24.915
X14.989 Y24.873
Z5.
X14.825 Y24.725
Z-3.8
Z-5.5
G18 G2 X15.125 Z-5.8 I0.3 K0.
G1 X15.275
G17 G3 X15.55 Y25. I0. J0.275
X14.45 I-0.55 J0.
X15.55 I0.55 J0.
X15.275 Y25.275 I-0.275 J0.
G1 X15.125
G18 G3 X14.825 Z-5.5 I0. K0.3
G1 Z5.
X34.975 Y24.875
Z1.7
Z0.
X35.125
X35.164 Y24.881
X35.198 Y24.899
X35.226 Y24.927
X35.244 Y24.961
X35.25 Y25.
G17 G3 X34.75 Z-0.061 I-0.25 J0.
X35.25 Z-0.122 I0.25 J0.
X34.75 Z-0.183 I-0.25 J0.
X35.25 Z-0.244 I0.25 J0.
X34.75 Z-0.306 I-0.25 J0.
X35.25 Z-0.367 I0.25 J0.
X34.75 Z-0.428 I-0.25 J0.
X35.25 Z-0.489 I0.25 J0.
X34.75 Z-0.55 I-0.25 J0.
X35.25 Z-0.611 I0.25 J0.
X34.75 Z-0.672 I-0.25 J0.
X35.25 Z-0.733 I0.25 J0.
X34.75 Z-0.794 I-0.25 J0.
X35.25 Z-0.856 I0.25 J0.
X34.75 Z-0.917 I-0.25 J0.
X35.25 Z-0.978 I0.25 J0.
X34.75 Z-1.039 I-0.25 J0.
X35.25 Z-1.1 I0.25 J0.
X34.75 Z-1.161 I-0.25 J0.
X35.25 Z-1.222 I0.25 J0.
X34.75 Z-1.283 I-0.25 J0.
X35.25 Z-1.344 I0.25 J0.
X34.75 Z-1.406 I-0.25 J0.
X35.25 Z-1.467 I0.25 J0.
X34.75 Z-1.528 I-0.25 J0.
X35.25 Z-1.589 I0.25 J0.
X34.75 Z-1.65 I-0.25 J0.
X35.25 Z-1.711 I0.25 J0.
X34.75 Z-1.772 I-0.25 J0.
X35.25 Z-1.833 I0.25 J0.
X34.75 Z-1.894 I-0.25 J0.
X35.25 Z-1.956 I0.25 J0.
X34.75 Z-2.017 I-0.25 J0.
X35.25 Z-2.078 I0.25 J0.
X34.75 Z-2.139 I-0.25 J0.
X35.25 Z-2.2 I0.25 J0.
X34.75 Z-2.261 I-0.25 J0.
X35.25 Z-2.322 I0.25 J0.
X34.75 Z-2.383 I-0.25 J0.
X35.25 Z-2.444 I0.25 J0.
X34.75 Z-2.506 I-0.25 J0.
X35.25 Z-2.567 I0.25 J0.
X34.75 Z-2.628 I-0.25 J0.
X35.25 Z-2.689 I0.25 J0.
X34.75 Z-2.75 I-0.25 J0.
X35.25 Z-2.811 I0.25 J0.
X34.75 Z-2.872 I-0.25 J0.
X35.25 Z-2.933 I0.25 J0.
X34.75 Z-2.994 I-0.25 J0.
X35.25 Z-3.056 I0.25 J0.
X34.75 Z-3.117 I-0.25 J0.
X35.25 Z-3.178 I0.25 J0.
X34.75 Z-3.239 I-0.25 J0.
X35.25 Z-3.3 I0.25 J0.
X34.75 Z-3.361 I-0.25 J0.
X35.25 Z-3.422 I0.25 J0.
X34.75 Z-3.483 I-0.25 J0.
X35.25 Z-3.544 I0.25 J0.
X34.75 Z-3.606 I-0.25 J0.
X35.25 Z-3.667 I0.25 J0.
X34.75 Z-3.728 I-0.25 J0.
X35.25 Z-3.789 I0.25 J0.
X34.75 Z-3.85 I-0.25 J0.
X35.25 Z-3.911 I0.25 J0.
X34.75 Z-3.972 I-0.25 J0.
X35.25 Z-4.033 I0.25 J0.
X34.75 Z-4.094 I-0.25 J0.
X35.25 Z-4.156 I0.25 J0.
X34.75 Z-4.217 I-0.25 J0.
X35.25 Z-4.278 I0.25 J0.
X34.75 Z-4.339 I-0.25 J0.
X35.25 Z-4.4 I0.25 J0.
X34.75 Z-4.461 I-0.25 J0.
X35.25 Z-4.522 I0.25 J0.
X34.75 Z-4.583 I-0.25 J0.
X35.25 Z-4.644 I0.25 J0.
X34.75 Z-4.706 I-0.25 J0.
X35.25 Z-4.767 I0.25 J0.
X34.75 Z-4.828 I-0.25 J0.
X35.25 Z-4.889 I0.25 J0.
X34.75 Z-4.95 I-0.25 J0.
X35.25 Z-5.011 I0.25 J0.
X34.75 Z-5.072 I-0.25 J0.
X35.25 Z-5.133 I0.25 J0.
X34.75 Z-5.194 I-0.25 J0.
X35.25 Z-5.256 I0.25 J0.
X34.75 Z-5.317 I-0.25 J0.
X35.25 Z-5.378 I0.25 J0.
X34.75 Z-5.439 I-0.25 J0.
X35.25 Z-5.5 I0.25 J0.
X34.75 Z-5.561 I-0.25 J0.
X35.25 Z-5.622 I0.25 J0.
X34.75 Z-5.683 I-0.25 J0.
X35.25 Z-5.744 I0.25 J0.
X34.76 Y25.071 Z-5.8 I-0.25 J0.
X35.24 Y24.929 I0.24 J-0.071
X34.76 Y25.071 I-0.24 J0.071
G1 X34.755 Y25.032
X34.762 Y24.993
X34.781 Y24.959
X34.809 Y24.932
X34.845 Y24.915
X34.989 Y24.873
Z5.
X34.825 Y24.725
Z-3.8
Z-5.5
G18 G2 X35.125 Z-5.8 I0.3 K0.
G1 X35.275
G17 G3 X35.55 Y25. I0. J0.275
X34.45 I-0.55 J0.
X35.55 I0.55 J0.
X35.275 Y25.275 I-0.275 J0.
G1 X35.125
G18 G3 X34.825 Z-5.5 I0. K0.3
G1 Z5.
G17
(WHEN USING FUSION 360 FOR PERSONAL USE, THE FEEDRATE OF)
(RAPID MOVES IS REDUCED TO MATCH THE FEEDRATE OF CUTTING)
(MOVES, WHICH CAN INCREASE MACHINING TIME. UNRESTRICTED RAPID)
(MOVES ARE AVAILABLE WITH A FUSION 360 SUBSCRIPTION.)

(2D ADAPTIVE2)
G0 X14.896 Y35.824
G1 Z5. F100.
Z2.
S2000
G3 X14.657 Y35.112 Z1.969 I0.104 J-0.431 F75.
X15.401 Y35.206 Z1.938 I0.342 J0.28
X14.995 Y35.834 Z1.906 I-0.401 J0.187
X14.605 Y35.196 Z1.875 I0.005 J-0.441
X15.348 Y35.122 Z1.844 I0.395 J0.196
X15.093 Y35.823 Z1.813 I-0.348 J0.27
X14.572 Y35.29 Z1.781 I-0.093 J-0.43
X15.277 Y35.052 Z1.75 I0.427 J0.103
X15.186 Y35.79 Z1.719 I-0.278 J0.34
X14.562 Y35.388 Z1.688 I-0.186 J-0.397
X15.194 Y35.001 Z1.656 I0.438 J0.005
X15.269 Y35.737 Z1.625 I-0.194 J0.392
X14.574 Y35.485 Z1.594 I-0.268 J-0.344
X15.101 Y34.969 Z1.563 I0.426 J-0.092
X15.337 Y35.667 Z1.531 I-0.101 J0.424
X14.606 Y35.577 Z1.5 I-0.337 J-0.275
X15.004 Y34.958 Z1.469 I0.393 J-0.184
X15.389 Y35.584 Z1.438 I-0.004 J0.434
X14.659 Y35.659 Z1.406 I-0.389 J-0.192
X14.908 Y34.97 Z1.375 I0.341 J-0.266
X15.42 Y35.493 Z1.344 I0.092 J0.422
X14.728 Y35.727 Z1.313 I-0.42 J-0.1
X14.816 Y35.003 Z1.281 I0.272 J-0.335
X15.43 Y35.396 Z1.25 I0.183 J0.39
X14.81 Y35.778 Z1.219 I-0.43 J-0.004
X14.735 Y35.055 Z1.188 I0.19 J-0.385
X15.419 Y35.301 Z1.156 I0.265 J0.338
X14.901 Y35.809 Z1.125 I-0.418 J0.092
X14.668 Y35.123 Z1.094 I0.099 J-0.416
X15.386 Y35.21 Z1.063 I0.332 J0.269
X14.997 Y35.819 Z1.031 I-0.386 J0.182
X14.617 Y35.205 Z1. I0.003 J-0.426
X15.334 Y35.13 Z0.969 I0.382 J0.188
X15.092 Y35.807 Z0.938 I-0.334 J0.263
X14.587 Y35.295 Z0.906 I-0.091 J-0.415
X15.266 Y35.063 Z0.875 I0.413 J0.097
X15.181 Y35.775 Z0.844 I-0.266 J0.329
X14.577 Y35.39 Z0.813 I-0.181 J-0.382
X15.185 Y35.013 Z0.781 I0.422 J0.003
X15.261 Y35.724 Z0.75 I-0.186 J0.379
X14.589 Y35.484 Z0.719 I-0.261 J-0.331
X15.096 Y34.983 Z0.688 I0.411 J-0.091
X15.327 Y35.656 Z0.656 I-0.096 J0.409
X14.621 Y35.573 Z0.625 I-0.327 J-0.264
X15.002 Y34.974 Z0.594 I0.379 J-0.18
X15.376 Y35.576 Z0.563 I-0.002 J0.419
X14.672 Y35.651 Z0.531 I-0.376 J-0.183
X14.909 Y34.985 Z0.5 I0.328 J-0.259
X15.406 Y35.487 Z0.469 I0.091 J0.407
X14.739 Y35.717 Z0.438 I-0.406 J-0.095
X14.821 Y35.017 Z0.406 I0.261 J-0.324
X15.415 Y35.394 Z0.375 I0.178 J0.375
X14.819 Y35.765 Z0.344 I-0.415 J-0.002
X14.743 Y35.068 Z0.313 I0.181 J-0.372
X15.403 Y35.302 Z0.281 I0.257 J0.325
X14.907 Y35.795 Z0.25 I-0.403 J0.09
X14.678 Y35.134 Z0.219 I0.093 J-0.402
X15.371 Y35.215 Z0.188 I0.321 J0.258
X14.999 Y35.804 Z0.156 I-0.371 J0.177
X14.63 Y35.213 Z0.125 I0.001 J-0.411
X15.321 Y35.138 Z0.094 I0.369 J0.179
X15.09 Y35.792 Z0.063 I-0.321 J0.255
X14.601 Y35.301 Z0.031 I-0.09 J-0.399
X15.255 Y35.074 Z0. I0.398 J0.092
X15.176 Y35.76 Z-0.031 I-0.255 J0.319
X14.592 Y35.392 Z-0.063 I-0.176 J-0.368
X15.177 Y35.026 Z-0.094 I0.407 J0.001
X15.253 Y35.711 Z-0.125 I-0.177 J0.366
X14.604 Y35.482 Z-0.156 I-0.253 J-0.318
X15.091 Y34.998 Z-0.188 I0.395 J-0.09
X15.316 Y35.645 Z-0.219 I-0.091 J0.395
X14.636 Y35.568 Z-0.25 I-0.316 J-0.253
X15. Y34.989 Z-0.281 I0.364 J-0.175
X15.363 Y35.568 Z-0.313 I0. J0.403
X14.685 Y35.643 Z-0.344 I-0.363 J-0.175
X14.911 Y35.001 Z-0.375 I0.315 J-0.251
X15.391 Y35.482 Z-0.406 I0.089 J0.392
X14.75 Y35.706 Z-0.438 I-0.391 J-0.089
X14.826 Y35.032 Z-0.469 I0.25 J-0.313
X15.4 Y35.392 Z-0.5 I0.174 J0.36
X14.6 I-0.4 J0.
X15.4 I0.4 J0.
S9000
G1 X15.442 Y35.643 F100.
X15.456 Y35.793
X15.405 Y35.934
X15.312 Y36.052
X15.191 Y36.14
X15.052 Y36.196
X14.903 Y36.22
X14.754 Y36.213
X14.608 Y36.177
X14.472 Y36.113
X14.35 Y36.026
X14.246 Y35.918
X14.162 Y35.794
X14.1 Y35.657
X14.062 Y35.512
X14.048 Y35.363
X14.059 Y35.213
X14.094 Y35.067
X14.152 Y34.929
X14.231 Y34.801
X14.329 Y34.688
X14.443 Y34.591
X14.571 Y34.513
X14.71 Y34.456
X14.856 Y34.421
X15.005 Y34.409
X15.155 Y34.42
X15.301 Y34.454
X15.44 Y34.51
X15.57 Y34.586
X15.686 Y34.68
X15.792 Y34.786
X15.842 Y34.847
X15.928 Y34.982
X15.982 Y35.132
X16. Y35.29
Y35.754
X15.993 Y35.904
X15.963 Y36.051
X15.912 Y36.192
X15.841 Y36.325
X15.753 Y36.446
X15.65 Y36.555
X15.533 Y36.649
X15.406 Y36.729
X15.27 Y36.792
X15.127 Y36.838
X14.98 Y36.868
X14.831 Y36.881
X14.681 Y36.878
X14.606 Y36.867
X14.414 Y36.813
X14.244 Y36.705
X14.112 Y36.554
X14.029 Y36.372
X14. Y36.174
Y35.18
X14.008 Y35.109
X14.092 Y34.684
X14.098 Y34.661
X14.109 Y34.631
X14.123 Y34.602
X14.161 Y34.542
X14.256 Y34.401
X14.303 Y34.335
X14.342 Y34.297
X14.381 Y34.268
X14.523 Y34.174
X14.613 Y34.117
X14.639 Y34.106
X14.664 Y34.097
X14.806 Y34.068
X14.948 Y34.04
X14.983 Y34.036
X15.018 Y34.037
X15.089 Y34.047
X15.302 Y34.089
X15.337 Y34.098
X15.372 Y34.111
X15.386 Y34.117
X15.514 Y34.198
X15.604 Y34.259
X15.655 Y34.295
X15.707 Y34.348
X15.744 Y34.401
X15.839 Y34.542
X15.883 Y34.613
X15.898 Y34.649
X15.908 Y34.684
X15.992 Y35.109
X16. Y35.18
Y35.29
G3 X15.7 Y35.59 Z-0.3 I-0.3 J0.
G1 X15.636 Y35.583
X15.574 Y35.563
X15.518 Y35.529
X15.456 Y35.482
X15.339 Y35.393
G3 X15.702 Y34.915 I0.182 J-0.239
X15.779 Y35.001 I-0.182 J0.239
X15.914 Y35.293 I-1.36 J0.809
X16. Y35.754 Z-0.5 I-1.496 J0.517
G1 Y36.498
X15.993 Y36.648
X15.955 Y36.793
X15.893 Y36.93
X15.811 Y37.056
X15.713 Y37.169
X15.602 Y37.27
X15.481 Y37.358
X15.35 Y37.432
X15.213 Y37.492
X15.07 Y37.537
X14.923 Y37.567
X14.773 Y37.581
X14.619 Y37.58
X14.423 Y37.527
X14.25 Y37.421
X14.115 Y37.269
X14.029 Y37.085
X14. Y36.884
Y36.174
G3 X14.31 Y35.884 Z-0.3 I0.3 J0.01
G1 X14.368 Y35.892
X14.578 Y35.941
X15.425 Y36.137
X15.691 Y36.199
X15.768 Y36.216 Z-0.333
G3 X16. Y36.498 Z-0.5 I-0.068 J0.292
G1 Y37.172
X15.993 Y37.322
X15.955 Y37.467
X15.895 Y37.604
X15.815 Y37.731
X15.719 Y37.847
X15.611 Y37.95
X15.491 Y38.041
X15.363 Y38.119
X15.227 Y38.182
X15.085 Y38.231
X14.939 Y38.265
X14.79 Y38.282
X14.64 Y38.284
X14.631 Y38.283
X14.432 Y38.233
X14.256 Y38.127
X14.118 Y37.975
X14.03 Y37.789
X14. Y37.586
Y36.884
G3 X14.31 Y36.595 Z-0.3 I0.3 J0.01
G1 X14.36 Y36.601
X14.579 Y36.646
X15.423 Y36.819
X15.691 Y36.874
X15.761 Y36.889 Z-0.33
G3 X16. Y37.172 Z-0.5 I-0.06 J0.294
G1 Y37.881
X15.993 Y38.031
X15.953 Y38.175
X15.89 Y38.312
X15.809 Y38.438
X15.713 Y38.553
X15.604 Y38.656
X15.484 Y38.746
X15.356 Y38.824
X15.219 Y38.886
X15.077 Y38.934
X14.931 Y38.967
X14.782 Y38.983
X14.632 Y38.984
X14.626
X14.428 Y38.933
X14.254 Y38.827
X14.117 Y38.675
X14.03 Y38.49
X14. Y38.288
Y37.586
G3 X14.31 Y37.297 Z-0.3 I0.3 J0.01
G1 X14.362 Y37.303
X14.579 Y37.349
X15.423 Y37.526
X15.691 Y37.583
X15.762 Y37.598 Z-0.331
G3 X16. Y37.881 Z-0.5 I-0.062 J0.294
G1 Y38.554
X15.993 Y38.704
X15.958 Y38.85
X15.899 Y38.988
X15.822 Y39.117
X15.728 Y39.234
X15.621 Y39.339
X15.503 Y39.432
X15.377 Y39.512
X15.241 Y39.577
X15.1 Y39.628
X14.954 Y39.663
X14.806 Y39.682
X14.656 Y39.686
X14.64 Y39.685
X14.439 Y39.637
X14.26 Y39.532
X14.12 Y39.379
X14.031 Y39.192
X14. Y38.987
Y38.288
G3 X14.31 Y37.998 Z-0.3 I0.3 J0.01
G1 X14.356 Y38.004
X14.579 Y38.046
X15.422 Y38.207
X15.691 Y38.258
X15.756 Y38.27 Z-0.328
G3 X16. Y38.554 Z-0.5 I-0.056 J0.295
G1 Y39.263
X15.993 Y39.413
X15.956 Y39.559
X15.896 Y39.696
X15.817 Y39.824
X15.723 Y39.94
X15.615 Y40.045
X15.497 Y40.137
X15.37 Y40.216
X15.234 Y40.28
X15.093 Y40.33
X14.947 Y40.365
X14.798 Y40.383
X14.648 Y40.386
X14.635 Y40.384
X14.435 Y40.335
X14.258 Y40.23
X14.119 Y40.078
X14.03 Y39.891
X14. Y39.687
Y38.987
G3 X14.31 Y38.698 Z-0.3 I0.3 J0.01
G1 X14.358 Y38.703
X14.579 Y38.747
X15.422 Y38.913
X15.691 Y38.966
X15.758 Y38.979 Z-0.329
G3 X16. Y39.263 Z-0.5 I-0.058 J0.294
G1 Y39.972
X15.993 Y40.122
X15.954 Y40.267
X15.893 Y40.404
X15.813 Y40.531
X15.718 Y40.647
X15.61 Y40.75
X15.491 Y40.842
X15.363 Y40.92
X15.227 Y40.984
X15.085 Y41.033
X14.939 Y41.066
X14.79 Y41.084
X14.64 Y41.086
X14.631 Y41.085
X14.432 Y41.035
X14.256 Y40.929
X14.118 Y40.777
X14.03 Y40.591
X14. Y40.388
Y39.687
G3 X14.31 Y39.398 Z-0.3 I0.3 J0.01
G1 X14.36 Y39.404
X14.579 Y39.448
X15.423 Y39.62
X15.691 Y39.674
X15.76 Y39.688 Z-0.33
G3 X16. Y39.972 Z-0.5 I-0.06 J0.294
G1 Y40.638
X15.993 Y40.788
X15.961 Y40.934
X15.905 Y41.074
X15.83 Y41.203
X15.738 Y41.322
X15.633 Y41.429
X15.516 Y41.523
X15.39 Y41.604
X15.255 Y41.671
X15.115 Y41.723
X14.97 Y41.761
X14.821 Y41.781
X14.671 Y41.786
X14.649 Y41.785
X14.445 Y41.739
X14.264 Y41.634
X14.122 Y41.481
X14.031 Y41.293
X14. Y41.087
Y40.388
G3 X14.31 Y40.099 Z-0.3 I0.3 J0.01
G1 X14.352 Y40.103
X14.58 Y40.144
X15.421 Y40.294
X15.691 Y40.342
X15.753 Y40.353 Z-0.327
G3 X16. Y40.638 Z-0.5 I-0.053 J0.295
G1 Y41.347
X15.993 Y41.497
X15.959 Y41.643
X15.902 Y41.781
X15.825 Y41.91
X15.732 Y42.028
X15.626 Y42.134
X15.509 Y42.228
X15.382 Y42.308
X15.247 Y42.373
X15.106 Y42.425
X14.961 Y42.461
X14.812 Y42.481
X14.662 Y42.485
X14.643 Y42.484
X14.44 Y42.436
X14.261 Y42.331
X14.12 Y42.179
X14.031 Y41.991
X14. Y41.786
Y41.087
G3 X14.31 Y40.797 Z-0.3 I0.3 J0.01
G1 X14.355 Y40.802
X14.58 Y40.844
X15.422 Y41.
X15.691 Y41.05
X15.755 Y41.062 Z-0.328
G3 X16. Y41.347 Z-0.5 I-0.055 J0.295
G1 Y42.055
X15.993 Y42.205
X15.957 Y42.351
X15.899 Y42.489
X15.821 Y42.617
X15.727 Y42.734
X15.62 Y42.839
X15.502 Y42.932
X15.375 Y43.012
X15.239 Y43.076
X15.098 Y43.127
X14.952 Y43.162
X14.804 Y43.181
X14.654 Y43.184
X14.638 Y43.183
X14.437 Y43.135
X14.259 Y43.03
X14.119 Y42.877
X14.031 Y42.69
X14. Y42.486
Y41.786
G3 X14.31 Y41.497 Z-0.3 I0.3 J0.01
G1 X14.357 Y41.502
X14.579 Y41.545
X15.422 Y41.707
X15.691 Y41.759
X15.757 Y41.771 Z-0.329
G3 X16. Y42.055 Z-0.5 I-0.057 J0.295
G1 Y42.764
X15.993 Y42.914
X15.956 Y43.059
X15.896 Y43.197
X15.816 Y43.324
X15.722 Y43.441
X15.614 Y43.545
X15.496 Y43.637
X15.368 Y43.716
X15.232 Y43.78
X15.091 Y43.83
X14.945 Y43.864
X14.796 Y43.882
X14.646 Y43.884
X14.634 Y43.883
X14.434 Y43.834
X14.257 Y43.728
X14.119 Y43.576
X14.03 Y43.39
X14. Y43.186
Y42.486
G3 X14.31 Y42.197 Z-0.3 I0.3 J0.01
G1 X14.358 Y42.202
X14.579 Y42.246
X15.422 Y42.414
X15.691 Y42.467
X15.759 Y42.481 Z-0.329
G3 X16. Y42.764 Z-0.5 I-0.059 J0.294
G1 Y43.473
X15.993 Y43.623
X15.954 Y43.768
X15.893 Y43.905
X15.812 Y44.031
X15.717 Y44.147
X15.608 Y44.251
X15.489 Y44.342
X15.361 Y44.42
X15.225 Y44.483
X15.084 Y44.532
X14.937 Y44.566
X14.788 Y44.583
X14.638 Y44.585
X14.63 Y44.584
X14.431 Y44.534
X14.255 Y44.428
X14.118 Y44.276
X14.03 Y44.09
X14. Y43.887
Y43.186
G3 X14.31 Y42.897 Z-0.3 I0.3 J0.01
G1 X14.36 Y42.903
X14.579 Y42.948
X15.423 Y43.121
X15.691 Y43.175
X15.76 Y43.19 Z-0.33
G3 X16. Y43.473 Z-0.5 I-0.06 J0.294
G1 Y44.182
X15.993 Y44.332
X15.953 Y44.476
X15.89 Y44.613
X15.809 Y44.739
X15.712 Y44.854
X15.603 Y44.957
X15.484 Y45.047
X15.355 Y45.125
X15.219 Y45.187
X15.077 Y45.236
X14.931 Y45.268
X14.781 Y45.284
X14.631 Y45.285
X14.626
X14.428 Y45.234
X14.254 Y45.128
X14.117 Y44.976
X14.03 Y44.791
X14. Y44.589
Y43.887
G3 X14.31 Y43.598 Z-0.3 I0.3 J0.01
G1 X14.362 Y43.604
X14.579 Y43.65
X15.423 Y43.827
X15.691 Y43.884
X15.762 Y43.899 Z-0.331
G3 X16. Y44.182 Z-0.5 I-0.062 J0.294
G1 Y44.862
X15.993 Y45.012
X15.957 Y45.157
X15.897 Y45.295
X15.818 Y45.423
X15.724 Y45.54
X15.617 Y45.644
X15.499 Y45.737
X15.371 Y45.816
X15.236 Y45.88
X15.095 Y45.931
X14.949 Y45.966
X14.8 Y45.984
X14.65 Y45.987
X14.637 Y45.986
X14.436 Y45.937
X14.259 Y45.832
X14.119 Y45.679
X14.03 Y45.493
X14. Y45.289
Y44.589
G3 X14.31 Y44.299 Z-0.3 I0.3 J0.01
G1 X14.357 Y44.305
X14.579 Y44.348
X15.422 Y44.513
X15.691 Y44.565
X15.758 Y44.578 Z-0.329
G3 X16. Y44.862 Z-0.5 I-0.057 J0.294
G1 Y45.536
X15.993 Y45.685
X15.962 Y45.832
X15.906 Y45.972
X15.831 Y46.101
X15.739 Y46.22
X15.634 Y46.327
X15.518 Y46.422
X15.392 Y46.503
X15.258 Y46.57
X15.117 Y46.623
X14.972 Y46.66
X14.823 Y46.681
X14.674 Y46.687
X14.65 Y46.685
X14.446 Y46.639
X14.265 Y46.535
X14.122 Y46.382
X14.031 Y46.194
X14. Y45.987
Y45.289
G3 X14.31 Y44.999 Z-0.3 I0.3 J0.01
G1 X14.352 Y45.004
X14.58 Y45.044
X15.421 Y45.192
X15.691 Y45.24
X15.752 Y45.251 Z-0.327
G3 X16. Y45.536 Z-0.5 I-0.052 J0.295
G1 Y46.244
X15.993 Y46.394
X15.96 Y46.541
X15.903 Y46.679
X15.826 Y46.808
X15.734 Y46.926
X15.628 Y47.033
X15.511 Y47.126
X15.384 Y47.207
X15.249 Y47.273
X15.109 Y47.325
X14.963 Y47.361
X14.814 Y47.381
X14.664 Y47.386
X14.644 Y47.384
X14.441 Y47.337
X14.262 Y47.232
X14.121 Y47.079
X14.031 Y46.892
X14. Y46.686
Y45.987
G3 X14.31 Y45.698 Z-0.3 I0.3 J0.01
G1 X14.354 Y45.702
X14.58 Y45.744
X15.422 Y45.899
X15.691 Y45.948
X15.754 Y45.96 Z-0.328
G3 X16. Y46.244 Z-0.5 I-0.054 J0.295
G1 Y46.953
X15.993 Y47.103
X15.958 Y47.249
X15.899 Y47.387
X15.822 Y47.515
X15.728 Y47.633
X15.621 Y47.738
X15.504 Y47.831
X15.377 Y47.911
X15.241 Y47.976
X15.1 Y48.027
X14.955 Y48.062
X14.806 Y48.081
X14.656 Y48.085
X14.639 Y48.083
X14.438 Y48.035
X14.26 Y47.93
X14.12 Y47.777
X14.031 Y47.591
X14. Y47.386
Y46.686
G3 X14.31 Y46.397 Z-0.3 I0.3 J0.01
G1 X14.356 Y46.402
X14.579 Y46.445
X15.422 Y46.605
X15.691 Y46.656
X15.756 Y46.669 Z-0.328
G3 X16. Y46.953 Z-0.5 I-0.056 J0.295
G1 Y47.662
X15.993 Y47.812
X15.956 Y47.957
X15.896 Y48.095
X15.817 Y48.222
X15.723 Y48.339
X15.615 Y48.444
X15.497 Y48.536
X15.37 Y48.615
X15.234 Y48.679
X15.093 Y48.729
X14.947 Y48.763
X14.798 Y48.781
X14.648 Y48.784
X14.635 Y48.783
X14.435 Y48.734
X14.258 Y48.629
X14.119 Y48.476
X14.03 Y48.29
X14. Y48.086
Y47.386
G3 X14.31 Y47.096 Z-0.3 I0.3 J0.01
G1 X14.358 Y47.102
X14.579 Y47.146
X15.422 Y47.312
X15.691 Y47.365
X15.758 Y47.378 Z-0.329
G3 X16. Y47.662 Z-0.5 I-0.058 J0.294
G1 Y48.371
X15.993 Y48.521
X15.954 Y48.666
X15.893 Y48.803
X15.813 Y48.93
X15.718 Y49.045
X15.61 Y49.149
X15.491 Y49.241
X15.363 Y49.319
X15.227 Y49.382
X15.085 Y49.432
X14.939 Y49.465
X14.79 Y49.482
X14.64 Y49.484
X14.631
X14.432 Y49.434
X14.256 Y49.328
X14.118 Y49.176
X14.03 Y48.99
X14. Y48.787
Y48.086
G3 X14.31 Y47.797 Z-0.3 I0.3 J0.01
G1 X14.36 Y47.803
X14.579 Y47.847
X15.423 Y48.019
X15.691 Y48.073
X15.76 Y48.087 Z-0.33
G3 X16. Y48.371 Z-0.5 I-0.06 J0.294
G1 Y49.08
X15.993 Y49.229
X15.953 Y49.374
X15.891 Y49.511
X15.81 Y49.637
X15.713 Y49.752
X15.605 Y49.855
X15.485 Y49.946
X15.357 Y50.024
X15.221 Y50.086
X15.079 Y50.135
X14.932 Y50.167
X14.783 Y50.184
X14.633 Y50.185
X14.627
X14.429 Y50.134
X14.254 Y50.028
X14.117 Y49.876
X14.03 Y49.691
X14. Y49.488
Y48.787
G3 X14.31 Y48.498 Z-0.3 I0.3 J0.01
G1 X14.361 Y48.504
X14.579 Y48.549
X15.423 Y48.726
X15.691 Y48.782
X15.762 Y48.796 Z-0.331
G3 X16. Y49.08 Z-0.5 I-0.061 J0.294
G1 Y49.788
X15.993 Y49.938
X15.952 Y50.082
X15.888 Y50.218
X15.806 Y50.344
X15.709 Y50.459
X15.6 Y50.561
X15.48 Y50.651
X15.351 Y50.728
X15.215 Y50.79
X15.072 Y50.838
X14.926 Y50.87
X14.777 Y50.886
X14.624
X14.427 Y50.835
X14.252 Y50.729
X14.116 Y50.577
X14.03 Y50.392
X14. Y50.19
Y49.488
G3 X14.31 Y49.199 Z-0.3 I0.3 J0.01
G1 X14.363 Y49.205
X14.578 Y49.252
X15.423 Y49.433
X15.691 Y49.49
X15.763 Y49.505 Z-0.331
G3 X16. Y49.788 Z-0.5 I-0.063 J0.293
G1 Y50.462
X15.993 Y50.612
X15.957 Y50.758
X15.898 Y50.895
X15.819 Y51.023
X15.725 Y51.14
X15.618 Y51.245
X15.5 Y51.337
X15.372 Y51.417
X15.237 Y51.481
X15.096 Y51.532
X14.95 Y51.567
X14.801 Y51.585
X14.651 Y51.588
X14.638 Y51.587
X14.437 Y51.539
X14.259 Y51.434
X14.119 Y51.281
X14.031 Y51.094
X14. Y50.89
Y50.19
G3 X14.31 Y49.901 Z-0.3 I0.3 J0.01
G1 X14.357 Y49.906
X14.579 Y49.949
X15.422 Y50.113
X15.691 Y50.165
X15.757 Y50.178 Z-0.329
G3 X16. Y50.462 Z-0.5 I-0.057 J0.295
G1 Y51.171
X15.993 Y51.321
X15.955 Y51.466
X15.895 Y51.603
X15.815 Y51.73
X15.72 Y51.846
X15.612 Y51.951
X15.494 Y52.043
X15.366 Y52.121
X15.23 Y52.185
X15.088 Y52.234
X14.942 Y52.268
X14.793 Y52.286
X14.643 Y52.288
X14.633 Y52.287
X14.433 Y52.238
X14.256 Y52.132
X14.118 Y51.98
X14.03 Y51.794
X14. Y51.591
Y50.89
G3 X14.31 Y50.601 Z-0.3 I0.3 J0.01
G1 X14.359 Y50.606
X14.579 Y50.65
X15.423 Y50.82
X15.691 Y50.873
X15.759 Y50.887 Z-0.33
G3 X16. Y51.171 Z-0.5 I-0.059 J0.294
G1 Y51.88
X15.993 Y52.029
X15.954 Y52.174
X15.892 Y52.311
X15.811 Y52.438
X15.715 Y52.553
X15.607 Y52.656
X15.488 Y52.748
X15.36 Y52.826
X15.223 Y52.888
X15.082 Y52.937
X14.935 Y52.97
X14.786 Y52.987
X14.636 Y52.989
X14.629 Y52.988
X14.43 Y52.938
X14.255 Y52.832
X14.117 Y52.68
X14.03 Y52.494
X14. Y52.292
Y51.591
G3 X14.31 Y51.301 Z-0.3 I0.3 J0.01
G1 X14.36 Y51.307
X14.579 Y51.352
X15.423 Y51.527
X15.691 Y51.582
X15.761 Y51.596 Z-0.33
G3 X16. Y51.88 Z-0.5 I-0.061 J0.294
G1 Y52.546
X15.993 Y52.695
X15.96 Y52.842
X15.904 Y52.981
X15.828 Y53.11
X15.735 Y53.228
X15.63 Y53.335
X15.513 Y53.429
X15.387 Y53.51
X15.252 Y53.576
X15.111 Y53.628
X14.966 Y53.665
X14.817 Y53.685
X14.667 Y53.69
X14.647 Y53.688
X14.444 Y53.642
X14.263 Y53.537
X14.121 Y53.384
X14.031 Y53.196
X14. Y52.99
Y52.292
G3 X14.31 Y52.002 Z-0.3 I0.3 J0.01
G1 X14.353 Y52.007
X14.58 Y52.048
X15.421 Y52.201
X15.691 Y52.249
X15.754 Y52.261 Z-0.327
G3 X16. Y52.546 Z-0.5 I-0.054 J0.295
G1 Y53.254
X15.993 Y53.404
X15.958 Y53.55
X15.9 Y53.689
X15.823 Y53.817
X15.73 Y53.935
X15.623 Y54.04
X15.506 Y54.134
X15.379 Y54.214
X15.244 Y54.279
X15.103 Y54.33
X14.957 Y54.366
X14.808 Y54.385
X14.659 Y54.389
X14.641 Y54.387
X14.439 Y54.339
X14.26 Y54.234
X14.12 Y54.082
X14.031 Y53.895
X14. Y53.69
Y52.99
G3 X14.31 Y52.701 Z-0.3 I0.3 J0.01
G1 X14.355 Y52.706
X14.579 Y52.748
X15.422 Y52.907
X15.691 Y52.958
X15.756 Y52.97 Z-0.328
G3 X16. Y53.254 Z-0.5 I-0.056 J0.295
G1 Y53.963
X15.993 Y54.113
X15.957 Y54.259
X15.897 Y54.396
X15.819 Y54.524
X15.724 Y54.641
X15.617 Y54.746
X15.499 Y54.838
X15.372 Y54.918
X15.236 Y54.982
X15.095 Y55.032
X14.949 Y55.067
X14.8 Y55.085
X14.65 Y55.088
X14.636 Y55.087
X14.436 Y55.038
X14.258 Y54.933
X14.119 Y54.78
X14.03 Y54.594
X14. Y54.39
Y53.69
G3 X14.31 Y53.4 Z-0.3 I0.3 J0.01
G1 X14.357 Y53.406
X14.579 Y53.449
X15.422 Y53.614
X15.691 Y53.666
X15.758 Y53.679 Z-0.329
G3 X16. Y53.963 Z-0.5 I-0.057 J0.294
G1 Y54.672
X15.993 Y54.822
X15.955 Y54.967
X15.894 Y55.104
X15.815 Y55.231
X15.72 Y55.347
X15.612 Y55.451
X15.493 Y55.543
X15.365 Y55.622
X15.229 Y55.685
X15.088 Y55.735
X14.941 Y55.769
X14.793 Y55.786
X14.643 Y55.788
X14.632 Y55.787
X14.433 Y55.738
X14.256 Y55.632
X14.118 Y55.48
X14.03 Y55.294
X14. Y55.091
Y54.39
G3 X14.31 Y54.101 Z-0.3 I0.3 J0.01
G1 X14.359 Y54.106
X14.579 Y54.151
X15.423 Y54.32
X15.691 Y54.374
X15.759 Y54.388 Z-0.33
G3 X16. Y54.672 Z-0.5 I-0.059 J0.294
G1 Y55.381
X15.993 Y55.531
X15.953 Y55.675
X15.891 Y55.812
X15.811 Y55.938
X15.715 Y56.054
X15.606 Y56.157
X15.487 Y56.248
X15.359 Y56.326
X15.223 Y56.389
X15.081 Y56.438
X14.934 Y56.471
X14.785 Y56.487
X14.635 Y56.489
X14.628 Y56.488
X14.43 Y56.438
X14.255 Y56.332
X14.117 Y56.18
X14.03 Y55.994
X14. Y55.792
Y55.091
G3 X14.31 Y54.801 Z-0.3 I0.3 J0.01
G1 X14.361 Y54.807
X14.579 Y54.852
X15.423 Y55.027
X15.691 Y55.083
X15.761 Y55.097 Z-0.33
G3 X16. Y55.381 Z-0.5 I-0.061 J0.294
G1 Y56.089
X15.993 Y56.239
X15.952 Y56.384
X15.889 Y56.52
X15.807 Y56.646
X15.711 Y56.76
X15.601 Y56.863
X15.482 Y56.954
X15.353 Y57.031
X15.217 Y57.093
X15.074 Y57.141
X14.928 Y57.173
X14.779 Y57.189
X14.625 Y57.19
X14.427 Y57.138
X14.253 Y57.032
X14.117 Y56.88
X14.03 Y56.696
X14. Y56.494
Y55.792
G3 X14.31 Y55.502 Z-0.3 I0.3 J0.01
G1 X14.362 Y55.509
X14.578 Y55.555
X15.423 Y55.734
X15.691 Y55.791
X15.763 Y55.807 Z-0.331
G3 X16. Y56.089 Z-0.5 I-0.062 J0.293
G1 Y56.77
X15.993 Y56.919
X15.956 Y57.065
X15.896 Y57.202
X15.817 Y57.33
X15.723 Y57.446
X15.615 Y57.551
X15.497 Y57.643
X15.369 Y57.722
X15.234 Y57.786
X15.092 Y57.836
X14.946 Y57.871
X14.797 Y57.889
X14.647 Y57.892
X14.636 Y57.891
X14.435 Y57.842
X14.258 Y57.736
X14.119 Y57.584
X14.03 Y57.398
X14. Y57.194
Y56.494
G3 X14.31 Y56.204 Z-0.3 I0.3 J0.01
G1 X14.358 Y56.21
X14.579 Y56.253
X15.422 Y56.42
X15.691 Y56.472
X15.758 Y56.486 Z-0.329
G3 X16. Y56.77 Z-0.5 I-0.058 J0.294
G1 Y57.443
X15.993 Y57.593
X15.961 Y57.74
X15.905 Y57.879
X15.83 Y58.008
X15.738 Y58.127
X15.632 Y58.234
X15.516 Y58.328
X15.39 Y58.41
X15.255 Y58.476
X15.115 Y58.529
X14.97 Y58.566
X14.821 Y58.586
X14.671 Y58.592
X14.648 Y58.59
X14.445 Y58.544
X14.264 Y58.44
X14.122 Y58.287
X14.031 Y58.099
X14. Y57.892
Y57.194
G3 X14.31 Y56.904 Z-0.3 I0.3 J0.01
G1 X14.352 Y56.909
X14.58 Y56.949
X15.421 Y57.099
X15.691 Y57.147
X15.753 Y57.158 Z-0.327
G3 X16. Y57.443 Z-0.5 I-0.053 J0.295
G1 Y58.152
X15.993 Y58.302
X15.959 Y58.448
X15.902 Y58.587
X15.825 Y58.716
X15.732 Y58.833
X15.626 Y58.939
X15.509 Y59.033
X15.382 Y59.113
X15.247 Y59.179
X15.106 Y59.231
X14.961 Y59.266
X14.812 Y59.286
X14.662 Y59.291
X14.643 Y59.289
X14.44 Y59.241
X14.261 Y59.137
X14.12 Y58.984
X14.031 Y58.797
X14. Y58.591
Y57.892
G3 X14.31 Y57.603 Z-0.3 I0.3 J0.01
G1 X14.355 Y57.608
X14.58 Y57.649
X15.422 Y57.806
X15.691 Y57.856
X15.755 Y57.868 Z-0.328
G3 X16. Y58.152 Z-0.5 I-0.055 J0.295
G1 Y58.861
X15.993 Y59.011
X15.957 Y59.156
X15.899 Y59.294
X15.821 Y59.423
X15.727 Y59.54
X15.62 Y59.645
X15.502 Y59.738
X15.375 Y59.817
X15.239 Y59.882
X15.098 Y59.933
X14.952 Y59.968
X14.804 Y59.986
X14.654 Y59.99
X14.638 Y59.988
X14.437 Y59.94
X14.259 Y59.835
X14.119 Y59.682
X14.031 Y59.496
X14. Y59.291
Y58.591
G3 X14.31 Y58.302 Z-0.3 I0.3 J0.01
G1 X14.357 Y58.307
X14.579 Y58.35
X15.422 Y58.512
X15.691 Y58.564
X15.757 Y58.577 Z-0.329
G3 X16. Y58.861 Z-0.5 I-0.057 J0.295
G1 Y59.57
X15.993 Y59.719
X15.956 Y59.865
X15.896 Y60.002
X15.816 Y60.13
X15.722 Y60.246
X15.614 Y60.35
X15.495 Y60.442
X15.368 Y60.521
X15.232 Y60.585
X15.091 Y60.635
X14.945 Y60.669
X14.796 Y60.687
X14.646 Y60.69
X14.634 Y60.689
X14.434 Y60.639
X14.257 Y60.534
X14.119 Y60.381
X14.03 Y60.195
X14. Y59.992
Y59.291
G3 X14.31 Y59.002 Z-0.3 I0.3 J0.01
G1 X14.358 Y59.007
X14.579 Y59.051
X15.422 Y59.219
X15.691 Y59.272
X15.759 Y59.286 Z-0.329
G3 X16. Y59.57 Z-0.5 I-0.059 J0.294
G1 Y60.278
X15.993 Y60.428
X15.954 Y60.573
X15.893 Y60.71
X15.812 Y60.837
X15.717 Y60.952
X15.608 Y61.056
X15.489 Y61.148
X15.361 Y61.226
X15.225 Y61.289
X15.084 Y61.338
X14.937 Y61.371
X14.788 Y61.388
X14.638 Y61.39
X14.63 Y61.389
X14.431 Y61.339
X14.255 Y61.233
X14.118 Y61.081
X14.03 Y60.896
X14. Y60.693
Y59.992
G3 X14.31 Y59.702 Z-0.3 I0.3 J0.01
G1 X14.36 Y59.708
X14.579 Y59.753
X15.423 Y59.926
X15.691 Y59.981
X15.76 Y59.995 Z-0.33
G3 X16. Y60.278 Z-0.5 I-0.06 J0.294
G1 Y60.987
X15.993 Y61.137
X15.953 Y61.282
X15.89 Y61.418
X15.809 Y61.544
X15.712 Y61.659
X15.603 Y61.762
X15.484 Y61.853
X15.355 Y61.93
X15.219 Y61.992
X15.077 Y62.041
X14.931 Y62.073
X14.781 Y62.09
X14.631 Y62.091
X14.626 Y62.09
X14.428 Y62.039
X14.254 Y61.933
X14.117 Y61.781
X14.03 Y61.596
X14. Y61.394
Y60.693
G3 X14.31 Y60.403 Z-0.3 I0.3 J0.01
G1 X14.362 Y60.41
X14.579 Y60.455
X15.423 Y60.633
X15.691 Y60.689
X15.762 Y60.704 Z-0.331
G3 X16. Y60.987 Z-0.5 I-0.062 J0.294
G1 Y61.661
X15.993 Y61.811
X15.958 Y61.957
X15.899 Y62.095
X15.822 Y62.223
X15.728 Y62.34
X15.621 Y62.446
X15.503 Y62.538
X15.376 Y62.618
X15.241 Y62.683
X15.1 Y62.734
X14.954 Y62.77
X14.806 Y62.788
X14.656 Y62.792
X14.64 Y62.791
X14.439 Y62.743
X14.26 Y62.638
X14.12 Y62.485
X14.031 Y62.298
X14. Y62.094
Y61.394
G3 X14.31 Y61.105 Z-0.3 I0.3 J0.01
G1 X14.356 Y61.11
X14.579 Y61.153
X15.422 Y61.313
X15.691 Y61.364
X15.756 Y61.377 Z-0.328
G3 X16. Y61.661 Z-0.5 I-0.056 J0.295
G1 Y62.37
X15.993 Y62.52
X15.956 Y62.665
X15.896 Y62.803
X15.817 Y62.93
X15.723 Y63.047
X15.615 Y63.151
X15.497 Y63.244
X15.37 Y63.323
X15.234 Y63.386
X15.093 Y63.437
X14.946 Y63.471
X14.798 Y63.489
X14.648 Y63.492
X14.635 Y63.491
X14.435 Y63.442
X14.258 Y63.336
X14.119 Y63.184
X14.03 Y62.998
X14. Y62.794
Y62.094
G3 X14.31 Y61.804 Z-0.3 I0.3 J0.01
G1 X14.358 Y61.81
X14.579 Y61.853
X15.422 Y62.02
X15.691 Y62.073
X15.758 Y62.086 Z-0.329
G3 X16. Y62.37 Z-0.5 I-0.058 J0.294
G1 Y63.078
X15.993 Y63.228
X15.954 Y63.373
X15.893 Y63.51
X15.813 Y63.637
X15.718 Y63.753
X15.61 Y63.857
X15.491 Y63.949
X15.363 Y64.027
X15.227 Y64.09
X15.085 Y64.139
X14.939 Y64.173
X14.79 Y64.19
X14.64 Y64.192
X14.631 Y64.191
X14.432 Y64.141
X14.256 Y64.036
X14.118 Y63.883
X14.03 Y63.698
X14. Y63.495
Y62.794
G3 X14.31 Y62.504 Z-0.3 I0.3 J0.01
G1 X14.36 Y62.51
X14.579 Y62.555
X15.423 Y62.726
X15.691 Y62.781
X15.76 Y62.795 Z-0.33
G3 X16. Y63.078 Z-0.5 I-0.06 J0.294
G1 Y63.744
X15.993 Y63.894
X15.961 Y64.041
X15.905 Y64.18
X15.83 Y64.31
X15.738 Y64.428
X15.632 Y64.535
X15.516 Y64.629
X15.39 Y64.711
X15.255 Y64.777
X15.115 Y64.83
X14.97 Y64.867
X14.821 Y64.887
X14.671 Y64.893
X14.649 Y64.891
X14.445 Y64.845
X14.264 Y64.741
X14.122 Y64.588
X14.031 Y64.4
X14. Y64.193
Y63.495
G3 X14.31 Y63.205 Z-0.3 I0.3 J0.01
G1 X14.352 Y63.21
X14.58 Y63.25
X15.421 Y63.4
X15.691 Y63.448
X15.753 Y63.46 Z-0.327
G3 X16. Y63.744 Z-0.5 I-0.053 J0.295
G1 Y64.453
X15.993 Y64.603
X15.959 Y64.749
X15.902 Y64.888
X15.825 Y65.017
X15.732 Y65.134
X15.626 Y65.24
X15.509 Y65.334
X15.382 Y65.414
X15.247 Y65.48
X15.106 Y65.532
X14.961 Y65.568
X14.812 Y65.587
X14.742 Y65.589
X14.548 Y65.568
X14.366 Y65.493
X14.213 Y65.371
X14.099 Y65.211
X14.035 Y65.026
G3 X14.225 Y64.697 Z-0.325 I0.296 J-0.048
G1 X14.281 Y64.676 Z-0.3
X14.537 Y64.58
X15.43 Y64.245
X15.595 Y64.183
X15.642 Y64.169
X15.69 Y64.164
G3 X16. Y64.453 Z-0.5 I0.01 J0.3
G1 Y64.808
X15.999 Y64.843
X15.995 Y64.878
X15.91 Y65.304
X15.902 Y65.339
X15.889 Y65.375
X15.847 Y65.445
X15.753 Y65.587
X15.712 Y65.646
X15.686 Y65.675
X15.655 Y65.705
X15.623 Y65.729
X15.409 Y65.871
X15.372 Y65.888
X15.337 Y65.902
X15.302 Y65.911
X15.089 Y65.953
X15.018 Y65.963
X14.983 Y65.964
X14.948 Y65.96
X14.806 Y65.932
X14.664 Y65.903
X14.628 Y65.89
X14.591 Y65.871
X14.523 Y65.826
X14.377 Y65.729
X14.337 Y65.698
X14.297 Y65.658
X14.24 Y65.576
X14.153 Y65.445
X14.12 Y65.392
X14.107 Y65.366
X14.098 Y65.339
X14.09 Y65.304
X14.005 Y64.878
X14.001 Y64.843
X14. Y64.808
Y64.193
G3 X14.299 Y63.904 I0.3 J0.01
G1 X14.3
X14.324 Y63.905
X14.374 Y63.922 Z-0.495
X14.423 Y63.939 Z-0.481
X14.468 Y63.955 Z-0.458
X14.501 Y63.992 Z-0.421
X14.528 Y64.022 Z-0.374
X14.548 Y64.044 Z-0.32
X14.56 Y64.058 Z-0.262
X14.565 Y64.063 Z-0.2
Z5.
X14.896 Y35.824
Z1.5
S2000
G3 X14.657 Y35.112 Z1.469 I0.104 J-0.431 F75.
X15.401 Y35.206 Z1.438 I0.342 J0.28
X14.995 Y35.834 Z1.406 I-0.401 J0.187
X14.605 Y35.196 Z1.375 I0.005 J-0.441
X15.348 Y35.122 Z1.344 I0.395 J0.196
X15.093 Y35.823 Z1.313 I-0.348 J0.27
X14.572 Y35.29 Z1.281 I-0.093 J-0.43
X15.277 Y35.052 Z1.25 I0.427 J0.103
X15.186 Y35.79 Z1.219 I-0.278 J0.34
X14.562 Y35.388 Z1.188 I-0.186 J-0.397
X15.194 Y35.001 Z1.156 I0.438 J0.005
X15.269 Y35.737 Z1.125 I-0.194 J0.392
X14.574 Y35.485 Z1.094 I-0.268 J-0.344
X15.101 Y34.969 Z1.063 I0.426 J-0.092
X15.337 Y35.667 Z1.031 I-0.101 J0.424
X14.606 Y35.577 Z1. I-0.337 J-0.275
X15.004 Y34.958 Z0.969 I0.393 J-0.184
X15.389 Y35.584 Z0.938 I-0.004 J0.434
X14.659 Y35.659 Z0.906 I-0.389 J-0.192
X14.908 Y34.97 Z0.875 I0.341 J-0.266
X15.42 Y35.493 Z0.844 I0.092 J0.422
X14.728 Y35.727 Z0.813 I-0.42 J-0.1
X14.816 Y35.003 Z0.781 I0.272 J-0.335
X15.43 Y35.396 Z0.75 I0.183 J0.39
X14.81 Y35.778 Z0.719 I-0.43 J-0.004
X14.735 Y35.055 Z0.688 I0.19 J-0.385
X15.419 Y35.301 Z0.656 I0.265 J0.338
X14.901 Y35.809 Z0.625 I-0.418 J0.092
X14.668 Y35.123 Z0.594 I0.099 J-0.416
X15.386 Y35.21 Z0.563 I0.332 J0.269
X14.997 Y35.819 Z0.531 I-0.386 J0.182
X14.617 Y35.205 Z0.5 I0.003 J-0.426
X15.334 Y35.13 Z0.469 I0.382 J0.188
X15.092 Y35.807 Z0.438 I-0.334 J0.263
X14.587 Y35.295 Z0.406 I-0.091 J-0.415
X15.266 Y35.063 Z0.375 I0.413 J0.097
X15.181 Y35.775 Z0.344 I-0.266 J0.329
X14.577 Y35.39 Z0.313 I-0.181 J-0.382
X15.185 Y35.013 Z0.281 I0.422 J0.003
X15.261 Y35.724 Z0.25 I-0.186 J0.379
X14.589 Y35.484 Z0.219 I-0.261 J-0.331
X15.096 Y34.983 Z0.188 I0.411 J-0.091
X15.327 Y35.656 Z0.156 I-0.096 J0.409
X14.621 Y35.573 Z0.125 I-0.327 J-0.264
X15.002 Y34.974 Z0.094 I0.379 J-0.18
X15.376 Y35.576 Z0.063 I-0.002 J0.419
X14.672 Y35.651 Z0.031 I-0.376 J-0.183
X14.909 Y34.985 Z0. I0.328 J-0.259
X15.406 Y35.487 Z-0.031 I0.091 J0.407
X14.739 Y35.717 Z-0.063 I-0.406 J-0.095
X14.821 Y35.017 Z-0.094 I0.261 J-0.324
X15.415 Y35.394 Z-0.125 I0.178 J0.375
X14.819 Y35.765 Z-0.156 I-0.415 J-0.002
X14.743 Y35.068 Z-0.188 I0.181 J-0.372
X15.403 Y35.302 Z-0.219 I0.257 J0.325
X14.907 Y35.795 Z-0.25 I-0.403 J0.09
X14.678 Y35.134 Z-0.281 I0.093 J-0.402
X15.371 Y35.215 Z-0.313 I0.321 J0.258
X14.999 Y35.804 Z-0.344 I-0.371 J0.177
X14.63 Y35.213 Z-0.375 I0.001 J-0.411
X15.321 Y35.138 Z-0.406 I0.369 J0.179
X15.09 Y35.792 Z-0.438 I-0.321 J0.255
X14.601 Y35.301 Z-0.469 I-0.09 J-0.399
X15.255 Y35.074 Z-0.5 I0.398 J0.092
X15.176 Y35.76 Z-0.531 I-0.255 J0.319
X14.592 Y35.392 Z-0.563 I-0.176 J-0.368
X15.177 Y35.026 Z-0.594 I0.407 J0.001
X15.253 Y35.711 Z-0.625 I-0.177 J0.366
X14.604 Y35.482 Z-0.656 I-0.253 J-0.318
X15.091 Y34.998 Z-0.688 I0.395 J-0.09
X15.316 Y35.645 Z-0.719 I-0.091 J0.395
X14.636 Y35.568 Z-0.75 I-0.316 J-0.253
X15. Y34.989 Z-0.781 I0.364 J-0.175
X15.363 Y35.568 Z-0.813 I0. J0.403
X14.685 Y35.643 Z-0.844 I-0.363 J-0.175
X14.911 Y35.001 Z-0.875 I0.315 J-0.251
X15.391 Y35.482 Z-0.906 I0.089 J0.392
X14.75 Y35.706 Z-0.938 I-0.391 J-0.089
X14.826 Y35.032 Z-0.969 I0.25 J-0.313
X15.4 Y35.392 Z-1. I0.174 J0.36
X14.6 I-0.4 J0.
X15.4 I0.4 J0.
S9000
G1 X15.442 Y35.643 F100.
X15.456 Y35.793
X15.405 Y35.934
X15.312 Y36.052
X15.191 Y36.14
X15.052 Y36.196
X14.903 Y36.22
X14.754 Y36.213
X14.608 Y36.177
X14.472 Y36.113
X14.35 Y36.026
X14.246 Y35.918
X14.162 Y35.794
X14.1 Y35.657
X14.062 Y35.512
X14.048 Y35.363
X14.059 Y35.213
X14.094 Y35.067
X14.152 Y34.929
X14.231 Y34.801
X14.329 Y34.688
X14.443 Y34.591
X14.571 Y34.513
X14.71 Y34.456
X14.856 Y34.421
X15.005 Y34.409
X15.155 Y34.42
X15.301 Y34.454
X15.44 Y34.51
X15.57 Y34.586
X15.686 Y34.68
X15.792 Y34.786
X15.842 Y34.847
X15.928 Y34.982
X15.982 Y35.132
X16. Y35.29
Y35.754
X15.993 Y35.904
X15.963 Y36.051
X15.912 Y36.192
X15.841 Y36.325
X15.753 Y36.446
X15.65 Y36.555
X15.533 Y36.649
X15.406 Y36.729
X15.27 Y36.792
X15.127 Y36.838
X14.98 Y36.868
X14.831 Y36.881
X14.681 Y36.878
X14.606 Y36.867
X14.414 Y36.813
X14.244 Y36.705
X14.112 Y36.554
X14.029 Y36.372
X14. Y36.174
Y35.18
X14.008 Y35.109
X14.092 Y34.684
X14.098 Y34.661
X14.109 Y34.631
X14.123 Y34.602
X14.161 Y34.542
X14.256 Y34.401
X14.303 Y34.335
X14.342 Y34.297
X14.381 Y34.268
X14.523 Y34.174
X14.613 Y34.117
X14.639 Y34.106
X14.664 Y34.097
X14.806 Y34.068
X14.948 Y34.04
X14.983 Y34.036
X15.018 Y34.037
X15.089 Y34.047
X15.302 Y34.089
X15.337 Y34.098
X15.372 Y34.111
X15.386 Y34.117
X15.514 Y34.198
X15.604 Y34.259
X15.655 Y34.295
X15.707 Y34.348
X15.744 Y34.401
X15.839 Y34.542
X15.883 Y34.613
X15.898 Y34.649
X15.908 Y34.684
X15.992 Y35.109
X16. Y35.18
Y35.29
G3 X15.7 Y35.59 Z-0.8 I-0.3 J0.
G1 X15.636 Y35.583
X15.574 Y35.563
X15.518 Y35.529
X15.456 Y35.482
X15.339 Y35.393
G3 X15.702 Y34.915 I0.182 J-0.239
X15.779 Y35.001 I-0.182 J0.239
X15.914 Y35.293 I-1.36 J0.809
X16. Y35.754 Z-1. I-1.496 J0.517
G1 Y36.498
X15.993 Y36.648
X15.955 Y36.793
X15.893 Y36.93
X15.811 Y37.056
X15.713 Y37.169
X15.602 Y37.27
X15.481 Y37.358
X15.35 Y37.432
X15.213 Y37.492
X15.07 Y37.537
X14.923 Y37.567
X14.773 Y37.581
X14.619 Y37.58
X14.423 Y37.527
X14.25 Y37.421
X14.115 Y37.269
X14.029 Y37.085
X14. Y36.884
Y36.174
G3 X14.31 Y35.884 Z-0.8 I0.3 J0.01
G1 X14.368 Y35.892
X14.578 Y35.941
X15.425 Y36.137
X15.691 Y36.199
X15.768 Y36.216 Z-0.833
G3 X16. Y36.498 Z-1. I-0.068 J0.292
G1 Y37.172
X15.993 Y37.322
X15.955 Y37.467
X15.895 Y37.604
X15.815 Y37.731
X15.719 Y37.847
X15.611 Y37.95
X15.491 Y38.041
X15.363 Y38.119
X15.227 Y38.182
X15.085 Y38.231
X14.939 Y38.265
X14.79 Y38.282
X14.64 Y38.284
X14.631 Y38.283
X14.432 Y38.233
X14.256 Y38.127
X14.118 Y37.975
X14.03 Y37.789
X14. Y37.586
Y36.884
G3 X14.31 Y36.595 Z-0.8 I0.3 J0.01
G1 X14.36 Y36.601
X14.579 Y36.646
X15.423 Y36.819
X15.691 Y36.874
X15.761 Y36.889 Z-0.83
G3 X16. Y37.172 Z-1. I-0.06 J0.294
G1 Y37.881
X15.993 Y38.031
X15.953 Y38.175
X15.89 Y38.312
X15.809 Y38.438
X15.713 Y38.553
X15.604 Y38.656
X15.484 Y38.746
X15.356 Y38.824
X15.219 Y38.886
X15.077 Y38.934
X14.931 Y38.967
X14.782 Y38.983
X14.632 Y38.984
X14.626
X14.428 Y38.933
X14.254 Y38.827
X14.117 Y38.675
X14.03 Y38.49
X14. Y38.288
Y37.586
G3 X14.31 Y37.297 Z-0.8 I0.3 J0.01
G1 X14.362 Y37.303
X14.579 Y37.349
X15.423 Y37.526
X15.691 Y37.583
X15.762 Y37.598 Z-0.831
G3 X16. Y37.881 Z-1. I-0.062 J0.294
G1 Y38.554
X15.993 Y38.704
X15.958 Y38.85
X15.899 Y38.988
X15.822 Y39.117
X15.728 Y39.234
X15.621 Y39.339
X15.503 Y39.432
X15.377 Y39.512
X15.241 Y39.577
X15.1 Y39.628
X14.954 Y39.663
X14.806 Y39.682
X14.656 Y39.686
X14.64 Y39.685
X14.439 Y39.637
X14.26 Y39.532
X14.12 Y39.379
X14.031 Y39.192
X14. Y38.987
Y38.288
G3 X14.31 Y37.998 Z-0.8 I0.3 J0.01
G1 X14.356 Y38.004
X14.579 Y38.046
X15.422 Y38.207
X15.691 Y38.258
X15.756 Y38.27 Z-0.828
G3 X16. Y38.554 Z-1. I-0.056 J0.295
G1 Y39.263
X15.993 Y39.413
X15.956 Y39.559
X15.896 Y39.696
X15.817 Y39.824
X15.723 Y39.94
X15.615 Y40.045
X15.497 Y40.137
X15.37 Y40.216
X15.234 Y40.28
X15.093 Y40.33
X14.947 Y40.365
X14.798 Y40.383
X14.648 Y40.386
X14.635 Y40.384
X14.435 Y40.335
X14.258 Y40.23
X14.119 Y40.078
X14.03 Y39.891
X14. Y39.687
Y38.987
G3 X14.31 Y38.698 Z-0.8 I0.3 J0.01
G1 X14.358 Y38.703
X14.579 Y38.747
X15.422 Y38.913
X15.691 Y38.966
X15.758 Y38.979 Z-0.829
G3 X16. Y39.263 Z-1. I-0.058 J0.294
G1 Y39.972
X15.993 Y40.122
X15.954 Y40.267
X15.893 Y40.404
X15.813 Y40.531
X15.718 Y40.647
X15.61 Y40.75
X15.491 Y40.842
X15.363 Y40.92
X15.227 Y40.984
X15.085 Y41.033
X14.939 Y41.066
X14.79 Y41.084
X14.64 Y41.086
X14.631 Y41.085
X14.432 Y41.035
X14.256 Y40.929
X14.118 Y40.777
X14.03 Y40.591
X14. Y40.388
Y39.687
G3 X14.31 Y39.398 Z-0.8 I0.3 J0.01
G1 X14.36 Y39.404
X14.579 Y39.448
X15.423 Y39.62
X15.691 Y39.674
X15.76 Y39.688 Z-0.83
G3 X16. Y39.972 Z-1. I-0.06 J0.294
G1 Y40.638
X15.993 Y40.788
X15.961 Y40.934
X15.905 Y41.074
X15.83 Y41.203
X15.738 Y41.322
X15.633 Y41.429
X15.516 Y41.523
X15.39 Y41.604
X15.255 Y41.671
X15.115 Y41.723
X14.97 Y41.761
X14.821 Y41.781
X14.671 Y41.786
X14.649 Y41.785
X14.445 Y41.739
X14.264 Y41.634
X14.122 Y41.481
X14.031 Y41.293
X14. Y41.087
Y40.388
G3 X14.31 Y40.099 Z-0.8 I0.3 J0.01
G1 X14.352 Y40.103
X14.58 Y40.144
X15.421 Y40.294
X15.691 Y40.342
X15.753 Y40.353 Z-0.827
G3 X16. Y40.638 Z-1. I-0.053 J0.295
G1 Y41.347
X15.993 Y41.497
X15.959 Y41.643
X15.902 Y41.781
X15.825 Y41.91
X15.732 Y42.028
X15.626 Y42.134
X15.509 Y42.228
X15.382 Y42.308
X15.247 Y42.373
X15.106 Y42.425
X14.961 Y42.461
X14.812 Y42.481
X14.662 Y42.485
X14.643 Y42.484
X14.44 Y42.436
X14.261 Y42.331
X14.12 Y42.179
X14.031 Y41.991
X14. Y41.786
Y41.087
G3 X14.31 Y40.797 Z-0.8 I0.3 J0.01
G1 X14.355 Y40.802
X14.58 Y40.844
X15.422 Y41.
X15.691 Y41.05
X15.755 Y41.062 Z-0.828
G3 X16. Y41.347 Z-1. I-0.055 J0.295
G1 Y42.055
X15.993 Y42.205
X15.957 Y42.351
X15.899 Y42.489
X15.821 Y42.617
X15.727 Y42.734
X15.62 Y42.839
X15.502 Y42.932
X15.375 Y43.012
X15.239 Y43.076
X15.098 Y43.127
X14.952 Y43.162
X14.804 Y43.181
X14.654 Y43.184
X14.638 Y43.183
X14.437 Y43.135
X14.259 Y43.03
X14.119 Y42.877
X14.031 Y42.69
X14. Y42.486
Y41.786
G3 X14.31 Y41.497 Z-0.8 I0.3 J0.01
G1 X14.357 Y41.502
X14.579 Y41.545
X15.422 Y41.707
X15.691 Y41.759
X15.757 Y41.771 Z-0.829
G3 X16. Y42.055 Z-1. I-0.057 J0.295
G1 Y42.764
X15.993 Y42.914
X15.956 Y43.059
X15.896 Y43.197
X15.816 Y43.324
X15.722 Y43.441
X15.614 Y43.545
X15.496 Y43.637
X15.368 Y43.716
X15.232 Y43.78
X15.091 Y43.83
X14.945 Y43.864
X14.796 Y43.882
X14.646 Y43.884
X14.634 Y43.883
X14.434 Y43.834
X14.257 Y43.728
X14.119 Y43.576
X14.03 Y43.39
X14. Y43.186
Y42.486
G3 X14.31 Y42.197 Z-0.8 I0.3 J0.01
G1 X14.358 Y42.202
X14.579 Y42.246
X15.422 Y42.414
X15.691 Y42.467
X15.759 Y42.481 Z-0.829
G3 X16. Y42.764 Z-1. I-0.059 J0.294
G1 Y43.473
X15.993 Y43.623
X15.954 Y43.768
X15.893 Y43.905
X15.812 Y44.031
X15.717 Y44.147
X15.608 Y44.251
X15.489 Y44.342
X15.361 Y44.42
X15.225 Y44.483
X15.084 Y44.532
X14.937 Y44.566
X14.788 Y44.583
X14.638 Y44.585
X14.63 Y44.584
X14.431 Y44.534
X14.255 Y44.428
X14.118 Y44.276
X14.03 Y44.09
X14. Y43.887
Y43.186
G3 X14.31 Y42.897 Z-0.8 I0.3 J0.01
G1 X14.36 Y42.903
X14.579 Y42.948
X15.423 Y43.121
X15.691 Y43.175
X15.76 Y43.19 Z-0.83
G3 X16. Y43.473 Z-1. I-0.06 J0.294
G1 Y44.182
X15.993 Y44.332
X15.953 Y44.476
X15.89 Y44.613
X15.809 Y44.739
X15.712 Y44.854
X15.603 Y44.957
X15.484 Y45.047
X15.355 Y45.125
X15.219 Y45.187
X15.077 Y45.236
X14.931 Y45.268
X14.781 Y45.284
X14.631 Y45.285
X14.626
X14.428 Y45.234
X14.254 Y45.128
X14.117 Y44.976
X14.03 Y44.791
X14. Y44.589
Y43.887
G3 X14.31 Y43.598 Z-0.8 I0.3 J0.01
G1 X14.362 Y43.604
X14.579 Y43.65
X15.423 Y43.827
X15.691 Y43.884
X15.762 Y43.899 Z-0.831
G3 X16. Y44.182 Z-1. I-0.062 J0.294
G1 Y44.862
X15.993 Y45.012
X15.957 Y45.157
X15.897 Y45.295
X15.818 Y45.423
X15.724 Y45.54
X15.617 Y45.644
X15.499 Y45.737
X15.371 Y45.816
X15.236 Y45.88
X15.095 Y45.931
X14.949 Y45.966
X14.8 Y45.984
X14.65 Y45.987
X14.637 Y45.986
X14.436 Y45.937
X14.259 Y45.832
X14.119 Y45.679
X14.03 Y45.493
X14. Y45.289
Y44.589
G3 X14.31 Y44.299 Z-0.8 I0.3 J0.01
G1 X14.357 Y44.305
X14.579 Y44.348
X15.422 Y44.513
X15.691 Y44.565
X15.758 Y44.578 Z-0.829
G3 X16. Y44.862 Z-1. I-0.057 J0.294
G1 Y45.536
X15.993 Y45.685
X15.962 Y45.832
X15.906 Y45.972
X15.831 Y46.101
X15.739 Y46.22
X15.634 Y46.327
X15.518 Y46.422
X15.392 Y46.503
X15.258 Y46.57
X15.117 Y46.623
X14.972 Y46.66
X14.823 Y46.681
X14.674 Y46.687
X14.65 Y46.685
X14.446 Y46.639
X14.265 Y46.535
X14.122 Y46.382
X14.031 Y46.194
X14. Y45.987
Y45.289
G3 X14.31 Y44.999 Z-0.8 I0.3 J0.01
G1 X14.352 Y45.004
X14.58 Y45.044
X15.421 Y45.192
X15.691 Y45.24
X15.752 Y45.251 Z-0.827
G3 X16. Y45.536 Z-1. I-0.052 J0.295
G1 Y46.244
X15.993 Y46.394
X15.96 Y46.541
X15.903 Y46.679
X15.826 Y46.808
X15.734 Y46.926
X15.628 Y47.033
X15.511 Y47.126
X15.384 Y47.207
X15.249 Y47.273
X15.109 Y47.325
X14.963 Y47.361
X14.814 Y47.381
X14.664 Y47.386
X14.644 Y47.384
X14.441 Y47.337
X14.262 Y47.232
X14.121 Y47.079
X14.031 Y46.892
X14. Y46.686
Y45.987
G3 X14.31 Y45.698 Z-0.8 I0.3 J0.01
G1 X14.354 Y45.702
X14.58 Y45.744
X15.422 Y45.899
X15.691 Y45.948
X15.754 Y45.96 Z-0.828
G3 X16. Y46.244 Z-1. I-0.054 J0.295
G1 Y46.953
X15.993 Y47.103
X15.958 Y47.249
X15.899 Y47.387
X15.822 Y47.515
X15.728 Y47.633
X15.621 Y47.738
X15.504 Y47.831
X15.377 Y47.911
X15.241 Y47.976
X15.1 Y48.027
X14.955 Y48.062
X14.806 Y48.081
X14.656 Y48.085
X14.639 Y48.083
X14.438 Y48.035
X14.26 Y47.93
X14.12 Y47.777
X14.031 Y47.591
X14. Y47.386
Y46.686
G3 X14.31 Y46.397 Z-0.8 I0.3 J0.01
G1 X14.356 Y46.402
X14.579 Y46.445
X15.422 Y46.605
X15.691 Y46.656
X15.756 Y46.669 Z-0.828
G3 X16. Y46.953 Z-1. I-0.056 J0.295
G1 Y47.662
X15.993 Y47.812
X15.956 Y47.957
X15.896 Y48.095
X15.817 Y48.222
X15.723 Y48.339
X15.615 Y48.444
X15.497 Y48.536
X15.37 Y48.615
X15.234 Y48.679
X15.093 Y48.729
X14.947 Y48.763
X14.798 Y48.781
X14.648 Y48.784
X14.635 Y48.783
X14.435 Y48.734
X14.258 Y48.629
X14.119 Y48.476
X14.03 Y48.29
X14. Y48.086
Y47.386
G3 X14.31 Y47.096 Z-0.8 I0.3 J0.01
G1 X14.358 Y47.102
X14.579 Y47.146
X15.422 Y47.312
X15.691 Y47.365
X15.758 Y47.378 Z-0.829
G3 X16. Y47.662 Z-1. I-0.058 J0.294
G1 Y48.371
X15.993 Y48.521
X15.954 Y48.666
X15.893 Y48.803
X15.813 Y48.93
X15.718 Y49.045
X15.61 Y49.149
X15.491 Y49.241
X15.363 Y49.319
X15.227 Y49.382
X15.085 Y49.432
X14.939 Y49.465
X14.79 Y49.482
X14.64 Y49.484
X14.631
X14.432 Y49.434
X14.256 Y49.328
X14.118 Y49.176
X14.03 Y48.99
X14. Y48.787
Y48.086
G3 X14.31 Y47.797 Z-0.8 I0.3 J0.01
G1 X14.36 Y47.803
X14.579 Y47.847
X15.423 Y48.019
X15.691 Y48.073
X15.76 Y48.087 Z-0.83
G3 X16. Y48.371 Z-1. I-0.06 J0.294
G1 Y49.08
X15.993 Y49.229
X15.953 Y49.374
X15.891 Y49.511
X15.81 Y49.637
X15.713 Y49.752
X15.605 Y49.855
X15.485 Y49.946
X15.357 Y50.024
X15.221 Y50.086
X15.079 Y50.135
X14.932 Y50.167
X14.783 Y50.184
X14.633 Y50.185
X14.627
X14.429 Y50.134
X14.254 Y50.028
X14.117 Y49.876
X14.03 Y49.691
X14. Y49.488
Y48.787
G3 X14.31 Y48.498 Z-0.8 I0.3 J0.01
G1 X14.361 Y48.504
X14.579 Y48.549
X15.423 Y48.726
X15.691 Y48.782
X15.762 Y48.796 Z-0.831
G3 X16. Y49.08 Z-1. I-0.061 J0.294
G1 Y49.788
X15.993 Y49.938
X15.952 Y50.082
X15.888 Y50.218
X15.806 Y50.344
X15.709 Y50.459
X15.6 Y50.561
X15.48 Y50.651
X15.351 Y50.728
X15.215 Y50.79
X15.072 Y50.838
X14.926 Y50.87
X14.777 Y50.886
X14.624
X14.427 Y50.835
X14.252 Y50.729
X14.116 Y50.577
X14.03 Y50.392
X14. Y50.19
Y49.488
G3 X14.31 Y49.199 Z-0.8 I0.3 J0.01
G1 X14.363 Y49.205
X14.578 Y49.252
X15.423 Y49.433
X15.691 Y49.49
X15.763 Y49.505 Z-0.831
G3 X16. Y49.788 Z-1. I-0.063 J0.293
G1 Y50.462
X15.993 Y50.612
X15.957 Y50.758
X15.898 Y50.895
X15.819 Y51.023
X15.725 Y51.14
X15.618 Y51.245
X15.5 Y51.337
X15.372 Y51.417
X15.237 Y51.481
X15.096 Y51.532
X14.95 Y51.567
X14.801 Y51.585
X14.651 Y51.588
X14.638 Y51.587
X14.437 Y51.539
X14.259 Y51.434
X14.119 Y51.281
X14.031 Y51.094
X14. Y50.89
Y50.19
G3 X14.31 Y49.901 Z-0.8 I0.3 J0.01
G1 X14.357 Y49.906
X14.579 Y49.949
X15.422 Y50.113
X15.691 Y50.165
X15.757 Y50.178 Z-0.829
G3 X16. Y50.462 Z-1. I-0.057 J0.295
G1 Y51.171
X15.993 Y51.321
X15.955 Y51.466
X15.895 Y51.603
X15.815 Y51.73
X15.72 Y51.846
X15.612 Y51.951
X15.494 Y52.043
X15.366 Y52.121
X15.23 Y52.185
X15.088 Y52.234
X14.942 Y52.268
X14.793 Y52.286
X14.643 Y52.288
X14.633 Y52.287
X14.433 Y52.238
X14.256 Y52.132
X14.118 Y51.98
X14.03 Y51.794
X14. Y51.591
Y50.89
G3 X14.31 Y50.601 Z-0.8 I0.3 J0.01
G1 X14.359 Y50.606
X14.579 Y50.65
X15.423 Y50.82
X15.691 Y50.873
X15.759 Y50.887 Z-0.83
G3 X16. Y51.171 Z-1. I-0.059 J0.294
G1 Y51.88
X15.993 Y52.029
X15.954 Y52.174
X15.892 Y52.311
X15.811 Y52.438
X15.715 Y52.553
X15.607 Y52.656
X15.488 Y52.748
X15.36 Y52.826
X15.223 Y52.888
X15.082 Y52.937
X14.935 Y52.97
X14.786 Y52.987
X14.636 Y52.989
X14.629 Y52.988
X14.43 Y52.938
X14.255 Y52.832
X14.117 Y52.68
X14.03 Y52.494
X14. Y52.292
Y51.591
G3 X14.31 Y51.301 Z-0.8 I0.3 J0.01
G1 X14.36 Y51.307
X14.579 Y51.352
X15.423 Y51.527
X15.691 Y51.582
X15.761 Y51.596 Z-0.83
G3 X16. Y51.88 Z-1. I-0.061 J0.294
G1 Y52.546
X15.993 Y52.695
X15.96 Y52.842
X15.904 Y52.981
X15.828 Y53.11
X15.735 Y53.228
X15.63 Y53.335
X15.513 Y53.429
X15.387 Y53.51
X15.252 Y53.576
X15.111 Y53.628
X14.966 Y53.665
X14.817 Y53.685
X14.667 Y53.69
X14.647 Y53.688
X14.444 Y53.642
X14.263 Y53.537
X14.121 Y53.384
X14.031 Y53.196
X14. Y52.99
Y52.292
G3 X14.31 Y52.002 Z-0.8 I0.3 J0.01
G1 X14.353 Y52.007
X14.58 Y52.048
X15.421 Y52.201
X15.691 Y52.249
X15.754 Y52.261 Z-0.827
G3 X16. Y52.546 Z-1. I-0.054 J0.295
G1 Y53.254
X15.993 Y53.404
X15.958 Y53.55
X15.9 Y53.689
X15.823 Y53.817
X15.73 Y53.935
X15.623 Y54.04
X15.506 Y54.134
X15.379 Y54.214
X15.244 Y54.279
X15.103 Y54.33
X14.957 Y54.366
X14.808 Y54.385
X14.659 Y54.389
X14.641 Y54.387
X14.439 Y54.339
X14.26 Y54.234
X14.12 Y54.082
X14.031 Y53.895
X14. Y53.69
Y52.99
G3 X14.31 Y52.701 Z-0.8 I0.3 J0.01
G1 X14.355 Y52.706
X14.579 Y52.748
X15.422 Y52.907
X15.691 Y52.958
X15.756 Y52.97 Z-0.828
G3 X16. Y53.254 Z-1. I-0.056 J0.295
G1 Y53.963
X15.993 Y54.113
X15.957 Y54.259
X15.897 Y54.396
X15.819 Y54.524
X15.724 Y54.641
X15.617 Y54.746
X15.499 Y54.838
X15.372 Y54.918
X15.236 Y54.982
X15.095 Y55.032
X14.949 Y55.067
X14.8 Y55.085
X14.65 Y55.088
X14.636 Y55.087
X14.436 Y55.038
X14.258 Y54.933
X14.119 Y54.78
X14.03 Y54.594
X14. Y54.39
Y53.69
G3 X14.31 Y53.4 Z-0.8 I0.3 J0.01
G1 X14.357 Y53.406
X14.579 Y53.449
X15.422 Y53.614
X15.691 Y53.666
X15.758 Y53.679 Z-0.829
G3 X16. Y53.963 Z-1. I-0.057 J0.294
G1 Y54.672
X15.993 Y54.822
X15.955 Y54.967
X15.894 Y55.104
X15.815 Y55.231
X15.72 Y55.347
X15.612 Y55.451
X15.493 Y55.543
X15.365 Y55.622
X15.229 Y55.685
X15.088 Y55.735
X14.941 Y55.769
X14.793 Y55.786
X14.643 Y55.788
X14.632 Y55.787
X14.433 Y55.738
X14.256 Y55.632
X14.118 Y55.48
X14.03 Y55.294
X14. Y55.091
Y54.39
G3 X14.31 Y54.101 Z-0.8 I0.3 J0.01
G1 X14.359 Y54.106
X14.579 Y54.151
X15.423 Y54.32
X15.691 Y54.374
X15.759 Y54.388 Z-0.83
G3 X16. Y54.672 Z-1. I-0.059 J0.294
G1 Y55.381
X15.993 Y55.531
X15.953 Y55.675
X15.891 Y55.812
X15.811 Y55.938
X15.715 Y56.054
X15.606 Y56.157
X15.487 Y56.248
X15.359 Y56.326
X15.223 Y56.389
X15.081 Y56.438
X14.934 Y56.471
X14.785 Y56.487
X14.635 Y56.489
X14.628 Y56.488
X14.43 Y56.438
X14.255 Y56.332
X14.117 Y56.18
X14.03 Y55.994
X14. Y55.792
Y55.091
G3 X14.31 Y54.801 Z-0.8 I0.3 J0.01
G1 X14.361 Y54.807
X14.579 Y54.852
X15.423 Y55.027
X15.691 Y55.083
X15.761 Y55.097 Z-0.83
G3 X16. Y55.381 Z-1. I-0.061 J0.294
G1 Y56.089
X15.993 Y56.239
X15.952 Y56.384
X15.889 Y56.52
X15.807 Y56.646
X15.711 Y56.76
X15.601 Y56.863
X15.482 Y56.954
X15.353 Y57.031
X15.217 Y57.093
X15.074 Y57.141
X14.928 Y57.173
X14.779 Y57.189
X14.625 Y57.19
X14.427 Y57.138
X14.253 Y57.032
X14.117 Y56.88
X14.03 Y56.696
X14. Y56.494
Y55.792
G3 X14.31 Y55.502 Z-0.8 I0.3 J0.01
G1 X14.362 Y55.509
X14.578 Y55.555
X15.423 Y55.734
X15.691 Y55.791
X15.763 Y55.807 Z-0.831
G3 X16. Y56.089 Z-1. I-0.062 J0.293
G1 Y56.77
X15.993 Y56.919
X15.956 Y57.065
X15.896 Y57.202
X15.817 Y57.33
X15.723 Y57.446
X15.615 Y57.551
X15.497 Y57.643
X15.369 Y57.722
X15.234 Y57.786
X15.092 Y57.836
X14.946 Y57.871
X14.797 Y57.889
X14.647 Y57.892
X14.636 Y57.891
X14.435 Y57.842
X14.258 Y57.736
X14.119 Y57.584
X14.03 Y57.398
X14. Y57.194
Y56.494
G3 X14.31 Y56.204 Z-0.8 I0.3 J0.01
G1 X14.358 Y56.21
X14.579 Y56.253
X15.422 Y56.42
X15.691 Y56.472
X15.758 Y56.486 Z-0.829
G3 X16. Y56.77 Z-1. I-0.058 J0.294
G1 Y57.443
X15.993 Y57.593
X15.961 Y57.74
X15.905 Y57.879
X15.83 Y58.008
X15.738 Y58.127
X15.632 Y58.234
X15.516 Y58.328
X15.39 Y58.41
X15.255 Y58.476
X15.115 Y58.529
X14.97 Y58.566
X14.821 Y58.586
X14.671 Y58.592
X14.648 Y58.59
X14.445 Y58.544
X14.264 Y58.44
X14.122 Y58.287
X14.031 Y58.099
X14. Y57.892
Y57.194
G3 X14.31 Y56.904 Z-0.8 I0.3 J0.01
G1 X14.352 Y56.909
X14.58 Y56.949
X15.421 Y57.099
X15.691 Y57.147
X15.753 Y57.158 Z-0.827
G3 X16. Y57.443 Z-1. I-0.053 J0.295
G1 Y58.152
X15.993 Y58.302
X15.959 Y58.448
X15.902 Y58.587
X15.825 Y58.716
X15.732 Y58.833
X15.626 Y58.939
X15.509 Y59.033
X15.382 Y59.113
X15.247 Y59.179
X15.106 Y59.231
X14.961 Y59.266
X14.812 Y59.286
X14.662 Y59.291
X14.643 Y59.289
X14.44 Y59.241
X14.261 Y59.137
X14.12 Y58.984
X14.031 Y58.797
X14. Y58.591
Y57.892
G3 X14.31 Y57.603 Z-0.8 I0.3 J0.01
G1 X14.355 Y57.608
X14.58 Y57.649
X15.422 Y57.806
X15.691 Y57.856
X15.755 Y57.868 Z-0.828
G3 X16. Y58.152 Z-1. I-0.055 J0.295
G1 Y58.861
X15.993 Y59.011
X15.957 Y59.156
X15.899 Y59.294
X15.821 Y59.423
X15.727 Y59.54
X15.62 Y59.645
X15.502 Y59.738
X15.375 Y59.817
X15.239 Y59.882
X15.098 Y59.933
X14.952 Y59.968
X14.804 Y59.986
X14.654 Y59.99
X14.638 Y59.988
X14.437 Y59.94
X14.259 Y59.835
X14.119 Y59.682
X14.031 Y59.496
X14. Y59.291
Y58.591
G3 X14.31 Y58.302 Z-0.8 I0.3 J0.01
G1 X14.357 Y58.307
X14.579 Y58.35
X15.422 Y58.512
X15.691 Y58.564
X15.757 Y58.577 Z-0.829
G3 X16. Y58.861 Z-1. I-0.057 J0.295
G1 Y59.57
X15.993 Y59.719
X15.956 Y59.865
X15.896 Y60.002
X15.816 Y60.13
X15.722 Y60.246
X15.614 Y60.35
X15.495 Y60.442
X15.368 Y60.521
X15.232 Y60.585
X15.091 Y60.635
X14.945 Y60.669
X14.796 Y60.687
X14.646 Y60.69
X14.634 Y60.689
X14.434 Y60.639
X14.257 Y60.534
X14.119 Y60.381
X14.03 Y60.195
X14. Y59.992
Y59.291
G3 X14.31 Y59.002 Z-0.8 I0.3 J0.01
G1 X14.358 Y59.007
X14.579 Y59.051
X15.422 Y59.219
X15.691 Y59.272
X15.759 Y59.286 Z-0.829
G3 X16. Y59.57 Z-1. I-0.059 J0.294
G1 Y60.278
X15.993 Y60.428
X15.954 Y60.573
X15.893 Y60.71
X15.812 Y60.837
X15.717 Y60.952
X15.608 Y61.056
X15.489 Y61.148
X15.361 Y61.226
X15.225 Y61.289
X15.084 Y61.338
X14.937 Y61.371
X14.788 Y61.388
X14.638 Y61.39
X14.63 Y61.389
X14.431 Y61.339
X14.255 Y61.233
X14.118 Y61.081
X14.03 Y60.896
X14. Y60.693
Y59.992
G3 X14.31 Y59.702 Z-0.8 I0.3 J0.01
G1 X14.36 Y59.708
X14.579 Y59.753
X15.423 Y59.926
X15.691 Y59.981
X15.76 Y59.995 Z-0.83
G3 X16. Y60.278 Z-1. I-0.06 J0.294
G1 Y60.987
X15.993 Y61.137
X15.953 Y61.282
X15.89 Y61.418
X15.809 Y61.544
X15.712 Y61.659
X15.603 Y61.762
X15.484 Y61.853
X15.355 Y61.93
X15.219 Y61.992
X15.077 Y62.041
X14.931 Y62.073
X14.781 Y62.09
X14.631 Y62.091
X14.626 Y62.09
X14.428 Y62.039
X14.254 Y61.933
X14.117 Y61.781
X14.03 Y61.596
X14. Y61.394
Y60.693
G3 X14.31 Y60.403 Z-0.8 I0.3 J0.01
G1 X14.362 Y60.41
X14.579 Y60.455
X15.423 Y60.633
X15.691 Y60.689
X15.762 Y60.704 Z-0.831
G3 X16. Y60.987 Z-1. I-0.062 J0.294
G1 Y61.661
X15.993 Y61.811
X15.958 Y61.957
X15.899 Y62.095
X15.822 Y62.223
X15.728 Y62.34
X15.621 Y62.446
X15.503 Y62.538
X15.376 Y62.618
X15.241 Y62.683
X15.1 Y62.734
X14.954 Y62.77
X14.806 Y62.788
X14.656 Y62.792
X14.64 Y62.791
X14.439 Y62.743
X14.26 Y62.638
X14.12 Y62.485
X14.031 Y62.298
X14. Y62.094
Y61.394
G3 X14.31 Y61.105 Z-0.8 I0.3 J0.01
G1 X14.356 Y61.11
X14.579 Y61.153
X15.422 Y61.313
X15.691 Y61.364
X15.756 Y61.377 Z-0.828
G3 X16. Y61.661 Z-1. I-0.056 J0.295
G1 Y62.37
X15.993 Y62.52
X15.956 Y62.665
X15.896 Y62.803
X15.817 Y62.93
X15.723 Y63.047
X15.615 Y63.151
X15.497 Y63.244
X15.37 Y63.323
X15.234 Y63.386
X15.093 Y63.437
X14.946 Y63.471
X14.798 Y63.489
X14.648 Y63.492
X14.635 Y63.491
X14.435 Y63.442
X14.258 Y63.336
X14.119 Y63.184
X14.03 Y62.998
X14. Y62.794
Y62.094
G3 X14.31 Y61.804 Z-0.8 I0.3 J0.01
G1 X14.358 Y61.81
X14.579 Y61.853
X15.422 Y62.02
X15.691 Y62.073
X15.758 Y62.086 Z-0.829
G3 X16. Y62.37 Z-1. I-0.058 J0.294
G1 Y63.078
X15.993 Y63.228
X15.954 Y63.373
X15.893 Y63.51
X15.813 Y63.637
X15.718 Y63.753
X15.61 Y63.857
X15.491 Y63.949
X15.363 Y64.027
X15.227 Y64.09
X15.085 Y64.139
X14.939 Y64.173
X14.79 Y64.19
X14.64 Y64.192
X14.631 Y64.191
X14.432 Y64.141
X14.256 Y64.036
X14.118 Y63.883
X14.03 Y63.698
X14. Y63.495
Y62.794
G3 X14.31 Y62.504 Z-0.8 I0.3 J0.01
G1 X14.36 Y62.51
X14.579 Y62.555
X15.423 Y62.726
X15.691 Y62.781
X15.76 Y62.795 Z-0.83
G3 X16. Y63.078 Z-1. I-0.06 J0.294
G1 Y63.744
X15.993 Y63.894
X15.961 Y64.041
X15.905 Y64.18
X15.83 Y64.31
X15.738 Y64.428
X15.632 Y64.535
X15.516 Y64.629
X15.39 Y64.711
X15.255 Y64.777
X15.115 Y64.83
X14.97 Y64.867
X14.821 Y64.887
X14.671 Y64.893
X14.649 Y64.891
X14.445 Y64.845
X14.264 Y64.741
X14.122 Y64.588
X14.031 Y64.4
X14. Y64.193
Y63.495
G3 X14.31 Y63.205 Z-0.8 I0.3 J0.01
G1 X14.352 Y63.21
X14.58 Y63.25
X15.421 Y63.4
X15.691 Y63.448
X15.753 Y63.46 Z-0.827
G3 X16. Y63.744 Z-1. I-0.053 J0.295
G1 Y64.453
X15.993 Y64.603
X15.959 Y64.749
X15.902 Y64.888
X15.825 Y65.017
X15.732 Y65.134
X15.626 Y65.24
X15.509 Y65.334
X15.382 Y65.414
X15.247 Y65.48
X15.106 Y65.532
X14.961 Y65.568
X14.812 Y65.587
X14.742 Y65.589
X14.548 Y65.568
X14.366 Y65.493
X14.213 Y65.371
X14.099 Y65.211
X14.035 Y65.026
G3 X14.225 Y64.697 Z-0.825 I0.296 J-0.048
G1 X14.281 Y64.676 Z-0.8
X14.537 Y64.58
X15.43 Y64.245
X15.595 Y64.183
X15.642 Y64.169
X15.69 Y64.164
G3 X16. Y64.453 Z-1. I0.01 J0.3
G1 Y64.808
X15.999 Y64.843
X15.995 Y64.878
X15.91 Y65.304
X15.902 Y65.339
X15.889 Y65.375
X15.847 Y65.445
X15.753 Y65.587
X15.712 Y65.646
X15.686 Y65.675
X15.655 Y65.705
X15.623 Y65.729
X15.409 Y65.871
X15.372 Y65.888
X15.337 Y65.902
X15.302 Y65.911
X15.089 Y65.953
X15.018 Y65.963
X14.983 Y65.964
X14.948 Y65.96
X14.806 Y65.932
X14.664 Y65.903
X14.628 Y65.89
X14.591 Y65.871
X14.523 Y65.826
X14.377 Y65.729
X14.337 Y65.698
X14.297 Y65.658
X14.24 Y65.576
X14.153 Y65.445
X14.12 Y65.392
X14.107 Y65.366
X14.098 Y65.339
X14.09 Y65.304
X14.005 Y64.878
X14.001 Y64.843
X14. Y64.808
Y64.193
G3 X14.299 Y63.904 I0.3 J0.01
G1 X14.3
X14.324 Y63.905
X14.374 Y63.922 Z-0.995
X14.423 Y63.939 Z-0.981
X14.468 Y63.955 Z-0.958
X14.501 Y63.992 Z-0.921
X14.528 Y64.022 Z-0.874
X14.548 Y64.044 Z-0.82
X14.56 Y64.058 Z-0.762
X14.565 Y64.063 Z-0.7
Z5.
X14.896 Y35.824
Z1.
S2000
G3 X14.657 Y35.112 Z0.969 I0.104 J-0.431 F75.
X15.401 Y35.206 Z0.938 I0.342 J0.28
X14.995 Y35.834 Z0.906 I-0.401 J0.187
X14.605 Y35.196 Z0.875 I0.005 J-0.441
X15.348 Y35.122 Z0.844 I0.395 J0.196
X15.093 Y35.823 Z0.813 I-0.348 J0.27
X14.572 Y35.29 Z0.781 I-0.093 J-0.43
X15.277 Y35.052 Z0.75 I0.427 J0.103
X15.186 Y35.79 Z0.719 I-0.278 J0.34
X14.562 Y35.388 Z0.688 I-0.186 J-0.397
X15.194 Y35.001 Z0.656 I0.438 J0.005
X15.269 Y35.737 Z0.625 I-0.194 J0.392
X14.574 Y35.485 Z0.594 I-0.268 J-0.344
X15.101 Y34.969 Z0.563 I0.426 J-0.092
X15.337 Y35.667 Z0.531 I-0.101 J0.424
X14.606 Y35.577 Z0.5 I-0.337 J-0.275
X15.004 Y34.958 Z0.469 I0.393 J-0.184
X15.389 Y35.584 Z0.438 I-0.004 J0.434
X14.659 Y35.659 Z0.406 I-0.389 J-0.192
X14.908 Y34.97 Z0.375 I0.341 J-0.266
X15.42 Y35.493 Z0.344 I0.092 J0.422
X14.728 Y35.727 Z0.313 I-0.42 J-0.1
X14.816 Y35.003 Z0.281 I0.272 J-0.335
X15.43 Y35.396 Z0.25 I0.183 J0.39
X14.81 Y35.778 Z0.219 I-0.43 J-0.004
X14.735 Y35.055 Z0.188 I0.19 J-0.385
X15.419 Y35.301 Z0.156 I0.265 J0.338
X14.901 Y35.809 Z0.125 I-0.418 J0.092
X14.668 Y35.123 Z0.094 I0.099 J-0.416
X15.386 Y35.21 Z0.063 I0.332 J0.269
X14.997 Y35.819 Z0.031 I-0.386 J0.182
X14.617 Y35.205 Z0. I0.003 J-0.426
X15.334 Y35.13 Z-0.031 I0.382 J0.188
X15.092 Y35.807 Z-0.063 I-0.334 J0.263
X14.587 Y35.295 Z-0.094 I-0.091 J-0.415
X15.266 Y35.063 Z-0.125 I0.413 J0.097
X15.181 Y35.775 Z-0.156 I-0.266 J0.329
X14.577 Y35.39 Z-0.188 I-0.181 J-0.382
X15.185 Y35.013 Z-0.219 I0.422 J0.003
X15.261 Y35.724 Z-0.25 I-0.186 J0.379
X14.589 Y35.484 Z-0.281 I-0.261 J-0.331
X15.096 Y34.983 Z-0.313 I0.411 J-0.091
X15.327 Y35.656 Z-0.344 I-0.096 J0.409
X14.621 Y35.573 Z-0.375 I-0.327 J-0.264
X15.002 Y34.974 Z-0.406 I0.379 J-0.18
X15.376 Y35.576 Z-0.438 I-0.002 J0.419
X14.672 Y35.651 Z-0.469 I-0.376 J-0.183
X14.909 Y34.985 Z-0.5 I0.328 J-0.259
X15.406 Y35.487 Z-0.531 I0.091 J0.407
X14.739 Y35.717 Z-0.563 I-0.406 J-0.095
X14.821 Y35.017 Z-0.594 I0.261 J-0.324
X15.415 Y35.394 Z-0.625 I0.178 J0.375
X14.819 Y35.765 Z-0.656 I-0.415 J-0.002
X14.743 Y35.068 Z-0.688 I0.181 J-0.372
X15.403 Y35.302 Z-0.719 I0.257 J0.325
X14.907 Y35.795 Z-0.75 I-0.403 J0.09
X14.678 Y35.134 Z-0.781 I0.093 J-0.402
X15.371 Y35.215 Z-0.813 I0.321 J0.258
X14.999 Y35.804 Z-0.844 I-0.371 J0.177
X14.63 Y35.213 Z-0.875 I0.001 J-0.411
X15.321 Y35.138 Z-0.906 I0.369 J0.179
X15.09 Y35.792 Z-0.938 I-0.321 J0.255
X14.601 Y35.301 Z-0.969 I-0.09 J-0.399
X15.255 Y35.074 Z-1. I0.398 J0.092
X15.176 Y35.76 Z-1.031 I-0.255 J0.319
X14.592 Y35.392 Z-1.063 I-0.176 J-0.368
X15.177 Y35.026 Z-1.094 I0.407 J0.001
X15.253 Y35.711 Z-1.125 I-0.177 J0.366
X14.604 Y35.482 Z-1.156 I-0.253 J-0.318
X15.091 Y34.998 Z-1.188 I0.395 J-0.09
X15.316 Y35.645 Z-1.219 I-0.091 J0.395
X14.636 Y35.568 Z-1.25 I-0.316 J-0.253
X15. Y34.989 Z-1.281 I0.364 J-0.175
X15.363 Y35.568 Z-1.313 I0. J0.403
X14.685 Y35.643 Z-1.344 I-0.363 J-0.175
X14.911 Y35.001 Z-1.375 I0.315 J-0.251
X15.391 Y35.482 Z-1.406 I0.089 J0.392
X14.75 Y35.706 Z-1.438 I-0.391 J-0.089
X14.826 Y35.032 Z-1.469 I0.25 J-0.313
X15.4 Y35.392 Z-1.5 I0.174 J0.36
X14.6 I-0.4 J0.
X15.4 I0.4 J0.
S9000
G1 X15.442 Y35.643 F100.
X15.456 Y35.793
X15.405 Y35.934
X15.312 Y36.052
X15.191 Y36.14
X15.052 Y36.196
X14.903 Y36.22
X14.754 Y36.213
X14.608 Y36.177
X14.472 Y36.113
X14.35 Y36.026
X14.246 Y35.918
X14.162 Y35.794
X14.1 Y35.657
X14.062 Y35.512
X14.048 Y35.363
X14.059 Y35.213
X14.094 Y35.067
X14.152 Y34.929
X14.231 Y34.801
X14.329 Y34.688
X14.443 Y34.591
X14.571 Y34.513
X14.71 Y34.456
X14.856 Y34.421
X15.005 Y34.409
X15.155 Y34.42
X15.301 Y34.454
X15.44 Y34.51
X15.57 Y34.586
X15.686 Y34.68
X15.792 Y34.786
X15.842 Y34.847
X15.928 Y34.982
X15.982 Y35.132
X16. Y35.29
Y35.754
X15.993 Y35.904
X15.963 Y36.051
X15.912 Y36.192
X15.841 Y36.325
X15.753 Y36.446
X15.65 Y36.555
X15.533 Y36.649
X15.406 Y36.729
X15.27 Y36.792
X15.127 Y36.838
X14.98 Y36.868
X14.831 Y36.881
X14.681 Y36.878
X14.606 Y36.867
X14.414 Y36.813
X14.244 Y36.705
X14.112 Y36.554
X14.029 Y36.372
X14. Y36.174
Y35.18
X14.008 Y35.109
X14.092 Y34.684
X14.098 Y34.661
X14.109 Y34.631
X14.123 Y34.602
X14.161 Y34.542
X14.256 Y34.401
X14.303 Y34.335
X14.342 Y34.297
X14.381 Y34.268
X14.523 Y34.174
X14.613 Y34.117
X14.639 Y34.106
X14.664 Y34.097
X14.806 Y34.068
X14.948 Y34.04
X14.983 Y34.036
X15.018 Y34.037
X15.089 Y34.047
X15.302 Y34.089
X15.337 Y34.098
X15.372 Y34.111
X15.386 Y34.117
X15.514 Y34.198
X15.604 Y34.259
X15.655 Y34.295
X15.707 Y34.348
X15.744 Y34.401
X15.839 Y34.542
X15.883 Y34.613
X15.898 Y34.649
X15.908 Y34.684
X15.992 Y35.109
X16. Y35.18
Y35.29
G3 X15.7 Y35.59 Z-1.3 I-0.3 J0.
G1 X15.636 Y35.583
X15.574 Y35.563
X15.518 Y35.529
X15.456 Y35.482
X15.339 Y35.393
G3 X15.702 Y34.915 I0.182 J-0.239
X15.779 Y35.001 I-0.182 J0.239
X15.914 Y35.293 I-1.36 J0.809
X16. Y35.754 Z-1.5 I-1.496 J0.517
G1 Y36.498
X15.993 Y36.648
X15.955 Y36.793
X15.893 Y36.93
X15.811 Y37.056
X15.713 Y37.169
X15.602 Y37.27
X15.481 Y37.358
X15.35 Y37.432
X15.213 Y37.492
X15.07 Y37.537
X14.923 Y37.567
X14.773 Y37.581
X14.619 Y37.58
X14.423 Y37.527
X14.25 Y37.421
X14.115 Y37.269
X14.029 Y37.085
X14. Y36.884
Y36.174
G3 X14.31 Y35.884 Z-1.3 I0.3 J0.01
G1 X14.368 Y35.892
X14.578 Y35.941
X15.425 Y36.137
X15.691 Y36.199
X15.768 Y36.216 Z-1.333
G3 X16. Y36.498 Z-1.5 I-0.068 J0.292
G1 Y37.172
X15.993 Y37.322
X15.955 Y37.467
X15.895 Y37.604
X15.815 Y37.731
X15.719 Y37.847
X15.611 Y37.95
X15.491 Y38.041
X15.363 Y38.119
X15.227 Y38.182
X15.085 Y38.231
X14.939 Y38.265
X14.79 Y38.282
X14.64 Y38.284
X14.631 Y38.283
X14.432 Y38.233
X14.256 Y38.127
X14.118 Y37.975
X14.03 Y37.789
X14. Y37.586
Y36.884
G3 X14.31 Y36.595 Z-1.3 I0.3 J0.01
G1 X14.36 Y36.601
X14.579 Y36.646
X15.423 Y36.819
X15.691 Y36.874
X15.761 Y36.889 Z-1.33
G3 X16. Y37.172 Z-1.5 I-0.06 J0.294
G1 Y37.881
X15.993 Y38.031
X15.953 Y38.175
X15.89 Y38.312
X15.809 Y38.438
X15.713 Y38.553
X15.604 Y38.656
X15.484 Y38.746
X15.356 Y38.824
X15.219 Y38.886
X15.077 Y38.934
X14.931 Y38.967
X14.782 Y38.983
X14.632 Y38.984
X14.626
X14.428 Y38.933
X14.254 Y38.827
X14.117 Y38.675
X14.03 Y38.49
X14. Y38.288
Y37.586
G3 X14.31 Y37.297 Z-1.3 I0.3 J0.01
G1 X14.362 Y37.303
X14.579 Y37.349
X15.423 Y37.526
X15.691 Y37.583
X15.762 Y37.598 Z-1.331
G3 X16. Y37.881 Z-1.5 I-0.062 J0.294
G1 Y38.554
X15.993 Y38.704
X15.958 Y38.85
X15.899 Y38.988
X15.822 Y39.117
X15.728 Y39.234
X15.621 Y39.339
X15.503 Y39.432
X15.377 Y39.512
X15.241 Y39.577
X15.1 Y39.628
X14.954 Y39.663
X14.806 Y39.682
X14.656 Y39.686
X14.64 Y39.685
X14.439 Y39.637
X14.26 Y39.532
X14.12 Y39.379
X14.031 Y39.192
X14. Y38.987
Y38.288
G3 X14.31 Y37.998 Z-1.3 I0.3 J0.01
G1 X14.356 Y38.004
X14.579 Y38.046
X15.422 Y38.207
X15.691 Y38.258
X15.756 Y38.27 Z-1.328
G3 X16. Y38.554 Z-1.5 I-0.056 J0.295
G1 Y39.263
X15.993 Y39.413
X15.956 Y39.559
X15.896 Y39.696
X15.817 Y39.824
X15.723 Y39.94
X15.615 Y40.045
X15.497 Y40.137
X15.37 Y40.216
X15.234 Y40.28
X15.093 Y40.33
X14.947 Y40.365
X14.798 Y40.383
X14.648 Y40.386
X14.635 Y40.384
X14.435 Y40.335
X14.258 Y40.23
X14.119 Y40.078
X14.03 Y39.891
X14. Y39.687
Y38.987
G3 X14.31 Y38.698 Z-1.3 I0.3 J0.01
G1 X14.358 Y38.703
X14.579 Y38.747
X15.422 Y38.913
X15.691 Y38.966
X15.758 Y38.979 Z-1.329
G3 X16. Y39.263 Z-1.5 I-0.058 J0.294
G1 Y39.972
X15.993 Y40.122
X15.954 Y40.267
X15.893 Y40.404
X15.813 Y40.531
X15.718 Y40.647
X15.61 Y40.75
X15.491 Y40.842
X15.363 Y40.92
X15.227 Y40.984
X15.085 Y41.033
X14.939 Y41.066
X14.79 Y41.084
X14.64 Y41.086
X14.631 Y41.085
X14.432 Y41.035
X14.256 Y40.929
X14.118 Y40.777
X14.03 Y40.591
X14. Y40.388
Y39.687
G3 X14.31 Y39.398 Z-1.3 I0.3 J0.01
G1 X14.36 Y39.404
X14.579 Y39.448
X15.423 Y39.62
X15.691 Y39.674
X15.76 Y39.688 Z-1.33
G3 X16. Y39.972 Z-1.5 I-0.06 J0.294
G1 Y40.638
X15.993 Y40.788
X15.961 Y40.934
X15.905 Y41.074
X15.83 Y41.203
X15.738 Y41.322
X15.633 Y41.429
X15.516 Y41.523
X15.39 Y41.604
X15.255 Y41.671
X15.115 Y41.723
X14.97 Y41.761
X14.821 Y41.781
X14.671 Y41.786
X14.649 Y41.785
X14.445 Y41.739
X14.264 Y41.634
X14.122 Y41.481
X14.031 Y41.293
X14. Y41.087
Y40.388
G3 X14.31 Y40.099 Z-1.3 I0.3 J0.01
G1 X14.352 Y40.103
X14.58 Y40.144
X15.421 Y40.294
X15.691 Y40.342
X15.753 Y40.353 Z-1.327
G3 X16. Y40.638 Z-1.5 I-0.053 J0.295
G1 Y41.347
X15.993 Y41.497
X15.959 Y41.643
X15.902 Y41.781
X15.825 Y41.91
X15.732 Y42.028
X15.626 Y42.134
X15.509 Y42.228
X15.382 Y42.308
X15.247 Y42.373
X15.106 Y42.425
X14.961 Y42.461
X14.812 Y42.481
X14.662 Y42.485
X14.643 Y42.484
X14.44 Y42.436
X14.261 Y42.331
X14.12 Y42.179
X14.031 Y41.991
X14. Y41.786
Y41.087
G3 X14.31 Y40.797 Z-1.3 I0.3 J0.01
G1 X14.355 Y40.802
X14.58 Y40.844
X15.422 Y41.
X15.691 Y41.05
X15.755 Y41.062 Z-1.328
G3 X16. Y41.347 Z-1.5 I-0.055 J0.295
G1 Y42.055
X15.993 Y42.205
X15.957 Y42.351
X15.899 Y42.489
X15.821 Y42.617
X15.727 Y42.734
X15.62 Y42.839
X15.502 Y42.932
X15.375 Y43.012
X15.239 Y43.076
X15.098 Y43.127
X14.952 Y43.162
X14.804 Y43.181
X14.654 Y43.184
X14.638 Y43.183
X14.437 Y43.135
X14.259 Y43.03
X14.119 Y42.877
X14.031 Y42.69
X14. Y42.486
Y41.786
G3 X14.31 Y41.497 Z-1.3 I0.3 J0.01
G1 X14.357 Y41.502
X14.579 Y41.545
X15.422 Y41.707
X15.691 Y41.759
X15.757 Y41.771 Z-1.329
G3 X16. Y42.055 Z-1.5 I-0.057 J0.295
G1 Y42.764
X15.993 Y42.914
X15.956 Y43.059
X15.896 Y43.197
X15.816 Y43.324
X15.722 Y43.441
X15.614 Y43.545
X15.496 Y43.637
X15.368 Y43.716
X15.232 Y43.78
X15.091 Y43.83
X14.945 Y43.864
X14.796 Y43.882
X14.646 Y43.884
X14.634 Y43.883
X14.434 Y43.834
X14.257 Y43.728
X14.119 Y43.576
X14.03 Y43.39
X14. Y43.186
Y42.486
G3 X14.31 Y42.197 Z-1.3 I0.3 J0.01
G1 X14.358 Y42.202
X14.579 Y42.246
X15.422 Y42.414
X15.691 Y42.467
X15.759 Y42.481 Z-1.329
G3 X16. Y42.764 Z-1.5 I-0.059 J0.294
G1 Y43.473
X15.993 Y43.623
X15.954 Y43.768
X15.893 Y43.905
X15.812 Y44.031
X15.717 Y44.147
X15.608 Y44.251
X15.489 Y44.342
X15.361 Y44.42
X15.225 Y44.483
X15.084 Y44.532
X14.937 Y44.566
X14.788 Y44.583
X14.638 Y44.585
X14.63 Y44.584
X14.431 Y44.534
X14.255 Y44.428
X14.118 Y44.276
X14.03 Y44.09
X14. Y43.887
Y43.186
G3 X14.31 Y42.897 Z-1.3 I0.3 J0.01
G1 X14.36 Y42.903
X14.579 Y42.948
X15.423 Y43.121
X15.691 Y43.175
X15.76 Y43.19 Z-1.33
G3 X16. Y43.473 Z-1.5 I-0.06 J0.294
G1 Y44.182
X15.993 Y44.332
X15.953 Y44.476
X15.89 Y44.613
X15.809 Y44.739
X15.712 Y44.854
X15.603 Y44.957
X15.484 Y45.047
X15.355 Y45.125
X15.219 Y45.187
X15.077 Y45.236
X14.931 Y45.268
X14.781 Y45.284
X14.631 Y45.285
X14.626
X14.428 Y45.234
X14.254 Y45.128
X14.117 Y44.976
X14.03 Y44.791
X14. Y44.589
Y43.887
G3 X14.31 Y43.598 Z-1.3 I0.3 J0.01
G1 X14.362 Y43.604
X14.579 Y43.65
X15.423 Y43.827
X15.691 Y43.884
X15.762 Y43.899 Z-1.331
G3 X16. Y44.182 Z-1.5 I-0.062 J0.294
G1 Y44.862
X15.993 Y45.012
X15.957 Y45.157
X15.897 Y45.295
X15.818 Y45.423
X15.724 Y45.54
X15.617 Y45.644
X15.499 Y45.737
X15.371 Y45.816
X15.236 Y45.88
X15.095 Y45.931
X14.949 Y45.966
X14.8 Y45.984
X14.65 Y45.987
X14.637 Y45.986
X14.436 Y45.937
X14.259 Y45.832
X14.119 Y45.679
X14.03 Y45.493
X14. Y45.289
Y44.589
G3 X14.31 Y44.299 Z-1.3 I0.3 J0.01
G1 X14.357 Y44.305
X14.579 Y44.348
X15.422 Y44.513
X15.691 Y44.565
X15.758 Y44.578 Z-1.329
G3 X16. Y44.862 Z-1.5 I-0.057 J0.294
G1 Y45.536
X15.993 Y45.685
X15.962 Y45.832
X15.906 Y45.972
X15.831 Y46.101
X15.739 Y46.22
X15.634 Y46.327
X15.518 Y46.422
X15.392 Y46.503
X15.258 Y46.57
X15.117 Y46.623
X14.972 Y46.66
X14.823 Y46.681
X14.674 Y46.687
X14.65 Y46.685
X14.446 Y46.639
X14.265 Y46.535
X14.122 Y46.382
X14.031 Y46.194
X14. Y45.987
Y45.289
G3 X14.31 Y44.999 Z-1.3 I0.3 J0.01
G1 X14.352 Y45.004
X14.58 Y45.044
X15.421 Y45.192
X15.691 Y45.24
X15.752 Y45.251 Z-1.327
G3 X16. Y45.536 Z-1.5 I-0.052 J0.295
G1 Y46.244
X15.993 Y46.394
X15.96 Y46.541
X15.903 Y46.679
X15.826 Y46.808
X15.734 Y46.926
X15.628 Y47.033
X15.511 Y47.126
X15.384 Y47.207
X15.249 Y47.273
X15.109 Y47.325
X14.963 Y47.361
X14.814 Y47.381
X14.664 Y47.386
X14.644 Y47.384
X14.441 Y47.337
X14.262 Y47.232
X14.121 Y47.079
X14.031 Y46.892
X14. Y46.686
Y45.987
G3 X14.31 Y45.698 Z-1.3 I0.3 J0.01
G1 X14.354 Y45.702
X14.58 Y45.744
X15.422 Y45.899
X15.691 Y45.948
X15.754 Y45.96 Z-1.328
G3 X16. Y46.244 Z-1.5 I-0.054 J0.295
G1 Y46.953
X15.993 Y47.103
X15.958 Y47.249
X15.899 Y47.387
X15.822 Y47.515
X15.728 Y47.633
X15.621 Y47.738
X15.504 Y47.831
X15.377 Y47.911
X15.241 Y47.976
X15.1 Y48.027
X14.955 Y48.062
X14.806 Y48.081
X14.656 Y48.085
X14.639 Y48.083
X14.438 Y48.035
X14.26 Y47.93
X14.12 Y47.777
X14.031 Y47.591
X14. Y47.386
Y46.686
G3 X14.31 Y46.397 Z-1.3 I0.3 J0.01
G1 X14.356 Y46.402
X14.579 Y46.445
X15.422 Y46.605
X15.691 Y46.656
X15.756 Y46.669 Z-1.328
G3 X16. Y46.953 Z-1.5 I-0.056 J0.295
G1 Y47.662
X15.993 Y47.812
X15.956 Y47.957
X15.896 Y48.095
X15.817 Y48.222
X15.723 Y48.339
X15.615 Y48.444
X15.497 Y48.536
X15.37 Y48.615
X15.234 Y48.679
X15.093 Y48.729
X14.947 Y48.763
X14.798 Y48.781
X14.648 Y48.784
X14.635 Y48.783
X14.435 Y48.734
X14.258 Y48.629
X14.119 Y48.476
X14.03 Y48.29
X14. Y48.086
Y47.386
G3 X14.31 Y47.096 Z-1.3 I0.3 J0.01
G1 X14.358 Y47.102
X14.579 Y47.146
X15.422 Y47.312
X15.691 Y47.365
X15.758 Y47.378 Z-1.329
G3 X16. Y47.662 Z-1.5 I-0.058 J0.294
G1 Y48.371
X15.993 Y48.521
X15.954 Y48.666
X15.893 Y48.803
X15.813 Y48.93
X15.718 Y49.045
X15.61 Y49.149
X15.491 Y49.241
X15.363 Y49.319
X15.227 Y49.382
X15.085 Y49.432
X14.939 Y49.465
X14.79 Y49.482
X14.64 Y49.484
X14.631
X14.432 Y49.434
X14.256 Y49.328
X14.118 Y49.176
X14.03 Y48.99
X14. Y48.787
Y48.086
G3 X14.31 Y47.797 Z-1.3 I0.3 J0.01
G1 X14.36 Y47.803
X14.579 Y47.847
X15.423 Y48.019
X15.691 Y48.073
X15.76 Y48.087 Z-1.33
G3 X16. Y48.371 Z-1.5 I-0.06 J0.294
G1 Y49.08
X15.993 Y49.229
X15.953 Y49.374
X15.891 Y49.511
X15.81 Y49.637
X15.713 Y49.752
X15.605 Y49.855
X15.485 Y49.946
X15.357 Y50.024
X15.221 Y50.086
X15.079 Y50.135
X14.932 Y50.167
X14.783 Y50.184
X14.633 Y50.185
X14.627
X14.429 Y50.134
X14.254 Y50.028
X14.117 Y49.876
X14.03 Y49.691
X14. Y49.488
Y48.787
G3 X14.31 Y48.498 Z-1.3 I0.3 J0.01
G1 X14.361 Y48.504
X14.579 Y48.549
X15.423 Y48.726
X15.691 Y48.782
X15.762 Y48.796 Z-1.331
G3 X16. Y49.08 Z-1.5 I-0.061 J0.294
G1 Y49.788
X15.993 Y49.938
X15.952 Y50.082
X15.888 Y50.218
X15.806 Y50.344
X15.709 Y50.459
X15.6 Y50.561
X15.48 Y50.651
X15.351 Y50.728
X15.215 Y50.79
X15.072 Y50.838
X14.926 Y50.87
X14.777 Y50.886
X14.624
X14.427 Y50.835
X14.252 Y50.729
X14.116 Y50.577
X14.03 Y50.392
X14. Y50.19
Y49.488
G3 X14.31 Y49.199 Z-1.3 I0.3 J0.01
G1 X14.363 Y49.205
X14.578 Y49.252
X15.423 Y49.433
X15.691 Y49.49
X15.763 Y49.505 Z-1.331
G3 X16. Y49.788 Z-1.5 I-0.063 J0.293
G1 Y50.462
X15.993 Y50.612
X15.957 Y50.758
X15.898 Y50.895
X15.819 Y51.023
X15.725 Y51.14
X15.618 Y51.245
X15.5 Y51.337
X15.372 Y51.417
X15.237 Y51.481
X15.096 Y51.532
X14.95 Y51.567
X14.801 Y51.585
X14.651 Y51.588
X14.638 Y51.587
X14.437 Y51.539
X14.259 Y51.434
X14.119 Y51.281
X14.031 Y51.094
X14. Y50.89
Y50.19
G3 X14.31 Y49.901 Z-1.3 I0.3 J0.01
G1 X14.357 Y49.906
X14.579 Y49.949
X15.422 Y50.113
X15.691 Y50.165
X15.757 Y50.178 Z-1.329
G3 X16. Y50.462 Z-1.5 I-0.057 J0.295
G1 Y51.171
X15.993 Y51.321
X15.955 Y51.466
X15.895 Y51.603
X15.815 Y51.73
X15.72 Y51.846
X15.612 Y51.951
X15.494 Y52.043
X15.366 Y52.121
X15.23 Y52.185
X15.088 Y52.234
X14.942 Y52.268
X14.793 Y52.286
X14.643 Y52.288
X14.633 Y52.287
X14.433 Y52.238
X14.256 Y52.132
X14.118 Y51.98
X14.03 Y51.794
X14. Y51.591
Y50.89
G3 X14.31 Y50.601 Z-1.3 I0.3 J0.01
G1 X14.359 Y50.606
X14.579 Y50.65
X15.423 Y50.82
X15.691 Y50.873
X15.759 Y50.887 Z-1.33
G3 X16. Y51.171 Z-1.5 I-0.059 J0.294
G1 Y51.88
X15.993 Y52.029
X15.954 Y52.174
X15.892 Y52.311
X15.811 Y52.438
X15.715 Y52.553
X15.607 Y52.656
X15.488 Y52.748
X15.36 Y52.826
X15.223 Y52.888
X15.082 Y52.937
X14.935 Y52.97
X14.786 Y52.987
X14.636 Y52.989
X14.629 Y52.988
X14.43 Y52.938
X14.255 Y52.832
X14.117 Y52.68
X14.03 Y52.494
X14. Y52.292
Y51.591
G3 X14.31 Y51.301 Z-1.3 I0.3 J0.01
G1 X14.36 Y51.307
X14.579 Y51.352
X15.423 Y51.527
X15.691 Y51.582
X15.761 Y51.596 Z-1.33
G3 X16. Y51.88 Z-1.5 I-0.061 J0.294
G1 Y52.546
X15.993 Y52.695
X15.96 Y52.842
X15.904 Y52.981
X15.828 Y53.11
X15.735 Y53.228
X15.63 Y53.335
X15.513 Y53.429
X15.387 Y53.51
X15.252 Y53.576
X15.111 Y53.628
X14.966 Y53.665
X14.817 Y53.685
X14.667 Y53.69
X14.647 Y53.688
X14.444 Y53.642
X14.263 Y53.537
X14.121 Y53.384
X14.031 Y53.196
X14. Y52.99
Y52.292
G3 X14.31 Y52.002 Z-1.3 I0.3 J0.01
G1 X14.353 Y52.007
X14.58 Y52.048
X15.421 Y52.201
X15.691 Y52.249
X15.754 Y52.261 Z-1.327
G3 X16. Y52.546 Z-1.5 I-0.054 J0.295
G1 Y53.254
X15.993 Y53.404
X15.958 Y53.55
X15.9 Y53.689
X15.823 Y53.817
X15.73 Y53.935
X15.623 Y54.04
X15.506 Y54.134
X15.379 Y54.214
X15.244 Y54.279
X15.103 Y54.33
X14.957 Y54.366
X14.808 Y54.385
X14.659 Y54.389
X14.641 Y54.387
X14.439 Y54.339
X14.26 Y54.234
X14.12 Y54.082
X14.031 Y53.895
X14. Y53.69
Y52.99
G3 X14.31 Y52.701 Z-1.3 I0.3 J0.01
G1 X14.355 Y52.706
X14.579 Y52.748
X15.422 Y52.907
X15.691 Y52.958
X15.756 Y52.97 Z-1.328
G3 X16. Y53.254 Z-1.5 I-0.056 J0.295
G1 Y53.963
X15.993 Y54.113
X15.957 Y54.259
X15.897 Y54.396
X15.819 Y54.524
X15.724 Y54.641
X15.617 Y54.746
X15.499 Y54.838
X15.372 Y54.918
X15.236 Y54.982
X15.095 Y55.032
X14.949 Y55.067
X14.8 Y55.085
X14.65 Y55.088
X14.636 Y55.087
X14.436 Y55.038
X14.258 Y54.933
X14.119 Y54.78
X14.03 Y54.594
X14. Y54.39
Y53.69
G3 X14.31 Y53.4 Z-1.3 I0.3 J0.01
G1 X14.357 Y53.406
X14.579 Y53.449
X15.422 Y53.614
X15.691 Y53.666
X15.758 Y53.679 Z-1.329
G3 X16. Y53.963 Z-1.5 I-0.057 J0.294
G1 Y54.672
X15.993 Y54.822
X15.955 Y54.967
X15.894 Y55.104
X15.815 Y55.231
X15.72 Y55.347
X15.612 Y55.451
X15.493 Y55.543
X15.365 Y55.622
X15.229 Y55.685
X15.088 Y55.735
X14.941 Y55.769
X14.793 Y55.786
X14.643 Y55.788
X14.632 Y55.787
X14.433 Y55.738
X14.256 Y55.632
X14.118 Y55.48
X14.03 Y55.294
X14. Y55.091
Y54.39
G3 X14.31 Y54.101 Z-1.3 I0.3 J0.01
G1 X14.359 Y54.106
X14.579 Y54.151
X15.423 Y54.32
X15.691 Y54.374
X15.759 Y54.388 Z-1.33
G3 X16. Y54.672 Z-1.5 I-0.059 J0.294
G1 Y55.381
X15.993 Y55.531
X15.953 Y55.675
X15.891 Y55.812
X15.811 Y55.938
X15.715 Y56.054
X15.606 Y56.157
X15.487 Y56.248
X15.359 Y56.326
X15.223 Y56.389
X15.081 Y56.438
X14.934 Y56.471
X14.785 Y56.487
X14.635 Y56.489
X14.628 Y56.488
X14.43 Y56.438
X14.255 Y56.332
X14.117 Y56.18
X14.03 Y55.994
X14. Y55.792
Y55.091
G3 X14.31 Y54.801 Z-1.3 I0.3 J0.01
G1 X14.361 Y54.807
X14.579 Y54.852
X15.423 Y55.027
X15.691 Y55.083
X15.761 Y55.097 Z-1.33
G3 X16. Y55.381 Z-1.5 I-0.061 J0.294
G1 Y56.089
X15.993 Y56.239
X15.952 Y56.384
X15.889 Y56.52
X15.807 Y56.646
X15.711 Y56.76
X15.601 Y56.863
X15.482 Y56.954
X15.353 Y57.031
X15.217 Y57.093
X15.074 Y57.141
X14.928 Y57.173
X14.779 Y57.189
X14.625 Y57.19
X14.427 Y57.138
X14.253 Y57.032
X14.117 Y56.88
X14.03 Y56.696
X14. Y56.494
Y55.792
G3 X14.31 Y55.502 Z-1.3 I0.3 J0.01
G1 X14.362 Y55.509
X14.578 Y55.555
X15.423 Y55.734
X15.691 Y55.791
X15.763 Y55.807 Z-1.331
G3 X16. Y56.089 Z-1.5 I-0.062 J0.293
G1 Y56.77
X15.993 Y56.919
X15.956 Y57.065
X15.896 Y57.202
X15.817 Y57.33
X15.723 Y57.446
X15.615 Y57.551
X15.497 Y57.643
X15.369 Y57.722
X15.234 Y57.786
X15.092 Y57.836
X14.946 Y57.871
X14.797 Y57.889
X14.647 Y57.892
X14.636 Y57.891
X14.435 Y57.842
X14.258 Y57.736
X14.119 Y57.584
X14.03 Y57.398
X14. Y57.194
Y56.494
G3 X14.31 Y56.204 Z-1.3 I0.3 J0.01
G1 X14.358 Y56.21
X14.579 Y56.253
X15.422 Y56.42
X15.691 Y56.472
X15.758 Y56.486 Z-1.329
G3 X16. Y56.77 Z-1.5 I-0.058 J0.294
G1 Y57.443
X15.993 Y57.593
X15.961 Y57.74
X15.905 Y57.879
X15.83 Y58.008
X15.738 Y58.127
X15.632 Y58.234
X15.516 Y58.328
X15.39 Y58.41
X15.255 Y58.476
X15.115 Y58.529
X14.97 Y58.566
X14.821 Y58.586
X14.671 Y58.592
X14.648 Y58.59
X14.445 Y58.544
X14.264 Y58.44
X14.122 Y58.287
X14.031 Y58.099
X14. Y57.892
Y57.194
G3 X14.31 Y56.904 Z-1.3 I0.3 J0.01
G1 X14.352 Y56.909
X14.58 Y56.949
X15.421 Y57.099
X15.691 Y57.147
X15.753 Y57.158 Z-1.327
G3 X16. Y57.443 Z-1.5 I-0.053 J0.295
G1 Y58.152
X15.993 Y58.302
X15.959 Y58.448
X15.902 Y58.587
X15.825 Y58.716
X15.732 Y58.833
X15.626 Y58.939
X15.509 Y59.033
X15.382 Y59.113
X15.247 Y59.179
X15.106 Y59.231
X14.961 Y59.266
X14.812 Y59.286
X14.662 Y59.291
X14.643 Y59.289
X14.44 Y59.241
X14.261 Y59.137
X14.12 Y58.984
X14.031 Y58.797
X14. Y58.591
Y57.892
G3 X14.31 Y57.603 Z-1.3 I0.3 J0.01
G1 X14.355 Y57.608
X14.58 Y57.649
X15.422 Y57.806
X15.691 Y57.856
X15.755 Y57.868 Z-1.328
G3 X16. Y58.152 Z-1.5 I-0.055 J0.295
G1 Y58.861
X15.993 Y59.011
X15.957 Y59.156
X15.899 Y59.294
X15.821 Y59.423
X15.727 Y59.54
X15.62 Y59.645
X15.502 Y59.738
X15.375 Y59.817
X15.239 Y59.882
X15.098 Y59.933
X14.952 Y59.968
X14.804 Y59.986
X14.654 Y59.99
X14.638 Y59.988
X14.437 Y59.94
X14.259 Y59.835
X14.119 Y59.682
X14.031 Y59.496
X14. Y59.291
Y58.591
G3 X14.31 Y58.302 Z-1.3 I0.3 J0.01
G1 X14.357 Y58.307
X14.579 Y58.35
X15.422 Y58.512
X15.691 Y58.564
X15.757 Y58.577 Z-1.329
G3 X16. Y58.861 Z-1.5 I-0.057 J0.295
G1 Y59.57
X15.993 Y59.719
X15.956 Y59.865
X15.896 Y60.002
X15.816 Y60.13
X15.722 Y60.246
X15.614 Y60.35
X15.495 Y60.442
X15.368 Y60.521
X15.232 Y60.585
X15.091 Y60.635
X14.945 Y60.669
X14.796 Y60.687
X14.646 Y60.69
X14.634 Y60.689
X14.434 Y60.639
X14.257 Y60.534
X14.119 Y60.381
X14.03 Y60.195
X14. Y59.992
Y59.291
G3 X14.31 Y59.002 Z-1.3 I0.3 J0.01
G1 X14.358 Y59.007
X14.579 Y59.051
X15.422 Y59.219
X15.691 Y59.272
X15.759 Y59.286 Z-1.329
G3 X16. Y59.57 Z-1.5 I-0.059 J0.294
G1 Y60.278
X15.993 Y60.428
X15.954 Y60.573
X15.893 Y60.71
X15.812 Y60.837
X15.717 Y60.952
X15.608 Y61.056
X15.489 Y61.148
X15.361 Y61.226
X15.225 Y61.289
X15.084 Y61.338
X14.937 Y61.371
X14.788 Y61.388
X14.638 Y61.39
X14.63 Y61.389
X14.431 Y61.339
X14.255 Y61.233
X14.118 Y61.081
X14.03 Y60.896
X14. Y60.693
Y59.992
G3 X14.31 Y59.702 Z-1.3 I0.3 J0.01
G1 X14.36 Y59.708
X14.579 Y59.753
X15.423 Y59.926
X15.691 Y59.981
X15.76 Y59.995 Z-1.33
G3 X16. Y60.278 Z-1.5 I-0.06 J0.294
G1 Y60.987
X15.993 Y61.137
X15.953 Y61.282
X15.89 Y61.418
X15.809 Y61.544
X15.712 Y61.659
X15.603 Y61.762
X15.484 Y61.853
X15.355 Y61.93
X15.219 Y61.992
X15.077 Y62.041
X14.931 Y62.073
X14.781 Y62.09
X14.631 Y62.091
X14.626 Y62.09
X14.428 Y62.039
X14.254 Y61.933
X14.117 Y61.781
X14.03 Y61.596
X14. Y61.394
Y60.693
G3 X14.31 Y60.403 Z-1.3 I0.3 J0.01
G1 X14.362 Y60.41
X14.579 Y60.455
X15.423 Y60.633
X15.691 Y60.689
X15.762 Y60.704 Z-1.331
G3 X16. Y60.987 Z-1.5 I-0.062 J0.294
G1 Y61.661
X15.993 Y61.811
X15.958 Y61.957
X15.899 Y62.095
X15.822 Y62.223
X15.728 Y62.34
X15.621 Y62.446
X15.503 Y62.538
X15.376 Y62.618
X15.241 Y62.683
X15.1 Y62.734
X14.954 Y62.77
X14.806 Y62.788
X14.656 Y62.792
X14.64 Y62.791
X14.439 Y62.743
X14.26 Y62.638
X14.12 Y62.485
X14.031 Y62.298
X14. Y62.094
Y61.394
G3 X14.31 Y61.105 Z-1.3 I0.3 J0.01
G1 X14.356 Y61.11
X14.579 Y61.153
X15.422 Y61.313
X15.691 Y61.364
X15.756 Y61.377 Z-1.328
G3 X16. Y61.661 Z-1.5 I-0.056 J0.295
G1 Y62.37
X15.993 Y62.52
X15.956 Y62.665
X15.896 Y62.803
X15.817 Y62.93
X15.723 Y63.047
X15.615 Y63.151
X15.497 Y63.244
X15.37 Y63.323
X15.234 Y63.386
X15.093 Y63.437
X14.946 Y63.471
X14.798 Y63.489
X14.648 Y63.492
X14.635 Y63.491
X14.435 Y63.442
X14.258 Y63.336
X14.119 Y63.184
X14.03 Y62.998
X14. Y62.794
Y62.094
G3 X14.31 Y61.804 Z-1.3 I0.3 J0.01
G1 X14.358 Y61.81
X14.579 Y61.853
X15.422 Y62.02
X15.691 Y62.073
X15.758 Y62.086 Z-1.329
G3 X16. Y62.37 Z-1.5 I-0.058 J0.294
G1 Y63.078
X15.993 Y63.228
X15.954 Y63.373
X15.893 Y63.51
X15.813 Y63.637
X15.718 Y63.753
X15.61 Y63.857
X15.491 Y63.949
X15.363 Y64.027
X15.227 Y64.09
X15.085 Y64.139
X14.939 Y64.173
X14.79 Y64.19
X14.64 Y64.192
X14.631 Y64.191
X14.432 Y64.141
X14.256 Y64.036
X14.118 Y63.883
X14.03 Y63.698
X14. Y63.495
Y62.794
G3 X14.31 Y62.504 Z-1.3 I0.3 J0.01
G1 X14.36 Y62.51
X14.579 Y62.555
X15.423 Y62.726
X15.691 Y62.781
X15.76 Y62.795 Z-1.33
G3 X16. Y63.078 Z-1.5 I-0.06 J0.294
G1 Y63.744
X15.993 Y63.894
X15.961 Y64.041
X15.905 Y64.18
X15.83 Y64.31
X15.738 Y64.428
X15.632 Y64.535
X15.516 Y64.629
X15.39 Y64.711
X15.255 Y64.777
X15.115 Y64.83
X14.97 Y64.867
X14.821 Y64.887
X14.671 Y64.893
X14.649 Y64.891
X14.445 Y64.845
X14.264 Y64.741
X14.122 Y64.588
X14.031 Y64.4
X14. Y64.193
Y63.495
G3 X14.31 Y63.205 Z-1.3 I0.3 J0.01
G1 X14.352 Y63.21
X14.58 Y63.25
X15.421 Y63.4
X15.691 Y63.448
X15.753 Y63.46 Z-1.327
G3 X16. Y63.744 Z-1.5 I-0.053 J0.295
G1 Y64.453
X15.993 Y64.603
X15.959 Y64.749
X15.902 Y64.888
X15.825 Y65.017
X15.732 Y65.134
X15.626 Y65.24
X15.509 Y65.334
X15.382 Y65.414
X15.247 Y65.48
X15.106 Y65.532
X14.961 Y65.568
X14.812 Y65.587
X14.742 Y65.589
X14.548 Y65.568
X14.366 Y65.493
X14.213 Y65.371
X14.099 Y65.211
X14.035 Y65.026
G3 X14.225 Y64.697 Z-1.325 I0.296 J-0.048
G1 X14.281 Y64.676 Z-1.3
X14.537 Y64.58
X15.43 Y64.245
X15.595 Y64.183
X15.642 Y64.169
X15.69 Y64.164
G3 X16. Y64.453 Z-1.5 I0.01 J0.3
G1 Y64.808
X15.999 Y64.843
X15.995 Y64.878
X15.91 Y65.304
X15.902 Y65.339
X15.889 Y65.375
X15.847 Y65.445
X15.753 Y65.587
X15.712 Y65.646
X15.686 Y65.675
X15.655 Y65.705
X15.623 Y65.729
X15.409 Y65.871
X15.372 Y65.888
X15.337 Y65.902
X15.302 Y65.911
X15.089 Y65.953
X15.018 Y65.963
X14.983 Y65.964
X14.948 Y65.96
X14.806 Y65.932
X14.664 Y65.903
X14.628 Y65.89
X14.591 Y65.871
X14.523 Y65.826
X14.377 Y65.729
X14.337 Y65.698
X14.297 Y65.658
X14.24 Y65.576
X14.153 Y65.445
X14.12 Y65.392
X14.107 Y65.366
X14.098 Y65.339
X14.09 Y65.304
X14.005 Y64.878
X14.001 Y64.843
X14. Y64.808
Y64.193
G3 X14.299 Y63.904 I0.3 J0.01
G1 X14.3
X14.324 Y63.905
X14.374 Y63.922 Z-1.495
X14.423 Y63.939 Z-1.481
X14.468 Y63.955 Z-1.458
X14.501 Y63.992 Z-1.421
X14.528 Y64.022 Z-1.374
X14.548 Y64.044 Z-1.32
X14.56 Y64.058 Z-1.262
X14.565 Y64.063 Z-1.2
Z5.
X14.896 Y35.824
Z0.5
S2000
G3 X14.657 Y35.112 Z0.469 I0.104 J-0.431 F75.
X15.401 Y35.206 Z0.438 I0.342 J0.28
X14.995 Y35.834 Z0.406 I-0.401 J0.187
X14.605 Y35.196 Z0.375 I0.005 J-0.441
X15.348 Y35.122 Z0.344 I0.395 J0.196
X15.093 Y35.823 Z0.313 I-0.348 J0.27
X14.572 Y35.29 Z0.281 I-0.093 J-0.43
X15.277 Y35.052 Z0.25 I0.427 J0.103
X15.186 Y35.79 Z0.219 I-0.278 J0.34
X14.562 Y35.388 Z0.188 I-0.186 J-0.397
X15.194 Y35.001 Z0.156 I0.438 J0.005
X15.269 Y35.737 Z0.125 I-0.194 J0.392
X14.574 Y35.485 Z0.094 I-0.268 J-0.344
X15.101 Y34.969 Z0.063 I0.426 J-0.092
X15.337 Y35.667 Z0.031 I-0.101 J0.424
X14.606 Y35.577 Z0. I-0.337 J-0.275
X15.004 Y34.958 Z-0.031 I0.393 J-0.184
X15.389 Y35.584 Z-0.063 I-0.004 J0.434
X14.659 Y35.659 Z-0.094 I-0.389 J-0.192
X14.908 Y34.97 Z-0.125 I0.341 J-0.266
X15.42 Y35.493 Z-0.156 I0.092 J0.422
X14.728 Y35.727 Z-0.188 I-0.42 J-0.1
X14.816 Y35.003 Z-0.219 I0.272 J-0.335
X15.43 Y35.396 Z-0.25 I0.183 J0.39
X14.81 Y35.778 Z-0.281 I-0.43 J-0.004
X14.735 Y35.055 Z-0.313 I0.19 J-0.385
X15.419 Y35.301 Z-0.344 I0.265 J0.338
X14.901 Y35.809 Z-0.375 I-0.418 J0.092
X14.668 Y35.123 Z-0.406 I0.099 J-0.416
X15.386 Y35.21 Z-0.438 I0.332 J0.269
X14.997 Y35.819 Z-0.469 I-0.386 J0.182
X14.617 Y35.205 Z-0.5 I0.003 J-0.426
X15.334 Y35.13 Z-0.531 I0.382 J0.188
X15.092 Y35.807 Z-0.563 I-0.334 J0.263
X14.587 Y35.295 Z-0.594 I-0.091 J-0.415
X15.266 Y35.063 Z-0.625 I0.413 J0.097
X15.181 Y35.775 Z-0.656 I-0.266 J0.329
X14.577 Y35.39 Z-0.688 I-0.181 J-0.382
X15.185 Y35.013 Z-0.719 I0.422 J0.003
X15.261 Y35.724 Z-0.75 I-0.186 J0.379
X14.589 Y35.484 Z-0.781 I-0.261 J-0.331
X15.096 Y34.983 Z-0.813 I0.411 J-0.091
X15.327 Y35.656 Z-0.844 I-0.096 J0.409
X14.621 Y35.573 Z-0.875 I-0.327 J-0.264
X15.002 Y34.974 Z-0.906 I0.379 J-0.18
X15.376 Y35.576 Z-0.938 I-0.002 J0.419
X14.672 Y35.651 Z-0.969 I-0.376 J-0.183
X14.909 Y34.985 Z-1. I0.328 J-0.259
X15.406 Y35.487 Z-1.031 I0.091 J0.407
X14.739 Y35.717 Z-1.063 I-0.406 J-0.095
X14.821 Y35.017 Z-1.094 I0.261 J-0.324
X15.415 Y35.394 Z-1.125 I0.178 J0.375
X14.819 Y35.765 Z-1.156 I-0.415 J-0.002
X14.743 Y35.068 Z-1.188 I0.181 J-0.372
X15.403 Y35.302 Z-1.219 I0.257 J0.325
X14.907 Y35.795 Z-1.25 I-0.403 J0.09
X14.678 Y35.134 Z-1.281 I0.093 J-0.402
X15.371 Y35.215 Z-1.313 I0.321 J0.258
X14.999 Y35.804 Z-1.344 I-0.371 J0.177
X14.63 Y35.213 Z-1.375 I0.001 J-0.411
X15.321 Y35.138 Z-1.406 I0.369 J0.179
X15.09 Y35.792 Z-1.438 I-0.321 J0.255
X14.601 Y35.301 Z-1.469 I-0.09 J-0.399
X15.255 Y35.074 Z-1.5 I0.398 J0.092
X15.176 Y35.76 Z-1.531 I-0.255 J0.319
X14.592 Y35.392 Z-1.563 I-0.176 J-0.368
X15.177 Y35.026 Z-1.594 I0.407 J0.001
X15.253 Y35.711 Z-1.625 I-0.177 J0.366
X14.604 Y35.482 Z-1.656 I-0.253 J-0.318
X15.091 Y34.998 Z-1.688 I0.395 J-0.09
X15.316 Y35.645 Z-1.719 I-0.091 J0.395
X14.636 Y35.568 Z-1.75 I-0.316 J-0.253
X15. Y34.989 Z-1.781 I0.364 J-0.175
X15.363 Y35.568 Z-1.813 I0. J0.403
X14.685 Y35.643 Z-1.844 I-0.363 J-0.175
X14.911 Y35.001 Z-1.875 I0.315 J-0.251
X15.391 Y35.482 Z-1.906 I0.089 J0.392
X14.75 Y35.706 Z-1.938 I-0.391 J-0.089
X14.826 Y35.032 Z-1.969 I0.25 J-0.313
X15.4 Y35.392 Z-2. I0.174 J0.36
X14.6 I-0.4 J0.
X15.4 I0.4 J0.
S9000
G1 X15.442 Y35.643 F100.
X15.456 Y35.793
X15.405 Y35.934
X15.312 Y36.052
X15.191 Y36.14
X15.052 Y36.196
X14.903 Y36.22
X14.754 Y36.213
X14.608 Y36.177
X14.472 Y36.113
X14.35 Y36.026
X14.246 Y35.918
X14.162 Y35.794
X14.1 Y35.657
X14.062 Y35.512
X14.048 Y35.363
X14.059 Y35.213
X14.094 Y35.067
X14.152 Y34.929
X14.231 Y34.801
X14.329 Y34.688
X14.443 Y34.591
X14.571 Y34.513
X14.71 Y34.456
X14.856 Y34.421
X15.005 Y34.409
X15.155 Y34.42
X15.301 Y34.454
X15.44 Y34.51
X15.57 Y34.586
X15.686 Y34.68
X15.792 Y34.786
X15.842 Y34.847
X15.928 Y34.982
X15.982 Y35.132
X16. Y35.29
Y35.754
X15.993 Y35.904
X15.963 Y36.051
X15.912 Y36.192
X15.841 Y36.325
X15.753 Y36.446
X15.65 Y36.555
X15.533 Y36.649
X15.406 Y36.729
X15.27 Y36.792
X15.127 Y36.838
X14.98 Y36.868
X14.831 Y36.881
X14.681 Y36.878
X14.606 Y36.867
X14.414 Y36.813
X14.244 Y36.705
X14.112 Y36.554
X14.029 Y36.372
X14. Y36.174
Y35.18
X14.008 Y35.109
X14.092 Y34.684
X14.098 Y34.661
X14.109 Y34.631
X14.123 Y34.602
X14.161 Y34.542
X14.256 Y34.401
X14.303 Y34.335
X14.342 Y34.297
X14.381 Y34.268
X14.523 Y34.174
X14.613 Y34.117
X14.639 Y34.106
X14.664 Y34.097
X14.806 Y34.068
X14.948 Y34.04
X14.983 Y34.036
X15.018 Y34.037
X15.089 Y34.047
X15.302 Y34.089
X15.337 Y34.098
X15.372 Y34.111
X15.386 Y34.117
X15.514 Y34.198
X15.604 Y34.259
X15.655 Y34.295
X15.707 Y34.348
X15.744 Y34.401
X15.839 Y34.542
X15.883 Y34.613
X15.898 Y34.649
X15.908 Y34.684
X15.992 Y35.109
X16. Y35.18
Y35.29
G3 X15.7 Y35.59 Z-1.8 I-0.3 J0.
G1 X15.636 Y35.583
X15.574 Y35.563
X15.518 Y35.529
X15.456 Y35.482
X15.339 Y35.393
G3 X15.702 Y34.915 I0.182 J-0.239
X15.779 Y35.001 I-0.182 J0.239
X15.914 Y35.293 I-1.36 J0.809
X16. Y35.754 Z-2. I-1.496 J0.517
G1 Y36.498
X15.993 Y36.648
X15.955 Y36.793
X15.893 Y36.93
X15.811 Y37.056
X15.713 Y37.169
X15.602 Y37.27
X15.481 Y37.358
X15.35 Y37.432
X15.213 Y37.492
X15.07 Y37.537
X14.923 Y37.567
X14.773 Y37.581
X14.619 Y37.58
X14.423 Y37.527
X14.25 Y37.421
X14.115 Y37.269
X14.029 Y37.085
X14. Y36.884
Y36.174
G3 X14.31 Y35.884 Z-1.8 I0.3 J0.01
G1 X14.368 Y35.892
X14.578 Y35.941
X15.425 Y36.137
X15.691 Y36.199
X15.768 Y36.216 Z-1.833
G3 X16. Y36.498 Z-2. I-0.068 J0.292
G1 Y37.172
X15.993 Y37.322
X15.955 Y37.467
X15.895 Y37.604
X15.815 Y37.731
X15.719 Y37.847
X15.611 Y37.95
X15.491 Y38.041
X15.363 Y38.119
X15.227 Y38.182
X15.085 Y38.231
X14.939 Y38.265
X14.79 Y38.282
X14.64 Y38.284
X14.631 Y38.283
X14.432 Y38.233
X14.256 Y38.127
X14.118 Y37.975
X14.03 Y37.789
X14. Y37.586
Y36.884
G3 X14.31 Y36.595 Z-1.8 I0.3 J0.01
G1 X14.36 Y36.601
X14.579 Y36.646
X15.423 Y36.819
X15.691 Y36.874
X15.761 Y36.889 Z-1.83
G3 X16. Y37.172 Z-2. I-0.06 J0.294
G1 Y37.881
X15.993 Y38.031
X15.953 Y38.175
X15.89 Y38.312
X15.809 Y38.438
X15.713 Y38.553
X15.604 Y38.656
X15.484 Y38.746
X15.356 Y38.824
X15.219 Y38.886
X15.077 Y38.934
X14.931 Y38.967
X14.782 Y38.983
X14.632 Y38.984
X14.626
X14.428 Y38.933
X14.254 Y38.827
X14.117 Y38.675
X14.03 Y38.49
X14. Y38.288
Y37.586
G3 X14.31 Y37.297 Z-1.8 I0.3 J0.01
G1 X14.362 Y37.303
X14.579 Y37.349
X15.423 Y37.526
X15.691 Y37.583
X15.762 Y37.598 Z-1.831
G3 X16. Y37.881 Z-2. I-0.062 J0.294
G1 Y38.554
X15.993 Y38.704
X15.958 Y38.85
X15.899 Y38.988
X15.822 Y39.117
X15.728 Y39.234
X15.621 Y39.339
X15.503 Y39.432
X15.377 Y39.512
X15.241 Y39.577
X15.1 Y39.628
X14.954 Y39.663
X14.806 Y39.682
X14.656 Y39.686
X14.64 Y39.685
X14.439 Y39.637
X14.26 Y39.532
X14.12 Y39.379
X14.031 Y39.192
X14. Y38.987
Y38.288
G3 X14.31 Y37.998 Z-1.8 I0.3 J0.01
G1 X14.356 Y38.004
X14.579 Y38.046
X15.422 Y38.207
X15.691 Y38.258
X15.756 Y38.27 Z-1.828
G3 X16. Y38.554 Z-2. I-0.056 J0.295
G1 Y39.263
X15.993 Y39.413
X15.956 Y39.559
X15.896 Y39.696
X15.817 Y39.824
X15.723 Y39.94
X15.615 Y40.045
X15.497 Y40.137
X15.37 Y40.216
X15.234 Y40.28
X15.093 Y40.33
X14.947 Y40.365
X14.798 Y40.383
X14.648 Y40.386
X14.635 Y40.384
X14.435 Y40.335
X14.258 Y40.23
X14.119 Y40.078
X14.03 Y39.891
X14. Y39.687
Y38.987
G3 X14.31 Y38.698 Z-1.8 I0.3 J0.01
G1 X14.358 Y38.703
X14.579 Y38.747
X15.422 Y38.913
X15.691 Y38.966
X15.758 Y38.979 Z-1.829
G3 X16. Y39.263 Z-2. I-0.058 J0.294
G1 Y39.972
X15.993 Y40.122
X15.954 Y40.267
X15.893 Y40.404
X15.813 Y40.531
X15.718 Y40.647
X15.61 Y40.75
X15.491 Y40.842
X15.363 Y40.92
X15.227 Y40.984
X15.085 Y41.033
X14.939 Y41.066
X14.79 Y41.084
X14.64 Y41.086
X14.631 Y41.085
X14.432 Y41.035
X14.256 Y40.929
X14.118 Y40.777
X14.03 Y40.591
X14. Y40.388
Y39.687
G3 X14.31 Y39.398 Z-1.8 I0.3 J0.01
G1 X14.36 Y39.404
X14.579 Y39.448
X15.423 Y39.62
X15.691 Y39.674
X15.76 Y39.688 Z-1.83
G3 X16. Y39.972 Z-2. I-0.06 J0.294
G1 Y40.638
X15.993 Y40.788
X15.961 Y40.934
X15.905 Y41.074
X15.83 Y41.203
X15.738 Y41.322
X15.633 Y41.429
X15.516 Y41.523
X15.39 Y41.604
X15.255 Y41.671
X15.115 Y41.723
X14.97 Y41.761
X14.821 Y41.781
X14.671 Y41.786
X14.649 Y41.785
X14.445 Y41.739
X14.264 Y41.634
X14.122 Y41.481
X14.031 Y41.293
X14. Y41.087
Y40.388
G3 X14.31 Y40.099 Z-1.8 I0.3 J0.01
G1 X14.352 Y40.103
X14.58 Y40.144
X15.421 Y40.294
X15.691 Y40.342
X15.753 Y40.353 Z-1.827
G3 X16. Y40.638 Z-2. I-0.053 J0.295
G1 Y41.347
X15.993 Y41.497
X15.959 Y41.643
X15.902 Y41.781
X15.825 Y41.91
X15.732 Y42.028
X15.626 Y42.134
X15.509 Y42.228
X15.382 Y42.308
X15.247 Y42.373
X15.106 Y42.425
X14.961 Y42.461
X14.812 Y42.481
X14.662 Y42.485
X14.643 Y42.484
X14.44 Y42.436
X14.261 Y42.331
X14.12 Y42.179
X14.031 Y41.991
X14. Y41.786
Y41.087
G3 X14.31 Y40.797 Z-1.8 I0.3 J0.01
G1 X14.355 Y40.802
X14.58 Y40.844
X15.422 Y41.
X15.691 Y41.05
X15.755 Y41.062 Z-1.828
G3 X16. Y41.347 Z-2. I-0.055 J0.295
G1 Y42.055
X15.993 Y42.205
X15.957 Y42.351
X15.899 Y42.489
X15.821 Y42.617
X15.727 Y42.734
X15.62 Y42.839
X15.502 Y42.932
X15.375 Y43.012
X15.239 Y43.076
X15.098 Y43.127
X14.952 Y43.162
X14.804 Y43.181
X14.654 Y43.184
X14.638 Y43.183
X14.437 Y43.135
X14.259 Y43.03
X14.119 Y42.877
X14.031 Y42.69
X14. Y42.486
Y41.786
G3 X14.31 Y41.497 Z-1.8 I0.3 J0.01
G1 X14.357 Y41.502
X14.579 Y41.545
X15.422 Y41.707
X15.691 Y41.759
X15.757 Y41.771 Z-1.829
G3 X16. Y42.055 Z-2. I-0.057 J0.295
G1 Y42.764
X15.993 Y42.914
X15.956 Y43.059
X15.896 Y43.197
X15.816 Y43.324
X15.722 Y43.441
X15.614 Y43.545
X15.496 Y43.637
X15.368 Y43.716
X15.232 Y43.78
X15.091 Y43.83
X14.945 Y43.864
X14.796 Y43.882
X14.646 Y43.884
X14.634 Y43.883
X14.434 Y43.834
X14.257 Y43.728
X14.119 Y43.576
X14.03 Y43.39
X14. Y43.186
Y42.486
G3 X14.31 Y42.197 Z-1.8 I0.3 J0.01
G1 X14.358 Y42.202
X14.579 Y42.246
X15.422 Y42.414
X15.691 Y42.467
X15.759 Y42.481 Z-1.829
G3 X16. Y42.764 Z-2. I-0.059 J0.294
G1 Y43.473
X15.993 Y43.623
X15.954 Y43.768
X15.893 Y43.905
X15.812 Y44.031
X15.717 Y44.147
X15.608 Y44.251
X15.489 Y44.342
X15.361 Y44.42
X15.225 Y44.483
X15.084 Y44.532
X14.937 Y44.566
X14.788 Y44.583
X14.638 Y44.585
X14.63 Y44.584
X14.431 Y44.534
X14.255 Y44.428
X14.118 Y44.276
X14.03 Y44.09
X14. Y43.887
Y43.186
G3 X14.31 Y42.897 Z-1.8 I0.3 J0.01
G1 X14.36 Y42.903
X14.579 Y42.948
X15.423 Y43.121
X15.691 Y43.175
X15.76 Y43.19 Z-1.83
G3 X16. Y43.473 Z-2. I-0.06 J0.294
G1 Y44.182
X15.993 Y44.332
X15.953 Y44.476
X15.89 Y44.613
X15.809 Y44.739
X15.712 Y44.854
X15.603 Y44.957
X15.484 Y45.047
X15.355 Y45.125
X15.219 Y45.187
X15.077 Y45.236
X14.931 Y45.268
X14.781 Y45.284
X14.631 Y45.285
X14.626
X14.428 Y45.234
X14.254 Y45.128
X14.117 Y44.976
X14.03 Y44.791
X14. Y44.589
Y43.887
G3 X14.31 Y43.598 Z-1.8 I0.3 J0.01
G1 X14.362 Y43.604
X14.579 Y43.65
X15.423 Y43.827
X15.691 Y43.884
X15.762 Y43.899 Z-1.831
G3 X16. Y44.182 Z-2. I-0.062 J0.294
G1 Y44.862
X15.993 Y45.012
X15.957 Y45.157
X15.897 Y45.295
X15.818 Y45.423
X15.724 Y45.54
X15.617 Y45.644
X15.499 Y45.737
X15.371 Y45.816
X15.236 Y45.88
X15.095 Y45.931
X14.949 Y45.966
X14.8 Y45.984
X14.65 Y45.987
X14.637 Y45.986
X14.436 Y45.937
X14.259 Y45.832
X14.119 Y45.679
X14.03 Y45.493
X14. Y45.289
Y44.589
G3 X14.31 Y44.299 Z-1.8 I0.3 J0.01
G1 X14.357 Y44.305
X14.579 Y44.348
X15.422 Y44.513
X15.691 Y44.565
X15.758 Y44.578 Z-1.829
G3 X16. Y44.862 Z-2. I-0.057 J0.294
G1 Y45.536
X15.993 Y45.685
X15.962 Y45.832
X15.906 Y45.972
X15.831 Y46.101
X15.739 Y46.22
X15.634 Y46.327
X15.518 Y46.422
X15.392 Y46.503
X15.258 Y46.57
X15.117 Y46.623
X14.972 Y46.66
X14.823 Y46.681
X14.674 Y46.687
X14.65 Y46.685
X14.446 Y46.639
X14.265 Y46.535
X14.122 Y46.382
X14.031 Y46.194
X14. Y45.987
Y45.289
G3 X14.31 Y44.999 Z-1.8 I0.3 J0.01
G1 X14.352 Y45.004
X14.58 Y45.044
X15.421 Y45.192
X15.691 Y45.24
X15.752 Y45.251 Z-1.827
G3 X16. Y45.536 Z-2. I-0.052 J0.295
G1 Y46.244
X15.993 Y46.394
X15.96 Y46.541
X15.903 Y46.679
X15.826 Y46.808
X15.734 Y46.926
X15.628 Y47.033
X15.511 Y47.126
X15.384 Y47.207
X15.249 Y47.273
X15.109 Y47.325
X14.963 Y47.361
X14.814 Y47.381
X14.664 Y47.386
X14.644 Y47.384
X14.441 Y47.337
X14.262 Y47.232
X14.121 Y47.079
X14.031 Y46.892
X14. Y46.686
Y45.987
G3 X14.31 Y45.698 Z-1.8 I0.3 J0.01
G1 X14.354 Y45.702
X14.58 Y45.744
X15.422 Y45.899
X15.691 Y45.948
X15.754 Y45.96 Z-1.828
G3 X16. Y46.244 Z-2. I-0.054 J0.295
G1 Y46.953
X15.993 Y47.103
X15.958 Y47.249
X15.899 Y47.387
X15.822 Y47.515
X15.728 Y47.633
X15.621 Y47.738
X15.504 Y47.831
X15.377 Y47.911
X15.241 Y47.976
X15.1 Y48.027
X14.955 Y48.062
X14.806 Y48.081
X14.656 Y48.085
X14.639 Y48.083
X14.438 Y48.035
X14.26 Y47.93
X14.12 Y47.777
X14.031 Y47.591
X14. Y47.386
Y46.686
G3 X14.31 Y46.397 Z-1.8 I0.3 J0.01
G1 X14.356 Y46.402
X14.579 Y46.445
X15.422 Y46.605
X15.691 Y46.656
X15.756 Y46.669 Z-1.828
G3 X16. Y46.953 Z-2. I-0.056 J0.295
G1 Y47.662
X15.993 Y47.812
X15.956 Y47.957
X15.896 Y48.095
X15.817 Y48.222
X15.723 Y48.339
X15.615 Y48.444
X15.497 Y48.536
X15.37 Y48.615
X15.234 Y48.679
X15.093 Y48.729
X14.947 Y48.763
X14.798 Y48.781
X14.648 Y48.784
X14.635 Y48.783
X14.435 Y48.734
X14.258 Y48.629
X14.119 Y48.476
X14.03 Y48.29
X14. Y48.086
Y47.386
G3 X14.31 Y47.096 Z-1.8 I0.3 J0.01
G1 X14.358 Y47.102
X14.579 Y47.146
X15.422 Y47.312
