(1009BREBORETODEPTH)
(MACHINE)
(  VENDOR HOMEMADE)
(  DESCRIPTION GENERIC 3-AXIS)
(T2  D=3. CR=0. - ZMIN=-6. - FLAT END MILL)
G90 G94 G91.1 G40 G49 G17
G21
(WHEN USING FUSION 360 FOR PERSONAL USE, THE FEEDRATE OF)
(RAPID MOVES IS REDUCED TO MATCH THE FEEDRATE OF CUTTING)
(MOVES, WHICH CAN INCREASE MACHINING TIME. UNRESTRICTED RAPID)
(MOVES ARE AVAILABLE WITH A FUSION 360 SUBSCRIPTION.)
G28 G91 Z0.
G90

(BORETODEPTH)
M5
T2 M6
S9000 M3
G54
G0 X13. Y5.85
G43 Z5. H2
G1 Z1.7 F75.
Z0.
X13.15
X13.196 Y5.857
X13.238 Y5.879
X13.271 Y5.912
X13.293 Y5.954
X13.3 Y6.
G3 X12.7 Z-0.063 I-0.3 J0.
X13.3 Z-0.126 I0.3 J0.
X12.7 Z-0.189 I-0.3 J0.
X13.3 Z-0.251 I0.3 J0.
X12.7 Z-0.314 I-0.3 J0.
X13.3 Z-0.377 I0.3 J0.
X12.7 Z-0.44 I-0.3 J0.
X13.3 Z-0.503 I0.3 J0.
X12.7 Z-0.566 I-0.3 J0.
X13.3 Z-0.629 I0.3 J0.
X12.7 Z-0.691 I-0.3 J0.
X13.3 Z-0.754 I0.3 J0.
X12.7 Z-0.817 I-0.3 J0.
X13.3 Z-0.88 I0.3 J0.
X12.7 Z-0.943 I-0.3 J0.
X13.3 Z-1.006 I0.3 J0.
X12.7 Z-1.069 I-0.3 J0.
X13.3 Z-1.131 I0.3 J0.
X12.7 Z-1.194 I-0.3 J0.
X13.3 Z-1.257 I0.3 J0.
X12.7 Z-1.32 I-0.3 J0.
X13.3 Z-1.383 I0.3 J0.
X12.7 Z-1.446 I-0.3 J0.
X13.3 Z-1.509 I0.3 J0.
X12.7 Z-1.571 I-0.3 J0.
X13.3 Z-1.634 I0.3 J0.
X12.7 Z-1.697 I-0.3 J0.
X13.3 Z-1.76 I0.3 J0.
X12.7 Z-1.823 I-0.3 J0.
X13.3 Z-1.886 I0.3 J0.
X12.7 Z-1.949 I-0.3 J0.
X13.3 Z-2.011 I0.3 J0.
X12.7 Z-2.074 I-0.3 J0.
X13.3 Z-2.137 I0.3 J0.
X12.7 Z-2.2 I-0.3 J0.
X13.3 Z-2.263 I0.3 J0.
X12.7 Z-2.326 I-0.3 J0.
X13.3 Z-2.389 I0.3 J0.
X12.7 Z-2.451 I-0.3 J0.
X13.3 Z-2.514 I0.3 J0.
X12.7 Z-2.577 I-0.3 J0.
X13.3 Z-2.64 I0.3 J0.
X12.7 Z-2.703 I-0.3 J0.
X13.3 Z-2.766 I0.3 J0.
X12.7 Z-2.829 I-0.3 J0.
X13.3 Z-2.891 I0.3 J0.
X12.7 Z-2.954 I-0.3 J0.
X13.3 Z-3.017 I0.3 J0.
X12.7 Z-3.08 I-0.3 J0.
X13.3 Z-3.143 I0.3 J0.
X12.7 Z-3.206 I-0.3 J0.
X13.3 Z-3.269 I0.3 J0.
X12.7 Z-3.331 I-0.3 J0.
X13.3 Z-3.394 I0.3 J0.
X12.7 Z-3.457 I-0.3 J0.
X13.3 Z-3.52 I0.3 J0.
X12.7 Z-3.583 I-0.3 J0.
X13.3 Z-3.646 I0.3 J0.
X12.7 Z-3.709 I-0.3 J0.
X13.3 Z-3.771 I0.3 J0.
X12.7 Z-3.834 I-0.3 J0.
X13.3 Z-3.897 I0.3 J0.
X12.7 Z-3.96 I-0.3 J0.
X13.3 Z-4.023 I0.3 J0.
X12.7 Z-4.086 I-0.3 J0.
X13.3 Z-4.149 I0.3 J0.
X12.7 Z-4.211 I-0.3 J0.
X13.3 Z-4.274 I0.3 J0.
X12.7 Z-4.337 I-0.3 J0.
X13.3 Z-4.4 I0.3 J0.
X12.7 Z-4.463 I-0.3 J0.
X13.3 Z-4.526 I0.3 J0.
X12.7 Z-4.589 I-0.3 J0.
X13.3 Z-4.651 I0.3 J0.
X12.7 Z-4.714 I-0.3 J0.
X13.3 Z-4.777 I0.3 J0.
X12.7 Z-4.84 I-0.3 J0.
X13.3 Z-4.903 I0.3 J0.
X12.7 Z-4.966 I-0.3 J0.
X13.3 Z-5.029 I0.3 J0.
X12.7 Z-5.091 I-0.3 J0.
X13.3 Z-5.154 I0.3 J0.
X12.7 Z-5.217 I-0.3 J0.
X13.3 Z-5.28 I0.3 J0.
X12.7 Z-5.343 I-0.3 J0.
X13.3 Z-5.406 I0.3 J0.
X12.7 Z-5.469 I-0.3 J0.
X13.3 Z-5.531 I0.3 J0.
X12.7 Z-5.594 I-0.3 J0.
X13.3 Z-5.657 I0.3 J0.
X12.7 Z-5.72 I-0.3 J0.
X13.3 Z-5.783 I0.3 J0.
X12.7 Z-5.846 I-0.3 J0.
X13.3 Z-5.909 I0.3 J0.
X12.7 Z-5.971 I-0.3 J0.
X12.957 Y5.703 Z-6. I0.3 J0.
X13.043 Y6.297 I0.043 J0.297
X12.957 Y5.703 I-0.043 J-0.297
G1 X13.004 Y5.704
X13.048 Y5.719
X13.086 Y5.747
X13.113 Y5.785
X13.127 Y5.83
X13.148 Y5.978
Z5.
X12.85 Y5.7
Z-4.
Z-5.7
G18 G2 X13.15 Z-6. I0.3 K0.
G1 X13.3
G17 G3 X13.6 Y6. I0. J0.3
X12.4 I-0.6 J0.
X13.6 I0.6 J0.
X13.3 Y6.3 I-0.3 J0.
G1 X13.15
G18 G3 X12.85 Z-5.7 I0. K0.3
G1 Z5.
X13.05 Y17.7
Z2.
Z0.3
G2 X13.35 Z0. I0.3 K0.
G1 X13.5
G17 G3 X13.8 Y18. I0. J0.3
X12.2 Z-0.08 I-0.8 J0.
X13.8 Z-0.161 I0.8 J0.
X12.2 Z-0.241 I-0.8 J0.
X13.8 Z-0.321 I0.8 J0.
X12.2 Z-0.402 I-0.8 J0.
X13.8 Z-0.482 I0.8 J0.
X12.2 Z-0.562 I-0.8 J0.
X13.8 Z-0.643 I0.8 J0.
X12.2 Z-0.723 I-0.8 J0.
X13.8 Z-0.803 I0.8 J0.
X12.2 Z-0.883 I-0.8 J0.
X13.8 Z-0.964 I0.8 J0.
X12.2 Z-1.044 I-0.8 J0.
X13.8 Z-1.124 I0.8 J0.
X12.2 Z-1.205 I-0.8 J0.
X13.8 Z-1.285 I0.8 J0.
X12.2 Z-1.365 I-0.8 J0.
X13.8 Z-1.446 I0.8 J0.
X12.2 Z-1.526 I-0.8 J0.
X13.8 Z-1.606 I0.8 J0.
X12.2 Z-1.687 I-0.8 J0.
X13.8 Z-1.767 I0.8 J0.
X12.2 Z-1.847 I-0.8 J0.
X13.8 Z-1.928 I0.8 J0.
X12.2 Z-2.008 I-0.8 J0.
X13.8 Z-2.088 I0.8 J0.
X12.2 Z-2.169 I-0.8 J0.
X13.8 Z-2.249 I0.8 J0.
X12.2 Z-2.329 I-0.8 J0.
X13.8 Z-2.41 I0.8 J0.
X12.2 Z-2.49 I-0.8 J0.
X13.8 Z-2.57 I0.8 J0.
X12.2 Z-2.65 I-0.8 J0.
X13.8 Z-2.731 I0.8 J0.
X12.2 Z-2.811 I-0.8 J0.
X13.8 Z-2.891 I0.8 J0.
X12.2 Z-2.972 I-0.8 J0.
X13.8 Z-3.052 I0.8 J0.
X12.2 Z-3.132 I-0.8 J0.
X13.8 Z-3.213 I0.8 J0.
X12.2 Z-3.293 I-0.8 J0.
X13.8 Z-3.373 I0.8 J0.
X12.2 Z-3.454 I-0.8 J0.
X13.8 Z-3.534 I0.8 J0.
X12.2 Z-3.614 I-0.8 J0.
X13.8 Z-3.695 I0.8 J0.
X12.2 Z-3.775 I-0.8 J0.
X13.8 Z-3.855 I0.8 J0.
X12.2 Z-3.936 I-0.8 J0.
X13.8 Z-4.016 I0.8 J0.
X12.2 Z-4.096 I-0.8 J0.
X13.8 Z-4.177 I0.8 J0.
X12.2 Z-4.257 I-0.8 J0.
X13.8 Z-4.337 I0.8 J0.
X12.2 Z-4.417 I-0.8 J0.
X13.8 Z-4.498 I0.8 J0.
X12.2 Z-4.578 I-0.8 J0.
X13.8 Z-4.658 I0.8 J0.
X12.2 Z-4.739 I-0.8 J0.
X13.8 Z-4.819 I0.8 J0.
X12.2 Z-4.899 I-0.8 J0.
X13.8 Z-4.98 I0.8 J0.
X12.2 Z-5.06 I-0.8 J0.
X13.8 Z-5.14 I0.8 J0.
X12.2 Z-5.221 I-0.8 J0.
X13.8 Z-5.301 I0.8 J0.
X12.2 Z-5.381 I-0.8 J0.
X13.8 Z-5.462 I0.8 J0.
X12.2 Z-5.542 I-0.8 J0.
X13.8 Z-5.622 I0.8 J0.
X12.2 Z-5.703 I-0.8 J0.
X13.8 Z-5.783 I0.8 J0.
X12.2 Z-5.863 I-0.8 J0.
X13.8 Z-5.944 I0.8 J0.
X12.523 Y18.642 Z-6. I-0.8 J0.
X13.477 Y17.358 I0.477 J-0.642
X12.523 Y18.642 I-0.477 J0.642
X12.461 Y18.223 I0.179 J-0.241
G1 X12.55 Y18.102
X12.59 Y18.049 Z-5.992
X12.628 Y17.998 Z-5.97
X12.662 Y17.952 Z-5.935
X12.69 Y17.914 Z-5.887
X12.712 Y17.885 Z-5.83
X12.725 Y17.867 Z-5.767
X12.729 Y17.861 Z-5.7
Z5.
X13.35 Y17.7
Z-4.
Z-5.7
G18 G2 X13.65 Z-6. I0.3 K0.
G1 X13.8
G17 G3 X14.1 Y18. I0. J0.3
X11.9 I-1.1 J0.
X14.1 I1.1 J0.
X13.8 Y18.3 I-0.3 J0.
G1 X13.65
G18 G3 X13.35 Z-5.7 I0. K0.3
G1 Z5.
G17

G28 G91 Z0.
G90
G28 G91 X0. Y0.
G90
M30
