(1009A-DRILLCLAMP)
(DRILLCLAMP)
(MACHINE)
(  VENDOR HOMEMADE)
(  DESCRIPTION GENERIC 3-AXIS)
(T2  D=3. CR=0. - ZMIN=-5.8 - FLAT END MILL)
G90 G94 G91.1 G40 G49 G17
G21
G28 G91 Z0.
G90

(DRILL4)
M5
T2 M6
S9000 M3
G54
G0 X13. Y6.
G43 Z5. H2
Z2.
G1 Z-0.5 F30.
G0 Z5.
Z1.5
G1 Z-1. F30.
G0 Z5.
Z1.
G1 Z-1.5 F30.
G0 Z5.
Z0.5
G1 Z-2. F30.
G0 Z5.
Z0.
G1 Z-2.5 F30.
G0 Z5.
Z-0.5
G1 Z-3. F30.
G0 Z5.
Z-1.
G1 Z-3.5 F30.
G0 Z5.
Z-1.5
G1 Z-4. F30.
G0 Z5.
Z-2.
G1 Z-4.5 F30.
G0 Z5.
Z-2.5
G1 Z-5. F30.
G0 Z5.
Z-3.
G1 Z-5.5 F30.
G0 Z5.
Z-3.5
G1 Z-5.8 F30.
G4 P0.2
G0 Z5.
Y18.
Z2.
G1 Z-0.5 F30.
G0 Z5.
Z1.5
G1 Z-1. F30.
G0 Z5.
Z1.
G1 Z-1.5 F30.
G0 Z5.
Z0.5
G1 Z-2. F30.
G0 Z5.
Z0.
G1 Z-2.5 F30.
G0 Z5.
Z-0.5
G1 Z-3. F30.
G0 Z5.
Z-1.
G1 Z-3.5 F30.
G0 Z5.
Z-1.5
G1 Z-4. F30.
G0 Z5.
Z-2.
G1 Z-4.5 F30.
G0 Z5.
Z-2.5
G1 Z-5. F30.
G0 Z5.
Z-3.
G1 Z-5.5 F30.
G0 Z5.
Z-3.5
G1 Z-5.8 F30.
G4 P0.2
G0 Z5.
(WHEN USING FUSION 360 FOR PERSONAL USE, THE FEEDRATE OF)
(RAPID MOVES IS REDUCED TO MATCH THE FEEDRATE OF CUTTING)
(MOVES, WHICH CAN INCREASE MACHINING TIME. UNRESTRICTED RAPID)
(MOVES ARE AVAILABLE WITH A FUSION 360 SUBSCRIPTION.)

(BORE6)
G0 X13. Y5.85
G1 Z5. F75.
Z1.7
Z0.
X13.15
X13.196 Y5.857
X13.238 Y5.879
X13.271 Y5.912
X13.293 Y5.954
X13.3 Y6.
G3 X12.7 Z-0.063 I-0.3 J0.
X13.3 Z-0.126 I0.3 J0.
X12.7 Z-0.189 I-0.3 J0.
X13.3 Z-0.251 I0.3 J0.
X12.7 Z-0.314 I-0.3 J0.
X13.3 Z-0.377 I0.3 J0.
X12.7 Z-0.44 I-0.3 J0.
X13.3 Z-0.503 I0.3 J0.
X12.7 Z-0.566 I-0.3 J0.
X13.3 Z-0.629 I0.3 J0.
X12.7 Z-0.691 I-0.3 J0.
X13.3 Z-0.754 I0.3 J0.
X12.7 Z-0.817 I-0.3 J0.
X13.3 Z-0.88 I0.3 J0.
X12.7 Z-0.943 I-0.3 J0.
X13.3 Z-1.006 I0.3 J0.
X12.7 Z-1.069 I-0.3 J0.
X13.3 Z-1.131 I0.3 J0.
X12.7 Z-1.194 I-0.3 J0.
X13.3 Z-1.257 I0.3 J0.
X12.7 Z-1.32 I-0.3 J0.
X13.3 Z-1.383 I0.3 J0.
X12.7 Z-1.446 I-0.3 J0.
X13.3 Z-1.509 I0.3 J0.
X12.7 Z-1.571 I-0.3 J0.
X13.3 Z-1.634 I0.3 J0.
X12.7 Z-1.697 I-0.3 J0.
X13.3 Z-1.76 I0.3 J0.
X12.7 Z-1.823 I-0.3 J0.
X13.3 Z-1.886 I0.3 J0.
X12.7 Z-1.949 I-0.3 J0.
X13.3 Z-2.011 I0.3 J0.
X12.7 Z-2.074 I-0.3 J0.
X13.3 Z-2.137 I0.3 J0.
X12.7 Z-2.2 I-0.3 J0.
X13.3 Z-2.263 I0.3 J0.
X12.7 Z-2.326 I-0.3 J0.
X13.3 Z-2.389 I0.3 J0.
X12.7 Z-2.451 I-0.3 J0.
X13.3 Z-2.514 I0.3 J0.
X12.7 Z-2.577 I-0.3 J0.
X13.3 Z-2.64 I0.3 J0.
X12.7 Z-2.703 I-0.3 J0.
X13.3 Z-2.766 I0.3 J0.
X12.7 Z-2.829 I-0.3 J0.
X13.3 Z-2.891 I0.3 J0.
X12.7 Z-2.954 I-0.3 J0.
X13.3 Z-3.017 I0.3 J0.
X12.7 Z-3.08 I-0.3 J0.
X13.3 Z-3.143 I0.3 J0.
X12.7 Z-3.206 I-0.3 J0.
X13.3 Z-3.269 I0.3 J0.
X12.7 Z-3.331 I-0.3 J0.
X13.3 Z-3.394 I0.3 J0.
X12.7 Z-3.457 I-0.3 J0.
X13.3 Z-3.52 I0.3 J0.
X12.7 Z-3.583 I-0.3 J0.
X13.3 Z-3.646 I0.3 J0.
X12.7 Z-3.709 I-0.3 J0.
X13.3 Z-3.771 I0.3 J0.
X12.7 Z-3.834 I-0.3 J0.
X13.3 Z-3.897 I0.3 J0.
X12.7 Z-3.96 I-0.3 J0.
X13.3 Z-4.023 I0.3 J0.
X12.7 Z-4.086 I-0.3 J0.
X13.3 Z-4.149 I0.3 J0.
X12.7 Z-4.211 I-0.3 J0.
X13.3 Z-4.274 I0.3 J0.
X12.7 Z-4.337 I-0.3 J0.
X13.3 Z-4.4 I0.3 J0.
X12.7 Z-4.463 I-0.3 J0.
X13.3 Z-4.526 I0.3 J0.
X12.7 Z-4.589 I-0.3 J0.
X13.3 Z-4.651 I0.3 J0.
X12.7 Z-4.714 I-0.3 J0.
X13.3 Z-4.777 I0.3 J0.
X12.7 Z-4.84 I-0.3 J0.
X13.3 Z-4.903 I0.3 J0.
X12.7 Z-4.966 I-0.3 J0.
X13.3 Z-5.029 I0.3 J0.
X12.7 Z-5.091 I-0.3 J0.
X13.3 Z-5.154 I0.3 J0.
X12.7 Z-5.217 I-0.3 J0.
X13.3 Z-5.28 I0.3 J0.
X12.7 Z-5.343 I-0.3 J0.
X13.3 Z-5.406 I0.3 J0.
X12.7 Z-5.469 I-0.3 J0.
X13.3 Z-5.531 I0.3 J0.
X12.7 Z-5.594 I-0.3 J0.
X13.3 Z-5.657 I0.3 J0.
X12.7 Z-5.72 I-0.3 J0.
X13.3 Z-5.783 I0.3 J0.
X13.197 Y6.227 Z-5.8 I-0.3 J0.
X12.803 Y5.773 I-0.197 J-0.227
X13.197 Y6.227 I0.197 J0.227
G1 X13.157 Y6.251
X13.111 Y6.263
X13.065 Y6.259
X13.021 Y6.242
X12.985 Y6.212
X12.887 Y6.098
Z5.
X12.85 Y5.7
Z-3.8
Z-5.5
G18 G2 X13.15 Z-5.8 I0.3 K0.
G1 X13.3
G17 G3 X13.6 Y6. I0. J0.3
X12.4 I-0.6 J0.
X13.6 I0.6 J0.
X13.3 Y6.3 I-0.3 J0.
G1 X13.15
G18 G3 X12.85 Z-5.5 I0. K0.3
G1 Z5.
X13.05 Y17.7
Z2.
Z0.3
G2 X13.35 Z0. I0.3 K0.
G1 X13.5
G17 G3 X13.8 Y18. I0. J0.3
X12.2 Z-0.08 I-0.8 J0.
X13.8 Z-0.161 I0.8 J0.
X12.2 Z-0.241 I-0.8 J0.
X13.8 Z-0.321 I0.8 J0.
X12.2 Z-0.402 I-0.8 J0.
X13.8 Z-0.482 I0.8 J0.
X12.2 Z-0.562 I-0.8 J0.
X13.8 Z-0.643 I0.8 J0.
X12.2 Z-0.723 I-0.8 J0.
X13.8 Z-0.803 I0.8 J0.
X12.2 Z-0.883 I-0.8 J0.
X13.8 Z-0.964 I0.8 J0.
X12.2 Z-1.044 I-0.8 J0.
X13.8 Z-1.124 I0.8 J0.
X12.2 Z-1.205 I-0.8 J0.
X13.8 Z-1.285 I0.8 J0.
X12.2 Z-1.365 I-0.8 J0.
X13.8 Z-1.446 I0.8 J0.
X12.2 Z-1.526 I-0.8 J0.
X13.8 Z-1.606 I0.8 J0.
X12.2 Z-1.687 I-0.8 J0.
X13.8 Z-1.767 I0.8 J0.
X12.2 Z-1.847 I-0.8 J0.
X13.8 Z-1.928 I0.8 J0.
X12.2 Z-2.008 I-0.8 J0.
X13.8 Z-2.088 I0.8 J0.
X12.2 Z-2.169 I-0.8 J0.
X13.8 Z-2.249 I0.8 J0.
X12.2 Z-2.329 I-0.8 J0.
X13.8 Z-2.41 I0.8 J0.
X12.2 Z-2.49 I-0.8 J0.
X13.8 Z-2.57 I0.8 J0.
X12.2 Z-2.65 I-0.8 J0.
X13.8 Z-2.731 I0.8 J0.
X12.2 Z-2.811 I-0.8 J0.
X13.8 Z-2.891 I0.8 J0.
X12.2 Z-2.972 I-0.8 J0.
X13.8 Z-3.052 I0.8 J0.
X12.2 Z-3.132 I-0.8 J0.
X13.8 Z-3.213 I0.8 J0.
X12.2 Z-3.293 I-0.8 J0.
X13.8 Z-3.373 I0.8 J0.
X12.2 Z-3.454 I-0.8 J0.
X13.8 Z-3.534 I0.8 J0.
X12.2 Z-3.614 I-0.8 J0.
X13.8 Z-3.695 I0.8 J0.
X12.2 Z-3.775 I-0.8 J0.
X13.8 Z-3.855 I0.8 J0.
X12.2 Z-3.936 I-0.8 J0.
X13.8 Z-4.016 I0.8 J0.
X12.2 Z-4.096 I-0.8 J0.
X13.8 Z-4.177 I0.8 J0.
X12.2 Z-4.257 I-0.8 J0.
X13.8 Z-4.337 I0.8 J0.
X12.2 Z-4.417 I-0.8 J0.
X13.8 Z-4.498 I0.8 J0.
X12.2 Z-4.578 I-0.8 J0.
X13.8 Z-4.658 I0.8 J0.
X12.2 Z-4.739 I-0.8 J0.
X13.8 Z-4.819 I0.8 J0.
X12.2 Z-4.899 I-0.8 J0.
X13.8 Z-4.98 I0.8 J0.
X12.2 Z-5.06 I-0.8 J0.
X13.8 Z-5.14 I0.8 J0.
X12.2 Z-5.221 I-0.8 J0.
X13.8 Z-5.301 I0.8 J0.
X12.2 Z-5.381 I-0.8 J0.
X13.8 Z-5.462 I0.8 J0.
X12.2 Z-5.542 I-0.8 J0.
X13.8 Z-5.622 I0.8 J0.
X12.2 Z-5.703 I-0.8 J0.
X13.8 Z-5.783 I0.8 J0.
X13.627 Y18.497 Z-5.8 I-0.8 J0.
X12.373 Y17.503 I-0.627 J-0.497
X13.627 Y18.497 I0.627 J0.497
X13.206 Y18.546 I-0.235 J-0.186
G1 X13.088 Y18.452
X13.036 Y18.411 Z-5.792
X12.986 Y18.372 Z-5.77
X12.942 Y18.336 Z-5.735
X12.904 Y18.307 Z-5.687
X12.876 Y18.285 Z-5.63
X12.859 Y18.271 Z-5.567
X12.853 Y18.266 Z-5.5
Z5.
X13.35 Y17.7
Z-3.8
Z-5.5
G18 G2 X13.65 Z-5.8 I0.3 K0.
G1 X13.8
G17 G3 X14.1 Y18. I0. J0.3
X11.9 I-1.1 J0.
X14.1 I1.1 J0.
X13.8 Y18.3 I-0.3 J0.
G1 X13.65
G18 G3 X13.35 Z-5.5 I0. K0.3
G1 Z5.
G17
(WHEN USING FUSION 360 FOR PERSONAL USE, THE FEEDRATE OF)
(RAPID MOVES IS REDUCED TO MATCH THE FEEDRATE OF CUTTING)
(MOVES, WHICH CAN INCREASE MACHINING TIME. UNRESTRICTED RAPID)
(MOVES ARE AVAILABLE WITH A FUSION 360 SUBSCRIPTION.)

(2D POCKET3)
G0 X30.837 Y26.78
G1 Z5. F30.
Z-0.2
X30.831 Y26.776 Z-0.267 F75.
X30.813 Y26.762 Z-0.33
X30.785 Y26.74 Z-0.387
X30.748 Y26.711 Z-0.435
X30.703 Y26.676 Z-0.47
X30.653 Y26.637 Z-0.492
X30.6 Y26.596 Z-0.5
X29.395 Y25.663
G2 X28.608 Y25.151 I-3.471 J4.478
G3 Y24.849 I0.081 J-0.151
G2 X29.398 Y24.336 I-2.684 J-4.989
X29.275 Y23.977 I-0.123 J-0.158
G1 X-3.273 Y23.979
G2 X-3.395 Y24.337 I0. J0.2
X-2.608 Y24.849 I3.471 J-4.478
G3 Y25.151 I-0.081 J0.151
G2 X-3.398 Y25.664 I2.684 J4.989
G3 X-3.72 Y25.509 I-0.123 J-0.158
G1 X-3.775 Y21.797
G3 X-3.397 Y21.704 I0.2 J-0.003
G2 X0. Y23.8 I3.397 J-1.704
G1 X26.
G2 X29.399 Y21.699 I0. J-3.8
G3 X29.778 Y21.789 I0.179 J0.089
G1 X29.775 Y28.206
G3 X29.397 Y28.296 I-0.2 J0.
G2 X26. Y26.2 I-3.397 J1.704
G1 X0.
G2 X-3.399 Y28.301 I0. J3.8
G3 X-3.778 Y28.212 I-0.179 J-0.089
G1 X-3.794 Y20.881
G3 X-3.399 Y20.833 I0.2 J0.
G2 X0. Y23.5 I3.399 J-0.833 F50.
G1 X26.
G2 X29.397 Y20.845 I0. J-3.5
G3 X29.791 Y20.893 I0.194 J0.048 F75.
G1 X29.794 Y29.119
G3 X29.399 Y29.167 I-0.2 J0.
G2 X26. Y26.5 I-3.399 J0.833 F50.
G1 X0.
G2 X-3.397 Y29.155 I0. J3.5
G3 X-3.79 Y29.123 I-0.194 J-0.048 F75.
G1 X-4.194 Y24.142
G3 X-3.872 Y23.968 I0.199 J-0.016
G1 X-3.825 Y24.004 Z-0.506
X-3.78 Y24.039 Z-0.524
X-3.738 Y24.072 Z-0.553
X-3.702 Y24.1 Z-0.591
X-3.672 Y24.123 Z-0.639
X-3.651 Y24.139 Z-0.692
X-3.638 Y24.149 Z-0.75
X-3.626 Y24.159 Z-0.808
X-3.604 Y24.175 Z-0.861
X-3.575 Y24.198 Z-0.909
X-3.539 Y24.226 Z-0.947
X-3.497 Y24.258 Z-0.976
X-3.452 Y24.294 Z-0.994
X-3.405 Y24.33 Z-1.
X-3.395 Y24.337
G2 X-2.608 Y24.849 I3.471 J-4.478
G3 Y25.151 I-0.081 J0.151
G2 X-3.398 Y25.664 I2.684 J4.989
X-3.275 Y26.023 I0.123 J0.158
G1 X29.273 Y26.021
G2 X29.395 Y25.663 I0. J-0.2
X28.608 Y25.151 I-3.471 J4.478
G3 Y24.849 I0.081 J-0.151
G2 X29.398 Y24.336 I-2.684 J-4.989
G3 X29.72 Y24.491 I0.123 J0.158
G1 X29.775 Y28.203
G3 X29.397 Y28.296 I-0.2 J0.003
G2 X26. Y26.2 I-3.397 J1.704
G1 X0.
G2 X-3.399 Y28.301 I0. J3.8
G3 X-3.778 Y28.211 I-0.179 J-0.089
G1 X-3.775 Y21.794
G3 X-3.397 Y21.704 I0.2 J0.
G2 X0. Y23.8 I3.397 J-1.704
G1 X26.
G2 X29.399 Y21.699 I0. J-3.8
G3 X29.778 Y21.788 I0.179 J0.089
G1 X29.794 Y29.119
G3 X29.399 Y29.167 I-0.2 J0.
G2 X26. Y26.5 I-3.399 J0.833 F50.
G1 X0.
G2 X-3.397 Y29.155 I0. J3.5
G3 X-3.791 Y29.107 I-0.194 J-0.048 F75.
G1 X-3.794 Y20.881
G3 X-3.399 Y20.833 I0.2 J0.
G2 X0. Y23.5 I3.399 J-0.833 F50.
G1 X26.
G2 X29.397 Y20.845 I0. J-3.5
G3 X29.79 Y20.877 I0.194 J0.048 F75.
G1 X30.194 Y25.858
G3 X29.872 Y26.032 I-0.199 J0.016
G1 X29.825 Y25.996 Z-1.006
X29.78 Y25.961 Z-1.024
X29.738 Y25.928 Z-1.053
X29.702 Y25.9 Z-1.091
X29.672 Y25.877 Z-1.139
X29.651 Y25.861 Z-1.192
X29.638 Y25.851 Z-1.25
X29.626 Y25.841 Z-1.308
X29.604 Y25.825 Z-1.361
X29.575 Y25.802 Z-1.409
X29.539 Y25.774 Z-1.447
X29.497 Y25.742 Z-1.476
X29.452 Y25.706 Z-1.494
X29.405 Y25.67 Z-1.5
X29.395 Y25.663
G2 X28.608 Y25.151 I-3.471 J4.478
G3 Y24.849 I0.081 J-0.151
G2 X29.398 Y24.336 I-2.684 J-4.989
X29.275 Y23.977 I-0.123 J-0.158
G1 X-3.273 Y23.979
G2 X-3.395 Y24.337 I0. J0.2
X-2.608 Y24.849 I3.471 J-4.478
G3 Y25.151 I-0.081 J0.151
G2 X-3.398 Y25.664 I2.684 J4.989
G3 X-3.72 Y25.509 I-0.123 J-0.158
G1 X-3.775 Y21.797
G3 X-3.397 Y21.704 I0.2 J-0.003
G2 X0. Y23.8 I3.397 J-1.704
G1 X26.
G2 X29.399 Y21.699 I0. J-3.8
G3 X29.778 Y21.789 I0.179 J0.089
G1 X29.775 Y28.206
G3 X29.397 Y28.296 I-0.2 J0.
G2 X26. Y26.2 I-3.397 J1.704
G1 X0.
G2 X-3.399 Y28.301 I0. J3.8
G3 X-3.778 Y28.212 I-0.179 J-0.089
G1 X-3.794 Y20.881
G3 X-3.399 Y20.833 I0.2 J0.
G2 X0. Y23.5 I3.399 J-0.833 F50.
G1 X26.
G2 X29.397 Y20.845 I0. J-3.5
G3 X29.791 Y20.893 I0.194 J0.048 F75.
G1 X29.794 Y29.119
G3 X29.399 Y29.167 I-0.2 J0.
G2 X26. Y26.5 I-3.399 J0.833 F50.
G1 X0.
G2 X-3.397 Y29.155 I0. J3.5
G3 X-3.79 Y29.123 I-0.194 J-0.048 F75.
G1 X-4.194 Y24.142
G3 X-3.872 Y23.968 I0.199 J-0.016
G1 X-3.825 Y24.004 Z-1.506
X-3.78 Y24.039 Z-1.524
X-3.738 Y24.072 Z-1.553
X-3.702 Y24.1 Z-1.591
X-3.672 Y24.123 Z-1.639
X-3.651 Y24.139 Z-1.692
X-3.638 Y24.149 Z-1.75
X-3.626 Y24.159 Z-1.808
X-3.604 Y24.175 Z-1.861
X-3.575 Y24.198 Z-1.909
X-3.539 Y24.226 Z-1.947
X-3.497 Y24.258 Z-1.976
X-3.452 Y24.294 Z-1.994
X-3.405 Y24.33 Z-2.
X-3.395 Y24.337
G2 X-2.608 Y24.849 I3.471 J-4.478
G3 Y25.151 I-0.081 J0.151
G2 X-3.398 Y25.664 I2.684 J4.989
X-3.275 Y26.023 I0.123 J0.158
G1 X29.273 Y26.021
G2 X29.395 Y25.663 I0. J-0.2
X28.608 Y25.151 I-3.471 J4.478
G3 Y24.849 I0.081 J-0.151
G2 X29.398 Y24.336 I-2.684 J-4.989
G3 X29.72 Y24.491 I0.123 J0.158
G1 X29.775 Y28.203
G3 X29.397 Y28.296 I-0.2 J0.003
G2 X26. Y26.2 I-3.397 J1.704
G1 X0.
G2 X-3.399 Y28.301 I0. J3.8
G3 X-3.778 Y28.211 I-0.179 J-0.089
G1 X-3.775 Y21.794
G3 X-3.397 Y21.704 I0.2 J0.
G2 X0. Y23.8 I3.397 J-1.704
G1 X26.
G2 X29.399 Y21.699 I0. J-3.8
G3 X29.778 Y21.788 I0.179 J0.089
G1 X29.794 Y29.119
G3 X29.399 Y29.167 I-0.2 J0.
G2 X26. Y26.5 I-3.399 J0.833 F50.
G1 X0.
G2 X-3.397 Y29.155 I0. J3.5
G3 X-3.791 Y29.107 I-0.194 J-0.048 F75.
G1 X-3.794 Y20.881
G3 X-3.399 Y20.833 I0.2 J0.
G2 X0. Y23.5 I3.399 J-0.833 F50.
G1 X26.
G2 X29.397 Y20.845 I0. J-3.5
G1 X29.688 Y19.673 F75.
X29.704 Y19.609 Z-1.992
X29.719 Y19.547 Z-1.97
X29.733 Y19.492 Z-1.935
X29.744 Y19.446 Z-1.887
X29.753 Y19.411 Z-1.83
X29.758 Y19.389 Z-1.767
X29.76 Y19.382 Z-1.7
Z5.
(WHEN USING FUSION 360 FOR PERSONAL USE, THE FEEDRATE OF)
(RAPID MOVES IS REDUCED TO MATCH THE FEEDRATE OF CUTTING)
(MOVES, WHICH CAN INCREASE MACHINING TIME. UNRESTRICTED RAPID)
(MOVES ARE AVAILABLE WITH A FUSION 360 SUBSCRIPTION.)

(2D CONTOUR4)
G0 X12.7 Y40.7
G1 Z5. F30.
Z1.5
Z-0.2
G19 G2 Y40.4 Z-0.5 J-0.3 K0. F75.
G1 Y40.1
G17 G3 X13. Y39.8 I0.3 J0.
G1 X26.
G2 X29.8 Y36. I0. J-3.8
G1 Y2.
G2 X26. Y-1.8 I-3.8 J0.
G1 X0.
G2 X-3.8 Y2. I0. J3.8
G1 Y36.
G2 X0. Y39.8 I3.8 J0.
G1 X13.
G3 X13.3 Y40.1 I0. J0.3
G1 Y40.4
G19 G3 Y40.7 Z-0.2 J0. K0.3
G1 Z5.
X12.7
Z1. F30.
Z-0.7
G2 Y40.4 Z-1. J-0.3 K0. F75.
G1 Y40.1
G17 G3 X13. Y39.8 I0.3 J0.
G1 X26.
G2 X29.8 Y36. I0. J-3.8
G1 Y2.
G2 X26. Y-1.8 I-3.8 J0.
G1 X0.
G2 X-3.8 Y2. I0. J3.8
G1 Y36.
G2 X0. Y39.8 I3.8 J0.
G1 X13.
G3 X13.3 Y40.1 I0. J0.3
G1 Y40.4
G19 G3 Y40.7 Z-0.7 J0. K0.3
G1 Z5.
X12.7
Z0.5 F30.
Z-1.2
G2 Y40.4 Z-1.5 J-0.3 K0. F75.
G1 Y40.1
G17 G3 X13. Y39.8 I0.3 J0.
G1 X26.
G2 X29.8 Y36. I0. J-3.8
G1 Y2.
G2 X26. Y-1.8 I-3.8 J0.
G1 X0.
G2 X-3.8 Y2. I0. J3.8
G1 Y36.
G2 X0. Y39.8 I3.8 J0.
G1 X13.
G3 X13.3 Y40.1 I0. J0.3
G1 Y40.4
G19 G3 Y40.7 Z-1.2 J0. K0.3
G1 Z5.
X12.7
Z0. F30.
Z-1.7
G2 Y40.4 Z-2. J-0.3 K0. F75.
G1 Y40.1
G17 G3 X13. Y39.8 I0.3 J0.
G1 X26.
G2 X29.8 Y36. I0. J-3.8
G1 Y2.
G2 X26. Y-1.8 I-3.8 J0.
G1 X0.
G2 X-3.8 Y2. I0. J3.8
G1 Y36.
G2 X0. Y39.8 I3.8 J0.
G1 X13.
G3 X13.3 Y40.1 I0. J0.3
G1 Y40.4
G19 G3 Y40.7 Z-1.7 J0. K0.3
G1 Z5.
X12.7
Z-0.5 F30.
Z-2.2
G2 Y40.4 Z-2.5 J-0.3 K0. F75.
G1 Y40.1
G17 G3 X13. Y39.8 I0.3 J0.
G1 X26.
G2 X29.8 Y36. I0. J-3.8
G1 Y2.
G2 X26. Y-1.8 I-3.8 J0.
G1 X0.
G2 X-3.8 Y2. I0. J3.8
G1 Y36.
G2 X0. Y39.8 I3.8 J0.
G1 X13.
G3 X13.3 Y40.1 I0. J0.3
G1 Y40.4
G19 G3 Y40.7 Z-2.2 J0. K0.3
G1 Z5.
X12.7
Z-1. F30.
Z-2.7
G2 Y40.4 Z-3. J-0.3 K0. F75.
G1 Y40.1
G17 G3 X13. Y39.8 I0.3 J0.
G1 X26.
G2 X29.8 Y36. I0. J-3.8
G1 Y2.
G2 X26. Y-1.8 I-3.8 J0.
G1 X0.
G2 X-3.8 Y2. I0. J3.8
G1 Y36.
G2 X0. Y39.8 I3.8 J0.
G1 X13.
G3 X13.3 Y40.1 I0. J0.3
G1 Y40.4
G19 G3 Y40.7 Z-2.7 J0. K0.3
G1 Z5.
X12.7
Z-1.5 F30.
Z-3.2
G2 Y40.4 Z-3.5 J-0.3 K0. F75.
G1 Y40.1
G17 G3 X13. Y39.8 I0.3 J0.
G1 X26.
G2 X29.8 Y36. I0. J-3.8
G1 Y2.
G2 X26. Y-1.8 I-3.8 J0.
G1 X0.
G2 X-3.8 Y2. I0. J3.8
G1 Y36.
G2 X0. Y39.8 I3.8 J0.
G1 X13.
G3 X13.3 Y40.1 I0. J0.3
G1 Y40.4
G19 G3 Y40.7 Z-3.2 J0. K0.3
G1 Z5.
X12.7
Z-2. F30.
Z-3.7
G2 Y40.4 Z-4. J-0.3 K0. F75.
G1 Y40.1
G17 G3 X13. Y39.8 I0.3 J0.
G1 X26.
G2 X29.8 Y36. I0. J-3.8
G1 Y2.
G2 X26. Y-1.8 I-3.8 J0.
G1 X0.
G2 X-3.8 Y2. I0. J3.8
G1 Y36.
G2 X0. Y39.8 I3.8 J0.
G1 X13.
G3 X13.3 Y40.1 I0. J0.3
G1 Y40.4
G19 G3 Y40.7 Z-3.7 J0. K0.3
G1 Z5.
X12.7
Z-2.5 F30.
Z-4.2
G2 Y40.4 Z-4.5 J-0.3 K0. F75.
G1 Y40.1
G17 G3 X13. Y39.8 I0.3 J0.
G1 X26.
G2 X29.8 Y36. I0. J-3.8
G1 Y2.
G2 X26. Y-1.8 I-3.8 J0.
G1 X0.
G2 X-3.8 Y2. I0. J3.8
G1 Y36.
G2 X0. Y39.8 I3.8 J0.
G1 X13.
G3 X13.3 Y40.1 I0. J0.3
G1 Y40.4
G19 G3 Y40.7 Z-4.2 J0. K0.3
G1 Z5.
X12.7
Z-3. F30.
Z-4.7
G2 Y40.4 Z-5. J-0.3 K0. F75.
G1 Y40.1
G17 G3 X13. Y39.8 I0.3 J0.
G1 X26.
G2 X29.8 Y36. I0. J-3.8
G1 Y2.
G2 X26. Y-1.8 I-3.8 J0.
G1 X0.
G2 X-3.8 Y2. I0. J3.8
G1 Y36.
G2 X0. Y39.8 I3.8 J0.
G1 X13.
G3 X13.3 Y40.1 I0. J0.3
G1 Y40.4
G19 G3 Y40.7 Z-4.7 J0. K0.3
G1 Z5.
X12.7
Z-3.5 F30.
Z-5.2
G2 Y40.4 Z-5.5 J-0.3 K0. F75.
G1 Y40.1
G17 G3 X13. Y39.8 I0.3 J0.
G1 X26.
G2 X29.8 Y36. I0. J-3.8
G1 Y2.
G2 X26. Y-1.8 I-3.8 J0.
G1 X0.
G2 X-3.8 Y2. I0. J3.8
G1 Y36.
G2 X0. Y39.8 I3.8 J0.
G1 X13.
G3 X13.3 Y40.1 I0. J0.3
G1 Y40.4
G19 G3 Y40.7 Z-5.2 J0. K0.3
G1 Z5.
X12.7
Z-4. F30.
Z-5.45
G2 Y40.4 Z-5.75 J-0.3 K0. F75.
G1 Y40.1
G17 G3 X13. Y39.8 I0.3 J0.
G1 X20.372
Z-5.5
X26.
G2 X26.372 Y39.782 I0. J-3.8
G1 Z-5.75 F30.
G2 X29.8 Y36. I-0.372 J-3.782 F75.
G1 Y18.257
Z-5.5
Y12.257
Z-5.75 F30.
Y2. F75.
G2 X26. Y-1.8 I-3.8 J0.
G1 X18.885
Z-5.5
X12.885
Z-5.75 F30.
X0. F75.
G2 X-3.8 Y2. I0. J3.8
G1 Y6.487
Z-5.5
Y12.487
Z-5.75 F30.
Y33. F75.
Z-5.5
Y36.
G2 X-2.332 Y39. I3.8 J0.
G1 Z-5.75 F30.
G2 X0. Y39.8 I2.332 J-3. F75.
G1 X13.
G2 X13.225 Y39.65 I0. J-0.244
G3 X13.45 Y39.5 I0.225 J0.094
G1 X20.372 F50.
Z-5.5
X26.
G2 X26.372 Y39.48 I0. J-3.5
G1 Z-5.75 F30.
G2 X29.5 Y36. I-0.372 J-3.48 F50.
G1 Y18.257
Z-5.5
Y12.257
Z-5.75 F30.
Y2. F50.
G2 X26. Y-1.5 I-3.5 J0.
G1 X18.885
Z-5.5
X12.885
Z-5.75 F30.
X0. F50.
G2 X-3.5 Y2. I0. J3.5
G1 Y6.487
Z-5.5
Y12.487
Z-5.75 F30.
Y33. F50.
Z-5.5
Y36.
G2 X-1.803 Y39. I3.5 J0.
G1 Z-5.75 F30.
G2 X0. Y39.5 I1.803 J-3. F50.
G1 X13.45
G3 X13.75 Y39.8 I0. J0.3 F75.
G1 Y40.1
G19 G3 Y40.4 Z-5.45 J0. K0.3
G1 Z5.
G17

G28 G91 Z0.
G90
G28 G91 X0. Y0.
G90
M30
