(1010-FACESPOILBOARD)
(FACING SPOIL BOARD)
(MACHINE)
(  VENDOR HOMEMADE)
(  DESCRIPTION GENERIC 3-AXIS)
(T1  D=15.9 CR=0. - ZMIN=-0.1 - FACE MILL)
G90 G94 G91.1 G40 G49 G17
G21
(WHEN USING FUSION 360 FOR PERSONAL USE, THE FEEDRATE OF)
(RAPID MOVES IS REDUCED TO MATCH THE FEEDRATE OF CUTTING)
(MOVES, WHICH CAN INCREASE MACHINING TIME. UNRESTRICTED RAPID)
(MOVES ARE AVAILABLE WITH A FUSION 360 SUBSCRIPTION.)
G28 G91 Z0.
G90

(FACE1)
M5
T1 M6
S2000 M3
G54
G0 X10.335 Y-196.718
G43 Z5. H1
G1 Z1.49 F133.
G18 G3 X8.745 Z-0.1 I-1.59 K0. F200.
G1 X7.96
X-257.96 F400.
G17 G2 Y-185.597 I0. J5.56
G1 X7.96
G3 Y-174.476 I0. J5.56
G1 X-257.96
G2 Y-163.355 I0. J5.56
G1 X7.96
G3 Y-152.235 I0. J5.56
G1 X-257.96
G2 Y-141.114 I0. J5.56
G1 X7.96
G3 Y-129.993 I0. J5.56
G1 X-257.96
G2 Y-118.872 I0. J5.56
G1 X7.96
G3 Y-107.751 I0. J5.56
G1 X-257.96
G2 Y-96.63 I0. J5.56
G1 X7.96
G3 Y-85.51 I0. J5.56
G1 X-257.96
G2 Y-74.389 I0. J5.56
G1 X7.96
G3 Y-63.268 I0. J5.56
G1 X-257.96
G2 Y-52.147 I0. J5.56
G1 X7.96
G3 Y-41.026 I0. J5.56
G1 X-257.96
G2 Y-29.905 I0. J5.56
G1 X7.96
G3 Y-18.785 I0. J5.56
G1 X-257.96
G2 Y-7.664 I0. J5.56
G1 X7.96
G18 G2 X9.55 Z1.49 I0. K1.59 F200.
G1 Z5. F400.
G17

G28 G91 Z0.
G90
G28 G91 X0. Y0.
G90
M30
