(1010B-DRILLSTOPENDBASE-ENDMILL)
(FIT 3MM END MILL)
(MACHINE)
(  VENDOR HOMEMADE)
(  DESCRIPTION GENERIC 3-AXIS)
(T2  D=3. CR=0. - ZMIN=-6.05 - FLAT END MILL)
G90 G94 G91.1 G40 G49 G17
G21
(WHEN USING FUSION 360 FOR PERSONAL USE, THE FEEDRATE OF)
(RAPID MOVES IS REDUCED TO MATCH THE FEEDRATE OF CUTTING)
(MOVES, WHICH CAN INCREASE MACHINING TIME. UNRESTRICTED RAPID)
(MOVES ARE AVAILABLE WITH A FUSION 360 SUBSCRIPTION.)
G28 G91 Z0.
G90

(BORE5)
M5
T2 M6
S9000 M3
G54
G0 X7.975 Y19.875
G43 Z5. H2
G1 Z1.7 F30.
Z0.
X8.125
X8.164 Y19.881
X8.198 Y19.899
X8.226 Y19.927
X8.244 Y19.961
X8.25 Y20.
G3 X7.75 Z-0.061 I-0.25 J0.
X8.25 Z-0.122 I0.25 J0.
X7.75 Z-0.183 I-0.25 J0.
X8.25 Z-0.244 I0.25 J0.
X7.75 Z-0.306 I-0.25 J0.
X8.25 Z-0.367 I0.25 J0.
X7.75 Z-0.428 I-0.25 J0.
X8.25 Z-0.489 I0.25 J0.
X7.75 Z-0.55 I-0.25 J0.
X8.25 Z-0.611 I0.25 J0.
X7.75 Z-0.672 I-0.25 J0.
X8.25 Z-0.733 I0.25 J0.
X7.75 Z-0.794 I-0.25 J0.
X8.25 Z-0.856 I0.25 J0.
X7.75 Z-0.917 I-0.25 J0.
X8.25 Z-0.978 I0.25 J0.
X7.75 Z-1.039 I-0.25 J0.
X8.25 Z-1.1 I0.25 J0.
X7.75 Z-1.161 I-0.25 J0.
X8.25 Z-1.222 I0.25 J0.
X7.75 Z-1.283 I-0.25 J0.
X8.25 Z-1.344 I0.25 J0.
X7.75 Z-1.406 I-0.25 J0.
X8.25 Z-1.467 I0.25 J0.
X7.75 Z-1.528 I-0.25 J0.
X8.25 Z-1.589 I0.25 J0.
X7.75 Z-1.65 I-0.25 J0.
X8.25 Z-1.711 I0.25 J0.
X7.75 Z-1.772 I-0.25 J0.
X8.25 Z-1.833 I0.25 J0.
X7.75 Z-1.894 I-0.25 J0.
X8.25 Z-1.956 I0.25 J0.
X7.75 Z-2.017 I-0.25 J0.
X8.25 Z-2.078 I0.25 J0.
X7.75 Z-2.139 I-0.25 J0.
X8.25 Z-2.2 I0.25 J0.
X7.75 Z-2.261 I-0.25 J0.
X8.25 Z-2.322 I0.25 J0.
X7.75 Z-2.383 I-0.25 J0.
X8.25 Z-2.444 I0.25 J0.
X7.75 Z-2.506 I-0.25 J0.
X8.25 Z-2.567 I0.25 J0.
X7.75 Z-2.628 I-0.25 J0.
X8.25 Z-2.689 I0.25 J0.
X7.75 Z-2.75 I-0.25 J0.
X8.25 Z-2.811 I0.25 J0.
X7.75 Z-2.872 I-0.25 J0.
X8.25 Z-2.933 I0.25 J0.
X7.75 Z-2.994 I-0.25 J0.
X8.25 Z-3.056 I0.25 J0.
X7.75 Z-3.117 I-0.25 J0.
X8.25 Z-3.178 I0.25 J0.
X7.75 Z-3.239 I-0.25 J0.
X8.25 Z-3.3 I0.25 J0.
X7.75 Z-3.361 I-0.25 J0.
X8.25 Z-3.422 I0.25 J0.
X7.75 Z-3.483 I-0.25 J0.
X8.25 Z-3.544 I0.25 J0.
X7.75 Z-3.606 I-0.25 J0.
X8.25 Z-3.667 I0.25 J0.
X7.75 Z-3.728 I-0.25 J0.
X8.25 Z-3.789 I0.25 J0.
X7.75 Z-3.85 I-0.25 J0.
X8.25 Z-3.911 I0.25 J0.
X7.75 Z-3.972 I-0.25 J0.
X8.25 Z-4.033 I0.25 J0.
X7.75 Z-4.094 I-0.25 J0.
X8.25 Z-4.156 I0.25 J0.
X7.75 Z-4.217 I-0.25 J0.
X8.25 Z-4.278 I0.25 J0.
X7.75 Z-4.339 I-0.25 J0.
X8.25 Z-4.4 I0.25 J0.
X7.75 Z-4.461 I-0.25 J0.
X8.25 Z-4.522 I0.25 J0.
X7.75 Z-4.583 I-0.25 J0.
X8.25 Z-4.644 I0.25 J0.
X7.75 Z-4.706 I-0.25 J0.
X8.25 Z-4.767 I0.25 J0.
X7.75 Z-4.828 I-0.25 J0.
X8.25 Z-4.889 I0.25 J0.
X7.75 Z-4.95 I-0.25 J0.
X8.25 Z-5.011 I0.25 J0.
X7.75 Z-5.072 I-0.25 J0.
X8.25 Z-5.133 I0.25 J0.
X7.75 Z-5.194 I-0.25 J0.
X8.25 Z-5.256 I0.25 J0.
X7.75 Z-5.317 I-0.25 J0.
X8.25 Z-5.378 I0.25 J0.
X7.75 Z-5.439 I-0.25 J0.
X8.25 Z-5.5 I0.25 J0.
X7.75 Z-5.561 I-0.25 J0.
X8.25 Z-5.622 I0.25 J0.
X7.75 Z-5.683 I-0.25 J0.
X8.25 Z-5.744 I0.25 J0.
X7.75 Z-5.806 I-0.25 J0.
X8.25 Z-5.867 I0.25 J0.
X7.75 Z-5.928 I-0.25 J0.
X8.25 Z-5.989 I0.25 J0.
X8.21 Y20.135 Z-6. I-0.25 J0.
X7.79 Y19.865 I-0.21 J-0.135
X8.21 Y20.135 I0.21 J0.135
G1 X8.184 Y20.164
X8.151 Y20.184
X8.113 Y20.192
X8.074 Y20.188
X8.038 Y20.173
X7.911 Y20.092
Z5.
X7.825 Y19.725
Z-4.
Z-5.7
G18 G2 X8.125 Z-6. I0.3 K0.
G1 X8.275
G17 G3 X8.55 Y20. I0. J0.275
X7.45 I-0.55 J0.
X8.55 I0.55 J0.
X8.275 Y20.275 I-0.275 J0.
G1 X8.125
G18 G3 X7.825 Z-5.7 I0. K0.3
G1 Z5.
X27.975 Y19.875
Z1.7
Z0.
X28.125
X28.164 Y19.881
X28.198 Y19.899
X28.226 Y19.927
X28.244 Y19.961
X28.25 Y20.
G17 G3 X27.75 Z-0.061 I-0.25 J0.
X28.25 Z-0.122 I0.25 J0.
X27.75 Z-0.183 I-0.25 J0.
X28.25 Z-0.244 I0.25 J0.
X27.75 Z-0.306 I-0.25 J0.
X28.25 Z-0.367 I0.25 J0.
X27.75 Z-0.428 I-0.25 J0.
X28.25 Z-0.489 I0.25 J0.
X27.75 Z-0.55 I-0.25 J0.
X28.25 Z-0.611 I0.25 J0.
X27.75 Z-0.672 I-0.25 J0.
X28.25 Z-0.733 I0.25 J0.
X27.75 Z-0.794 I-0.25 J0.
X28.25 Z-0.856 I0.25 J0.
X27.75 Z-0.917 I-0.25 J0.
X28.25 Z-0.978 I0.25 J0.
X27.75 Z-1.039 I-0.25 J0.
X28.25 Z-1.1 I0.25 J0.
X27.75 Z-1.161 I-0.25 J0.
X28.25 Z-1.222 I0.25 J0.
X27.75 Z-1.283 I-0.25 J0.
X28.25 Z-1.344 I0.25 J0.
X27.75 Z-1.406 I-0.25 J0.
X28.25 Z-1.467 I0.25 J0.
X27.75 Z-1.528 I-0.25 J0.
X28.25 Z-1.589 I0.25 J0.
X27.75 Z-1.65 I-0.25 J0.
X28.25 Z-1.711 I0.25 J0.
X27.75 Z-1.772 I-0.25 J0.
X28.25 Z-1.833 I0.25 J0.
X27.75 Z-1.894 I-0.25 J0.
X28.25 Z-1.956 I0.25 J0.
X27.75 Z-2.017 I-0.25 J0.
X28.25 Z-2.078 I0.25 J0.
X27.75 Z-2.139 I-0.25 J0.
X28.25 Z-2.2 I0.25 J0.
X27.75 Z-2.261 I-0.25 J0.
X28.25 Z-2.322 I0.25 J0.
X27.75 Z-2.383 I-0.25 J0.
X28.25 Z-2.444 I0.25 J0.
X27.75 Z-2.506 I-0.25 J0.
X28.25 Z-2.567 I0.25 J0.
X27.75 Z-2.628 I-0.25 J0.
X28.25 Z-2.689 I0.25 J0.
X27.75 Z-2.75 I-0.25 J0.
X28.25 Z-2.811 I0.25 J0.
X27.75 Z-2.872 I-0.25 J0.
X28.25 Z-2.933 I0.25 J0.
X27.75 Z-2.994 I-0.25 J0.
X28.25 Z-3.056 I0.25 J0.
X27.75 Z-3.117 I-0.25 J0.
X28.25 Z-3.178 I0.25 J0.
X27.75 Z-3.239 I-0.25 J0.
X28.25 Z-3.3 I0.25 J0.
X27.75 Z-3.361 I-0.25 J0.
X28.25 Z-3.422 I0.25 J0.
X27.75 Z-3.483 I-0.25 J0.
X28.25 Z-3.544 I0.25 J0.
X27.75 Z-3.606 I-0.25 J0.
X28.25 Z-3.667 I0.25 J0.
X27.75 Z-3.728 I-0.25 J0.
X28.25 Z-3.789 I0.25 J0.
X27.75 Z-3.85 I-0.25 J0.
X28.25 Z-3.911 I0.25 J0.
X27.75 Z-3.972 I-0.25 J0.
X28.25 Z-4.033 I0.25 J0.
X27.75 Z-4.094 I-0.25 J0.
X28.25 Z-4.156 I0.25 J0.
X27.75 Z-4.217 I-0.25 J0.
X28.25 Z-4.278 I0.25 J0.
X27.75 Z-4.339 I-0.25 J0.
X28.25 Z-4.4 I0.25 J0.
X27.75 Z-4.461 I-0.25 J0.
X28.25 Z-4.522 I0.25 J0.
X27.75 Z-4.583 I-0.25 J0.
X28.25 Z-4.644 I0.25 J0.
X27.75 Z-4.706 I-0.25 J0.
X28.25 Z-4.767 I0.25 J0.
X27.75 Z-4.828 I-0.25 J0.
X28.25 Z-4.889 I0.25 J0.
X27.75 Z-4.95 I-0.25 J0.
X28.25 Z-5.011 I0.25 J0.
X27.75 Z-5.072 I-0.25 J0.
X28.25 Z-5.133 I0.25 J0.
X27.75 Z-5.194 I-0.25 J0.
X28.25 Z-5.256 I0.25 J0.
X27.75 Z-5.317 I-0.25 J0.
X28.25 Z-5.378 I0.25 J0.
X27.75 Z-5.439 I-0.25 J0.
X28.25 Z-5.5 I0.25 J0.
X27.75 Z-5.561 I-0.25 J0.
X28.25 Z-5.622 I0.25 J0.
X27.75 Z-5.683 I-0.25 J0.
X28.25 Z-5.744 I0.25 J0.
X27.75 Z-5.806 I-0.25 J0.
X28.25 Z-5.867 I0.25 J0.
X27.75 Z-5.928 I-0.25 J0.
X28.25 Z-5.989 I0.25 J0.
X28.21 Y20.135 Z-6. I-0.25 J0.
X27.79 Y19.865 I-0.21 J-0.135
X28.21 Y20.135 I0.21 J0.135
G1 X28.184 Y20.164
X28.151 Y20.184
X28.113 Y20.192
X28.074 Y20.188
X28.038 Y20.173
X27.911 Y20.092
Z5.
X27.825 Y19.725
Z-4.
Z-5.7
G18 G2 X28.125 Z-6. I0.3 K0.
G1 X28.275
G17 G3 X28.55 Y20. I0. J0.275
X27.45 I-0.55 J0.
X28.55 I0.55 J0.
X28.275 Y20.275 I-0.275 J0.
G1 X28.125
G18 G3 X27.825 Z-5.7 I0. K0.3
G1 Z5.
G17
(WHEN USING FUSION 360 FOR PERSONAL USE, THE FEEDRATE OF)
(RAPID MOVES IS REDUCED TO MATCH THE FEEDRATE OF CUTTING)
(MOVES, WHICH CAN INCREASE MACHINING TIME. UNRESTRICTED RAPID)
(MOVES ARE AVAILABLE WITH A FUSION 360 SUBSCRIPTION.)

(FINISHSLOTS)
G0 X8. Y30.393
G1 Z5. F100.
Z2.
Z-1.5 F30.
X8.038 F100.
X8.03 Y30.43
X7.997 Y30.447
X7.961 Y30.436
X7.939 Y30.405
X7.94 Y30.368
X7.957 Y30.335
X7.986 Y30.31
X8.021 Y30.298
X8.059 Y30.301
X8.092 Y30.317
X8.12 Y30.343
X8.139 Y30.376
X8.155 Y30.449
X8.135 Y30.521
X8.086 Y30.577
X8.018 Y30.611
X7.944 Y30.618
X7.871 Y30.599
X7.808 Y30.559
X7.76 Y30.501
X7.73 Y30.432
X7.708 Y30.284
X7.76 Y30.143
X7.867 Y30.039
X8.007 Y29.986
X8.157 Y29.988
X8.298 Y30.041
X8.414 Y30.136
X8.497 Y30.261
X8.538 Y30.405
X8.539 Y30.555
X8.499 Y30.699
X8.422 Y30.828
X8.315 Y30.934
X8.187 Y31.011
X8.043 Y31.055
X7.893 Y31.064
X7.745 Y31.04
X7.606 Y30.984
X7.481 Y30.901
X7.374 Y30.796
X7.291 Y30.672
X7.231 Y30.534
X7.199 Y30.387
X7.196 Y30.237
X7.218 Y30.089
X7.268 Y29.947
X7.34 Y29.816
X7.434 Y29.7
X7.546 Y29.6
X7.674 Y29.52
X7.812 Y29.462
X7.957 Y29.426
X8.107 Y29.413
X8.257 Y29.423
X8.403 Y29.455
X8.543 Y29.508
X8.674 Y29.581
X8.712 Y29.61
X8.834 Y29.727
X8.924 Y29.871
X8.977 Y30.032
X8.992 Y30.109
X9. Y30.18
Y30.613
X8.993 Y30.762
X8.965 Y30.91
X8.915 Y31.051
X8.844 Y31.184
X8.755 Y31.304
X8.65 Y31.411
X8.532 Y31.503
X8.402 Y31.579
X8.264 Y31.636
X8.119 Y31.677
X7.971 Y31.699
X7.821 Y31.704
X7.671 Y31.691
X7.524 Y31.661
X7.483 Y31.648
X7.288 Y31.548
X7.133 Y31.393
X7.034 Y31.198
X7. Y30.982
Y30.18
X7.008 Y30.109
X7.092 Y29.684
X7.098 Y29.661
X7.109 Y29.631
X7.123 Y29.602
X7.161 Y29.542
X7.256 Y29.401
X7.303 Y29.335
X7.342 Y29.297
X7.381 Y29.269
X7.523 Y29.174
X7.613 Y29.117
X7.639 Y29.106
X7.664 Y29.097
X7.806 Y29.068
X7.948 Y29.04
X7.983 Y29.036
X8.018 Y29.037
X8.089 Y29.047
X8.302 Y29.089
X8.337 Y29.098
X8.372 Y29.111
X8.386 Y29.117
X8.514 Y29.198
X8.604 Y29.259
X8.655 Y29.295
X8.707 Y29.348
X8.744 Y29.401
X8.839 Y29.542
X8.883 Y29.613
X8.898 Y29.649
X8.908 Y29.684
X8.977 Y30.032
X8.981 Y30.069
X9. Y30.613
Y31.356
X8.993 Y31.506
X8.952 Y31.651
X8.887 Y31.786
X8.802 Y31.909
X8.701 Y32.02
X8.587 Y32.118
X8.462 Y32.201
X8.329 Y32.27
X8.19 Y32.326
X8.045 Y32.366
X7.897 Y32.391
X7.747 Y32.401
X7.675 Y32.399
X7.464 Y32.358
X7.276 Y32.256
X7.128 Y32.102
X7.033 Y31.91
X7. Y31.699
Y30.982
G3 X7.31 Y30.693 Z-1.3 I0.3 J0.01
G1 X7.377 Y30.703
X7.576 Y30.756
X8.428 Y30.984
X8.692 Y31.054
X8.778 Y31.077 Z-1.338
G3 X9. Y31.356 Z-1.5 I-0.078 J0.29
G1 Y31.995
X8.993 Y32.145
X8.957 Y32.291
X8.896 Y32.428
X8.816 Y32.555
X8.72 Y32.67
X8.611 Y32.773
X8.491 Y32.863
X8.362 Y32.94
X8.226 Y33.002
X8.084 Y33.051
X7.937 Y33.082
X7.788 Y33.099
X7.638 Y33.101
X7.626 Y33.1
X7.428 Y33.049
X7.254 Y32.943
X7.117 Y32.791
X7.03 Y32.606
X7. Y32.403
Y31.699
G3 X7.31 Y31.41 Z-1.3 I0.3 J0.01
G1 X7.362 Y31.416
X7.579 Y31.462
X8.423 Y31.64
X8.691 Y31.697
X8.762 Y31.712 Z-1.331
G3 X9. Y31.995 Z-1.5 I-0.062 J0.294
G1 Y32.661
X8.993 Y32.811
X8.96 Y32.957
X8.904 Y33.096
X8.827 Y33.225
X8.735 Y33.343
X8.629 Y33.449
X8.511 Y33.543
X8.385 Y33.624
X8.25 Y33.689
X8.109 Y33.741
X7.964 Y33.778
X7.815 Y33.797
X7.665 Y33.802
X7.645 Y33.801
X7.443 Y33.754
X7.263 Y33.649
X7.121 Y33.496
X7.031 Y33.309
X7. Y33.103
Y32.403
G3 X7.31 Y32.114 Z-1.3 I0.3 J0.01
G1 X7.354 Y32.119
X7.58 Y32.16
X8.422 Y32.315
X8.691 Y32.365
X8.754 Y32.376 Z-1.328
G3 X9. Y32.661 Z-1.5 I-0.054 J0.295
G1 Y33.37
X8.993 Y33.52
X8.958 Y33.666
X8.9 Y33.804
X8.822 Y33.932
X8.728 Y34.049
X8.622 Y34.155
X8.504 Y34.248
X8.377 Y34.328
X8.242 Y34.392
X8.101 Y34.443
X7.955 Y34.479
X7.806 Y34.497
X7.656 Y34.501
X7.639 Y34.5
X7.438 Y34.452
X7.26 Y34.347
X7.12 Y34.194
X7.031 Y34.007
X7. Y33.803
Y33.103
G3 X7.31 Y32.813 Z-1.3 I0.3 J0.01
G1 X7.356 Y32.819
X7.579 Y32.861
X8.422 Y33.022
X8.691 Y33.073
X8.756 Y33.086 Z-1.328
G3 X9. Y33.37 Z-1.5 I-0.056 J0.295
G1 Y34.079
X8.993 Y34.228
X8.956 Y34.374
X8.896 Y34.511
X8.817 Y34.639
X8.723 Y34.756
X8.615 Y34.86
X8.497 Y34.952
X8.37 Y35.031
X8.234 Y35.095
X8.093 Y35.146
X7.947 Y35.18
X7.798 Y35.198
X7.648 Y35.201
X7.635 Y35.2
X7.435 Y35.151
X7.258 Y35.045
X7.119 Y34.893
X7.03 Y34.707
X7. Y34.503
Y33.803
G3 X7.31 Y33.513 Z-1.3 I0.3 J0.01
G1 X7.358 Y33.519
X7.579 Y33.562
X8.422 Y33.729
X8.691 Y33.781
X8.758 Y33.795 Z-1.329
G3 X9. Y34.079 Z-1.5 I-0.058 J0.294
G1 Y34.787
X8.993 Y34.937
X8.955 Y35.082
X8.893 Y35.219
X8.813 Y35.346
X8.718 Y35.462
X8.61 Y35.566
X8.491 Y35.657
X8.363 Y35.736
X8.227 Y35.799
X8.085 Y35.848
X7.939 Y35.882
X7.79 Y35.899
X7.64 Y35.901
X7.631 Y35.9
X7.432 Y35.85
X7.256 Y35.745
X7.118 Y35.592
X7.03 Y35.407
X7. Y35.204
Y34.503
G3 X7.31 Y34.213 Z-1.3 I0.3 J0.01
G1 X7.36 Y34.219
X7.579 Y34.264
X8.423 Y34.435
X8.691 Y34.49
X8.76 Y34.504 Z-1.33
G3 X9. Y34.787 Z-1.5 I-0.06 J0.294
G1 Y35.496
X8.993 Y35.646
X8.953 Y35.791
X8.891 Y35.927
X8.81 Y36.053
X8.714 Y36.169
X8.605 Y36.272
X8.485 Y36.363
X8.357 Y36.44
X8.221 Y36.503
X8.079 Y36.551
X7.932 Y36.584
X7.783 Y36.6
X7.633 Y36.602
X7.627 Y36.601
X7.429 Y36.55
X7.254 Y36.445
X7.117 Y36.293
X7.03 Y36.107
X7. Y35.905
Y35.204
G3 X7.31 Y34.914 Z-1.3 I0.3 J0.01
G1 X7.361 Y34.92
X7.579 Y34.966
X8.423 Y35.142
X8.691 Y35.198
X8.762 Y35.213 Z-1.331
G3 X9. Y35.496 Z-1.5 I-0.061 J0.294
G1 Y36.205
X8.993 Y36.355
X8.952 Y36.499
X8.888 Y36.635
X8.806 Y36.761
X8.709 Y36.875
X8.6 Y36.978
X8.48 Y37.068
X8.351 Y37.145
X8.215 Y37.207
X8.073 Y37.255
X7.926 Y37.287
X7.777 Y37.302
X7.624 Y37.303
X7.427 Y37.251
X7.252 Y37.145
X7.116 Y36.993
X7.03 Y36.809
X7. Y36.607
Y35.905
G3 X7.31 Y35.616 Z-1.3 I0.3 J0.01
G1 X7.363 Y35.622
X7.578 Y35.668
X8.423 Y35.849
X8.691 Y35.907
X8.763 Y35.922 Z-1.331
G3 X9. Y36.205 Z-1.5 I-0.063 J0.293
G1 Y36.885
X8.993 Y37.035
X8.956 Y37.18
X8.895 Y37.318
X8.816 Y37.445
X8.721 Y37.561
X8.614 Y37.666
X8.495 Y37.758
X8.368 Y37.837
X8.232 Y37.9
X8.09 Y37.95
X7.944 Y37.985
X7.795 Y38.002
X7.645 Y38.005
X7.635 Y38.004
X7.435 Y37.955
X7.258 Y37.85
X7.119 Y37.697
X7.03 Y37.511
X7. Y37.307
Y36.607
G3 X7.31 Y36.318 Z-1.3 I0.3 J0.01
G1 X7.358 Y36.323
X7.579 Y36.367
X8.422 Y36.534
X8.691 Y36.588
X8.759 Y36.601 Z-1.329
G3 X9. Y36.885 Z-1.5 I-0.058 J0.294
G1 Y37.559
X8.993 Y37.709
X8.961 Y37.855
X8.905 Y37.994
X8.829 Y38.124
X8.737 Y38.242
X8.631 Y38.349
X8.514 Y38.443
X8.388 Y38.524
X8.254 Y38.59
X8.113 Y38.643
X7.968 Y38.68
X7.819 Y38.7
X7.669 Y38.705
X7.648 Y38.704
X7.444 Y38.657
X7.263 Y38.553
X7.122 Y38.4
X7.031 Y38.212
X7. Y38.006
Y37.307
G3 X7.31 Y37.018 Z-1.3 I0.3 J0.01
G1 X7.353 Y37.022
X7.58 Y37.063
X8.421 Y37.214
X8.691 Y37.263
X8.753 Y37.274 Z-1.327
G3 X9. Y37.559 Z-1.5 I-0.053 J0.295
G1 Y38.268
X8.993 Y38.417
X8.959 Y38.564
X8.901 Y38.702
X8.824 Y38.831
X8.731 Y38.948
X8.625 Y39.054
X8.507 Y39.148
X8.381 Y39.228
X8.246 Y39.293
X8.105 Y39.345
X7.959 Y39.38
X7.81 Y39.4
X7.66 Y39.404
X7.642 Y39.403
X7.44 Y39.355
X7.261 Y39.25
X7.12 Y39.097
X7.031 Y38.91
X7. Y38.705
Y38.006
G3 X7.31 Y37.716 Z-1.3 I0.3 J0.01
G1 X7.355 Y37.721
X7.58 Y37.763
X8.422 Y37.921
X8.691 Y37.971
X8.755 Y37.983 Z-1.328
G3 X9. Y38.268 Z-1.5 I-0.055 J0.295
G1 Y38.976
X8.993 Y39.126
X8.957 Y39.272
X8.898 Y39.41
X8.82 Y39.538
X8.726 Y39.655
X8.619 Y39.76
X8.501 Y39.852
X8.373 Y39.932
X8.238 Y39.996
X8.097 Y40.047
X7.951 Y40.082
X7.802 Y40.1
X7.652 Y40.104
X7.637 Y40.102
X7.436 Y40.054
X7.259 Y39.948
X7.119 Y39.796
X7.03 Y39.609
X7. Y39.405
Y38.705
G3 X7.31 Y38.416 Z-1.3 I0.3 J0.01
G1 X7.357 Y38.421
X7.579 Y38.464
X8.422 Y38.627
X8.691 Y38.679
X8.757 Y38.692 Z-1.329
G3 X9. Y38.976 Z-1.5 I-0.057 J0.295
G1 Y39.685
X8.993 Y39.835
X8.955 Y39.98
X8.895 Y40.118
X8.816 Y40.245
X8.721 Y40.361
X8.613 Y40.465
X8.494 Y40.557
X8.367 Y40.636
X8.231 Y40.699
X8.089 Y40.749
X7.943 Y40.783
X7.794 Y40.801
X7.644 Y40.803
X7.633 Y40.802
X7.433 Y40.753
X7.257 Y40.647
X7.118 Y40.495
X7.03 Y40.309
X7. Y40.106
Y39.405
G3 X7.31 Y39.116 Z-1.3 I0.3 J0.01
G1 X7.359 Y39.121
X7.579 Y39.165
X8.423 Y39.334
X8.691 Y39.388
X8.759 Y39.401 Z-1.329
G3 X9. Y39.685 Z-1.5 I-0.059 J0.294
G1 Y40.394
X8.993 Y40.544
X8.954 Y40.689
X8.892 Y40.825
X8.812 Y40.952
X8.716 Y41.067
X8.607 Y41.171
X8.488 Y41.262
X8.36 Y41.34
X8.224 Y41.403
X8.082 Y41.452
X7.936 Y41.485
X7.787 Y41.502
X7.637 Y41.504
X7.629 Y41.503
X7.431 Y41.453
X7.255 Y41.347
X7.117 Y41.195
X7.03 Y41.009
X7. Y40.807
Y40.106
G3 X7.31 Y39.816 Z-1.3 I0.3 J0.01
G1 X7.36 Y39.822
X7.579 Y39.867
X8.423 Y40.041
X8.691 Y40.096
X8.761 Y40.111 Z-1.33
G3 X9. Y40.394 Z-1.5 I-0.06 J0.294
G1 Y41.103
X8.993 Y41.252
X8.952 Y41.397
X8.889 Y41.533
X8.808 Y41.659
X8.712 Y41.774
X8.602 Y41.877
X8.483 Y41.968
X8.354 Y42.045
X8.218 Y42.107
X8.076 Y42.155
X7.929 Y42.188
X7.78 Y42.204
X7.63 Y42.205
X7.626 Y42.204
X7.428 Y42.153
X7.253 Y42.047
X7.117 Y41.895
X7.03 Y41.71
X7. Y41.508
Y40.807
G3 X7.31 Y40.517 Z-1.3 I0.3 J0.01
G1 X7.362 Y40.524
X7.579 Y40.569
X8.423 Y40.748
X8.691 Y40.805
X8.762 Y40.82 Z-1.331
G3 X9. Y41.103 Z-1.5 I-0.062 J0.294
G1 Y41.776
X8.993 Y41.926
X8.958 Y42.072
X8.899 Y42.21
X8.821 Y42.338
X8.727 Y42.455
X8.62 Y42.561
X8.502 Y42.653
X8.375 Y42.733
X8.24 Y42.798
X8.099 Y42.849
X7.953 Y42.884
X7.804 Y42.903
X7.654 Y42.906
X7.64 Y42.905
X7.438 Y42.857
X7.26 Y42.752
X7.12 Y42.599
X7.031 Y42.413
X7. Y42.208
Y41.508
G3 X7.31 Y41.219 Z-1.3 I0.3 J0.01
G1 X7.356 Y41.224
X7.579 Y41.267
X8.422 Y41.428
X8.691 Y41.48
X8.757 Y41.492 Z-1.328
G3 X9. Y41.776 Z-1.5 I-0.056 J0.295
G1 Y42.485
X8.993 Y42.635
X8.956 Y42.78
X8.896 Y42.918
X8.817 Y43.045
X8.722 Y43.162
X8.614 Y43.266
X8.496 Y43.358
X8.369 Y43.437
X8.233 Y43.501
X8.091 Y43.551
X7.945 Y43.585
X7.796 Y43.603
X7.646 Y43.606
X7.634 Y43.605
X7.434 Y43.556
X7.257 Y43.45
X7.119 Y43.298
X7.03 Y43.112
X7. Y42.908
Y42.208
G3 X7.31 Y41.918 Z-1.3 I0.3 J0.01
G1 X7.358 Y41.924
X7.579 Y41.968
X8.422 Y42.135
X8.691 Y42.188
X8.758 Y42.201 Z-1.329
G3 X9. Y42.485 Z-1.5 I-0.058 J0.294
G1 Y43.194
X8.993 Y43.344
X8.954 Y43.489
X8.893 Y43.626
X8.813 Y43.753
X8.717 Y43.868
X8.609 Y43.972
X8.49 Y44.063
X8.362 Y44.142
X8.226 Y44.205
X8.084 Y44.254
X7.938 Y44.287
X7.789 Y44.304
X7.639 Y44.306
X7.63
X7.431 Y44.255
X7.255 Y44.15
X7.118 Y43.998
X7.03 Y43.812
X7. Y43.609
Y42.908
G3 X7.31 Y42.619 Z-1.3 I0.3 J0.01
G1 X7.36 Y42.625
X7.579 Y42.669
X8.423 Y42.842
X8.691 Y42.896
X8.76 Y42.91 Z-1.33
G3 X9. Y43.194 Z-1.5 I-0.06 J0.294
G1 Y43.86
X8.993 Y44.01
X8.961 Y44.156
X8.905 Y44.295
X8.829 Y44.425
X8.737 Y44.543
X8.632 Y44.65
X8.515 Y44.744
X8.389 Y44.826
X8.254 Y44.892
X8.114 Y44.944
X7.969 Y44.982
X7.82 Y45.002
X7.67 Y45.007
X7.648 Y45.006
X7.445 Y44.959
X7.264 Y44.855
X7.122 Y44.702
X7.031 Y44.514
X7. Y44.308
Y43.609
G3 X7.31 Y43.32 Z-1.3 I0.3 J0.01
G1 X7.353 Y43.324
X7.58 Y43.365
X8.421 Y43.516
X8.691 Y43.564
X8.753 Y43.575 Z-1.327
G3 X9. Y43.86 Z-1.5 I-0.053 J0.295
G1 Y44.569
X8.993 Y44.718
X8.959 Y44.865
X8.901 Y45.003
X8.824 Y45.132
X8.731 Y45.25
X8.625 Y45.355
X8.508 Y45.449
X8.381 Y45.529
X8.246 Y45.595
X8.105 Y45.646
X7.96 Y45.682
X7.811 Y45.702
X7.661 Y45.706
X7.642 Y45.704
X7.44 Y45.657
X7.261 Y45.552
X7.12 Y45.399
X7.031 Y45.212
X7. Y45.007
Y44.308
G3 X7.31 Y44.018 Z-1.3 I0.3 J0.01
G1 X7.355 Y44.023
X7.58 Y44.065
X8.422 Y44.222
X8.691 Y44.272
X8.755 Y44.284 Z-1.328
G3 X9. Y44.569 Z-1.5 I-0.055 J0.295
G1 Y45.277
X8.993 Y45.427
X8.957 Y45.573
X8.898 Y45.711
X8.82 Y45.839
X8.726 Y45.956
X8.619 Y46.061
X8.501 Y46.154
X8.374 Y46.233
X8.239 Y46.298
X8.097 Y46.348
X7.951 Y46.383
X7.803 Y46.402
X7.653 Y46.405
X7.638 Y46.404
X7.437 Y46.355
X7.259 Y46.25
X7.119 Y46.098
X7.031 Y45.911
X7. Y45.707
Y45.007
G3 X7.31 Y44.718 Z-1.3 I0.3 J0.01
G1 X7.357 Y44.723
X7.579 Y44.766
X8.422 Y44.929
X8.691 Y44.981
X8.757 Y44.993 Z-1.329
G3 X9. Y45.277 Z-1.5 I-0.057 J0.295
G1 Y45.986
X8.993 Y46.136
X8.955 Y46.281
X8.895 Y46.419
X8.816 Y46.546
X8.721 Y46.662
X8.613 Y46.767
X8.495 Y46.859
X8.367 Y46.937
X8.231 Y47.001
X8.09 Y47.051
X7.944 Y47.085
X7.795 Y47.103
X7.645 Y47.105
X7.633 Y47.104
X7.434 Y47.055
X7.257 Y46.949
X7.118 Y46.797
X7.03 Y46.611
X7. Y46.407
Y45.707
G3 X7.31 Y45.417 Z-1.3 I0.3 J0.01
G1 X7.359 Y45.423
X7.579 Y45.467
X8.423 Y45.635
X8.691 Y45.689
X8.759 Y45.702 Z-1.329
G3 X9. Y45.986 Z-1.5 I-0.059 J0.294
G1 Y46.695
X8.993 Y46.845
X8.954 Y46.99
X8.892 Y47.127
X8.812 Y47.253
X8.716 Y47.369
X8.608 Y47.472
X8.489 Y47.564
X8.361 Y47.642
X8.225 Y47.705
X8.083 Y47.754
X7.937 Y47.787
X7.787 Y47.804
X7.637 Y47.806
X7.63 Y47.805
X7.431 Y47.754
X7.255 Y47.649
X7.118 Y47.497
X7.03 Y47.311
X7. Y47.108
Y46.407
G3 X7.31 Y46.118 Z-1.3 I0.3 J0.01
G1 X7.36 Y46.124
X7.579 Y46.169
X8.423 Y46.342
X8.691 Y46.397
X8.761 Y46.412 Z-1.33
G3 X9. Y46.695 Z-1.5 I-0.06 J0.294
G1 Y47.404
X8.993 Y47.554
X8.952 Y47.698
X8.89 Y47.834
X8.808 Y47.96
X8.712 Y48.075
X8.603 Y48.178
X8.483 Y48.269
X8.355 Y48.346
X8.218 Y48.408
X8.076 Y48.457
X7.93 Y48.489
X7.781 Y48.505
X7.631 Y48.507
X7.626 Y48.506
X7.428 Y48.455
X7.253 Y48.349
X7.117 Y48.197
X7.03 Y48.012
X7. Y47.81
Y47.108
G3 X7.31 Y46.819 Z-1.3 I0.3 J0.01
G1 X7.362 Y46.825
X7.579 Y46.871
X8.423 Y47.049
X8.691 Y47.106
X8.762 Y47.121 Z-1.331
G3 X9. Y47.404 Z-1.5 I-0.062 J0.294
G1 Y48.084
X8.993 Y48.234
X8.956 Y48.379
X8.897 Y48.517
X8.818 Y48.645
X8.724 Y48.761
X8.616 Y48.866
X8.498 Y48.958
X8.371 Y49.038
X8.235 Y49.102
X8.094 Y49.152
X7.948 Y49.187
X7.799 Y49.205
X7.649 Y49.208
X7.637 Y49.207
X7.436 Y49.158
X7.258 Y49.053
X7.119 Y48.901
X7.03 Y48.714
X7. Y48.51
Y47.81
G3 X7.31 Y47.521 Z-1.3 I0.3 J0.01
G1 X7.357 Y47.526
X7.579 Y47.569
X8.422 Y47.734
X8.691 Y47.787
X8.758 Y47.8 Z-1.329
G3 X9. Y48.084 Z-1.5 I-0.058 J0.294
G1 Y48.758
X8.993 Y48.907
X8.962 Y49.054
X8.906 Y49.193
X8.831 Y49.323
X8.739 Y49.442
X8.634 Y49.549
X8.517 Y49.643
X8.391 Y49.725
X8.257 Y49.792
X8.117 Y49.844
X7.971 Y49.882
X7.823 Y49.902
X7.673 Y49.908
X7.649 Y49.906
X7.446 Y49.86
X7.264 Y49.756
X7.122 Y49.603
X7.031 Y49.415
X7. Y49.208
Y48.51
G3 X7.31 Y48.22 Z-1.3 I0.3 J0.01
G1 X7.352 Y48.225
X7.58 Y48.265
X8.421 Y48.414
X8.691 Y48.462
X8.752 Y48.473 Z-1.327
G3 X9. Y48.758 Z-1.5 I-0.052 J0.295
G1 Y49.466
X8.993 Y49.616
X8.96 Y49.763
X8.903 Y49.901
X8.826 Y50.03
X8.733 Y50.148
X8.627 Y50.254
X8.51 Y50.348
X8.384 Y50.429
X8.249 Y50.494
X8.108 Y50.546
X7.962 Y50.582
X7.814 Y50.602
X7.664 Y50.607
X7.643 Y50.605
X7.441 Y50.558
X7.262 Y50.453
X7.121 Y50.3
X7.031 Y50.113
X7. Y49.907
Y49.208
G3 X7.31 Y48.919 Z-1.3 I0.3 J0.01
G1 X7.354 Y48.924
X7.58 Y48.965
X8.422 Y49.12
X8.691 Y49.17
X8.755 Y49.182 Z-1.328
G3 X9. Y49.466 Z-1.5 I-0.054 J0.295
G1 Y50.175
X8.993 Y50.325
X8.958 Y50.471
X8.899 Y50.609
X8.821 Y50.737
X8.728 Y50.854
X8.621 Y50.96
X8.503 Y51.053
X8.376 Y51.132
X8.241 Y51.197
X8.1 Y51.248
X7.954 Y51.283
X7.805 Y51.302
X7.655 Y51.306
X7.639 Y51.304
X7.438 Y51.256
X7.259 Y51.151
X7.12 Y50.999
X7.031 Y50.812
X7. Y50.607
Y49.907
G3 X7.31 Y49.618 Z-1.3 I0.3 J0.01
G1 X7.356 Y49.623
X7.579 Y49.666
X8.422 Y49.827
X8.691 Y49.878
X8.757 Y49.891 Z-1.328
G3 X9. Y50.175 Z-1.5 I-0.056 J0.295
G1 Y50.884
X8.993 Y51.034
X8.956 Y51.179
X8.896 Y51.317
X8.817 Y51.444
X8.722 Y51.561
X8.615 Y51.665
X8.497 Y51.758
X8.369 Y51.836
X8.233 Y51.9
X8.092 Y51.95
X7.946 Y51.985
X7.797 Y52.003
X7.647 Y52.006
X7.635 Y52.004
X7.435 Y51.955
X7.257 Y51.85
X7.119 Y51.697
X7.03 Y51.511
X7. Y51.307
Y50.607
G3 X7.31 Y50.318 Z-1.3 I0.3 J0.01
G1 X7.358 Y50.323
X7.579 Y50.367
X8.422 Y50.534
X8.691 Y50.587
X8.758 Y50.6 Z-1.329
G3 X9. Y50.884 Z-1.5 I-0.058 J0.294
G1 Y51.593
X8.993 Y51.743
X8.954 Y51.888
X8.893 Y52.025
X8.813 Y52.151
X8.718 Y52.267
X8.609 Y52.371
X8.491 Y52.462
X8.363 Y52.541
X8.227 Y52.604
X8.085 Y52.653
X7.939 Y52.687
X7.79 Y52.704
X7.64 Y52.706
X7.631 Y52.705
X7.432 Y52.655
X7.256 Y52.549
X7.118 Y52.397
X7.03 Y52.211
X7. Y52.008
Y51.307
G3 X7.31 Y51.018 Z-1.3 I0.3 J0.01
G1 X7.36 Y51.024
X7.579 Y51.069
X8.423 Y51.241
X8.691 Y51.295
X8.76 Y51.309 Z-1.33
G3 X9. Y51.593 Z-1.5 I-0.06 J0.294
G1 Y52.302
X8.993 Y52.451
X8.953 Y52.596
X8.89 Y52.732
X8.809 Y52.859
X8.713 Y52.974
X8.604 Y53.077
X8.485 Y53.168
X8.357 Y53.245
X8.22 Y53.308
X8.078 Y53.356
X7.932 Y53.389
X7.783 Y53.405
X7.633 Y53.407
X7.627 Y53.406
X7.429 Y53.355
X7.254 Y53.249
X7.117 Y53.097
X7.03 Y52.912
X7. Y52.71
Y52.008
G3 X7.31 Y51.719 Z-1.3 I0.3 J0.01
G1 X7.361 Y51.725
X7.579 Y51.771
X8.423 Y51.947
X8.691 Y52.004
X8.762 Y52.018 Z-1.331
G3 X9. Y52.302 Z-1.5 I-0.061 J0.294
G1 Y53.01
X8.993 Y53.16
X8.951 Y53.304
X8.888 Y53.44
X8.806 Y53.566
X8.709 Y53.68
X8.6 Y53.783
X8.48 Y53.873
X8.351 Y53.95
X8.214 Y54.012
X8.072 Y54.06
X7.926 Y54.092
X7.776 Y54.107
X7.624 Y54.108
X7.426 Y54.056
X7.252 Y53.95
X7.116 Y53.798
X7.03 Y53.613
X7. Y53.412
Y52.71
G3 X7.31 Y52.42 Z-1.3 I0.3 J0.01
G1 X7.363 Y52.427
X7.578 Y52.473
X8.424 Y52.655
X8.691 Y52.712
X8.763 Y52.727 Z-1.331
G3 X9. Y53.01 Z-1.5 I-0.063 J0.293
G1 Y53.684
X8.993 Y53.834
X8.957 Y53.979
X8.897 Y54.117
X8.819 Y54.245
X8.725 Y54.362
X8.617 Y54.467
X8.499 Y54.559
X8.372 Y54.639
X8.237 Y54.703
X8.095 Y54.753
X7.949 Y54.788
X7.801 Y54.807
X7.651 Y54.81
X7.638 Y54.809
X7.437 Y54.76
X7.259 Y54.655
X7.119 Y54.503
X7.031 Y54.316
X7. Y54.111
Y53.412
G3 X7.31 Y53.122 Z-1.3 I0.3 J0.01
G1 X7.357 Y53.128
X7.579 Y53.171
X8.422 Y53.335
X8.691 Y53.387
X8.757 Y53.4 Z-1.329
G3 X9. Y53.684 Z-1.5 I-0.057 J0.294
G1 Y54.393
X8.993 Y54.543
X8.955 Y54.688
X8.894 Y54.825
X8.815 Y54.952
X8.72 Y55.068
X8.612 Y55.172
X8.493 Y55.264
X8.366 Y55.343
X8.23 Y55.406
X8.088 Y55.456
X7.942 Y55.49
X7.793 Y55.507
X7.643 Y55.51
X7.632 Y55.509
X7.433 Y55.459
X7.256 Y55.354
X7.118 Y55.201
X7.03 Y55.015
X7. Y54.812
Y54.111
G3 X7.31 Y53.822 Z-1.3 I0.3 J0.01
G1 X7.359 Y53.828
X7.579 Y53.872
X8.423 Y54.042
X8.691 Y54.095
X8.759 Y54.109 Z-1.33
G3 X9. Y54.393 Z-1.5 I-0.059 J0.294
G1 Y55.102
X8.993 Y55.251
X8.954 Y55.396
X8.892 Y55.533
X8.811 Y55.659
X8.715 Y55.775
X8.607 Y55.878
X8.488 Y55.969
X8.359 Y56.047
X8.223 Y56.11
X8.081 Y56.159
X7.935 Y56.192
X7.786 Y56.209
X7.636 Y56.21
X7.629
X7.43 Y56.159
X7.255 Y56.053
X7.117 Y55.901
X7.03 Y55.716
X7. Y55.513
Y54.812
G3 X7.31 Y54.523 Z-1.3 I0.3 J0.01
G1 X7.361 Y54.529
X7.579 Y54.574
X8.423 Y54.748
X8.691 Y54.804
X8.761 Y54.818 Z-1.33
G3 X9. Y55.102 Z-1.5 I-0.061 J0.294
G1 Y55.767
X8.993 Y55.917
X8.96 Y56.064
X8.904 Y56.203
X8.828 Y56.332
X8.735 Y56.45
X8.629 Y56.556
X8.512 Y56.65
X8.386 Y56.731
X8.252 Y56.798
X8.111 Y56.85
X7.965 Y56.886
X7.817 Y56.906
X7.667 Y56.911
X7.647 Y56.91
X7.443 Y56.863
X7.263 Y56.759
X7.121 Y56.606
X7.031 Y56.418
X7. Y56.212
Y55.513
G3 X7.31 Y55.224 Z-1.3 I0.3 J0.01
G1 X7.353 Y55.229
X7.58 Y55.27
X8.421 Y55.422
X8.691 Y55.471
X8.754 Y55.483 Z-1.327
G3 X9. Y55.767 Z-1.5 I-0.054 J0.295
G1 Y56.476
X8.993 Y56.626
X8.958 Y56.772
X8.9 Y56.91
X8.823 Y57.039
X8.73 Y57.156
X8.623 Y57.262
X8.506 Y57.355
X8.379 Y57.435
X8.244 Y57.5
X8.103 Y57.552
X7.957 Y57.587
X7.808 Y57.606
X7.658 Y57.61
X7.64 Y57.609
X7.439 Y57.561
X7.26 Y57.456
X7.12 Y57.303
X7.031 Y57.116
X7. Y56.911
Y56.212
G3 X7.31 Y55.923 Z-1.3 I0.3 J0.01
G1 X7.355 Y55.928
X7.579 Y55.97
X8.422 Y56.129
X8.691 Y56.18
X8.756 Y56.192 Z-1.328
G3 X9. Y56.476 Z-1.5 I-0.056 J0.295
G1 Y57.185
X8.993 Y57.335
X8.957 Y57.481
X8.897 Y57.618
X8.819 Y57.746
X8.724 Y57.863
X8.617 Y57.967
X8.499 Y58.06
X8.372 Y58.139
X8.236 Y58.203
X8.095 Y58.254
X7.949 Y58.288
X7.8 Y58.307
X7.65 Y58.31
X7.636 Y58.309
X7.436 Y58.26
X7.258 Y58.154
X7.119 Y58.002
X7.03 Y57.816
X7. Y57.612
Y56.911
G3 X7.31 Y56.622 Z-1.3 I0.3 J0.01
G1 X7.357 Y56.627
X7.579 Y56.671
X8.422 Y56.836
X8.691 Y56.888
X8.758 Y56.901 Z-1.329
G3 X9. Y57.185 Z-1.5 I-0.058 J0.294
G1 Y57.894
X8.993 Y58.044
X8.955 Y58.189
X8.894 Y58.326
X8.815 Y58.453
X8.719 Y58.569
X8.611 Y58.673
X8.493 Y58.765
X8.365 Y58.843
X8.229 Y58.907
X8.087 Y58.956
X7.941 Y58.99
X7.792 Y59.008
X7.642 Y59.01
X7.632 Y59.009
X7.433 Y58.959
X7.256 Y58.854
X7.118 Y58.701
X7.03 Y58.516
X7. Y58.312
Y57.612
G3 X7.31 Y57.322 Z-1.3 I0.3 J0.01
G1 X7.359 Y57.328
X7.579 Y57.372
X8.423 Y57.542
X8.691 Y57.596
X8.759 Y57.61 Z-1.33
G3 X9. Y57.894 Z-1.5 I-0.059 J0.294
G1 Y58.603
X8.993 Y58.752
X8.953 Y58.897
X8.891 Y59.034
X8.811 Y59.16
X8.715 Y59.276
X8.606 Y59.379
X8.487 Y59.47
X8.359 Y59.548
X8.222 Y59.611
X8.081 Y59.659
X7.934 Y59.692
X7.785 Y59.709
X7.635 Y59.711
X7.628 Y59.71
X7.43 Y59.659
X7.254 Y59.553
X7.117 Y59.401
X7.03 Y59.216
X7. Y59.013
Y58.312
G3 X7.31 Y58.023 Z-1.3 I0.3 J0.01
G1 X7.361 Y58.029
X7.579 Y58.074
X8.423 Y58.249
X8.691 Y58.305
X8.761 Y58.319 Z-1.33
G3 X9. Y58.603 Z-1.5 I-0.061 J0.294
G1 Y59.311
X8.993 Y59.461
X8.952 Y59.606
X8.889 Y59.742
X8.807 Y59.868
X8.71 Y59.982
X8.601 Y60.085
X8.482 Y60.175
X8.353 Y60.253
X8.216 Y60.315
X8.074 Y60.363
X7.928 Y60.395
X7.779 Y60.411
X7.625
X7.427 Y60.36
X7.253 Y60.254
X7.117 Y60.102
X7.03 Y59.917
X7. Y59.715
Y59.013
G3 X7.31 Y58.724 Z-1.3 I0.3 J0.01
G1 X7.362 Y58.731
X7.578 Y58.777
X8.423 Y58.956
X8.691 Y59.013
X8.763 Y59.028 Z-1.331
G3 X9. Y59.311 Z-1.5 I-0.062 J0.293
G1 Y59.808
X8.999 Y59.843
X8.995 Y59.878
X8.939 Y60.161
X8.938 Y60.162
X8.93 Y60.205
X8.893 Y60.35
X8.847 Y60.441
X8.833 Y60.466
X8.817 Y60.491
G3 X8.398 Y60.559 Z-1.3 I-0.243 J-0.175
X8.293 Y60.209 I0.175 J-0.244
G1 X8.353 Y60.05
G3 X8.682 Y59.861 I0.28 J0.106
X8.93 Y60.205 Z-1.5 I-0.048 J0.296
G1 X8.91 Y60.304
X8.902 Y60.339
X8.889 Y60.375
X8.847 Y60.445
X8.797 Y60.521
X8.773 Y60.557
X8.753 Y60.587
X8.739 Y60.606
X8.688 Y60.664
X8.632 Y60.717
X8.57 Y60.764
G3 X8.157 Y60.667 Z-1.3 I-0.158 J-0.255
X8.208 Y60.29 I0.255 J-0.158
G1 X8.293 Y60.21
X8.337 Y60.176
X8.387 Y60.15
X8.441 Y60.135
X8.497 Y60.129
X8.553 Y60.135
X8.606 Y60.15
X8.655 Y60.174
G3 X8.753 Y60.587 Z-1.5 I-0.158 J0.255
G1 X8.712 Y60.646
X8.686 Y60.675
X8.655 Y60.705
X8.622 Y60.729
X8.409 Y60.871
X8.372 Y60.888
X8.337 Y60.902
X8.302 Y60.911
X8.089 Y60.953
X8.018 Y60.963
X7.983 Y60.964
X7.948 Y60.96
X7.806 Y60.932
X7.664 Y60.903
X7.628 Y60.89
X7.591 Y60.871
X7.523 Y60.826
X7.378 Y60.729
X7.337 Y60.698
X7.297 Y60.658
X7.24 Y60.576
X7.153 Y60.445
X7.12 Y60.392
X7.107 Y60.366
X7.098 Y60.339
X7.09 Y60.304
X7.005 Y59.878
X7.001 Y59.843
X7. Y59.808
Y59.715
G3 X7.299 Y59.426 I0.3 J0.01
G1 X7.3
X7.324 Y59.427
X7.374 Y59.444 Z-1.495
X7.423 Y59.461 Z-1.481
X7.468 Y59.477 Z-1.458
X7.501 Y59.514 Z-1.421
X7.528 Y59.544 Z-1.374
X7.548 Y59.566 Z-1.32
X7.56 Y59.58 Z-1.262
X7.565 Y59.585 Z-1.2
Z5.
X8. Y30.393
Z0.5
Z-3. F30.
X8.038 F100.
X8.03 Y30.43
X7.997 Y30.447
X7.961 Y30.436
X7.939 Y30.405
X7.94 Y30.368
X7.957 Y30.335
X7.986 Y30.31
X8.021 Y30.298
X8.059 Y30.301
X8.092 Y30.317
X8.12 Y30.343
X8.139 Y30.376
X8.155 Y30.449
X8.135 Y30.521
X8.086 Y30.577
X8.018 Y30.611
X7.944 Y30.618
X7.871 Y30.599
X7.808 Y30.559
X7.76 Y30.501
X7.73 Y30.432
X7.708 Y30.284
X7.76 Y30.143
X7.867 Y30.039
X8.007 Y29.986
X8.157 Y29.988
X8.298 Y30.041
X8.414 Y30.136
X8.497 Y30.261
X8.538 Y30.405
X8.539 Y30.555
X8.499 Y30.699
X8.422 Y30.828
X8.315 Y30.934
X8.187 Y31.011
X8.043 Y31.055
X7.893 Y31.064
X7.745 Y31.04
X7.606 Y30.984
X7.481 Y30.901
X7.374 Y30.796
X7.291 Y30.672
X7.231 Y30.534
X7.199 Y30.387
X7.196 Y30.237
X7.218 Y30.089
X7.268 Y29.947
X7.34 Y29.816
X7.434 Y29.7
X7.546 Y29.6
X7.674 Y29.52
X7.812 Y29.462
X7.957 Y29.426
X8.107 Y29.413
X8.257 Y29.423
X8.403 Y29.455
X8.543 Y29.508
X8.674 Y29.581
X8.712 Y29.61
X8.834 Y29.727
X8.924 Y29.871
X8.977 Y30.032
X8.992 Y30.109
X9. Y30.18
Y30.613
X8.993 Y30.762
X8.965 Y30.91
X8.915 Y31.051
X8.844 Y31.184
X8.755 Y31.304
X8.65 Y31.411
X8.532 Y31.503
X8.402 Y31.579
X8.264 Y31.636
X8.119 Y31.677
X7.971 Y31.699
X7.821 Y31.704
X7.671 Y31.691
X7.524 Y31.661
X7.483 Y31.648
X7.288 Y31.548
X7.133 Y31.393
X7.034 Y31.198
X7. Y30.982
Y30.18
X7.008 Y30.109
X7.092 Y29.684
X7.098 Y29.661
X7.109 Y29.631
X7.123 Y29.602
X7.161 Y29.542
X7.256 Y29.401
X7.303 Y29.335
X7.342 Y29.297
X7.381 Y29.269
X7.523 Y29.174
X7.613 Y29.117
X7.639 Y29.106
X7.664 Y29.097
X7.806 Y29.068
X7.948 Y29.04
X7.983 Y29.036
X8.018 Y29.037
X8.089 Y29.047
X8.302 Y29.089
X8.337 Y29.098
X8.372 Y29.111
X8.386 Y29.117
X8.514 Y29.198
X8.604 Y29.259
X8.655 Y29.295
X8.707 Y29.348
X8.744 Y29.401
X8.839 Y29.542
X8.883 Y29.613
X8.898 Y29.649
X8.908 Y29.684
X8.977 Y30.032
X8.981 Y30.069
X9. Y30.613
Y31.356
X8.993 Y31.506
X8.952 Y31.651
X8.887 Y31.786
X8.802 Y31.909
X8.701 Y32.02
X8.587 Y32.118
X8.462 Y32.201
X8.329 Y32.27
X8.19 Y32.326
X8.045 Y32.366
X7.897 Y32.391
X7.747 Y32.401
X7.675 Y32.399
X7.464 Y32.358
X7.276 Y32.256
X7.128 Y32.102
X7.033 Y31.91
X7. Y31.699
Y30.982
G3 X7.31 Y30.693 Z-2.8 I0.3 J0.01
G1 X7.377 Y30.703
X7.576 Y30.756
X8.428 Y30.984
X8.692 Y31.054
X8.778 Y31.077 Z-2.838
G3 X9. Y31.356 Z-3. I-0.078 J0.29
G1 Y31.995
X8.993 Y32.145
X8.957 Y32.291
X8.896 Y32.428
X8.816 Y32.555
X8.72 Y32.67
X8.611 Y32.773
X8.491 Y32.863
X8.362 Y32.94
X8.226 Y33.002
X8.084 Y33.051
X7.937 Y33.082
X7.788 Y33.099
X7.638 Y33.101
X7.626 Y33.1
X7.428 Y33.049
X7.254 Y32.943
X7.117 Y32.791
X7.03 Y32.606
X7. Y32.403
Y31.699
G3 X7.31 Y31.41 Z-2.8 I0.3 J0.01
G1 X7.362 Y31.416
X7.579 Y31.462
X8.423 Y31.64
X8.691 Y31.697
X8.762 Y31.712 Z-2.831
G3 X9. Y31.995 Z-3. I-0.062 J0.294
G1 Y32.661
X8.993 Y32.811
X8.96 Y32.957
X8.904 Y33.096
X8.827 Y33.225
X8.735 Y33.343
X8.629 Y33.449
X8.511 Y33.543
X8.385 Y33.624
X8.25 Y33.689
X8.109 Y33.741
X7.964 Y33.778
X7.815 Y33.797
X7.665 Y33.802
X7.645 Y33.801
X7.443 Y33.754
X7.263 Y33.649
X7.121 Y33.496
X7.031 Y33.309
X7. Y33.103
Y32.403
G3 X7.31 Y32.114 Z-2.8 I0.3 J0.01
G1 X7.354 Y32.119
X7.58 Y32.16
X8.422 Y32.315
X8.691 Y32.365
X8.754 Y32.376 Z-2.828
G3 X9. Y32.661 Z-3. I-0.054 J0.295
G1 Y33.37
X8.993 Y33.52
X8.958 Y33.666
X8.9 Y33.804
X8.822 Y33.932
X8.728 Y34.049
X8.622 Y34.155
X8.504 Y34.248
X8.377 Y34.328
X8.242 Y34.392
X8.101 Y34.443
X7.955 Y34.479
X7.806 Y34.497
X7.656 Y34.501
X7.639 Y34.5
X7.438 Y34.452
X7.26 Y34.347
X7.12 Y34.194
X7.031 Y34.007
X7. Y33.803
Y33.103
G3 X7.31 Y32.813 Z-2.8 I0.3 J0.01
G1 X7.356 Y32.819
X7.579 Y32.861
X8.422 Y33.022
X8.691 Y33.073
X8.756 Y33.086 Z-2.828
G3 X9. Y33.37 Z-3. I-0.056 J0.295
G1 Y34.079
X8.993 Y34.228
X8.956 Y34.374
X8.896 Y34.511
X8.817 Y34.639
X8.723 Y34.756
X8.615 Y34.86
X8.497 Y34.952
X8.37 Y35.031
X8.234 Y35.095
X8.093 Y35.146
X7.947 Y35.18
X7.798 Y35.198
X7.648 Y35.201
X7.635 Y35.2
X7.435 Y35.151
X7.258 Y35.045
X7.119 Y34.893
X7.03 Y34.707
X7. Y34.503
Y33.803
G3 X7.31 Y33.513 Z-2.8 I0.3 J0.01
G1 X7.358 Y33.519
X7.579 Y33.562
X8.422 Y33.729
X8.691 Y33.781
X8.758 Y33.795 Z-2.829
G3 X9. Y34.079 Z-3. I-0.058 J0.294
G1 Y34.787
X8.993 Y34.937
X8.955 Y35.082
X8.893 Y35.219
X8.813 Y35.346
X8.718 Y35.462
X8.61 Y35.566
X8.491 Y35.657
X8.363 Y35.736
X8.227 Y35.799
X8.085 Y35.848
X7.939 Y35.882
X7.79 Y35.899
X7.64 Y35.901
X7.631 Y35.9
X7.432 Y35.85
X7.256 Y35.745
X7.118 Y35.592
X7.03 Y35.407
X7. Y35.204
Y34.503
G3 X7.31 Y34.213 Z-2.8 I0.3 J0.01
G1 X7.36 Y34.219
X7.579 Y34.264
X8.423 Y34.435
X8.691 Y34.49
X8.76 Y34.504 Z-2.83
G3 X9. Y34.787 Z-3. I-0.06 J0.294
G1 Y35.496
X8.993 Y35.646
X8.953 Y35.791
X8.891 Y35.927
X8.81 Y36.053
X8.714 Y36.169
X8.605 Y36.272
X8.485 Y36.363
X8.357 Y36.44
X8.221 Y36.503
X8.079 Y36.551
X7.932 Y36.584
X7.783 Y36.6
X7.633 Y36.602
X7.627 Y36.601
X7.429 Y36.55
X7.254 Y36.445
X7.117 Y36.293
X7.03 Y36.107
X7. Y35.905
Y35.204
G3 X7.31 Y34.914 Z-2.8 I0.3 J0.01
G1 X7.361 Y34.92
X7.579 Y34.966
X8.423 Y35.142
X8.691 Y35.198
X8.762 Y35.213 Z-2.831
G3 X9. Y35.496 Z-3. I-0.061 J0.294
G1 Y36.205
X8.993 Y36.355
X8.952 Y36.499
X8.888 Y36.635
X8.806 Y36.761
X8.709 Y36.875
X8.6 Y36.978
X8.48 Y37.068
X8.351 Y37.145
X8.215 Y37.207
X8.073 Y37.255
X7.926 Y37.287
X7.777 Y37.302
X7.624 Y37.303
X7.427 Y37.251
X7.252 Y37.145
X7.116 Y36.993
X7.03 Y36.809
X7. Y36.607
Y35.905
G3 X7.31 Y35.616 Z-2.8 I0.3 J0.01
G1 X7.363 Y35.622
X7.578 Y35.668
X8.423 Y35.849
X8.691 Y35.907
X8.763 Y35.922 Z-2.831
G3 X9. Y36.205 Z-3. I-0.063 J0.293
G1 Y36.885
X8.993 Y37.035
X8.956 Y37.18
X8.895 Y37.318
X8.816 Y37.445
X8.721 Y37.561
X8.614 Y37.666
X8.495 Y37.758
X8.368 Y37.837
X8.232 Y37.9
X8.09 Y37.95
X7.944 Y37.985
X7.795 Y38.002
X7.645 Y38.005
X7.635 Y38.004
X7.435 Y37.955
X7.258 Y37.85
X7.119 Y37.697
X7.03 Y37.511
X7. Y37.307
Y36.607
G3 X7.31 Y36.318 Z-2.8 I0.3 J0.01
G1 X7.358 Y36.323
X7.579 Y36.367
X8.422 Y36.534
X8.691 Y36.588
X8.759 Y36.601 Z-2.829
G3 X9. Y36.885 Z-3. I-0.058 J0.294
G1 Y37.559
X8.993 Y37.709
X8.961 Y37.855
X8.905 Y37.994
X8.829 Y38.124
X8.737 Y38.242
X8.631 Y38.349
X8.514 Y38.443
X8.388 Y38.524
X8.254 Y38.59
X8.113 Y38.643
X7.968 Y38.68
X7.819 Y38.7
X7.669 Y38.705
X7.648 Y38.704
X7.444 Y38.657
X7.263 Y38.553
X7.122 Y38.4
X7.031 Y38.212
X7. Y38.006
Y37.307
G3 X7.31 Y37.018 Z-2.8 I0.3 J0.01
G1 X7.353 Y37.022
X7.58 Y37.063
X8.421 Y37.214
X8.691 Y37.263
X8.753 Y37.274 Z-2.827
G3 X9. Y37.559 Z-3. I-0.053 J0.295
G1 Y38.268
X8.993 Y38.417
X8.959 Y38.564
X8.901 Y38.702
X8.824 Y38.831
X8.731 Y38.948
X8.625 Y39.054
X8.507 Y39.148
X8.381 Y39.228
X8.246 Y39.293
X8.105 Y39.345
X7.959 Y39.38
X7.81 Y39.4
X7.66 Y39.404
X7.642 Y39.403
X7.44 Y39.355
X7.261 Y39.25
X7.12 Y39.097
X7.031 Y38.91
X7. Y38.705
Y38.006
G3 X7.31 Y37.716 Z-2.8 I0.3 J0.01
G1 X7.355 Y37.721
X7.58 Y37.763
X8.422 Y37.921
X8.691 Y37.971
X8.755 Y37.983 Z-2.828
G3 X9. Y38.268 Z-3. I-0.055 J0.295
G1 Y38.976
X8.993 Y39.126
X8.957 Y39.272
X8.898 Y39.41
X8.82 Y39.538
X8.726 Y39.655
X8.619 Y39.76
X8.501 Y39.852
X8.373 Y39.932
X8.238 Y39.996
X8.097 Y40.047
X7.951 Y40.082
X7.802 Y40.1
X7.652 Y40.104
X7.637 Y40.102
X7.436 Y40.054
X7.259 Y39.948
X7.119 Y39.796
X7.03 Y39.609
X7. Y39.405
Y38.705
G3 X7.31 Y38.416 Z-2.8 I0.3 J0.01
G1 X7.357 Y38.421
X7.579 Y38.464
X8.422 Y38.627
X8.691 Y38.679
X8.757 Y38.692 Z-2.829
G3 X9. Y38.976 Z-3. I-0.057 J0.295
G1 Y39.685
X8.993 Y39.835
X8.955 Y39.98
X8.895 Y40.118
X8.816 Y40.245
X8.721 Y40.361
X8.613 Y40.465
X8.494 Y40.557
X8.367 Y40.636
X8.231 Y40.699
X8.089 Y40.749
X7.943 Y40.783
X7.794 Y40.801
X7.644 Y40.803
X7.633 Y40.802
X7.433 Y40.753
X7.257 Y40.647
X7.118 Y40.495
X7.03 Y40.309
X7. Y40.106
Y39.405
G3 X7.31 Y39.116 Z-2.8 I0.3 J0.01
G1 X7.359 Y39.121
X7.579 Y39.165
X8.423 Y39.334
X8.691 Y39.388
X8.759 Y39.401 Z-2.829
G3 X9. Y39.685 Z-3. I-0.059 J0.294
G1 Y40.394
X8.993 Y40.544
X8.954 Y40.689
X8.892 Y40.825
X8.812 Y40.952
X8.716 Y41.067
X8.607 Y41.171
X8.488 Y41.262
X8.36 Y41.34
X8.224 Y41.403
X8.082 Y41.452
X7.936 Y41.485
X7.787 Y41.502
X7.637 Y41.504
X7.629 Y41.503
X7.431 Y41.453
X7.255 Y41.347
X7.117 Y41.195
X7.03 Y41.009
X7. Y40.807
Y40.106
G3 X7.31 Y39.816 Z-2.8 I0.3 J0.01
G1 X7.36 Y39.822
X7.579 Y39.867
X8.423 Y40.041
X8.691 Y40.096
X8.761 Y40.111 Z-2.83
G3 X9. Y40.394 Z-3. I-0.06 J0.294
G1 Y41.103
X8.993 Y41.252
X8.952 Y41.397
X8.889 Y41.533
X8.808 Y41.659
X8.712 Y41.774
X8.602 Y41.877
X8.483 Y41.968
X8.354 Y42.045
X8.218 Y42.107
X8.076 Y42.155
X7.929 Y42.188
X7.78 Y42.204
X7.63 Y42.205
X7.626 Y42.204
X7.428 Y42.153
X7.253 Y42.047
X7.117 Y41.895
X7.03 Y41.71
X7. Y41.508
Y40.807
G3 X7.31 Y40.517 Z-2.8 I0.3 J0.01
G1 X7.362 Y40.524
X7.579 Y40.569
X8.423 Y40.748
X8.691 Y40.805
X8.762 Y40.82 Z-2.831
G3 X9. Y41.103 Z-3. I-0.062 J0.294
G1 Y41.776
X8.993 Y41.926
X8.958 Y42.072
X8.899 Y42.21
X8.821 Y42.338
X8.727 Y42.455
X8.62 Y42.561
X8.502 Y42.653
X8.375 Y42.733
X8.24 Y42.798
X8.099 Y42.849
X7.953 Y42.884
X7.804 Y42.903
X7.654 Y42.906
X7.64 Y42.905
X7.438 Y42.857
X7.26 Y42.752
X7.12 Y42.599
X7.031 Y42.413
X7. Y42.208
Y41.508
G3 X7.31 Y41.219 Z-2.8 I0.3 J0.01
G1 X7.356 Y41.224
X7.579 Y41.267
X8.422 Y41.428
X8.691 Y41.48
X8.757 Y41.492 Z-2.828
G3 X9. Y41.776 Z-3. I-0.056 J0.295
G1 Y42.485
X8.993 Y42.635
X8.956 Y42.78
X8.896 Y42.918
X8.817 Y43.045
X8.722 Y43.162
X8.614 Y43.266
X8.496 Y43.358
X8.369 Y43.437
X8.233 Y43.501
X8.091 Y43.551
X7.945 Y43.585
X7.796 Y43.603
X7.646 Y43.606
X7.634 Y43.605
X7.434 Y43.556
X7.257 Y43.45
X7.119 Y43.298
X7.03 Y43.112
X7. Y42.908
Y42.208
G3 X7.31 Y41.918 Z-2.8 I0.3 J0.01
G1 X7.358 Y41.924
X7.579 Y41.968
X8.422 Y42.135
X8.691 Y42.188
X8.758 Y42.201 Z-2.829
G3 X9. Y42.485 Z-3. I-0.058 J0.294
G1 Y43.194
X8.993 Y43.344
X8.954 Y43.489
X8.893 Y43.626
X8.813 Y43.753
X8.717 Y43.868
X8.609 Y43.972
X8.49 Y44.063
X8.362 Y44.142
X8.226 Y44.205
X8.084 Y44.254
X7.938 Y44.287
X7.789 Y44.304
X7.639 Y44.306
X7.63
X7.431 Y44.255
X7.255 Y44.15
X7.118 Y43.998
X7.03 Y43.812
X7. Y43.609
Y42.908
G3 X7.31 Y42.619 Z-2.8 I0.3 J0.01
G1 X7.36 Y42.625
X7.579 Y42.669
X8.423 Y42.842
X8.691 Y42.896
X8.76 Y42.91 Z-2.83
G3 X9. Y43.194 Z-3. I-0.06 J0.294
G1 Y43.86
X8.993 Y44.01
X8.961 Y44.156
X8.905 Y44.295
X8.829 Y44.425
X8.737 Y44.543
X8.632 Y44.65
X8.515 Y44.744
X8.389 Y44.826
X8.254 Y44.892
X8.114 Y44.944
X7.969 Y44.982
X7.82 Y45.002
X7.67 Y45.007
X7.648 Y45.006
X7.445 Y44.959
X7.264 Y44.855
X7.122 Y44.702
X7.031 Y44.514
X7. Y44.308
Y43.609
G3 X7.31 Y43.32 Z-2.8 I0.3 J0.01
G1 X7.353 Y43.324
X7.58 Y43.365
X8.421 Y43.516
X8.691 Y43.564
X8.753 Y43.575 Z-2.827
G3 X9. Y43.86 Z-3. I-0.053 J0.295
G1 Y44.569
X8.993 Y44.718
X8.959 Y44.865
X8.901 Y45.003
X8.824 Y45.132
X8.731 Y45.25
X8.625 Y45.355
X8.508 Y45.449
X8.381 Y45.529
X8.246 Y45.595
X8.105 Y45.646
X7.96 Y45.682
X7.811 Y45.702
X7.661 Y45.706
X7.642 Y45.704
X7.44 Y45.657
X7.261 Y45.552
X7.12 Y45.399
X7.031 Y45.212
X7. Y45.007
Y44.308
G3 X7.31 Y44.018 Z-2.8 I0.3 J0.01
G1 X7.355 Y44.023
X7.58 Y44.065
X8.422 Y44.222
X8.691 Y44.272
X8.755 Y44.284 Z-2.828
G3 X9. Y44.569 Z-3. I-0.055 J0.295
G1 Y45.277
X8.993 Y45.427
X8.957 Y45.573
X8.898 Y45.711
X8.82 Y45.839
X8.726 Y45.956
X8.619 Y46.061
X8.501 Y46.154
X8.374 Y46.233
X8.239 Y46.298
X8.097 Y46.348
X7.951 Y46.383
X7.803 Y46.402
X7.653 Y46.405
X7.638 Y46.404
X7.437 Y46.355
X7.259 Y46.25
X7.119 Y46.098
X7.031 Y45.911
X7. Y45.707
Y45.007
G3 X7.31 Y44.718 Z-2.8 I0.3 J0.01
G1 X7.357 Y44.723
X7.579 Y44.766
X8.422 Y44.929
X8.691 Y44.981
X8.757 Y44.993 Z-2.829
G3 X9. Y45.277 Z-3. I-0.057 J0.295
G1 Y45.986
X8.993 Y46.136
X8.955 Y46.281
X8.895 Y46.419
X8.816 Y46.546
X8.721 Y46.662
X8.613 Y46.767
X8.495 Y46.859
X8.367 Y46.937
X8.231 Y47.001
X8.09 Y47.051
X7.944 Y47.085
X7.795 Y47.103
X7.645 Y47.105
X7.633 Y47.104
X7.434 Y47.055
X7.257 Y46.949
X7.118 Y46.797
X7.03 Y46.611
X7. Y46.407
Y45.707
G3 X7.31 Y45.417 Z-2.8 I0.3 J0.01
G1 X7.359 Y45.423
X7.579 Y45.467
X8.423 Y45.635
X8.691 Y45.689
X8.759 Y45.702 Z-2.829
G3 X9. Y45.986 Z-3. I-0.059 J0.294
G1 Y46.695
X8.993 Y46.845
X8.954 Y46.99
X8.892 Y47.127
X8.812 Y47.253
X8.716 Y47.369
X8.608 Y47.472
X8.489 Y47.564
X8.361 Y47.642
X8.225 Y47.705
X8.083 Y47.754
X7.937 Y47.787
X7.787 Y47.804
X7.637 Y47.806
X7.63 Y47.805
X7.431 Y47.754
X7.255 Y47.649
X7.118 Y47.497
X7.03 Y47.311
X7. Y47.108
Y46.407
G3 X7.31 Y46.118 Z-2.8 I0.3 J0.01
G1 X7.36 Y46.124
X7.579 Y46.169
X8.423 Y46.342
X8.691 Y46.397
X8.761 Y46.412 Z-2.83
G3 X9. Y46.695 Z-3. I-0.06 J0.294
G1 Y47.404
X8.993 Y47.554
X8.952 Y47.698
X8.89 Y47.834
X8.808 Y47.96
X8.712 Y48.075
X8.603 Y48.178
X8.483 Y48.269
X8.355 Y48.346
X8.218 Y48.408
X8.076 Y48.457
X7.93 Y48.489
X7.781 Y48.505
X7.631 Y48.507
X7.626 Y48.506
X7.428 Y48.455
X7.253 Y48.349
X7.117 Y48.197
X7.03 Y48.012
X7. Y47.81
Y47.108
G3 X7.31 Y46.819 Z-2.8 I0.3 J0.01
G1 X7.362 Y46.825
X7.579 Y46.871
X8.423 Y47.049
X8.691 Y47.106
X8.762 Y47.121 Z-2.831
G3 X9. Y47.404 Z-3. I-0.062 J0.294
G1 Y48.084
X8.993 Y48.234
X8.956 Y48.379
X8.897 Y48.517
X8.818 Y48.645
X8.724 Y48.761
X8.616 Y48.866
X8.498 Y48.958
X8.371 Y49.038
X8.235 Y49.102
X8.094 Y49.152
X7.948 Y49.187
X7.799 Y49.205
X7.649 Y49.208
X7.637 Y49.207
X7.436 Y49.158
X7.258 Y49.053
X7.119 Y48.901
X7.03 Y48.714
X7. Y48.51
Y47.81
G3 X7.31 Y47.521 Z-2.8 I0.3 J0.01
G1 X7.357 Y47.526
X7.579 Y47.569
X8.422 Y47.734
X8.691 Y47.787
X8.758 Y47.8 Z-2.829
G3 X9. Y48.084 Z-3. I-0.058 J0.294
G1 Y48.758
X8.993 Y48.907
X8.962 Y49.054
X8.906 Y49.193
X8.831 Y49.323
X8.739 Y49.442
X8.634 Y49.549
X8.517 Y49.643
X8.391 Y49.725
X8.257 Y49.792
X8.117 Y49.844
X7.971 Y49.882
X7.823 Y49.902
X7.673 Y49.908
X7.649 Y49.906
X7.446 Y49.86
X7.264 Y49.756
X7.122 Y49.603
X7.031 Y49.415
X7. Y49.208
Y48.51
G3 X7.31 Y48.22 Z-2.8 I0.3 J0.01
G1 X7.352 Y48.225
X7.58 Y48.265
X8.421 Y48.414
X8.691 Y48.462
X8.752 Y48.473 Z-2.827
G3 X9. Y48.758 Z-3. I-0.052 J0.295
G1 Y49.466
X8.993 Y49.616
X8.96 Y49.763
X8.903 Y49.901
X8.826 Y50.03
X8.733 Y50.148
X8.627 Y50.254
X8.51 Y50.348
X8.384 Y50.429
X8.249 Y50.494
X8.108 Y50.546
X7.962 Y50.582
X7.814 Y50.602
X7.664 Y50.607
X7.643 Y50.605
X7.441 Y50.558
X7.262 Y50.453
X7.121 Y50.3
X7.031 Y50.113
X7. Y49.907
Y49.208
G3 X7.31 Y48.919 Z-2.8 I0.3 J0.01
G1 X7.354 Y48.924
X7.58 Y48.965
X8.422 Y49.12
X8.691 Y49.17
X8.755 Y49.182 Z-2.828
G3 X9. Y49.466 Z-3. I-0.054 J0.295
G1 Y50.175
X8.993 Y50.325
X8.958 Y50.471
X8.899 Y50.609
X8.821 Y50.737
X8.728 Y50.854
X8.621 Y50.96
X8.503 Y51.053
X8.376 Y51.132
X8.241 Y51.197
X8.1 Y51.248
X7.954 Y51.283
X7.805 Y51.302
X7.655 Y51.306
X7.639 Y51.304
X7.438 Y51.256
X7.259 Y51.151
X7.12 Y50.999
X7.031 Y50.812
X7. Y50.607
Y49.907
G3 X7.31 Y49.618 Z-2.8 I0.3 J0.01
G1 X7.356 Y49.623
X7.579 Y49.666
X8.422 Y49.827
X8.691 Y49.878
X8.757 Y49.891 Z-2.828
G3 X9. Y50.175 Z-3. I-0.056 J0.295
G1 Y50.884
X8.993 Y51.034
X8.956 Y51.179
X8.896 Y51.317
X8.817 Y51.444
X8.722 Y51.561
X8.615 Y51.665
X8.497 Y51.758
X8.369 Y51.836
X8.233 Y51.9
X8.092 Y51.95
X7.946 Y51.985
X7.797 Y52.003
X7.647 Y52.006
X7.635 Y52.004
X7.435 Y51.955
X7.257 Y51.85
X7.119 Y51.697
X7.03 Y51.511
X7. Y51.307
Y50.607
G3 X7.31 Y50.318 Z-2.8 I0.3 J0.01
G1 X7.358 Y50.323
X7.579 Y50.367
X8.422 Y50.534
X8.691 Y50.587
X8.758 Y50.6 Z-2.829
G3 X9. Y50.884 Z-3. I-0.058 J0.294
G1 Y51.593
X8.993 Y51.743
X8.954 Y51.888
X8.893 Y52.025
X8.813 Y52.151
X8.718 Y52.267
X8.609 Y52.371
X8.491 Y52.462
X8.363 Y52.541
X8.227 Y52.604
X8.085 Y52.653
X7.939 Y52.687
X7.79 Y52.704
X7.64 Y52.706
X7.631 Y52.705
X7.432 Y52.655
X7.256 Y52.549
X7.118 Y52.397
X7.03 Y52.211
X7. Y52.008
Y51.307
G3 X7.31 Y51.018 Z-2.8 I0.3 J0.01
G1 X7.36 Y51.024
X7.579 Y51.069
X8.423 Y51.241
X8.691 Y51.295
X8.76 Y51.309 Z-2.83
G3 X9. Y51.593 Z-3. I-0.06 J0.294
G1 Y52.302
X8.993 Y52.451
X8.953 Y52.596
X8.89 Y52.732
X8.809 Y52.859
X8.713 Y52.974
X8.604 Y53.077
X8.485 Y53.168
X8.357 Y53.245
X8.22 Y53.308
X8.078 Y53.356
X7.932 Y53.389
X7.783 Y53.405
X7.633 Y53.407
X7.627 Y53.406
X7.429 Y53.355
X7.254 Y53.249
X7.117 Y53.097
X7.03 Y52.912
X7. Y52.71
Y52.008
G3 X7.31 Y51.719 Z-2.8 I0.3 J0.01
G1 X7.361 Y51.725
X7.579 Y51.771
X8.423 Y51.947
X8.691 Y52.004
X8.762 Y52.018 Z-2.831
G3 X9. Y52.302 Z-3. I-0.061 J0.294
G1 Y53.01
X8.993 Y53.16
X8.951 Y53.304
X8.888 Y53.44
X8.806 Y53.566
X8.709 Y53.68
X8.6 Y53.783
X8.48 Y53.873
X8.351 Y53.95
X8.214 Y54.012
X8.072 Y54.06
X7.926 Y54.092
X7.776 Y54.107
X7.624 Y54.108
X7.426 Y54.056
X7.252 Y53.95
X7.116 Y53.798
X7.03 Y53.613
X7. Y53.412
Y52.71
G3 X7.31 Y52.42 Z-2.8 I0.3 J0.01
G1 X7.363 Y52.427
X7.578 Y52.473
X8.424 Y52.655
X8.691 Y52.712
X8.763 Y52.727 Z-2.831
G3 X9. Y53.01 Z-3. I-0.063 J0.293
G1 Y53.684
X8.993 Y53.834
X8.957 Y53.979
X8.897 Y54.117
X8.819 Y54.245
X8.725 Y54.362
X8.617 Y54.467
X8.499 Y54.559
X8.372 Y54.639
X8.237 Y54.703
X8.095 Y54.753
X7.949 Y54.788
X7.801 Y54.807
X7.651 Y54.81
X7.638 Y54.809
X7.437 Y54.76
X7.259 Y54.655
X7.119 Y54.503
X7.031 Y54.316
X7. Y54.111
Y53.412
G3 X7.31 Y53.122 Z-2.8 I0.3 J0.01
G1 X7.357 Y53.128
X7.579 Y53.171
X8.422 Y53.335
X8.691 Y53.387
X8.757 Y53.4 Z-2.829
G3 X9. Y53.684 Z-3. I-0.057 J0.294
G1 Y54.393
X8.993 Y54.543
X8.955 Y54.688
X8.894 Y54.825
X8.815 Y54.952
X8.72 Y55.068
X8.612 Y55.172
X8.493 Y55.264
X8.366 Y55.343
X8.23 Y55.406
X8.088 Y55.456
X7.942 Y55.49
X7.793 Y55.507
X7.643 Y55.51
X7.632 Y55.509
X7.433 Y55.459
X7.256 Y55.354
X7.118 Y55.201
X7.03 Y55.015
X7. Y54.812
Y54.111
G3 X7.31 Y53.822 Z-2.8 I0.3 J0.01
G1 X7.359 Y53.828
X7.579 Y53.872
X8.423 Y54.042
X8.691 Y54.095
X8.759 Y54.109 Z-2.83
G3 X9. Y54.393 Z-3. I-0.059 J0.294
G1 Y55.102
X8.993 Y55.251
X8.954 Y55.396
X8.892 Y55.533
X8.811 Y55.659
X8.715 Y55.775
X8.607 Y55.878
X8.488 Y55.969
X8.359 Y56.047
X8.223 Y56.11
X8.081 Y56.159
X7.935 Y56.192
X7.786 Y56.209
X7.636 Y56.21
X7.629
X7.43 Y56.159
X7.255 Y56.053
X7.117 Y55.901
X7.03 Y55.716
X7. Y55.513
Y54.812
G3 X7.31 Y54.523 Z-2.8 I0.3 J0.01
G1 X7.361 Y54.529
X7.579 Y54.574
X8.423 Y54.748
X8.691 Y54.804
X8.761 Y54.818 Z-2.83
G3 X9. Y55.102 Z-3. I-0.061 J0.294
G1 Y55.767
X8.993 Y55.917
X8.96 Y56.064
X8.904 Y56.203
X8.828 Y56.332
X8.735 Y56.45
X8.629 Y56.556
X8.512 Y56.65
X8.386 Y56.731
X8.252 Y56.798
X8.111 Y56.85
X7.965 Y56.886
X7.817 Y56.906
X7.667 Y56.911
X7.647 Y56.91
X7.443 Y56.863
X7.263 Y56.759
X7.121 Y56.606
X7.031 Y56.418
X7. Y56.212
Y55.513
G3 X7.31 Y55.224 Z-2.8 I0.3 J0.01
G1 X7.353 Y55.229
X7.58 Y55.27
X8.421 Y55.422
X8.691 Y55.471
X8.754 Y55.483 Z-2.827
G3 X9. Y55.767 Z-3. I-0.054 J0.295
G1 Y56.476
X8.993 Y56.626
X8.958 Y56.772
X8.9 Y56.91
X8.823 Y57.039
X8.73 Y57.156
X8.623 Y57.262
X8.506 Y57.355
X8.379 Y57.435
X8.244 Y57.5
X8.103 Y57.552
X7.957 Y57.587
X7.808 Y57.606
X7.658 Y57.61
X7.64 Y57.609
X7.439 Y57.561
X7.26 Y57.456
X7.12 Y57.303
X7.031 Y57.116
X7. Y56.911
Y56.212
G3 X7.31 Y55.923 Z-2.8 I0.3 J0.01
G1 X7.355 Y55.928
X7.579 Y55.97
X8.422 Y56.129
X8.691 Y56.18
X8.756 Y56.192 Z-2.828
G3 X9. Y56.476 Z-3. I-0.056 J0.295
G1 Y57.185
X8.993 Y57.335
X8.957 Y57.481
X8.897 Y57.618
X8.819 Y57.746
X8.724 Y57.863
X8.617 Y57.967
X8.499 Y58.06
X8.372 Y58.139
X8.236 Y58.203
X8.095 Y58.254
X7.949 Y58.288
X7.8 Y58.307
X7.65 Y58.31
X7.636 Y58.309
X7.436 Y58.26
X7.258 Y58.154
X7.119 Y58.002
X7.03 Y57.816
X7. Y57.612
Y56.911
G3 X7.31 Y56.622 Z-2.8 I0.3 J0.01
G1 X7.357 Y56.627
X7.579 Y56.671
X8.422 Y56.836
X8.691 Y56.888
X8.758 Y56.901 Z-2.829
G3 X9. Y57.185 Z-3. I-0.058 J0.294
G1 Y57.894
X8.993 Y58.044
X8.955 Y58.189
X8.894 Y58.326
X8.815 Y58.453
X8.719 Y58.569
X8.611 Y58.673
X8.493 Y58.765
X8.365 Y58.843
X8.229 Y58.907
X8.087 Y58.956
X7.941 Y58.99
X7.792 Y59.008
X7.642 Y59.01
X7.632 Y59.009
X7.433 Y58.959
X7.256 Y58.854
X7.118 Y58.701
X7.03 Y58.516
X7. Y58.312
Y57.612
G3 X7.31 Y57.322 Z-2.8 I0.3 J0.01
G1 X7.359 Y57.328
X7.579 Y57.372
X8.423 Y57.542
X8.691 Y57.596
X8.759 Y57.61 Z-2.83
G3 X9. Y57.894 Z-3. I-0.059 J0.294
G1 Y58.603
X8.993 Y58.752
X8.953 Y58.897
X8.891 Y59.034
X8.811 Y59.16
X8.715 Y59.276
X8.606 Y59.379
X8.487 Y59.47
X8.359 Y59.548
X8.222 Y59.611
X8.081 Y59.659
X7.934 Y59.692
X7.785 Y59.709
X7.635 Y59.711
X7.628 Y59.71
X7.43 Y59.659
X7.254 Y59.553
X7.117 Y59.401
X7.03 Y59.216
X7. Y59.013
Y58.312
G3 X7.31 Y58.023 Z-2.8 I0.3 J0.01
G1 X7.361 Y58.029
X7.579 Y58.074
X8.423 Y58.249
X8.691 Y58.305
X8.761 Y58.319 Z-2.83
G3 X9. Y58.603 Z-3. I-0.061 J0.294
G1 Y59.311
X8.993 Y59.461
X8.952 Y59.606
X8.889 Y59.742
X8.807 Y59.868
X8.71 Y59.982
X8.601 Y60.085
X8.482 Y60.175
X8.353 Y60.253
X8.216 Y60.315
X8.074 Y60.363
X7.928 Y60.395
X7.779 Y60.411
X7.625
X7.427 Y60.36
X7.253 Y60.254
X7.117 Y60.102
X7.03 Y59.917
X7. Y59.715
Y59.013
G3 X7.31 Y58.724 Z-2.8 I0.3 J0.01
G1 X7.362 Y58.731
X7.578 Y58.777
X8.423 Y58.956
X8.691 Y59.013
X8.763 Y59.028 Z-2.831
G3 X9. Y59.311 Z-3. I-0.062 J0.293
G1 Y59.808
X8.999 Y59.843
X8.995 Y59.878
X8.939 Y60.161
X8.938 Y60.162
X8.93 Y60.205
X8.893 Y60.35
X8.847 Y60.441
X8.833 Y60.466
X8.817 Y60.491
G3 X8.398 Y60.559 Z-2.8 I-0.243 J-0.175
X8.293 Y60.209 I0.175 J-0.244
G1 X8.353 Y60.05
G3 X8.682 Y59.861 I0.28 J0.106
X8.93 Y60.205 Z-3. I-0.048 J0.296
G1 X8.91 Y60.304
X8.902 Y60.339
X8.889 Y60.375
X8.847 Y60.445
X8.797 Y60.521
X8.773 Y60.557
X8.753 Y60.587
X8.739 Y60.606
X8.688 Y60.664
X8.632 Y60.717
X8.57 Y60.764
G3 X8.157 Y60.667 Z-2.8 I-0.158 J-0.255
X8.208 Y60.29 I0.255 J-0.158
G1 X8.293 Y60.21
X8.337 Y60.176
X8.387 Y60.15
X8.441 Y60.135
X8.497 Y60.129
X8.553 Y60.135
X8.606 Y60.15
X8.655 Y60.174
G3 X8.753 Y60.587 Z-3. I-0.158 J0.255
G1 X8.712 Y60.646
X8.686 Y60.675
X8.655 Y60.705
X8.622 Y60.729
X8.409 Y60.871
X8.372 Y60.888
X8.337 Y60.902
X8.302 Y60.911
X8.089 Y60.953
X8.018 Y60.963
X7.983 Y60.964
X7.948 Y60.96
X7.806 Y60.932
X7.664 Y60.903
X7.628 Y60.89
X7.591 Y60.871
X7.523 Y60.826
X7.378 Y60.729
X7.337 Y60.698
X7.297 Y60.658
X7.24 Y60.576
X7.153 Y60.445
X7.12 Y60.392
X7.107 Y60.366
X7.098 Y60.339
X7.09 Y60.304
X7.005 Y59.878
X7.001 Y59.843
X7. Y59.808
Y59.715
G3 X7.299 Y59.426 I0.3 J0.01
G1 X7.3
X7.324 Y59.427
X7.374 Y59.444 Z-2.995
X7.423 Y59.461 Z-2.981
X7.468 Y59.477 Z-2.958
X7.501 Y59.514 Z-2.921
X7.528 Y59.544 Z-2.874
X7.548 Y59.566 Z-2.82
X7.56 Y59.58 Z-2.762
X7.565 Y59.585 Z-2.7
Z5.
X8. Y30.393
Z-1.
Z-4.5 F30.
X8.038 F100.
X8.03 Y30.43
X7.997 Y30.447
X7.961 Y30.436
X7.939 Y30.405
X7.94 Y30.368
X7.957 Y30.335
X7.986 Y30.31
X8.021 Y30.298
X8.059 Y30.301
X8.092 Y30.317
X8.12 Y30.343
X8.139 Y30.376
X8.155 Y30.449
X8.135 Y30.521
X8.086 Y30.577
X8.018 Y30.611
X7.944 Y30.618
X7.871 Y30.599
X7.808 Y30.559
X7.76 Y30.501
X7.73 Y30.432
X7.708 Y30.284
X7.76 Y30.143
X7.867 Y30.039
X8.007 Y29.986
X8.157 Y29.988
X8.298 Y30.041
X8.414 Y30.136
X8.497 Y30.261
X8.538 Y30.405
X8.539 Y30.555
X8.499 Y30.699
X8.422 Y30.828
X8.315 Y30.934
X8.187 Y31.011
X8.043 Y31.055
X7.893 Y31.064
X7.745 Y31.04
X7.606 Y30.984
X7.481 Y30.901
X7.374 Y30.796
X7.291 Y30.672
X7.231 Y30.534
X7.199 Y30.387
X7.196 Y30.237
X7.218 Y30.089
X7.268 Y29.947
X7.34 Y29.816
X7.434 Y29.7
X7.546 Y29.6
X7.674 Y29.52
X7.812 Y29.462
X7.957 Y29.426
X8.107 Y29.413
X8.257 Y29.423
X8.403 Y29.455
X8.543 Y29.508
X8.674 Y29.581
X8.712 Y29.61
X8.834 Y29.727
X8.924 Y29.871
X8.977 Y30.032
X8.992 Y30.109
X9. Y30.18
Y30.613
X8.993 Y30.762
X8.965 Y30.91
X8.915 Y31.051
X8.844 Y31.184
X8.755 Y31.304
X8.65 Y31.411
X8.532 Y31.503
X8.402 Y31.579
X8.264 Y31.636
X8.119 Y31.677
X7.971 Y31.699
X7.821 Y31.704
X7.671 Y31.691
X7.524 Y31.661
X7.483 Y31.648
X7.288 Y31.548
X7.133 Y31.393
X7.034 Y31.198
X7. Y30.982
Y30.18
X7.008 Y30.109
X7.092 Y29.684
X7.098 Y29.661
X7.109 Y29.631
X7.123 Y29.602
X7.161 Y29.542
X7.256 Y29.401
X7.303 Y29.335
X7.342 Y29.297
X7.381 Y29.269
X7.523 Y29.174
X7.613 Y29.117
X7.639 Y29.106
X7.664 Y29.097
X7.806 Y29.068
X7.948 Y29.04
X7.983 Y29.036
X8.018 Y29.037
X8.089 Y29.047
X8.302 Y29.089
X8.337 Y29.098
X8.372 Y29.111
X8.386 Y29.117
X8.514 Y29.198
X8.604 Y29.259
X8.655 Y29.295
X8.707 Y29.348
X8.744 Y29.401
X8.839 Y29.542
X8.883 Y29.613
X8.898 Y29.649
X8.908 Y29.684
X8.977 Y30.032
X8.981 Y30.069
X9. Y30.613
Y31.356
X8.993 Y31.506
X8.952 Y31.651
X8.887 Y31.786
X8.802 Y31.909
X8.701 Y32.02
X8.587 Y32.118
X8.462 Y32.201
X8.329 Y32.27
X8.19 Y32.326
X8.045 Y32.366
X7.897 Y32.391
X7.747 Y32.401
X7.675 Y32.399
X7.464 Y32.358
X7.276 Y32.256
X7.128 Y32.102
X7.033 Y31.91
X7. Y31.699
Y30.982
G3 X7.31 Y30.693 Z-4.3 I0.3 J0.01
G1 X7.377 Y30.703
X7.576 Y30.756
X8.428 Y30.984
X8.692 Y31.054
X8.778 Y31.077 Z-4.338
G3 X9. Y31.356 Z-4.5 I-0.078 J0.29
G1 Y31.995
X8.993 Y32.145
X8.957 Y32.291
X8.896 Y32.428
X8.816 Y32.555
X8.72 Y32.67
X8.611 Y32.773
X8.491 Y32.863
X8.362 Y32.94
X8.226 Y33.002
X8.084 Y33.051
X7.937 Y33.082
X7.788 Y33.099
X7.638 Y33.101
X7.626 Y33.1
X7.428 Y33.049
X7.254 Y32.943
X7.117 Y32.791
X7.03 Y32.606
X7. Y32.403
Y31.699
G3 X7.31 Y31.41 Z-4.3 I0.3 J0.01
G1 X7.362 Y31.416
X7.579 Y31.462
X8.423 Y31.64
X8.691 Y31.697
X8.762 Y31.712 Z-4.331
G3 X9. Y31.995 Z-4.5 I-0.062 J0.294
G1 Y32.661
X8.993 Y32.811
X8.96 Y32.957
X8.904 Y33.096
X8.827 Y33.225
X8.735 Y33.343
X8.629 Y33.449
X8.511 Y33.543
X8.385 Y33.624
X8.25 Y33.689
X8.109 Y33.741
X7.964 Y33.778
X7.815 Y33.797
X7.665 Y33.802
X7.645 Y33.801
X7.443 Y33.754
X7.263 Y33.649
X7.121 Y33.496
X7.031 Y33.309
X7. Y33.103
Y32.403
G3 X7.31 Y32.114 Z-4.3 I0.3 J0.01
G1 X7.354 Y32.119
X7.58 Y32.16
X8.422 Y32.315
X8.691 Y32.365
X8.754 Y32.376 Z-4.328
G3 X9. Y32.661 Z-4.5 I-0.054 J0.295
G1 Y33.37
X8.993 Y33.52
X8.958 Y33.666
X8.9 Y33.804
X8.822 Y33.932
X8.728 Y34.049
X8.622 Y34.155
X8.504 Y34.248
X8.377 Y34.328
X8.242 Y34.392
X8.101 Y34.443
X7.955 Y34.479
X7.806 Y34.497
X7.656 Y34.501
X7.639 Y34.5
X7.438 Y34.452
X7.26 Y34.347
X7.12 Y34.194
X7.031 Y34.007
X7. Y33.803
Y33.103
G3 X7.31 Y32.813 Z-4.3 I0.3 J0.01
G1 X7.356 Y32.819
X7.579 Y32.861
X8.422 Y33.022
X8.691 Y33.073
X8.756 Y33.086 Z-4.328
G3 X9. Y33.37 Z-4.5 I-0.056 J0.295
G1 Y34.079
X8.993 Y34.228
X8.956 Y34.374
X8.896 Y34.511
X8.817 Y34.639
X8.723 Y34.756
X8.615 Y34.86
X8.497 Y34.952
X8.37 Y35.031
X8.234 Y35.095
X8.093 Y35.146
X7.947 Y35.18
X7.798 Y35.198
X7.648 Y35.201
X7.635 Y35.2
X7.435 Y35.151
X7.258 Y35.045
X7.119 Y34.893
X7.03 Y34.707
X7. Y34.503
Y33.803
G3 X7.31 Y33.513 Z-4.3 I0.3 J0.01
G1 X7.358 Y33.519
X7.579 Y33.562
X8.422 Y33.729
X8.691 Y33.781
X8.758 Y33.795 Z-4.329
G3 X9. Y34.079 Z-4.5 I-0.058 J0.294
G1 Y34.787
X8.993 Y34.937
X8.955 Y35.082
X8.893 Y35.219
X8.813 Y35.346
X8.718 Y35.462
X8.61 Y35.566
X8.491 Y35.657
X8.363 Y35.736
X8.227 Y35.799
X8.085 Y35.848
X7.939 Y35.882
X7.79 Y35.899
X7.64 Y35.901
X7.631 Y35.9
X7.432 Y35.85
X7.256 Y35.745
X7.118 Y35.592
X7.03 Y35.407
X7. Y35.204
Y34.503
G3 X7.31 Y34.213 Z-4.3 I0.3 J0.01
G1 X7.36 Y34.219
X7.579 Y34.264
X8.423 Y34.435
X8.691 Y34.49
X8.76 Y34.504 Z-4.33
G3 X9. Y34.787 Z-4.5 I-0.06 J0.294
G1 Y35.496
X8.993 Y35.646
X8.953 Y35.791
X8.891 Y35.927
X8.81 Y36.053
X8.714 Y36.169
X8.605 Y36.272
X8.485 Y36.363
X8.357 Y36.44
X8.221 Y36.503
X8.079 Y36.551
X7.932 Y36.584
X7.783 Y36.6
X7.633 Y36.602
X7.627 Y36.601
X7.429 Y36.55
X7.254 Y36.445
X7.117 Y36.293
X7.03 Y36.107
X7. Y35.905
Y35.204
G3 X7.31 Y34.914 Z-4.3 I0.3 J0.01
G1 X7.361 Y34.92
X7.579 Y34.966
X8.423 Y35.142
X8.691 Y35.198
X8.762 Y35.213 Z-4.331
G3 X9. Y35.496 Z-4.5 I-0.061 J0.294
G1 Y36.205
X8.993 Y36.355
X8.952 Y36.499
X8.888 Y36.635
X8.806 Y36.761
X8.709 Y36.875
X8.6 Y36.978
X8.48 Y37.068
X8.351 Y37.145
X8.215 Y37.207
X8.073 Y37.255
X7.926 Y37.287
X7.777 Y37.302
X7.624 Y37.303
X7.427 Y37.251
X7.252 Y37.145
X7.116 Y36.993
X7.03 Y36.809
X7. Y36.607
Y35.905
G3 X7.31 Y35.616 Z-4.3 I0.3 J0.01
G1 X7.363 Y35.622
X7.578 Y35.668
X8.423 Y35.849
X8.691 Y35.907
X8.763 Y35.922 Z-4.331
G3 X9. Y36.205 Z-4.5 I-0.063 J0.293
G1 Y36.885
X8.993 Y37.035
X8.956 Y37.18
X8.895 Y37.318
X8.816 Y37.445
X8.721 Y37.561
X8.614 Y37.666
X8.495 Y37.758
X8.368 Y37.837
X8.232 Y37.9
X8.09 Y37.95
X7.944 Y37.985
X7.795 Y38.002
X7.645 Y38.005
X7.635 Y38.004
X7.435 Y37.955
X7.258 Y37.85
X7.119 Y37.697
X7.03 Y37.511
X7. Y37.307
Y36.607
G3 X7.31 Y36.318 Z-4.3 I0.3 J0.01
G1 X7.358 Y36.323
X7.579 Y36.367
X8.422 Y36.534
X8.691 Y36.588
X8.759 Y36.601 Z-4.329
G3 X9. Y36.885 Z-4.5 I-0.058 J0.294
G1 Y37.559
X8.993 Y37.709
X8.961 Y37.855
X8.905 Y37.994
X8.829 Y38.124
X8.737 Y38.242
X8.631 Y38.349
X8.514 Y38.443
X8.388 Y38.524
X8.254 Y38.59
X8.113 Y38.643
X7.968 Y38.68
X7.819 Y38.7
X7.669 Y38.705
X7.648 Y38.704
X7.444 Y38.657
X7.263 Y38.553
X7.122 Y38.4
X7.031 Y38.212
X7. Y38.006
Y37.307
G3 X7.31 Y37.018 Z-4.3 I0.3 J0.01
G1 X7.353 Y37.022
X7.58 Y37.063
X8.421 Y37.214
X8.691 Y37.263
X8.753 Y37.274 Z-4.327
G3 X9. Y37.559 Z-4.5 I-0.053 J0.295
G1 Y38.268
X8.993 Y38.417
X8.959 Y38.564
X8.901 Y38.702
X8.824 Y38.831
X8.731 Y38.948
X8.625 Y39.054
X8.507 Y39.148
X8.381 Y39.228
X8.246 Y39.293
X8.105 Y39.345
X7.959 Y39.38
X7.81 Y39.4
X7.66 Y39.404
X7.642 Y39.403
X7.44 Y39.355
X7.261 Y39.25
X7.12 Y39.097
X7.031 Y38.91
X7. Y38.705
Y38.006
G3 X7.31 Y37.716 Z-4.3 I0.3 J0.01
G1 X7.355 Y37.721
X7.58 Y37.763
X8.422 Y37.921
X8.691 Y37.971
X8.755 Y37.983 Z-4.328
G3 X9. Y38.268 Z-4.5 I-0.055 J0.295
G1 Y38.976
X8.993 Y39.126
X8.957 Y39.272
X8.898 Y39.41
X8.82 Y39.538
X8.726 Y39.655
X8.619 Y39.76
X8.501 Y39.852
X8.373 Y39.932
X8.238 Y39.996
X8.097 Y40.047
X7.951 Y40.082
X7.802 Y40.1
X7.652 Y40.104
X7.637 Y40.102
X7.436 Y40.054
X7.259 Y39.948
X7.119 Y39.796
X7.03 Y39.609
X7. Y39.405
Y38.705
G3 X7.31 Y38.416 Z-4.3 I0.3 J0.01
G1 X7.357 Y38.421
X7.579 Y38.464
X8.422 Y38.627
X8.691 Y38.679
X8.757 Y38.692 Z-4.329
G3 X9. Y38.976 Z-4.5 I-0.057 J0.295
G1 Y39.685
X8.993 Y39.835
X8.955 Y39.98
X8.895 Y40.118
X8.816 Y40.245
X8.721 Y40.361
X8.613 Y40.465
X8.494 Y40.557
X8.367 Y40.636
X8.231 Y40.699
X8.089 Y40.749
X7.943 Y40.783
X7.794 Y40.801
X7.644 Y40.803
X7.633 Y40.802
X7.433 Y40.753
X7.257 Y40.647
X7.118 Y40.495
X7.03 Y40.309
X7. Y40.106
Y39.405
G3 X7.31 Y39.116 Z-4.3 I0.3 J0.01
G1 X7.359 Y39.121
X7.579 Y39.165
X8.423 Y39.334
X8.691 Y39.388
X8.759 Y39.401 Z-4.329
G3 X9. Y39.685 Z-4.5 I-0.059 J0.294
G1 Y40.394
X8.993 Y40.544
X8.954 Y40.689
X8.892 Y40.825
X8.812 Y40.952
X8.716 Y41.067
X8.607 Y41.171
X8.488 Y41.262
X8.36 Y41.34
X8.224 Y41.403
X8.082 Y41.452
X7.936 Y41.485
X7.787 Y41.502
X7.637 Y41.504
X7.629 Y41.503
X7.431 Y41.453
X7.255 Y41.347
X7.117 Y41.195
X7.03 Y41.009
X7. Y40.807
Y40.106
G3 X7.31 Y39.816 Z-4.3 I0.3 J0.01
G1 X7.36 Y39.822
X7.579 Y39.867
X8.423 Y40.041
X8.691 Y40.096
X8.761 Y40.111 Z-4.33
G3 X9. Y40.394 Z-4.5 I-0.06 J0.294
G1 Y41.103
X8.993 Y41.252
X8.952 Y41.397
X8.889 Y41.533
X8.808 Y41.659
X8.712 Y41.774
X8.602 Y41.877
X8.483 Y41.968
X8.354 Y42.045
X8.218 Y42.107
X8.076 Y42.155
X7.929 Y42.188
X7.78 Y42.204
X7.63 Y42.205
X7.626 Y42.204
X7.428 Y42.153
X7.253 Y42.047
X7.117 Y41.895
X7.03 Y41.71
X7. Y41.508
Y40.807
G3 X7.31 Y40.517 Z-4.3 I0.3 J0.01
G1 X7.362 Y40.524
X7.579 Y40.569
X8.423 Y40.748
X8.691 Y40.805
X8.762 Y40.82 Z-4.331
G3 X9. Y41.103 Z-4.5 I-0.062 J0.294
G1 Y41.776
X8.993 Y41.926
X8.958 Y42.072
X8.899 Y42.21
X8.821 Y42.338
X8.727 Y42.455
X8.62 Y42.561
X8.502 Y42.653
X8.375 Y42.733
X8.24 Y42.798
X8.099 Y42.849
X7.953 Y42.884
X7.804 Y42.903
X7.654 Y42.906
X7.64 Y42.905
X7.438 Y42.857
X7.26 Y42.752
X7.12 Y42.599
X7.031 Y42.413
X7. Y42.208
Y41.508
G3 X7.31 Y41.219 Z-4.3 I0.3 J0.01
G1 X7.356 Y41.224
X7.579 Y41.267
X8.422 Y41.428
X8.691 Y41.48
X8.757 Y41.492 Z-4.328
G3 X9. Y41.776 Z-4.5 I-0.056 J0.295
G1 Y42.485
X8.993 Y42.635
X8.956 Y42.78
X8.896 Y42.918
X8.817 Y43.045
X8.722 Y43.162
X8.614 Y43.266
X8.496 Y43.358
X8.369 Y43.437
X8.233 Y43.501
X8.091 Y43.551
X7.945 Y43.585
X7.796 Y43.603
X7.646 Y43.606
X7.634 Y43.605
X7.434 Y43.556
X7.257 Y43.45
X7.119 Y43.298
X7.03 Y43.112
X7. Y42.908
Y42.208
G3 X7.31 Y41.918 Z-4.3 I0.3 J0.01
G1 X7.358 Y41.924
X7.579 Y41.968
X8.422 Y42.135
X8.691 Y42.188
X8.758 Y42.201 Z-4.329
G3 X9. Y42.485 Z-4.5 I-0.058 J0.294
G1 Y43.194
X8.993 Y43.344
X8.954 Y43.489
X8.893 Y43.626
X8.813 Y43.753
X8.717 Y43.868
X8.609 Y43.972
X8.49 Y44.063
X8.362 Y44.142
X8.226 Y44.205
X8.084 Y44.254
X7.938 Y44.287
X7.789 Y44.304
X7.639 Y44.306
X7.63
X7.431 Y44.255
X7.255 Y44.15
X7.118 Y43.998
X7.03 Y43.812
X7. Y43.609
Y42.908
G3 X7.31 Y42.619 Z-4.3 I0.3 J0.01
G1 X7.36 Y42.625
X7.579 Y42.669
X8.423 Y42.842
X8.691 Y42.896
X8.76 Y42.91 Z-4.33
G3 X9. Y43.194 Z-4.5 I-0.06 J0.294
G1 Y43.86
X8.993 Y44.01
X8.961 Y44.156
X8.905 Y44.295
X8.829 Y44.425
X8.737 Y44.543
X8.632 Y44.65
X8.515 Y44.744
X8.389 Y44.826
X8.254 Y44.892
X8.114 Y44.944
X7.969 Y44.982
X7.82 Y45.002
X7.67 Y45.007
X7.648 Y45.006
X7.445 Y44.959
X7.264 Y44.855
X7.122 Y44.702
X7.031 Y44.514
X7. Y44.308
Y43.609
G3 X7.31 Y43.32 Z-4.3 I0.3 J0.01
G1 X7.353 Y43.324
X7.58 Y43.365
X8.421 Y43.516
X8.691 Y43.564
X8.753 Y43.575 Z-4.327
G3 X9. Y43.86 Z-4.5 I-0.053 J0.295
G1 Y44.569
X8.993 Y44.718
X8.959 Y44.865
X8.901 Y45.003
X8.824 Y45.132
X8.731 Y45.25
X8.625 Y45.355
X8.508 Y45.449
X8.381 Y45.529
X8.246 Y45.595
X8.105 Y45.646
X7.96 Y45.682
X7.811 Y45.702
X7.661 Y45.706
X7.642 Y45.704
X7.44 Y45.657
X7.261 Y45.552
X7.12 Y45.399
X7.031 Y45.212
X7. Y45.007
Y44.308
G3 X7.31 Y44.018 Z-4.3 I0.3 J0.01
G1 X7.355 Y44.023
X7.58 Y44.065
X8.422 Y44.222
X8.691 Y44.272
X8.755 Y44.284 Z-4.328
G3 X9. Y44.569 Z-4.5 I-0.055 J0.295
G1 Y45.277
X8.993 Y45.427
X8.957 Y45.573
X8.898 Y45.711
X8.82 Y45.839
X8.726 Y45.956
X8.619 Y46.061
X8.501 Y46.154
X8.374 Y46.233
X8.239 Y46.298
X8.097 Y46.348
X7.951 Y46.383
X7.803 Y46.402
X7.653 Y46.405
X7.638 Y46.404
X7.437 Y46.355
X7.259 Y46.25
X7.119 Y46.098
X7.031 Y45.911
X7. Y45.707
Y45.007
G3 X7.31 Y44.718 Z-4.3 I0.3 J0.01
G1 X7.357 Y44.723
X7.579 Y44.766
X8.422 Y44.929
X8.691 Y44.981
X8.757 Y44.993 Z-4.329
G3 X9. Y45.277 Z-4.5 I-0.057 J0.295
G1 Y45.986
X8.993 Y46.136
X8.955 Y46.281
X8.895 Y46.419
X8.816 Y46.546
X8.721 Y46.662
X8.613 Y46.767
X8.495 Y46.859
X8.367 Y46.937
X8.231 Y47.001
X8.09 Y47.051
X7.944 Y47.085
X7.795 Y47.103
X7.645 Y47.105
X7.633 Y47.104
X7.434 Y47.055
X7.257 Y46.949
X7.118 Y46.797
X7.03 Y46.611
X7. Y46.407
Y45.707
G3 X7.31 Y45.417 Z-4.3 I0.3 J0.01
G1 X7.359 Y45.423
X7.579 Y45.467
X8.423 Y45.635
X8.691 Y45.689
X8.759 Y45.702 Z-4.329
G3 X9. Y45.986 Z-4.5 I-0.059 J0.294
G1 Y46.695
X8.993 Y46.845
X8.954 Y46.99
X8.892 Y47.127
X8.812 Y47.253
X8.716 Y47.369
X8.608 Y47.472
X8.489 Y47.564
X8.361 Y47.642
X8.225 Y47.705
X8.083 Y47.754
X7.937 Y47.787
X7.787 Y47.804
X7.637 Y47.806
X7.63 Y47.805
X7.431 Y47.754
X7.255 Y47.649
X7.118 Y47.497
X7.03 Y47.311
X7. Y47.108
Y46.407
G3 X7.31 Y46.118 Z-4.3 I0.3 J0.01
G1 X7.36 Y46.124
X7.579 Y46.169
X8.423 Y46.342
X8.691 Y46.397
X8.761 Y46.412 Z-4.33
G3 X9. Y46.695 Z-4.5 I-0.06 J0.294
G1 Y47.404
X8.993 Y47.554
X8.952 Y47.698
X8.89 Y47.834
X8.808 Y47.96
X8.712 Y48.075
X8.603 Y48.178
X8.483 Y48.269
X8.355 Y48.346
X8.218 Y48.408
X8.076 Y48.457
X7.93 Y48.489
X7.781 Y48.505
X7.631 Y48.507
X7.626 Y48.506
X7.428 Y48.455
X7.253 Y48.349
X7.117 Y48.197
X7.03 Y48.012
X7. Y47.81
Y47.108
G3 X7.31 Y46.819 Z-4.3 I0.3 J0.01
G1 X7.362 Y46.825
X7.579 Y46.871
X8.423 Y47.049
X8.691 Y47.106
X8.762 Y47.121 Z-4.331
G3 X9. Y47.404 Z-4.5 I-0.062 J0.294
G1 Y48.084
X8.993 Y48.234
X8.956 Y48.379
X8.897 Y48.517
X8.818 Y48.645
X8.724 Y48.761
X8.616 Y48.866
X8.498 Y48.958
X8.371 Y49.038
X8.235 Y49.102
X8.094 Y49.152
X7.948 Y49.187
X7.799 Y49.205
X7.649 Y49.208
X7.637 Y49.207
X7.436 Y49.158
X7.258 Y49.053
X7.119 Y48.901
X7.03 Y48.714
X7. Y48.51
Y47.81
G3 X7.31 Y47.521 Z-4.3 I0.3 J0.01
G1 X7.357 Y47.526
X7.579 Y47.569
X8.422 Y47.734
X8.691 Y47.787
X8.758 Y47.8 Z-4.329
G3 X9. Y48.084 Z-4.5 I-0.058 J0.294
G1 Y48.758
X8.993 Y48.907
X8.962 Y49.054
X8.906 Y49.193
X8.831 Y49.323
X8.739 Y49.442
X8.634 Y49.549
X8.517 Y49.643
X8.391 Y49.725
X8.257 Y49.792
X8.117 Y49.844
X7.971 Y49.882
X7.823 Y49.902
X7.673 Y49.908
X7.649 Y49.906
X7.446 Y49.86
X7.264 Y49.756
X7.122 Y49.603
X7.031 Y49.415
X7. Y49.208
Y48.51
G3 X7.31 Y48.22 Z-4.3 I0.3 J0.01
G1 X7.352 Y48.225
X7.58 Y48.265
X8.421 Y48.414
X8.691 Y48.462
X8.752 Y48.473 Z-4.327
G3 X9. Y48.758 Z-4.5 I-0.052 J0.295
G1 Y49.466
X8.993 Y49.616
X8.96 Y49.763
X8.903 Y49.901
X8.826 Y50.03
X8.733 Y50.148
X8.627 Y50.254
X8.51 Y50.348
X8.384 Y50.429
X8.249 Y50.494
X8.108 Y50.546
X7.962 Y50.582
X7.814 Y50.602
X7.664 Y50.607
X7.643 Y50.605
X7.441 Y50.558
X7.262 Y50.453
X7.121 Y50.3
X7.031 Y50.113
X7. Y49.907
Y49.208
G3 X7.31 Y48.919 Z-4.3 I0.3 J0.01
G1 X7.354 Y48.924
X7.58 Y48.965
X8.422 Y49.12
X8.691 Y49.17
X8.755 Y49.182 Z-4.328
G3 X9. Y49.466 Z-4.5 I-0.054 J0.295
G1 Y50.175
X8.993 Y50.325
X8.958 Y50.471
X8.899 Y50.609
X8.821 Y50.737
X8.728 Y50.854
X8.621 Y50.96
X8.503 Y51.053
X8.376 Y51.132
X8.241 Y51.197
X8.1 Y51.248
X7.954 Y51.283
X7.805 Y51.302
X7.655 Y51.306
X7.639 Y51.304
X7.438 Y51.256
X7.259 Y51.151
X7.12 Y50.999
X7.031 Y50.812
X7. Y50.607
Y49.907
G3 X7.31 Y49.618 Z-4.3 I0.3 J0.01
G1 X7.356 Y49.623
X7.579 Y49.666
X8.422 Y49.827
X8.691 Y49.878
X8.757 Y49.891 Z-4.328
G3 X9. Y50.175 Z-4.5 I-0.056 J0.295
G1 Y50.884
X8.993 Y51.034
X8.956 Y51.179
X8.896 Y51.317
X8.817 Y51.444
X8.722 Y51.561
X8.615 Y51.665
X8.497 Y51.758
X8.369 Y51.836
X8.233 Y51.9
X8.092 Y51.95
X7.946 Y51.985
X7.797 Y52.003
X7.647 Y52.006
X7.635 Y52.004
X7.435 Y51.955
X7.257 Y51.85
X7.119 Y51.697
X7.03 Y51.511
X7. Y51.307
Y50.607
G3 X7.31 Y50.318 Z-4.3 I0.3 J0.01
G1 X7.358 Y50.323
X7.579 Y50.367
X8.422 Y50.534
X8.691 Y50.587
X8.758 Y50.6 Z-4.329
G3 X9. Y50.884 Z-4.5 I-0.058 J0.294
G1 Y51.593
X8.993 Y51.743
X8.954 Y51.888
X8.893 Y52.025
X8.813 Y52.151
X8.718 Y52.267
X8.609 Y52.371
X8.491 Y52.462
X8.363 Y52.541
X8.227 Y52.604
X8.085 Y52.653
X7.939 Y52.687
X7.79 Y52.704
X7.64 Y52.706
X7.631 Y52.705
X7.432 Y52.655
X7.256 Y52.549
X7.118 Y52.397
X7.03 Y52.211
X7. Y52.008
Y51.307
G3 X7.31 Y51.018 Z-4.3 I0.3 J0.01
G1 X7.36 Y51.024
X7.579 Y51.069
X8.423 Y51.241
X8.691 Y51.295
X8.76 Y51.309 Z-4.33
G3 X9. Y51.593 Z-4.5 I-0.06 J0.294
G1 Y52.302
X8.993 Y52.451
X8.953 Y52.596
X8.89 Y52.732
X8.809 Y52.859
X8.713 Y52.974
X8.604 Y53.077
X8.485 Y53.168
X8.357 Y53.245
X8.22 Y53.308
X8.078 Y53.356
X7.932 Y53.389
X7.783 Y53.405
X7.633 Y53.407
X7.627 Y53.406
X7.429 Y53.355
X7.254 Y53.249
X7.117 Y53.097
X7.03 Y52.912
X7. Y52.71
Y52.008
G3 X7.31 Y51.719 Z-4.3 I0.3 J0.01
G1 X7.361 Y51.725
X7.579 Y51.771
X8.423 Y51.947
X8.691 Y52.004
X8.762 Y52.018 Z-4.331
G3 X9. Y52.302 Z-4.5 I-0.061 J0.294
G1 Y53.01
X8.993 Y53.16
X8.951 Y53.304
X8.888 Y53.44
X8.806 Y53.566
X8.709 Y53.68
X8.6 Y53.783
X8.48 Y53.873
X8.351 Y53.95
X8.214 Y54.012
X8.072 Y54.06
X7.926 Y54.092
X7.776 Y54.107
X7.624 Y54.108
X7.426 Y54.056
X7.252 Y53.95
X7.116 Y53.798
X7.03 Y53.613
X7. Y53.412
Y52.71
G3 X7.31 Y52.42 Z-4.3 I0.3 J0.01
G1 X7.363 Y52.427
X7.578 Y52.473
X8.424 Y52.655
X8.691 Y52.712
X8.763 Y52.727 Z-4.331
G3 X9. Y53.01 Z-4.5 I-0.063 J0.293
G1 Y53.684
X8.993 Y53.834
X8.957 Y53.979
X8.897 Y54.117
X8.819 Y54.245
X8.725 Y54.362
X8.617 Y54.467
X8.499 Y54.559
X8.372 Y54.639
X8.237 Y54.703
X8.095 Y54.753
X7.949 Y54.788
X7.801 Y54.807
X7.651 Y54.81
X7.638 Y54.809
X7.437 Y54.76
X7.259 Y54.655
X7.119 Y54.503
X7.031 Y54.316
X7. Y54.111
Y53.412
G3 X7.31 Y53.122 Z-4.3 I0.3 J0.01
G1 X7.357 Y53.128
X7.579 Y53.171
X8.422 Y53.335
X8.691 Y53.387
X8.757 Y53.4 Z-4.329
G3 X9. Y53.684 Z-4.5 I-0.057 J0.294
G1 Y54.393
X8.993 Y54.543
X8.955 Y54.688
X8.894 Y54.825
X8.815 Y54.952
X8.72 Y55.068
X8.612 Y55.172
X8.493 Y55.264
X8.366 Y55.343
X8.23 Y55.406
X8.088 Y55.456
X7.942 Y55.49
X7.793 Y55.507
X7.643 Y55.51
X7.632 Y55.509
X7.433 Y55.459
X7.256 Y55.354
X7.118 Y55.201
X7.03 Y55.015
X7. Y54.812
Y54.111
G3 X7.31 Y53.822 Z-4.3 I0.3 J0.01
G1 X7.359 Y53.828
X7.579 Y53.872
X8.423 Y54.042
X8.691 Y54.095
X8.759 Y54.109 Z-4.33
G3 X9. Y54.393 Z-4.5 I-0.059 J0.294
G1 Y55.102
X8.993 Y55.251
X8.954 Y55.396
X8.892 Y55.533
X8.811 Y55.659
X8.715 Y55.775
X8.607 Y55.878
X8.488 Y55.969
X8.359 Y56.047
X8.223 Y56.11
X8.081 Y56.159
X7.935 Y56.192
X7.786 Y56.209
X7.636 Y56.21
X7.629
X7.43 Y56.159
X7.255 Y56.053
X7.117 Y55.901
X7.03 Y55.716
X7. Y55.513
Y54.812
G3 X7.31 Y54.523 Z-4.3 I0.3 J0.01
G1 X7.361 Y54.529
X7.579 Y54.574
X8.423 Y54.748
X8.691 Y54.804
X8.761 Y54.818 Z-4.33
G3 X9. Y55.102 Z-4.5 I-0.061 J0.294
G1 Y55.767
X8.993 Y55.917
X8.96 Y56.064
X8.904 Y56.203
X8.828 Y56.332
X8.735 Y56.45
X8.629 Y56.556
X8.512 Y56.65
X8.386 Y56.731
X8.252 Y56.798
X8.111 Y56.85
X7.965 Y56.886
X7.817 Y56.906
X7.667 Y56.911
X7.647 Y56.91
X7.443 Y56.863
X7.263 Y56.759
X7.121 Y56.606
X7.031 Y56.418
X7. Y56.212
Y55.513
G3 X7.31 Y55.224 Z-4.3 I0.3 J0.01
G1 X7.353 Y55.229
X7.58 Y55.27
X8.421 Y55.422
X8.691 Y55.471
X8.754 Y55.483 Z-4.327
G3 X9. Y55.767 Z-4.5 I-0.054 J0.295
G1 Y56.476
X8.993 Y56.626
X8.958 Y56.772
X8.9 Y56.91
X8.823 Y57.039
X8.73 Y57.156
X8.623 Y57.262
X8.506 Y57.355
X8.379 Y57.435
X8.244 Y57.5
X8.103 Y57.552
X7.957 Y57.587
X7.808 Y57.606
X7.658 Y57.61
X7.64 Y57.609
X7.439 Y57.561
X7.26 Y57.456
X7.12 Y57.303
X7.031 Y57.116
X7. Y56.911
Y56.212
G3 X7.31 Y55.923 Z-4.3 I0.3 J0.01
G1 X7.355 Y55.928
X7.579 Y55.97
X8.422 Y56.129
X8.691 Y56.18
X8.756 Y56.192 Z-4.328
G3 X9. Y56.476 Z-4.5 I-0.056 J0.295
G1 Y57.185
X8.993 Y57.335
X8.957 Y57.481
X8.897 Y57.618
X8.819 Y57.746
X8.724 Y57.863
X8.617 Y57.967
X8.499 Y58.06
X8.372 Y58.139
X8.236 Y58.203
X8.095 Y58.254
X7.949 Y58.288
X7.8 Y58.307
X7.65 Y58.31
X7.636 Y58.309
X7.436 Y58.26
X7.258 Y58.154
X7.119 Y58.002
X7.03 Y57.816
X7. Y57.612
Y56.911
G3 X7.31 Y56.622 Z-4.3 I0.3 J0.01
G1 X7.357 Y56.627
X7.579 Y56.671
X8.422 Y56.836
X8.691 Y56.888
X8.758 Y56.901 Z-4.329
G3 X9. Y57.185 Z-4.5 I-0.058 J0.294
G1 Y57.894
X8.993 Y58.044
X8.955 Y58.189
X8.894 Y58.326
X8.815 Y58.453
X8.719 Y58.569
X8.611 Y58.673
X8.493 Y58.765
X8.365 Y58.843
X8.229 Y58.907
X8.087 Y58.956
X7.941 Y58.99
X7.792 Y59.008
X7.642 Y59.01
X7.632 Y59.009
X7.433 Y58.959
X7.256 Y58.854
X7.118 Y58.701
X7.03 Y58.516
X7. Y58.312
Y57.612
G3 X7.31 Y57.322 Z-4.3 I0.3 J0.01
G1 X7.359 Y57.328
X7.579 Y57.372
X8.423 Y57.542
X8.691 Y57.596
X8.759 Y57.61 Z-4.33
G3 X9. Y57.894 Z-4.5 I-0.059 J0.294
G1 Y58.603
X8.993 Y58.752
X8.953 Y58.897
X8.891 Y59.034
X8.811 Y59.16
X8.715 Y59.276
X8.606 Y59.379
X8.487 Y59.47
X8.359 Y59.548
X8.222 Y59.611
X8.081 Y59.659
X7.934 Y59.692
X7.785 Y59.709
X7.635 Y59.711
X7.628 Y59.71
X7.43 Y59.659
X7.254 Y59.553
X7.117 Y59.401
X7.03 Y59.216
X7. Y59.013
Y58.312
G3 X7.31 Y58.023 Z-4.3 I0.3 J0.01
G1 X7.361 Y58.029
X7.579 Y58.074
X8.423 Y58.249
X8.691 Y58.305
X8.761 Y58.319 Z-4.33
G3 X9. Y58.603 Z-4.5 I-0.061 J0.294
G1 Y59.311
X8.993 Y59.461
X8.952 Y59.606
X8.889 Y59.742
X8.807 Y59.868
X8.71 Y59.982
X8.601 Y60.085
X8.482 Y60.175
X8.353 Y60.253
X8.216 Y60.315
X8.074 Y60.363
X7.928 Y60.395
X7.779 Y60.411
X7.625
X7.427 Y60.36
X7.253 Y60.254
X7.117 Y60.102
X7.03 Y59.917
X7. Y59.715
Y59.013
G3 X7.31 Y58.724 Z-4.3 I0.3 J0.01
G1 X7.362 Y58.731
X7.578 Y58.777
X8.423 Y58.956
X8.691 Y59.013
X8.763 Y59.028 Z-4.331
G3 X9. Y59.311 Z-4.5 I-0.062 J0.293
G1 Y59.808
X8.999 Y59.843
X8.995 Y59.878
X8.939 Y60.161
X8.938 Y60.162
X8.93 Y60.205
X8.893 Y60.35
X8.847 Y60.441
X8.833 Y60.466
X8.817 Y60.491
G3 X8.398 Y60.559 Z-4.3 I-0.243 J-0.175
X8.293 Y60.209 I0.175 J-0.244
G1 X8.353 Y60.05
G3 X8.682 Y59.861 I0.28 J0.106
X8.93 Y60.205 Z-4.5 I-0.048 J0.296
G1 X8.91 Y60.304
X8.902 Y60.339
X8.889 Y60.375
X8.847 Y60.445
X8.797 Y60.521
X8.773 Y60.557
X8.753 Y60.587
X8.739 Y60.606
X8.688 Y60.664
X8.632 Y60.717
X8.57 Y60.764
G3 X8.157 Y60.667 Z-4.3 I-0.158 J-0.255
X8.208 Y60.29 I0.255 J-0.158
G1 X8.293 Y60.21
X8.337 Y60.176
X8.387 Y60.15
X8.441 Y60.135
X8.497 Y60.129
X8.553 Y60.135
X8.606 Y60.15
X8.655 Y60.174
G3 X8.753 Y60.587 Z-4.5 I-0.158 J0.255
G1 X8.712 Y60.646
X8.686 Y60.675
X8.655 Y60.705
X8.622 Y60.729
X8.409 Y60.871
X8.372 Y60.888
X8.337 Y60.902
X8.302 Y60.911
X8.089 Y60.953
X8.018 Y60.963
X7.983 Y60.964
X7.948 Y60.96
X7.806 Y60.932
X7.664 Y60.903
X7.628 Y60.89
X7.591 Y60.871
X7.523 Y60.826
X7.378 Y60.729
X7.337 Y60.698
X7.297 Y60.658
X7.24 Y60.576
X7.153 Y60.445
X7.12 Y60.392
X7.107 Y60.366
X7.098 Y60.339
X7.09 Y60.304
X7.005 Y59.878
X7.001 Y59.843
X7. Y59.808
Y59.715
G3 X7.299 Y59.426 I0.3 J0.01
G1 X7.3
X7.324 Y59.427
X7.374 Y59.444 Z-4.495
X7.423 Y59.461 Z-4.481
X7.468 Y59.477 Z-4.458
X7.501 Y59.514 Z-4.421
X7.528 Y59.544 Z-4.374
X7.548 Y59.566 Z-4.32
X7.56 Y59.58 Z-4.262
X7.565 Y59.585 Z-4.2
Z5.
X8. Y30.393
Z-2.5
Z-6. F30.
X8.038 F100.
X8.03 Y30.43
X7.997 Y30.447
X7.961 Y30.436
X7.939 Y30.405
X7.94 Y30.368
X7.957 Y30.335
X7.986 Y30.31
X8.021 Y30.298
X8.059 Y30.301
X8.092 Y30.317
X8.12 Y30.343
X8.139 Y30.376
X8.155 Y30.449
X8.135 Y30.521
X8.086 Y30.577
X8.018 Y30.611
X7.944 Y30.618
X7.871 Y30.599
X7.808 Y30.559
X7.76 Y30.501
X7.73 Y30.432
X7.708 Y30.284
X7.76 Y30.143
X7.867 Y30.039
X8.007 Y29.986
X8.157 Y29.988
X8.298 Y30.041
X8.414 Y30.136
X8.497 Y30.261
X8.538 Y30.405
X8.539 Y30.555
X8.499 Y30.699
X8.422 Y30.828
X8.315 Y30.934
X8.187 Y31.011
X8.043 Y31.055
X7.893 Y31.064
X7.745 Y31.04
X7.606 Y30.984
X7.481 Y30.901
X7.374 Y30.796
X7.291 Y30.672
X7.231 Y30.534
X7.199 Y30.387
X7.196 Y30.237
X7.218 Y30.089
X7.268 Y29.947
X7.34 Y29.816
X7.434 Y29.7
X7.546 Y29.6
X7.674 Y29.52
X7.812 Y29.462
X7.957 Y29.426
X8.107 Y29.413
X8.257 Y29.423
X8.403 Y29.455
X8.543 Y29.508
X8.674 Y29.581
X8.712 Y29.61
X8.834 Y29.727
X8.924 Y29.871
X8.977 Y30.032
X8.992 Y30.109
X9. Y30.18
Y30.613
X8.993 Y30.762
X8.965 Y30.91
X8.915 Y31.051
X8.844 Y31.184
X8.755 Y31.304
X8.65 Y31.411
X8.532 Y31.503
X8.402 Y31.579
X8.264 Y31.636
X8.119 Y31.677
X7.971 Y31.699
X7.821 Y31.704
X7.671 Y31.691
X7.524 Y31.661
X7.483 Y31.648
X7.288 Y31.548
X7.133 Y31.393
X7.034 Y31.198
X7. Y30.982
Y30.18
X7.008 Y30.109
X7.092 Y29.684
X7.098 Y29.661
X7.109 Y29.631
X7.123 Y29.602
X7.161 Y29.542
X7.256 Y29.401
X7.303 Y29.335
X7.342 Y29.297
X7.381 Y29.269
X7.523 Y29.174
X7.613 Y29.117
X7.639 Y29.106
X7.664 Y29.097
X7.806 Y29.068
X7.948 Y29.04
X7.983 Y29.036
X8.018 Y29.037
X8.089 Y29.047
X8.302 Y29.089
X8.337 Y29.098
X8.372 Y29.111
X8.386 Y29.117
X8.514 Y29.198
X8.604 Y29.259
X8.655 Y29.295
X8.707 Y29.348
X8.744 Y29.401
X8.839 Y29.542
X8.883 Y29.613
X8.898 Y29.649
X8.908 Y29.684
X8.977 Y30.032
X8.981 Y30.069
X9. Y30.613
Y31.356
X8.993 Y31.506
X8.952 Y31.651
X8.887 Y31.786
X8.802 Y31.909
X8.701 Y32.02
X8.587 Y32.118
X8.462 Y32.201
X8.329 Y32.27
X8.19 Y32.326
X8.045 Y32.366
X7.897 Y32.391
X7.747 Y32.401
X7.675 Y32.399
X7.464 Y32.358
X7.276 Y32.256
X7.128 Y32.102
X7.033 Y31.91
X7. Y31.699
Y30.982
G3 X7.31 Y30.693 Z-5.8 I0.3 J0.01
G1 X7.377 Y30.703
X7.576 Y30.756
X8.428 Y30.984
X8.692 Y31.054
X8.778 Y31.077 Z-5.838
G3 X9. Y31.356 Z-6. I-0.078 J0.29
G1 Y31.995
X8.993 Y32.145
X8.957 Y32.291
X8.896 Y32.428
X8.816 Y32.555
X8.72 Y32.67
X8.611 Y32.773
X8.491 Y32.863
X8.362 Y32.94
X8.226 Y33.002
X8.084 Y33.051
X7.937 Y33.082
X7.788 Y33.099
X7.638 Y33.101
X7.626 Y33.1
X7.428 Y33.049
X7.254 Y32.943
X7.117 Y32.791
X7.03 Y32.606
X7. Y32.403
Y31.699
G3 X7.31 Y31.41 Z-5.8 I0.3 J0.01
G1 X7.362 Y31.416
X7.579 Y31.462
X8.423 Y31.64
X8.691 Y31.697
X8.762 Y31.712 Z-5.831
G3 X9. Y31.995 Z-6. I-0.062 J0.294
G1 Y32.661
X8.993 Y32.811
X8.96 Y32.957
X8.904 Y33.096
X8.827 Y33.225
X8.735 Y33.343
X8.629 Y33.449
X8.511 Y33.543
X8.385 Y33.624
X8.25 Y33.689
X8.109 Y33.741
X7.964 Y33.778
X7.815 Y33.797
X7.665 Y33.802
X7.645 Y33.801
X7.443 Y33.754
X7.263 Y33.649
X7.121 Y33.496
X7.031 Y33.309
X7. Y33.103
Y32.403
G3 X7.31 Y32.114 Z-5.8 I0.3 J0.01
G1 X7.354 Y32.119
X7.58 Y32.16
X8.422 Y32.315
X8.691 Y32.365
X8.754 Y32.376 Z-5.828
G3 X9. Y32.661 Z-6. I-0.054 J0.295
G1 Y33.37
X8.993 Y33.52
X8.958 Y33.666
X8.9 Y33.804
X8.822 Y33.932
X8.728 Y34.049
X8.622 Y34.155
X8.504 Y34.248
X8.377 Y34.328
X8.242 Y34.392
X8.101 Y34.443
X7.955 Y34.479
X7.806 Y34.497
X7.656 Y34.501
X7.639 Y34.5
X7.438 Y34.452
X7.26 Y34.347
X7.12 Y34.194
X7.031 Y34.007
X7. Y33.803
Y33.103
G3 X7.31 Y32.813 Z-5.8 I0.3 J0.01
G1 X7.356 Y32.819
X7.579 Y32.861
X8.422 Y33.022
X8.691 Y33.073
X8.756 Y33.086 Z-5.828
G3 X9. Y33.37 Z-6. I-0.056 J0.295
G1 Y34.079
X8.993 Y34.228
X8.956 Y34.374
X8.896 Y34.511
X8.817 Y34.639
X8.723 Y34.756
X8.615 Y34.86
X8.497 Y34.952
X8.37 Y35.031
X8.234 Y35.095
X8.093 Y35.146
X7.947 Y35.18
X7.798 Y35.198
X7.648 Y35.201
X7.635 Y35.2
X7.435 Y35.151
X7.258 Y35.045
X7.119 Y34.893
X7.03 Y34.707
X7. Y34.503
Y33.803
G3 X7.31 Y33.513 Z-5.8 I0.3 J0.01
G1 X7.358 Y33.519
X7.579 Y33.562
X8.422 Y33.729
X8.691 Y33.781
X8.758 Y33.795 Z-5.829
G3 X9. Y34.079 Z-6. I-0.058 J0.294
G1 Y34.787
X8.993 Y34.937
X8.955 Y35.082
X8.893 Y35.219
X8.813 Y35.346
X8.718 Y35.462
X8.61 Y35.566
X8.491 Y35.657
X8.363 Y35.736
X8.227 Y35.799
X8.085 Y35.848
X7.939 Y35.882
X7.79 Y35.899
X7.64 Y35.901
X7.631 Y35.9
X7.432 Y35.85
X7.256 Y35.745
X7.118 Y35.592
X7.03 Y35.407
X7. Y35.204
Y34.503
G3 X7.31 Y34.213 Z-5.8 I0.3 J0.01
G1 X7.36 Y34.219
X7.579 Y34.264
X8.423 Y34.435
X8.691 Y34.49
X8.76 Y34.504 Z-5.83
G3 X9. Y34.787 Z-6. I-0.06 J0.294
G1 Y35.496
X8.993 Y35.646
X8.953 Y35.791
X8.891 Y35.927
X8.81 Y36.053
X8.714 Y36.169
X8.605 Y36.272
X8.485 Y36.363
X8.357 Y36.44
X8.221 Y36.503
X8.079 Y36.551
X7.932 Y36.584
X7.783 Y36.6
X7.633 Y36.602
X7.627 Y36.601
X7.429 Y36.55
X7.254 Y36.445
X7.117 Y36.293
X7.03 Y36.107
X7. Y35.905
Y35.204
G3 X7.31 Y34.914 Z-5.8 I0.3 J0.01
G1 X7.361 Y34.92
X7.579 Y34.966
X8.423 Y35.142
X8.691 Y35.198
X8.762 Y35.213 Z-5.831
G3 X9. Y35.496 Z-6. I-0.061 J0.294
G1 Y36.205
X8.993 Y36.355
X8.952 Y36.499
X8.888 Y36.635
X8.806 Y36.761
X8.709 Y36.875
X8.6 Y36.978
X8.48 Y37.068
X8.351 Y37.145
X8.215 Y37.207
X8.073 Y37.255
X7.926 Y37.287
X7.777 Y37.302
X7.624 Y37.303
X7.427 Y37.251
X7.252 Y37.145
X7.116 Y36.993
X7.03 Y36.809
X7. Y36.607
Y35.905
G3 X7.31 Y35.616 Z-5.8 I0.3 J0.01
G1 X7.363 Y35.622
X7.578 Y35.668
X8.423 Y35.849
X8.691 Y35.907
X8.763 Y35.922 Z-5.831
G3 X9. Y36.205 Z-6. I-0.063 J0.293
G1 Y36.885
X8.993 Y37.035
X8.956 Y37.18
X8.895 Y37.318
X8.816 Y37.445
X8.721 Y37.561
X8.614 Y37.666
X8.495 Y37.758
X8.368 Y37.837
X8.232 Y37.9
X8.09 Y37.95
X7.944 Y37.985
X7.795 Y38.002
X7.645 Y38.005
X7.635 Y38.004
X7.435 Y37.955
X7.258 Y37.85
X7.119 Y37.697
X7.03 Y37.511
X7. Y37.307
Y36.607
G3 X7.31 Y36.318 Z-5.8 I0.3 J0.01
G1 X7.358 Y36.323
X7.579 Y36.367
X8.422 Y36.534
X8.691 Y36.588
X8.759 Y36.601 Z-5.829
G3 X9. Y36.885 Z-6. I-0.058 J0.294
G1 Y37.559
X8.993 Y37.709
X8.961 Y37.855
X8.905 Y37.994
X8.829 Y38.124
X8.737 Y38.242
X8.631 Y38.349
X8.514 Y38.443
X8.388 Y38.524
X8.254 Y38.59
X8.113 Y38.643
X7.968 Y38.68
X7.819 Y38.7
X7.669 Y38.705
X7.648 Y38.704
X7.444 Y38.657
X7.263 Y38.553
X7.122 Y38.4
X7.031 Y38.212
X7. Y38.006
Y37.307
G3 X7.31 Y37.018 Z-5.8 I0.3 J0.01
G1 X7.353 Y37.022
X7.58 Y37.063
X8.421 Y37.214
X8.691 Y37.263
X8.753 Y37.274 Z-5.827
G3 X9. Y37.559 Z-6. I-0.053 J0.295
G1 Y38.268
X8.993 Y38.417
X8.959 Y38.564
X8.901 Y38.702
X8.824 Y38.831
X8.731 Y38.948
X8.625 Y39.054
X8.507 Y39.148
X8.381 Y39.228
X8.246 Y39.293
X8.105 Y39.345
X7.959 Y39.38
X7.81 Y39.4
X7.66 Y39.404
X7.642 Y39.403
X7.44 Y39.355
X7.261 Y39.25
X7.12 Y39.097
X7.031 Y38.91
X7. Y38.705
Y38.006
G3 X7.31 Y37.716 Z-5.8 I0.3 J0.01
G1 X7.355 Y37.721
X7.58 Y37.763
X8.422 Y37.921
X8.691 Y37.971
X8.755 Y37.983 Z-5.828
G3 X9. Y38.268 Z-6. I-0.055 J0.295
G1 Y38.976
X8.993 Y39.126
X8.957 Y39.272
X8.898 Y39.41
X8.82 Y39.538
X8.726 Y39.655
X8.619 Y39.76
X8.501 Y39.852
X8.373 Y39.932
X8.238 Y39.996
X8.097 Y40.047
X7.951 Y40.082
X7.802 Y40.1
X7.652 Y40.104
X7.637 Y40.102
X7.436 Y40.054
X7.259 Y39.948
X7.119 Y39.796
X7.03 Y39.609
X7. Y39.405
Y38.705
G3 X7.31 Y38.416 Z-5.8 I0.3 J0.01
G1 X7.357 Y38.421
X7.579 Y38.464
X8.422 Y38.627
X8.691 Y38.679
X8.757 Y38.692 Z-5.829
G3 X9. Y38.976 Z-6. I-0.057 J0.295
G1 Y39.685
X8.993 Y39.835
X8.955 Y39.98
X8.895 Y40.118
X8.816 Y40.245
X8.721 Y40.361
X8.613 Y40.465
X8.494 Y40.557
X8.367 Y40.636
X8.231 Y40.699
X8.089 Y40.749
X7.943 Y40.783
X7.794 Y40.801
X7.644 Y40.803
X7.633 Y40.802
X7.433 Y40.753
X7.257 Y40.647
X7.118 Y40.495
X7.03 Y40.309
X7. Y40.106
Y39.405
G3 X7.31 Y39.116 Z-5.8 I0.3 J0.01
G1 X7.359 Y39.121
X7.579 Y39.165
X8.423 Y39.334
X8.691 Y39.388
X8.759 Y39.401 Z-5.829
G3 X9. Y39.685 Z-6. I-0.059 J0.294
G1 Y40.394
X8.993 Y40.544
X8.954 Y40.689
X8.892 Y40.825
X8.812 Y40.952
X8.716 Y41.067
X8.607 Y41.171
X8.488 Y41.262
X8.36 Y41.34
X8.224 Y41.403
X8.082 Y41.452
X7.936 Y41.485
X7.787 Y41.502
X7.637 Y41.504
X7.629 Y41.503
X7.431 Y41.453
X7.255 Y41.347
X7.117 Y41.195
X7.03 Y41.009
X7. Y40.807
Y40.106
G3 X7.31 Y39.816 Z-5.8 I0.3 J0.01
G1 X7.36 Y39.822
X7.579 Y39.867
X8.423 Y40.041
X8.691 Y40.096
X8.761 Y40.111 Z-5.83
G3 X9. Y40.394 Z-6. I-0.06 J0.294
G1 Y41.103
X8.993 Y41.252
X8.952 Y41.397
X8.889 Y41.533
X8.808 Y41.659
X8.712 Y41.774
X8.602 Y41.877
X8.483 Y41.968
X8.354 Y42.045
X8.218 Y42.107
X8.076 Y42.155
X7.929 Y42.188
X7.78 Y42.204
X7.63 Y42.205
X7.626 Y42.204
X7.428 Y42.153
X7.253 Y42.047
X7.117 Y41.895
X7.03 Y41.71
X7. Y41.508
Y40.807
G3 X7.31 Y40.517 Z-5.8 I0.3 J0.01
G1 X7.362 Y40.524
X7.579 Y40.569
X8.423 Y40.748
X8.691 Y40.805
X8.762 Y40.82 Z-5.831
G3 X9. Y41.103 Z-6. I-0.062 J0.294
G1 Y41.776
X8.993 Y41.926
X8.958 Y42.072
X8.899 Y42.21
X8.821 Y42.338
X8.727 Y42.455
X8.62 Y42.561
X8.502 Y42.653
X8.375 Y42.733
X8.24 Y42.798
X8.099 Y42.849
X7.953 Y42.884
X7.804 Y42.903
X7.654 Y42.906
X7.64 Y42.905
X7.438 Y42.857
X7.26 Y42.752
X7.12 Y42.599
X7.031 Y42.413
X7. Y42.208
Y41.508
G3 X7.31 Y41.219 Z-5.8 I0.3 J0.01
G1 X7.356 Y41.224
X7.579 Y41.267
X8.422 Y41.428
X8.691 Y41.48
X8.757 Y41.492 Z-5.828
G3 X9. Y41.776 Z-6. I-0.056 J0.295
G1 Y42.485
X8.993 Y42.635
X8.956 Y42.78
X8.896 Y42.918
X8.817 Y43.045
X8.722 Y43.162
X8.614 Y43.266
X8.496 Y43.358
X8.369 Y43.437
X8.233 Y43.501
X8.091 Y43.551
X7.945 Y43.585
X7.796 Y43.603
X7.646 Y43.606
X7.634 Y43.605
X7.434 Y43.556
X7.257 Y43.45
X7.119 Y43.298
X7.03 Y43.112
X7. Y42.908
Y42.208
G3 X7.31 Y41.918 Z-5.8 I0.3 J0.01
G1 X7.358 Y41.924
X7.579 Y41.968
X8.422 Y42.135
X8.691 Y42.188
X8.758 Y42.201 Z-5.829
G3 X9. Y42.485 Z-6. I-0.058 J0.294
G1 Y43.194
X8.993 Y43.344
X8.954 Y43.489
X8.893 Y43.626
X8.813 Y43.753
X8.717 Y43.868
X8.609 Y43.972
X8.49 Y44.063
X8.362 Y44.142
X8.226 Y44.205
X8.084 Y44.254
X7.938 Y44.287
X7.789 Y44.304
X7.639 Y44.306
X7.63
X7.431 Y44.255
X7.255 Y44.15
X7.118 Y43.998
X7.03 Y43.812
X7. Y43.609
Y42.908
G3 X7.31 Y42.619 Z-5.8 I0.3 J0.01
G1 X7.36 Y42.625
X7.579 Y42.669
X8.423 Y42.842
X8.691 Y42.896
X8.76 Y42.91 Z-5.83
G3 X9. Y43.194 Z-6. I-0.06 J0.294
G1 Y43.86
X8.993 Y44.01
X8.961 Y44.156
X8.905 Y44.295
X8.829 Y44.425
X8.737 Y44.543
X8.632 Y44.65
X8.515 Y44.744
X8.389 Y44.826
X8.254 Y44.892
X8.114 Y44.944
X7.969 Y44.982
X7.82 Y45.002
X7.67 Y45.007
X7.648 Y45.006
X7.445 Y44.959
X7.264 Y44.855
X7.122 Y44.702
X7.031 Y44.514
X7. Y44.308
Y43.609
G3 X7.31 Y43.32 Z-5.8 I0.3 J0.01
G1 X7.353 Y43.324
X7.58 Y43.365
X8.421 Y43.516
X8.691 Y43.564
X8.753 Y43.575 Z-5.827
G3 X9. Y43.86 Z-6. I-0.053 J0.295
G1 Y44.569
X8.993 Y44.718
X8.959 Y44.865
X8.901 Y45.003
X8.824 Y45.132
X8.731 Y45.25
X8.625 Y45.355
X8.508 Y45.449
X8.381 Y45.529
X8.246 Y45.595
X8.105 Y45.646
X7.96 Y45.682
X7.811 Y45.702
X7.661 Y45.706
X7.642 Y45.704
X7.44 Y45.657
X7.261 Y45.552
X7.12 Y45.399
X7.031 Y45.212
X7. Y45.007
Y44.308
G3 X7.31 Y44.018 Z-5.8 I0.3 J0.01
G1 X7.355 Y44.023
X7.58 Y44.065
X8.422 Y44.222
X8.691 Y44.272
X8.755 Y44.284 Z-5.828
G3 X9. Y44.569 Z-6. I-0.055 J0.295
G1 Y45.277
X8.993 Y45.427
X8.957 Y45.573
X8.898 Y45.711
X8.82 Y45.839
X8.726 Y45.956
X8.619 Y46.061
X8.501 Y46.154
X8.374 Y46.233
X8.239 Y46.298
X8.097 Y46.348
X7.951 Y46.383
X7.803 Y46.402
X7.653 Y46.405
X7.638 Y46.404
X7.437 Y46.355
X7.259 Y46.25
X7.119 Y46.098
X7.031 Y45.911
X7. Y45.707
Y45.007
G3 X7.31 Y44.718 Z-5.8 I0.3 J0.01
G1 X7.357 Y44.723
X7.579 Y44.766
X8.422 Y44.929
X8.691 Y44.981
X8.757 Y44.993 Z-5.829
G3 X9. Y45.277 Z-6. I-0.057 J0.295
G1 Y45.986
X8.993 Y46.136
X8.955 Y46.281
X8.895 Y46.419
X8.816 Y46.546
X8.721 Y46.662
X8.613 Y46.767
X8.495 Y46.859
X8.367 Y46.937
X8.231 Y47.001
X8.09 Y47.051
X7.944 Y47.085
X7.795 Y47.103
X7.645 Y47.105
X7.633 Y47.104
X7.434 Y47.055
X7.257 Y46.949
X7.118 Y46.797
X7.03 Y46.611
X7. Y46.407
Y45.707
G3 X7.31 Y45.417 Z-5.8 I0.3 J0.01
G1 X7.359 Y45.423
X7.579 Y45.467
X8.423 Y45.635
X8.691 Y45.689
X8.759 Y45.702 Z-5.829
G3 X9. Y45.986 Z-6. I-0.059 J0.294
G1 Y46.695
X8.993 Y46.845
X8.954 Y46.99
X8.892 Y47.127
X8.812 Y47.253
X8.716 Y47.369
X8.608 Y47.472
X8.489 Y47.564
X8.361 Y47.642
X8.225 Y47.705
X8.083 Y47.754
X7.937 Y47.787
X7.787 Y47.804
X7.637 Y47.806
X7.63 Y47.805
X7.431 Y47.754
X7.255 Y47.649
X7.118 Y47.497
X7.03 Y47.311
X7. Y47.108
Y46.407
G3 X7.31 Y46.118 Z-5.8 I0.3 J0.01
G1 X7.36 Y46.124
X7.579 Y46.169
X8.423 Y46.342
X8.691 Y46.397
X8.761 Y46.412 Z-5.83
G3 X9. Y46.695 Z-6. I-0.06 J0.294
G1 Y47.404
X8.993 Y47.554
X8.952 Y47.698
X8.89 Y47.834
X8.808 Y47.96
X8.712 Y48.075
X8.603 Y48.178
X8.483 Y48.269
X8.355 Y48.346
X8.218 Y48.408
X8.076 Y48.457
X7.93 Y48.489
X7.781 Y48.505
X7.631 Y48.507
X7.626 Y48.506
X7.428 Y48.455
X7.253 Y48.349
X7.117 Y48.197
X7.03 Y48.012
X7. Y47.81
Y47.108
G3 X7.31 Y46.819 Z-5.8 I0.3 J0.01
G1 X7.362 Y46.825
X7.579 Y46.871
X8.423 Y47.049
X8.691 Y47.106
X8.762 Y47.121 Z-5.831
G3 X9. Y47.404 Z-6. I-0.062 J0.294
G1 Y48.084
X8.993 Y48.234
X8.956 Y48.379
X8.897 Y48.517
X8.818 Y48.645
X8.724 Y48.761
X8.616 Y48.866
X8.498 Y48.958
X8.371 Y49.038
X8.235 Y49.102
X8.094 Y49.152
X7.948 Y49.187
X7.799 Y49.205
X7.649 Y49.208
X7.637 Y49.207
X7.436 Y49.158
X7.258 Y49.053
X7.119 Y48.901
X7.03 Y48.714
X7. Y48.51
Y47.81
G3 X7.31 Y47.521 Z-5.8 I0.3 J0.01
G1 X7.357 Y47.526
X7.579 Y47.569
X8.422 Y47.734
X8.691 Y47.787
X8.758 Y47.8 Z-5.829
G3 X9. Y48.084 Z-6. I-0.058 J0.294
G1 Y48.758
X8.993 Y48.907
X8.962 Y49.054
X8.906 Y49.193
X8.831 Y49.323
X8.739 Y49.442
X8.634 Y49.549
X8.517 Y49.643
X8.391 Y49.725
X8.257 Y49.792
X8.117 Y49.844
X7.971 Y49.882
X7.823 Y49.902
X7.673 Y49.908
X7.649 Y49.906
X7.446 Y49.86
X7.264 Y49.756
X7.122 Y49.603
X7.031 Y49.415
X7. Y49.208
Y48.51
G3 X7.31 Y48.22 Z-5.8 I0.3 J0.01
G1 X7.352 Y48.225
X7.58 Y48.265
X8.421 Y48.414
X8.691 Y48.462
X8.752 Y48.473 Z-5.827
G3 X9. Y48.758 Z-6. I-0.052 J0.295
G1 Y49.466
X8.993 Y49.616
X8.96 Y49.763
X8.903 Y49.901
X8.826 Y50.03
X8.733 Y50.148
X8.627 Y50.254
X8.51 Y50.348
X8.384 Y50.429
X8.249 Y50.494
X8.108 Y50.546
X7.962 Y50.582
X7.814 Y50.602
X7.664 Y50.607
X7.643 Y50.605
X7.441 Y50.558
X7.262 Y50.453
X7.121 Y50.3
X7.031 Y50.113
X7. Y49.907
Y49.208
G3 X7.31 Y48.919 Z-5.8 I0.3 J0.01
G1 X7.354 Y48.924
X7.58 Y48.965
X8.422 Y49.12
X8.691 Y49.17
X8.755 Y49.182 Z-5.828
G3 X9. Y49.466 Z-6. I-0.054 J0.295
G1 Y50.175
X8.993 Y50.325
X8.958 Y50.471
X8.899 Y50.609
X8.821 Y50.737
X8.728 Y50.854
X8.621 Y50.96
X8.503 Y51.053
X8.376 Y51.132
X8.241 Y51.197
X8.1 Y51.248
X7.954 Y51.283
X7.805 Y51.302
X7.655 Y51.306
X7.639 Y51.304
X7.438 Y51.256
X7.259 Y51.151
X7.12 Y50.999
X7.031 Y50.812
X7. Y50.607
Y49.907
G3 X7.31 Y49.618 Z-5.8 I0.3 J0.01
G1 X7.356 Y49.623
X7.579 Y49.666
X8.422 Y49.827
X8.691 Y49.878
X8.757 Y49.891 Z-5.828
G3 X9. Y50.175 Z-6. I-0.056 J0.295
G1 Y50.884
X8.993 Y51.034
X8.956 Y51.179
X8.896 Y51.317
X8.817 Y51.444
X8.722 Y51.561
X8.615 Y51.665
X8.497 Y51.758
X8.369 Y51.836
X8.233 Y51.9
X8.092 Y51.95
X7.946 Y51.985
X7.797 Y52.003
X7.647 Y52.006
X7.635 Y52.004
X7.435 Y51.955
X7.257 Y51.85
X7.119 Y51.697
X7.03 Y51.511
X7. Y51.307
Y50.607
G3 X7.31 Y50.318 Z-5.8 I0.3 J0.01
G1 X7.358 Y50.323
X7.579 Y50.367
X8.422 Y50.534
X8.691 Y50.587
X8.758 Y50.6 Z-5.829
G3 X9. Y50.884 Z-6. I-0.058 J0.294
G1 Y51.593
X8.993 Y51.743
X8.954 Y51.888
X8.893 Y52.025
X8.813 Y52.151
X8.718 Y52.267
X8.609 Y52.371
X8.491 Y52.462
X8.363 Y52.541
X8.227 Y52.604
X8.085 Y52.653
X7.939 Y52.687
X7.79 Y52.704
X7.64 Y52.706
X7.631 Y52.705
X7.432 Y52.655
X7.256 Y52.549
X7.118 Y52.397
X7.03 Y52.211
X7. Y52.008
Y51.307
G3 X7.31 Y51.018 Z-5.8 I0.3 J0.01
G1 X7.36 Y51.024
X7.579 Y51.069
X8.423 Y51.241
X8.691 Y51.295
X8.76 Y51.309 Z-5.83
G3 X9. Y51.593 Z-6. I-0.06 J0.294
G1 Y52.302
X8.993 Y52.451
X8.953 Y52.596
X8.89 Y52.732
X8.809 Y52.859
X8.713 Y52.974
X8.604 Y53.077
X8.485 Y53.168
X8.357 Y53.245
X8.22 Y53.308
X8.078 Y53.356
X7.932 Y53.389
X7.783 Y53.405
X7.633 Y53.407
X7.627 Y53.406
X7.429 Y53.355
X7.254 Y53.249
X7.117 Y53.097
X7.03 Y52.912
X7. Y52.71
Y52.008
G3 X7.31 Y51.719 Z-5.8 I0.3 J0.01
G1 X7.361 Y51.725
X7.579 Y51.771
X8.423 Y51.947
X8.691 Y52.004
X8.762 Y52.018 Z-5.831
G3 X9. Y52.302 Z-6. I-0.061 J0.294
G1 Y53.01
X8.993 Y53.16
X8.951 Y53.304
X8.888 Y53.44
X8.806 Y53.566
X8.709 Y53.68
X8.6 Y53.783
X8.48 Y53.873
X8.351 Y53.95
X8.214 Y54.012
X8.072 Y54.06
X7.926 Y54.092
X7.776 Y54.107
X7.624 Y54.108
X7.426 Y54.056
X7.252 Y53.95
X7.116 Y53.798
X7.03 Y53.613
X7. Y53.412
Y52.71
G3 X7.31 Y52.42 Z-5.8 I0.3 J0.01
G1 X7.363 Y52.427
X7.578 Y52.473
X8.424 Y52.655
X8.691 Y52.712
X8.763 Y52.727 Z-5.831
G3 X9. Y53.01 Z-6. I-0.063 J0.293
G1 Y53.684
X8.993 Y53.834
X8.957 Y53.979
X8.897 Y54.117
X8.819 Y54.245
X8.725 Y54.362
X8.617 Y54.467
X8.499 Y54.559
X8.372 Y54.639
X8.237 Y54.703
X8.095 Y54.753
X7.949 Y54.788
X7.801 Y54.807
X7.651 Y54.81
X7.638 Y54.809
X7.437 Y54.76
X7.259 Y54.655
X7.119 Y54.503
X7.031 Y54.316
X7. Y54.111
Y53.412
G3 X7.31 Y53.122 Z-5.8 I0.3 J0.01
G1 X7.357 Y53.128
X7.579 Y53.171
X8.422 Y53.335
X8.691 Y53.387
X8.757 Y53.4 Z-5.829
G3 X9. Y53.684 Z-6. I-0.057 J0.294
G1 Y54.393
X8.993 Y54.543
X8.955 Y54.688
X8.894 Y54.825
X8.815 Y54.952
X8.72 Y55.068
X8.612 Y55.172
X8.493 Y55.264
X8.366 Y55.343
X8.23 Y55.406
X8.088 Y55.456
X7.942 Y55.49
X7.793 Y55.507
X7.643 Y55.51
X7.632 Y55.509
X7.433 Y55.459
X7.256 Y55.354
X7.118 Y55.201
X7.03 Y55.015
X7. Y54.812
Y54.111
G3 X7.31 Y53.822 Z-5.8 I0.3 J0.01
G1 X7.359 Y53.828
X7.579 Y53.872
X8.423 Y54.042
X8.691 Y54.095
X8.759 Y54.109 Z-5.83
G3 X9. Y54.393 Z-6. I-0.059 J0.294
G1 Y55.102
X8.993 Y55.251
X8.954 Y55.396
X8.892 Y55.533
X8.811 Y55.659
X8.715 Y55.775
X8.607 Y55.878
X8.488 Y55.969
X8.359 Y56.047
X8.223 Y56.11
X8.081 Y56.159
X7.935 Y56.192
X7.786 Y56.209
X7.636 Y56.21
X7.629
X7.43 Y56.159
X7.255 Y56.053
X7.117 Y55.901
X7.03 Y55.716
X7. Y55.513
Y54.812
G3 X7.31 Y54.523 Z-5.8 I0.3 J0.01
G1 X7.361 Y54.529
X7.579 Y54.574
X8.423 Y54.748
X8.691 Y54.804
X8.761 Y54.818 Z-5.83
G3 X9. Y55.102 Z-6. I-0.061 J0.294
G1 Y55.767
X8.993 Y55.917
X8.96 Y56.064
X8.904 Y56.203
X8.828 Y56.332
X8.735 Y56.45
X8.629 Y56.556
X8.512 Y56.65
X8.386 Y56.731
X8.252 Y56.798
X8.111 Y56.85
X7.965 Y56.886
X7.817 Y56.906
X7.667 Y56.911
X7.647 Y56.91
X7.443 Y56.863
X7.263 Y56.759
X7.121 Y56.606
X7.031 Y56.418
X7. Y56.212
Y55.513
G3 X7.31 Y55.224 Z-5.8 I0.3 J0.01
G1 X7.353 Y55.229
X7.58 Y55.27
X8.421 Y55.422
X8.691 Y55.471
X8.754 Y55.483 Z-5.827
G3 X9. Y55.767 Z-6. I-0.054 J0.295
G1 Y56.476
X8.993 Y56.626
X8.958 Y56.772
X8.9 Y56.91
X8.823 Y57.039
X8.73 Y57.156
X8.623 Y57.262
X8.506 Y57.355
X8.379 Y57.435
X8.244 Y57.5
X8.103 Y57.552
X7.957 Y57.587
X7.808 Y57.606
X7.658 Y57.61
X7.64 Y57.609
X7.439 Y57.561
X7.26 Y57.456
X7.12 Y57.303
X7.031 Y57.116
X7. Y56.911
Y56.212
G3 X7.31 Y55.923 Z-5.8 I0.3 J0.01
G1 X7.355 Y55.928
X7.579 Y55.97
X8.422 Y56.129
X8.691 Y56.18
X8.756 Y56.192 Z-5.828
G3 X9. Y56.476 Z-6. I-0.056 J0.295
G1 Y57.185
X8.993 Y57.335
X8.957 Y57.481
X8.897 Y57.618
X8.819 Y57.746
X8.724 Y57.863
X8.617 Y57.967
X8.499 Y58.06
X8.372 Y58.139
X8.236 Y58.203
X8.095 Y58.254
X7.949 Y58.288
X7.8 Y58.307
X7.65 Y58.31
X7.636 Y58.309
X7.436 Y58.26
X7.258 Y58.154
X7.119 Y58.002
X7.03 Y57.816
X7. Y57.612
Y56.911
G3 X7.31 Y56.622 Z-5.8 I0.3 J0.01
G1 X7.357 Y56.627
X7.579 Y56.671
X8.422 Y56.836
X8.691 Y56.888
X8.758 Y56.901 Z-5.829
G3 X9. Y57.185 Z-6. I-0.058 J0.294
G1 Y57.894
X8.993 Y58.044
X8.955 Y58.189
X8.894 Y58.326
X8.815 Y58.453
X8.719 Y58.569
X8.611 Y58.673
X8.493 Y58.765
X8.365 Y58.843
X8.229 Y58.907
X8.087 Y58.956
X7.941 Y58.99
X7.792 Y59.008
X7.642 Y59.01
X7.632 Y59.009
X7.433 Y58.959
X7.256 Y58.854
X7.118 Y58.701
X7.03 Y58.516
X7. Y58.312
Y57.612
G3 X7.31 Y57.322 Z-5.8 I0.3 J0.01
G1 X7.359 Y57.328
X7.579 Y57.372
X8.423 Y57.542
X8.691 Y57.596
X8.759 Y57.61 Z-5.83
G3 X9. Y57.894 Z-6. I-0.059 J0.294
G1 Y58.603
X8.993 Y58.752
X8.953 Y58.897
X8.891 Y59.034
X8.811 Y59.16
X8.715 Y59.276
X8.606 Y59.379
X8.487 Y59.47
X8.359 Y59.548
X8.222 Y59.611
X8.081 Y59.659
X7.934 Y59.692
X7.785 Y59.709
X7.635 Y59.711
X7.628 Y59.71
X7.43 Y59.659
X7.254 Y59.553
X7.117 Y59.401
X7.03 Y59.216
X7. Y59.013
Y58.312
G3 X7.31 Y58.023 Z-5.8 I0.3 J0.01
G1 X7.361 Y58.029
X7.579 Y58.074
X8.423 Y58.249
X8.691 Y58.305
X8.761 Y58.319 Z-5.83
G3 X9. Y58.603 Z-6. I-0.061 J0.294
G1 Y59.311
X8.993 Y59.461
X8.952 Y59.606
X8.889 Y59.742
X8.807 Y59.868
X8.71 Y59.982
X8.601 Y60.085
X8.482 Y60.175
X8.353 Y60.253
X8.216 Y60.315
X8.074 Y60.363
X7.928 Y60.395
X7.779 Y60.411
X7.625
X7.427 Y60.36
X7.253 Y60.254
X7.117 Y60.102
X7.03 Y59.917
X7. Y59.715
Y59.013
G3 X7.31 Y58.724 Z-5.8 I0.3 J0.01
G1 X7.362 Y58.731
X7.578 Y58.777
X8.423 Y58.956
X8.691 Y59.013
X8.763 Y59.028 Z-5.831
G3 X9. Y59.311 Z-6. I-0.062 J0.293
G1 Y59.808
X8.999 Y59.843
X8.995 Y59.878
X8.939 Y60.161
X8.938 Y60.162
X8.93 Y60.205
X8.893 Y60.35
X8.847 Y60.441
X8.833 Y60.466
X8.817 Y60.491
G3 X8.398 Y60.559 Z-5.8 I-0.243 J-0.175
X8.293 Y60.209 I0.175 J-0.244
G1 X8.353 Y60.05
G3 X8.682 Y59.861 I0.28 J0.106
X8.93 Y60.205 Z-6. I-0.048 J0.296
G1 X8.91 Y60.304
X8.902 Y60.339
X8.889 Y60.375
X8.847 Y60.445
X8.797 Y60.521
X8.773 Y60.557
X8.753 Y60.587
X8.739 Y60.606
X8.688 Y60.664
X8.632 Y60.717
X8.57 Y60.764
G3 X8.157 Y60.667 Z-5.8 I-0.158 J-0.255
X8.208 Y60.29 I0.255 J-0.158
G1 X8.293 Y60.21
X8.337 Y60.176
X8.387 Y60.15
X8.441 Y60.135
X8.497 Y60.129
X8.553 Y60.135
X8.606 Y60.15
X8.655 Y60.174
G3 X8.753 Y60.587 Z-6. I-0.158 J0.255
G1 X8.712 Y60.646
X8.686 Y60.675
X8.655 Y60.705
X8.622 Y60.729
X8.409 Y60.871
X8.372 Y60.888
X8.337 Y60.902
X8.302 Y60.911
X8.089 Y60.953
X8.018 Y60.963
X7.983 Y60.964
X7.948 Y60.96
X7.806 Y60.932
X7.664 Y60.903
X7.628 Y60.89
X7.591 Y60.871
X7.523 Y60.826
X7.378 Y60.729
X7.337 Y60.698
X7.297 Y60.658
X7.24 Y60.576
X7.153 Y60.445
X7.12 Y60.392
X7.107 Y60.366
X7.098 Y60.339
X7.09 Y60.304
X7.005 Y59.878
X7.001 Y59.843
X7. Y59.808
Y59.715
G3 X7.299 Y59.426 I0.3 J0.01
G1 X7.3
X7.324 Y59.427
X7.374 Y59.444 Z-5.995
X7.423 Y59.461 Z-5.981
X7.468 Y59.477 Z-5.958
X7.501 Y59.514 Z-5.921
X7.528 Y59.544 Z-5.874
X7.548 Y59.566 Z-5.82
X7.56 Y59.58 Z-5.762
X7.565 Y59.585 Z-5.7
Z5.
X28. Y30.393
Z2.
Z-1.5 F30.
X28.038 F100.
X28.03 Y30.43
X27.997 Y30.447
X27.961 Y30.436
X27.939 Y30.405
X27.94 Y30.368
X27.957 Y30.335
X27.986 Y30.31
X28.021 Y30.298
X28.059 Y30.301
X28.092 Y30.317
X28.12 Y30.343
X28.139 Y30.376
X28.155 Y30.449
X28.135 Y30.521
X28.086 Y30.577
X28.018 Y30.611
X27.944 Y30.618
X27.871 Y30.599
X27.808 Y30.559
X27.76 Y30.501
X27.73 Y30.432
X27.708 Y30.284
X27.76 Y30.143
X27.867 Y30.039
X28.007 Y29.986
X28.157 Y29.988
X28.298 Y30.041
X28.414 Y30.136
X28.497 Y30.261
X28.538 Y30.405
X28.539 Y30.555
X28.499 Y30.699
X28.422 Y30.828
X28.315 Y30.934
X28.187 Y31.011
X28.043 Y31.055
X27.893 Y31.064
X27.745 Y31.04
X27.606 Y30.984
X27.481 Y30.901
X27.374 Y30.796
X27.291 Y30.672
X27.231 Y30.534
X27.199 Y30.387
X27.196 Y30.237
X27.218 Y30.089
X27.268 Y29.947
X27.34 Y29.816
X27.434 Y29.7
X27.546 Y29.6
X27.674 Y29.52
X27.812 Y29.462
X27.957 Y29.426
X28.107 Y29.413
X28.257 Y29.423
X28.403 Y29.455
X28.543 Y29.508
X28.674 Y29.581
X28.712 Y29.61
X28.834 Y29.727
X28.924 Y29.871
X28.977 Y30.032
X28.992 Y30.109
X29. Y30.18
Y30.613
X28.993 Y30.762
X28.965 Y30.91
X28.915 Y31.051
X28.844 Y31.184
X28.755 Y31.304
X28.65 Y31.411
X28.532 Y31.503
X28.402 Y31.579
X28.264 Y31.636
X28.119 Y31.677
X27.971 Y31.699
X27.821 Y31.704
X27.671 Y31.691
X27.524 Y31.661
X27.483 Y31.648
X27.288 Y31.548
X27.133 Y31.393
X27.034 Y31.198
X27. Y30.982
Y30.18
X27.008 Y30.109
X27.092 Y29.684
X27.102 Y29.649
X27.117 Y29.613
X27.161 Y29.542
