(1010FACESPOILBOARDV2)
(FACE SPOIL BOARD)
(MACHINE)
(  VENDOR HOMEMADE)
(  DESCRIPTION GENERIC 3-AXIS)
(T1  D=15.9 CR=0. - ZMIN=-0.1 - FACE MILL)
G90 G94 G91.1 G40 G49 G17
G21
(WHEN USING FUSION 360 FOR PERSONAL USE, THE FEEDRATE OF)
(RAPID MOVES IS REDUCED TO MATCH THE FEEDRATE OF CUTTING)
(MOVES, WHICH CAN INCREASE MACHINING TIME. UNRESTRICTED RAPID)
(MOVES ARE AVAILABLE WITH A FUSION 360 SUBSCRIPTION.)
G28 G91 Z0.
G90

(FACE1)
M5
T1 M6
S5000 M3
G54
G0 X260.335 Y3.282
G43 Z5. H1
G1 Z1.49 F133.
G18 G3 X258.745 Z-0.1 I-1.59 K0. F100.
G1 X257.96
X-7.96 F400.
G17 G2 Y14.403 I0. J5.56
G1 X257.96
G3 Y25.524 I0. J5.56
G1 X-7.96
G2 Y36.645 I0. J5.56
G1 X257.96
G3 Y47.765 I0. J5.56
G1 X-7.96
G2 Y58.886 I0. J5.56
G1 X257.96
G3 Y70.007 I0. J5.56
G1 X-7.96
G2 Y81.128 I0. J5.56
G1 X257.96
G3 Y92.249 I0. J5.56
G1 X-7.96
G2 Y103.37 I0. J5.56
G1 X257.96
G3 Y114.49 I0. J5.56
G1 X-7.96
G2 Y125.611 I0. J5.56
G1 X257.96
G3 Y136.732 I0. J5.56
G1 X-7.96
G2 Y147.853 I0. J5.56
G1 X257.96
G3 Y158.974 I0. J5.56
G1 X-7.96
G2 Y170.095 I0. J5.56
G1 X257.96
G3 Y181.215 I0. J5.56
G1 X-7.96
G2 Y192.336 I0. J5.56
G1 X257.96
G18 G2 X259.55 Z1.49 I0. K1.59 F100.
G1 Z5. F400.
G17

G28 G91 Z0.
G90
G28 G91 X0. Y0.
G90
M30
