(1011A-DRILLSTOPENDBASE-SLOTMILL)
(FIT 3MM SLOT DRILL)
(MACHINE)
(  VENDOR HOMEMADE)
(  DESCRIPTION GENERIC 3-AXIS)
(T10  D=3. CR=0. - ZMIN=-6. - FLAT END MILL)
G90 G94 G91.1 G40 G49 G17
G21
G28 G91 Z0.
G90

(DRILL3)
M5
T10 M6
S9000 M3
G54
M8
G0 X8. Y20.
G43 Z5. H10
Z2.
G1 Z-0.75 F40.
G0 Z5.
Z1.25
G1 Z-1.5 F40.
G0 Z5.
Z0.5
G1 Z-2.25 F40.
G0 Z5.
Z-0.25
G1 Z-3. F40.
G0 Z5.
Z-1.
G1 Z-3.75 F40.
G0 Z5.
Z-1.75
G1 Z-4.5 F40.
G0 Z5.
Z-2.5
G1 Z-5.25 F40.
G0 Z5.
Z-3.25
G1 Z-6. F40.
G4 P0.2
G0 Z5.
X28.
Z2.
G1 Z-0.75 F40.
G0 Z5.
Z1.25
G1 Z-1.5 F40.
G0 Z5.
Z0.5
G1 Z-2.25 F40.
G0 Z5.
Z-0.25
G1 Z-3. F40.
G0 Z5.
Z-1.
G1 Z-3.75 F40.
G0 Z5.
Z-1.75
G1 Z-4.5 F40.
G0 Z5.
Z-2.5
G1 Z-5.25 F40.
G0 Z5.
Z-3.25
G1 Z-6. F40.
G4 P0.2
G0 Z5.
M9
(WHEN USING FUSION 360 FOR PERSONAL USE, THE FEEDRATE OF)
(RAPID MOVES IS REDUCED TO MATCH THE FEEDRATE OF CUTTING)
(MOVES, WHICH CAN INCREASE MACHINING TIME. UNRESTRICTED RAPID)
(MOVES ARE AVAILABLE WITH A FUSION 360 SUBSCRIPTION.)

(SLOT2)
G0 X8. Y60.
G1 Z5. F40.
Z2.5
Z-1.5
Y30. F100.
Z-3. F40.
Y60. F100.
Z-4.5 F40.
Y30. F100.
Z-6. F40.
Y60. F100.
Z5.
X28.
Z2.5 F40.
Z-1.5
Y30. F100.
Z-3. F40.
Y60. F100.
Z-4.5 F40.
Y30. F100.
Z-6. F40.
Y60. F100.
Z5.

G28 G91 Z0.
G90
G28 G91 X0. Y0.
G90
M30
