(1011SWIVELPLATEV1)
(SWIVEL PLATE. CHECK MATERIAL IS 6MM THICK BEFORE STARTING)
(MACHINE)
(  VENDOR HOMEMADE)
(  DESCRIPTION GENERIC 3-AXIS)
(T10  D=3. CR=0. - ZMIN=-6. - FLAT END MILL)
G90 G94 G91.1 G40 G49 G17
G21
(WHEN USING FUSION 360 FOR PERSONAL USE, THE FEEDRATE OF)
(RAPID MOVES IS REDUCED TO MATCH THE FEEDRATE OF CUTTING)
(MOVES, WHICH CAN INCREASE MACHINING TIME. UNRESTRICTED RAPID)
(MOVES ARE AVAILABLE WITH A FUSION 360 SUBSCRIPTION.)
G28 G91 Z0.
G90

(DRILLHOLES)
M5
T10 M6
S9000 M3
G54
G0 X14.8 Y12.2
G43 Z5. H10
G1 Z1. F400.
Z-0.7 F200.
G18 G2 X15.1 Z-1. I0.3 K0.
G1 X15.25
G17 G3 X15.55 Y12.5 I0. J0.3
X13.45 I-1.05 J0. F400.
X15.55 I1.05 J0.
X15.25 Y12.8 I-0.3 J0. F200.
G1 X15.1
G18 G3 X14.8 Z-0.7 I0. K0.3
G1 Z5. F400.
Y12.2
Z0.
Z-1.7 F200.
G2 X15.1 Z-2. I0.3 K0.
G1 X15.25
G17 G3 X15.55 Y12.5 I0. J0.3
X13.45 I-1.05 J0. F400.
X15.55 I1.05 J0.
X15.25 Y12.8 I-0.3 J0. F200.
G1 X15.1
G18 G3 X14.8 Z-1.7 I0. K0.3
G1 Z5. F400.
Y12.2
Z-1.
Z-2.7 F200.
G2 X15.1 Z-3. I0.3 K0.
G1 X15.25
G17 G3 X15.55 Y12.5 I0. J0.3
X13.45 I-1.05 J0. F400.
X15.55 I1.05 J0.
X15.25 Y12.8 I-0.3 J0. F200.
G1 X15.1
G18 G3 X14.8 Z-2.7 I0. K0.3
G1 Z5. F400.
Y12.2
Z-2.
Z-3.7 F200.
G2 X15.1 Z-4. I0.3 K0.
G1 X15.25
G17 G3 X15.55 Y12.5 I0. J0.3
X13.45 I-1.05 J0. F400.
X15.55 I1.05 J0.
X15.25 Y12.8 I-0.3 J0. F200.
G1 X15.1
G18 G3 X14.8 Z-3.7 I0. K0.3
G1 Z5. F400.
Y12.2
Z-3.
Z-4.7 F200.
G2 X15.1 Z-5. I0.3 K0.
G1 X15.25
G17 G3 X15.55 Y12.5 I0. J0.3
X13.45 I-1.05 J0. F400.
X15.55 I1.05 J0.
X15.25 Y12.8 I-0.3 J0. F200.
G1 X15.1
G18 G3 X14.8 Z-4.7 I0. K0.3
G1 Z5. F400.
Y12.2
Z-3.5
Z-5.2 F200.
G2 X15.1 Z-5.5 I0.3 K0.
G1 X15.25
G17 G3 X15.55 Y12.5 I0. J0.3
X13.45 I-1.05 J0. F400.
X15.55 I1.05 J0.
X15.25 Y12.8 I-0.3 J0. F200.
G1 X15.1
G18 G3 X14.8 Z-5.2 I0. K0.3
G1 Z5. F400.
Y12.2
Z-4.
Z-5.7 F200.
G2 X15.1 Z-6. I0.3 K0.
G1 X15.25
G17 G3 X15.55 Y12.5 I0. J0.3
X13.45 I-1.05 J0. F400.
X15.55 I1.05 J0.
X15.25 Y12.8 I-0.3 J0. F200.
G1 X15.1
G18 G3 X14.8 Z-5.7 I0. K0.3
G1 Z5. F400.
Y22.2
Z1.
Z-0.7 F200.
G2 X15.1 Z-1. I0.3 K0.
G1 X15.25
G17 G3 X15.55 Y22.5 I0. J0.3
X13.45 I-1.05 J0. F400.
X15.55 I1.05 J0.
X15.25 Y22.8 I-0.3 J0. F200.
G1 X15.1
G18 G3 X14.8 Z-0.7 I0. K0.3
G1 Z5. F400.
Y22.2
Z0.
Z-1.7 F200.
G2 X15.1 Z-2. I0.3 K0.
G1 X15.25
G17 G3 X15.55 Y22.5 I0. J0.3
X13.45 I-1.05 J0. F400.
X15.55 I1.05 J0.
X15.25 Y22.8 I-0.3 J0. F200.
G1 X15.1
G18 G3 X14.8 Z-1.7 I0. K0.3
G1 Z5. F400.
Y22.2
Z-1.
Z-2.7 F200.
G2 X15.1 Z-3. I0.3 K0.
G1 X15.25
G17 G3 X15.55 Y22.5 I0. J0.3
X13.45 I-1.05 J0. F400.
X15.55 I1.05 J0.
X15.25 Y22.8 I-0.3 J0. F200.
G1 X15.1
G18 G3 X14.8 Z-2.7 I0. K0.3
G1 Z5. F400.
Y22.2
Z-2.
Z-3.7 F200.
G2 X15.1 Z-4. I0.3 K0.
G1 X15.25
G17 G3 X15.55 Y22.5 I0. J0.3
X13.45 I-1.05 J0. F400.
X15.55 I1.05 J0.
X15.25 Y22.8 I-0.3 J0. F200.
G1 X15.1
G18 G3 X14.8 Z-3.7 I0. K0.3
G1 Z5. F400.
Y22.2
Z-3.
Z-4.7 F200.
G2 X15.1 Z-5. I0.3 K0.
G1 X15.25
G17 G3 X15.55 Y22.5 I0. J0.3
X13.45 I-1.05 J0. F400.
X15.55 I1.05 J0.
X15.25 Y22.8 I-0.3 J0. F200.
G1 X15.1
G18 G3 X14.8 Z-4.7 I0. K0.3
G1 Z5. F400.
Y22.2
Z-3.5
Z-5.2 F200.
G2 X15.1 Z-5.5 I0.3 K0.
G1 X15.25
G17 G3 X15.55 Y22.5 I0. J0.3
X13.45 I-1.05 J0. F400.
X15.55 I1.05 J0.
X15.25 Y22.8 I-0.3 J0. F200.
G1 X15.1
G18 G3 X14.8 Z-5.2 I0. K0.3
G1 Z5. F400.
Y22.2
Z-4.
Z-5.7 F200.
G2 X15.1 Z-6. I0.3 K0.
G1 X15.25
G17 G3 X15.55 Y22.5 I0. J0.3
X13.45 I-1.05 J0. F400.
X15.55 I1.05 J0.
X15.25 Y22.8 I-0.3 J0. F200.
G1 X15.1
G18 G3 X14.8 Z-5.7 I0. K0.3
G1 Z5. F400.
Y32.2
Z1.
Z-0.7 F200.
G2 X15.1 Z-1. I0.3 K0.
G1 X15.25
G17 G3 X15.55 Y32.5 I0. J0.3
X13.45 I-1.05 J0. F400.
X15.55 I1.05 J0.
X15.25 Y32.8 I-0.3 J0. F200.
G1 X15.1
G18 G3 X14.8 Z-0.7 I0. K0.3
G1 Z5. F400.
Y32.2
Z0.
Z-1.7 F200.
G2 X15.1 Z-2. I0.3 K0.
G1 X15.25
G17 G3 X15.55 Y32.5 I0. J0.3
X13.45 I-1.05 J0. F400.
X15.55 I1.05 J0.
X15.25 Y32.8 I-0.3 J0. F200.
G1 X15.1
G18 G3 X14.8 Z-1.7 I0. K0.3
G1 Z5. F400.
Y32.2
Z-1.
Z-2.7 F200.
G2 X15.1 Z-3. I0.3 K0.
G1 X15.25
G17 G3 X15.55 Y32.5 I0. J0.3
X13.45 I-1.05 J0. F400.
X15.55 I1.05 J0.
X15.25 Y32.8 I-0.3 J0. F200.
G1 X15.1
G18 G3 X14.8 Z-2.7 I0. K0.3
G1 Z5. F400.
Y32.2
Z-2.
Z-3.7 F200.
G2 X15.1 Z-4. I0.3 K0.
G1 X15.25
G17 G3 X15.55 Y32.5 I0. J0.3
X13.45 I-1.05 J0. F400.
X15.55 I1.05 J0.
X15.25 Y32.8 I-0.3 J0. F200.
G1 X15.1
G18 G3 X14.8 Z-3.7 I0. K0.3
G1 Z5. F400.
Y32.2
Z-3.
Z-4.7 F200.
G2 X15.1 Z-5. I0.3 K0.
G1 X15.25
G17 G3 X15.55 Y32.5 I0. J0.3
X13.45 I-1.05 J0. F400.
X15.55 I1.05 J0.
X15.25 Y32.8 I-0.3 J0. F200.
G1 X15.1
G18 G3 X14.8 Z-4.7 I0. K0.3
G1 Z5. F400.
Y32.2
Z-3.5
Z-5.2 F200.
G2 X15.1 Z-5.5 I0.3 K0.
G1 X15.25
G17 G3 X15.55 Y32.5 I0. J0.3
X13.45 I-1.05 J0. F400.
X15.55 I1.05 J0.
X15.25 Y32.8 I-0.3 J0. F200.
G1 X15.1
G18 G3 X14.8 Z-5.2 I0. K0.3
G1 Z5. F400.
Y32.2
Z-4.
Z-5.7 F200.
G2 X15.1 Z-6. I0.3 K0.
G1 X15.25
G17 G3 X15.55 Y32.5 I0. J0.3
X13.45 I-1.05 J0. F400.
X15.55 I1.05 J0.
X15.25 Y32.8 I-0.3 J0. F200.
G1 X15.1
G18 G3 X14.8 Z-5.7 I0. K0.3
G1 Z5. F400.
Y42.2
Z1.
Z-0.7 F200.
G2 X15.1 Z-1. I0.3 K0.
G1 X15.25
G17 G3 X15.55 Y42.5 I0. J0.3
X13.45 I-1.05 J0. F400.
X15.55 I1.05 J0.
X15.25 Y42.8 I-0.3 J0. F200.
G1 X15.1
G18 G3 X14.8 Z-0.7 I0. K0.3
G1 Z5. F400.
Y42.2
Z0.
Z-1.7 F200.
G2 X15.1 Z-2. I0.3 K0.
G1 X15.25
G17 G3 X15.55 Y42.5 I0. J0.3
X13.45 I-1.05 J0. F400.
X15.55 I1.05 J0.
X15.25 Y42.8 I-0.3 J0. F200.
G1 X15.1
G18 G3 X14.8 Z-1.7 I0. K0.3
G1 Z5. F400.
Y42.2
Z-1.
Z-2.7 F200.
G2 X15.1 Z-3. I0.3 K0.
G1 X15.25
G17 G3 X15.55 Y42.5 I0. J0.3
X13.45 I-1.05 J0. F400.
X15.55 I1.05 J0.
X15.25 Y42.8 I-0.3 J0. F200.
G1 X15.1
G18 G3 X14.8 Z-2.7 I0. K0.3
G1 Z5. F400.
Y42.2
Z-2.
Z-3.7 F200.
G2 X15.1 Z-4. I0.3 K0.
G1 X15.25
G17 G3 X15.55 Y42.5 I0. J0.3
X13.45 I-1.05 J0. F400.
X15.55 I1.05 J0.
X15.25 Y42.8 I-0.3 J0. F200.
G1 X15.1
G18 G3 X14.8 Z-3.7 I0. K0.3
G1 Z5. F400.
Y42.2
Z-3.
Z-4.7 F200.
G2 X15.1 Z-5. I0.3 K0.
G1 X15.25
G17 G3 X15.55 Y42.5 I0. J0.3
X13.45 I-1.05 J0. F400.
X15.55 I1.05 J0.
X15.25 Y42.8 I-0.3 J0. F200.
G1 X15.1
G18 G3 X14.8 Z-4.7 I0. K0.3
G1 Z5. F400.
Y42.2
Z-3.5
Z-5.2 F200.
G2 X15.1 Z-5.5 I0.3 K0.
G1 X15.25
G17 G3 X15.55 Y42.5 I0. J0.3
X13.45 I-1.05 J0. F400.
X15.55 I1.05 J0.
X15.25 Y42.8 I-0.3 J0. F200.
G1 X15.1
G18 G3 X14.8 Z-5.2 I0. K0.3
G1 Z5. F400.
Y42.2
Z-4.
Z-5.7 F200.
G2 X15.1 Z-6. I0.3 K0.
G1 X15.25
G17 G3 X15.55 Y42.5 I0. J0.3
X13.45 I-1.05 J0. F400.
X15.55 I1.05 J0.
X15.25 Y42.8 I-0.3 J0. F200.
G1 X15.1
G18 G3 X14.8 Z-5.7 I0. K0.3
G1 Z5. F400.
Y52.2
Z1.
Z-0.7 F200.
G2 X15.1 Z-1. I0.3 K0.
G1 X15.25
G17 G3 X15.55 Y52.5 I0. J0.3
X13.45 I-1.05 J0. F400.
X15.55 I1.05 J0.
X15.25 Y52.8 I-0.3 J0. F200.
G1 X15.1
G18 G3 X14.8 Z-0.7 I0. K0.3
G1 Z5. F400.
Y52.2
Z0.
Z-1.7 F200.
G2 X15.1 Z-2. I0.3 K0.
G1 X15.25
G17 G3 X15.55 Y52.5 I0. J0.3
X13.45 I-1.05 J0. F400.
X15.55 I1.05 J0.
X15.25 Y52.8 I-0.3 J0. F200.
G1 X15.1
G18 G3 X14.8 Z-1.7 I0. K0.3
G1 Z5. F400.
Y52.2
Z-1.
Z-2.7 F200.
G2 X15.1 Z-3. I0.3 K0.
G1 X15.25
G17 G3 X15.55 Y52.5 I0. J0.3
X13.45 I-1.05 J0. F400.
X15.55 I1.05 J0.
X15.25 Y52.8 I-0.3 J0. F200.
G1 X15.1
G18 G3 X14.8 Z-2.7 I0. K0.3
G1 Z5. F400.
Y52.2
Z-2.
Z-3.7 F200.
G2 X15.1 Z-4. I0.3 K0.
G1 X15.25
G17 G3 X15.55 Y52.5 I0. J0.3
X13.45 I-1.05 J0. F400.
X15.55 I1.05 J0.
X15.25 Y52.8 I-0.3 J0. F200.
G1 X15.1
G18 G3 X14.8 Z-3.7 I0. K0.3
G1 Z5. F400.
Y52.2
Z-3.
Z-4.7 F200.
G2 X15.1 Z-5. I0.3 K0.
G1 X15.25
G17 G3 X15.55 Y52.5 I0. J0.3
X13.45 I-1.05 J0. F400.
X15.55 I1.05 J0.
X15.25 Y52.8 I-0.3 J0. F200.
G1 X15.1
G18 G3 X14.8 Z-4.7 I0. K0.3
G1 Z5. F400.
Y52.2
Z-3.5
Z-5.2 F200.
G2 X15.1 Z-5.5 I0.3 K0.
G1 X15.25
G17 G3 X15.55 Y52.5 I0. J0.3
X13.45 I-1.05 J0. F400.
X15.55 I1.05 J0.
X15.25 Y52.8 I-0.3 J0. F200.
G1 X15.1
G18 G3 X14.8 Z-5.2 I0. K0.3
G1 Z5. F400.
Y52.2
Z-4.
Z-5.7 F200.
G2 X15.1 Z-6. I0.3 K0.
G1 X15.25
G17 G3 X15.55 Y52.5 I0. J0.3
X13.45 I-1.05 J0. F400.
X15.55 I1.05 J0.
X15.25 Y52.8 I-0.3 J0. F200.
G1 X15.1
G18 G3 X14.8 Z-5.7 I0. K0.3
G1 Z5. F400.
Y62.2
Z1.
Z-0.7 F200.
G2 X15.1 Z-1. I0.3 K0.
G1 X15.25
G17 G3 X15.55 Y62.5 I0. J0.3
X13.45 I-1.05 J0. F400.
X15.55 I1.05 J0.
X15.25 Y62.8 I-0.3 J0. F200.
G1 X15.1
G18 G3 X14.8 Z-0.7 I0. K0.3
G1 Z5. F400.
Y62.2
Z0.
Z-1.7 F200.
G2 X15.1 Z-2. I0.3 K0.
G1 X15.25
G17 G3 X15.55 Y62.5 I0. J0.3
X13.45 I-1.05 J0. F400.
X15.55 I1.05 J0.
X15.25 Y62.8 I-0.3 J0. F200.
G1 X15.1
G18 G3 X14.8 Z-1.7 I0. K0.3
G1 Z5. F400.
Y62.2
Z-1.
Z-2.7 F200.
G2 X15.1 Z-3. I0.3 K0.
G1 X15.25
G17 G3 X15.55 Y62.5 I0. J0.3
X13.45 I-1.05 J0. F400.
X15.55 I1.05 J0.
X15.25 Y62.8 I-0.3 J0. F200.
G1 X15.1
G18 G3 X14.8 Z-2.7 I0. K0.3
G1 Z5. F400.
Y62.2
Z-2.
Z-3.7 F200.
G2 X15.1 Z-4. I0.3 K0.
G1 X15.25
G17 G3 X15.55 Y62.5 I0. J0.3
X13.45 I-1.05 J0. F400.
X15.55 I1.05 J0.
X15.25 Y62.8 I-0.3 J0. F200.
G1 X15.1
G18 G3 X14.8 Z-3.7 I0. K0.3
G1 Z5. F400.
Y62.2
Z-3.
Z-4.7 F200.
G2 X15.1 Z-5. I0.3 K0.
G1 X15.25
G17 G3 X15.55 Y62.5 I0. J0.3
X13.45 I-1.05 J0. F400.
X15.55 I1.05 J0.
X15.25 Y62.8 I-0.3 J0. F200.
G1 X15.1
G18 G3 X14.8 Z-4.7 I0. K0.3
G1 Z5. F400.
Y62.2
Z-3.5
Z-5.2 F200.
G2 X15.1 Z-5.5 I0.3 K0.
G1 X15.25
G17 G3 X15.55 Y62.5 I0. J0.3
X13.45 I-1.05 J0. F400.
X15.55 I1.05 J0.
X15.25 Y62.8 I-0.3 J0. F200.
G1 X15.1
G18 G3 X14.8 Z-5.2 I0. K0.3
G1 Z5. F400.
Y62.2
Z-4.
Z-5.7 F200.
G2 X15.1 Z-6. I0.3 K0.
G1 X15.25
G17 G3 X15.55 Y62.5 I0. J0.3
X13.45 I-1.05 J0. F400.
X15.55 I1.05 J0.
X15.25 Y62.8 I-0.3 J0. F200.
G1 X15.1
G18 G3 X14.8 Z-5.7 I0. K0.3
G1 Z5. F400.
G17
(WHEN USING FUSION 360 FOR PERSONAL USE, THE FEEDRATE OF)
(RAPID MOVES IS REDUCED TO MATCH THE FEEDRATE OF CUTTING)
(MOVES, WHICH CAN INCREASE MACHINING TIME. UNRESTRICTED RAPID)
(MOVES ARE AVAILABLE WITH A FUSION 360 SUBSCRIPTION.)

(CUTOUTPLATE)
G0 X-1.099 Y-2.52
G1 Z5. F40.
Z2.2
Z-0.9
X-1.095 Y-2.514 Z-0.967 F100.
X-1.086 Y-2.494 Z-1.03
X-1.071 Y-2.461 Z-1.087
X-1.05 Y-2.418 Z-1.135
X-1.026 Y-2.367 Z-1.17
X-0.999 Y-2.31 Z-1.192
X-0.97 Y-2.249 Z-1.2
X-0.842 Y-1.978
G3 X-0.985 Y-1.579 I-0.271 J0.128
G2 X-2.3 Y0.5 I0.985 J2.079 F200.
G1 Y74.5
G2 X0. Y76.8 I2.3 J0.
G1 X49.
G2 X51.3 Y74.5 I0. J-2.3
G1 Y0.5
G2 X49. Y-1.8 I-2.3 J0.
G1 X0.
G2 X-0.985 Y-1.579 I0. J2.3
G1 Z5.
X-1.099 Y-2.52
Z1. F40.
Z-2.1
X-1.095 Y-2.514 Z-2.167 F100.
X-1.086 Y-2.494 Z-2.23
X-1.071 Y-2.461 Z-2.287
X-1.05 Y-2.418 Z-2.335
X-1.026 Y-2.367 Z-2.37
X-0.999 Y-2.31 Z-2.392
X-0.97 Y-2.249 Z-2.4
X-0.842 Y-1.978
G3 X-0.985 Y-1.579 I-0.271 J0.128
G2 X-2.3 Y0.5 I0.985 J2.079 F200.
G1 Y74.5
G2 X0. Y76.8 I2.3 J0.
G1 X49.
G2 X51.3 Y74.5 I0. J-2.3
G1 Y0.5
G2 X49. Y-1.8 I-2.3 J0.
G1 X0.
G2 X-0.985 Y-1.579 I0. J2.3
G1 Z5.
X-1.099 Y-2.52
Z-0.2 F40.
Z-3.3
X-1.095 Y-2.514 Z-3.367 F100.
X-1.086 Y-2.494 Z-3.43
X-1.071 Y-2.461 Z-3.487
X-1.05 Y-2.418 Z-3.535
X-1.026 Y-2.367 Z-3.57
X-0.999 Y-2.31 Z-3.592
X-0.97 Y-2.249 Z-3.6
X-0.842 Y-1.978
G3 X-0.985 Y-1.579 I-0.271 J0.128
G2 X-2.3 Y0.5 I0.985 J2.079 F200.
G1 Y74.5
G2 X0. Y76.8 I2.3 J0.
G1 X49.
G2 X51.3 Y74.5 I0. J-2.3
G1 Y0.5
G2 X49. Y-1.8 I-2.3 J0.
G1 X0.
G2 X-0.985 Y-1.579 I0. J2.3
G1 Z5.
X-1.099 Y-2.52
Z-1.4 F40.
Z-4.5
X-1.095 Y-2.514 Z-4.567 F100.
X-1.086 Y-2.494 Z-4.63
X-1.071 Y-2.461 Z-4.687
X-1.05 Y-2.418 Z-4.735
X-1.026 Y-2.367 Z-4.77
X-0.999 Y-2.31 Z-4.792
X-0.97 Y-2.249 Z-4.8
X-0.842 Y-1.978
G3 X-0.985 Y-1.579 I-0.271 J0.128
G2 X-2.3 Y0.5 I0.985 J2.079 F200.
G1 Y74.5
G2 X0. Y76.8 I2.3 J0.
G1 X49.
G2 X51.3 Y74.5 I0. J-2.3
G1 Y0.5
G2 X49. Y-1.8 I-2.3 J0.
G1 X0.
G2 X-0.985 Y-1.579 I0. J2.3
G1 Z5.
X-1.099 Y-2.52
Z-2.6 F40.
Z-5.7
X-1.095 Y-2.514 Z-5.767 F100.
X-1.086 Y-2.494 Z-5.83
X-1.071 Y-2.461 Z-5.887
X-1.05 Y-2.418 Z-5.935
X-1.026 Y-2.367 Z-5.97
X-0.999 Y-2.31 Z-5.992
X-0.97 Y-2.249 Z-6.
X-0.842 Y-1.978
G3 X-0.985 Y-1.579 I-0.271 J0.128
G2 X-2.3 Y0.5 I0.985 J2.079 F200.
G1 Y9.957
Z-5.5
Y15.957
Z-6. F40.
Y34.871 F200.
Z-5.5
Y40.871
Z-6. F40.
Y59.785 F200.
Z-5.5
Y65.785
Z-6. F40.
Y74.5 F200.
G2 X0. Y76.8 I2.3 J0.
G1 X9.414
Z-5.5
X15.414
Z-6. F40.
X34.328 F200.
Z-5.5
X40.328
Z-6. F40.
X49. F200.
G2 X51.3 Y74.5 I0. J-2.3
G1 Y65.043
Z-5.5
Y59.043
Z-6. F40.
Y40.129 F200.
Z-5.5
Y34.129
Z-6. F40.
Y15.215 F200.
Z-5.5
Y9.215
Z-6. F40.
Y0.5 F200.
G2 X49. Y-1.8 I-2.3 J0.
G1 X39.586
Z-5.5
X33.586
Z-6. F40.
X14.672 F200.
Z-5.5
X8.672
Z-6. F40.
X0. F200.
G2 X-0.985 Y-1.579 I0. J2.3
X-1.125 Y-1.332 I0.106 J0.224
G3 X-1.238 Y-1.071 I-0.297 J0.027
G2 X-2. Y0.5 I1.238 J1.571
G1 Y9.957
Z-5.5
Y15.957
Z-6. F40.
Y34.871 F200.
Z-5.5
Y40.871
Z-6. F40.
Y59.785 F200.
Z-5.5
Y65.785
Z-6. F40.
Y74.5 F200.
G2 X0. Y76.5 I2. J0.
G1 X9.414
Z-5.5
X15.414
Z-6. F40.
X34.328 F200.
Z-5.5
X40.328
Z-6. F40.
X49. F200.
G2 X51. Y74.5 I0. J-2.
G1 Y65.043
Z-5.5
Y59.043
Z-6. F40.
Y40.129 F200.
Z-5.5
Y34.129
Z-6. F40.
Y15.215 F200.
Z-5.5
Y9.215
Z-6. F40.
Y0.5 F200.
G2 X49. Y-1.5 I-2. J0.
G1 X39.586
Z-5.5
X33.586
Z-6. F40.
X14.672 F200.
Z-5.5
X8.672
Z-6. F40.
X0. F200.
G2 X-1.238 Y-1.071 I0. J2.
G1 Z5.

G28 G91 Z0.
G90
G28 G91 X0. Y0.
G90
M30
