(1011SWIVELPLATEV4-ALUMINIUMSLOWER)
(MACHINE)
(  VENDOR HOMEMADE)
(  DESCRIPTION GENERIC 3-AXIS)
(T10  D=3. CR=0. - ZMIN=-5.2 - FLAT END MILL)
G90 G94 G91.1 G40 G49 G17
G21
(WHEN USING FUSION 360 FOR PERSONAL USE, THE FEEDRATE OF)
(RAPID MOVES IS REDUCED TO MATCH THE FEEDRATE OF CUTTING)
(MOVES, WHICH CAN INCREASE MACHINING TIME. UNRESTRICTED RAPID)
(MOVES ARE AVAILABLE WITH A FUSION 360 SUBSCRIPTION.)
G28 G91 Z0.
G90

(DRILLHOLES)
M5
T10 M6
S9000 M3
G54
G0 X14.8 Y12.2
G43 Z6. H10
G1 Z1.75 F400.
Z0.05 F200.
G18 G2 X15.1 Z-0.25 I0.3 K0.
G1 X15.25
G17 G3 X15.55 Y12.5 I0. J0.3
X13.45 I-1.05 J0. F400.
X15.55 I1.05 J0.
X15.25 Y12.8 I-0.3 J0. F200.
G1 X15.1
G18 G3 X14.8 Z0.05 I0. K0.3
G1 Z6. F400.
Y12.2
Z1.5
Z-0.2 F200.
G2 X15.1 Z-0.5 I0.3 K0.
G1 X15.25
G17 G3 X15.55 Y12.5 I0. J0.3
X13.45 I-1.05 J0. F400.
X15.55 I1.05 J0.
X15.25 Y12.8 I-0.3 J0. F200.
G1 X15.1
G18 G3 X14.8 Z-0.2 I0. K0.3
G1 Z6. F400.
Y12.2
Z1.25
Z-0.45 F200.
G2 X15.1 Z-0.75 I0.3 K0.
G1 X15.25
G17 G3 X15.55 Y12.5 I0. J0.3
X13.45 I-1.05 J0. F400.
X15.55 I1.05 J0.
X15.25 Y12.8 I-0.3 J0. F200.
G1 X15.1
G18 G3 X14.8 Z-0.45 I0. K0.3
G1 Z6. F400.
Y12.2
Z1.
Z-0.7 F200.
G2 X15.1 Z-1. I0.3 K0.
G1 X15.25
G17 G3 X15.55 Y12.5 I0. J0.3
X13.45 I-1.05 J0. F400.
X15.55 I1.05 J0.
X15.25 Y12.8 I-0.3 J0. F200.
G1 X15.1
G18 G3 X14.8 Z-0.7 I0. K0.3
G1 Z6. F400.
Y12.2
Z0.75
Z-0.95 F200.
G2 X15.1 Z-1.25 I0.3 K0.
G1 X15.25
G17 G3 X15.55 Y12.5 I0. J0.3
X13.45 I-1.05 J0. F400.
X15.55 I1.05 J0.
X15.25 Y12.8 I-0.3 J0. F200.
G1 X15.1
G18 G3 X14.8 Z-0.95 I0. K0.3
G1 Z6. F400.
Y12.2
Z0.5
Z-1.2 F200.
G2 X15.1 Z-1.5 I0.3 K0.
G1 X15.25
G17 G3 X15.55 Y12.5 I0. J0.3
X13.45 I-1.05 J0. F400.
X15.55 I1.05 J0.
X15.25 Y12.8 I-0.3 J0. F200.
G1 X15.1
G18 G3 X14.8 Z-1.2 I0. K0.3
G1 Z6. F400.
Y12.2
Z0.25
Z-1.45 F200.
G2 X15.1 Z-1.75 I0.3 K0.
G1 X15.25
G17 G3 X15.55 Y12.5 I0. J0.3
X13.45 I-1.05 J0. F400.
X15.55 I1.05 J0.
X15.25 Y12.8 I-0.3 J0. F200.
G1 X15.1
G18 G3 X14.8 Z-1.45 I0. K0.3
G1 Z6. F400.
Y12.2
Z0.
Z-1.7 F200.
G2 X15.1 Z-2. I0.3 K0.
G1 X15.25
G17 G3 X15.55 Y12.5 I0. J0.3
X13.45 I-1.05 J0. F400.
X15.55 I1.05 J0.
X15.25 Y12.8 I-0.3 J0. F200.
G1 X15.1
G18 G3 X14.8 Z-1.7 I0. K0.3
G1 Z6. F400.
Y12.2
Z-0.25
Z-1.95 F200.
G2 X15.1 Z-2.25 I0.3 K0.
G1 X15.25
G17 G3 X15.55 Y12.5 I0. J0.3
X13.45 I-1.05 J0. F400.
X15.55 I1.05 J0.
X15.25 Y12.8 I-0.3 J0. F200.
G1 X15.1
G18 G3 X14.8 Z-1.95 I0. K0.3
G1 Z6. F400.
Y12.2
Z-0.5
Z-2.2 F200.
G2 X15.1 Z-2.5 I0.3 K0.
G1 X15.25
G17 G3 X15.55 Y12.5 I0. J0.3
X13.45 I-1.05 J0. F400.
X15.55 I1.05 J0.
X15.25 Y12.8 I-0.3 J0. F200.
G1 X15.1
G18 G3 X14.8 Z-2.2 I0. K0.3
G1 Z6. F400.
Y12.2
Z-0.75
Z-2.45 F200.
G2 X15.1 Z-2.75 I0.3 K0.
G1 X15.25
G17 G3 X15.55 Y12.5 I0. J0.3
X13.45 I-1.05 J0. F400.
X15.55 I1.05 J0.
X15.25 Y12.8 I-0.3 J0. F200.
G1 X15.1
G18 G3 X14.8 Z-2.45 I0. K0.3
G1 Z6. F400.
Y12.2
Z-1.
Z-2.7 F200.
G2 X15.1 Z-3. I0.3 K0.
G1 X15.25
G17 G3 X15.55 Y12.5 I0. J0.3
X13.45 I-1.05 J0. F400.
X15.55 I1.05 J0.
X15.25 Y12.8 I-0.3 J0. F200.
G1 X15.1
G18 G3 X14.8 Z-2.7 I0. K0.3
G1 Z6. F400.
Y12.2
Z-1.25
Z-2.95 F200.
G2 X15.1 Z-3.25 I0.3 K0.
G1 X15.25
G17 G3 X15.55 Y12.5 I0. J0.3
X13.45 I-1.05 J0. F400.
X15.55 I1.05 J0.
X15.25 Y12.8 I-0.3 J0. F200.
G1 X15.1
G18 G3 X14.8 Z-2.95 I0. K0.3
G1 Z6. F400.
Y12.2
Z-1.5
Z-3.2 F200.
G2 X15.1 Z-3.5 I0.3 K0.
G1 X15.25
G17 G3 X15.55 Y12.5 I0. J0.3
X13.45 I-1.05 J0. F400.
X15.55 I1.05 J0.
X15.25 Y12.8 I-0.3 J0. F200.
G1 X15.1
G18 G3 X14.8 Z-3.2 I0. K0.3
G1 Z6. F400.
Y12.2
Z-1.75
Z-3.45 F200.
G2 X15.1 Z-3.75 I0.3 K0.
G1 X15.25
G17 G3 X15.55 Y12.5 I0. J0.3
X13.45 I-1.05 J0. F400.
X15.55 I1.05 J0.
X15.25 Y12.8 I-0.3 J0. F200.
G1 X15.1
G18 G3 X14.8 Z-3.45 I0. K0.3
G1 Z6. F400.
Y12.2
Z-2.
Z-3.7 F200.
G2 X15.1 Z-4. I0.3 K0.
G1 X15.25
G17 G3 X15.55 Y12.5 I0. J0.3
X13.45 I-1.05 J0. F400.
X15.55 I1.05 J0.
X15.25 Y12.8 I-0.3 J0. F200.
G1 X15.1
G18 G3 X14.8 Z-3.7 I0. K0.3
G1 Z6. F400.
Y12.2
Z-2.25
Z-3.95 F200.
G2 X15.1 Z-4.25 I0.3 K0.
G1 X15.25
G17 G3 X15.55 Y12.5 I0. J0.3
X13.45 I-1.05 J0. F400.
X15.55 I1.05 J0.
X15.25 Y12.8 I-0.3 J0. F200.
G1 X15.1
G18 G3 X14.8 Z-3.95 I0. K0.3
G1 Z6. F400.
Y12.2
Z-2.5
Z-4.2 F200.
G2 X15.1 Z-4.5 I0.3 K0.
G1 X15.25
G17 G3 X15.55 Y12.5 I0. J0.3
X13.45 I-1.05 J0. F400.
X15.55 I1.05 J0.
X15.25 Y12.8 I-0.3 J0. F200.
G1 X15.1
G18 G3 X14.8 Z-4.2 I0. K0.3
G1 Z6. F400.
Y12.2
Z-2.75
Z-4.45 F200.
G2 X15.1 Z-4.75 I0.3 K0.
G1 X15.25
G17 G3 X15.55 Y12.5 I0. J0.3
X13.45 I-1.05 J0. F400.
X15.55 I1.05 J0.
X15.25 Y12.8 I-0.3 J0. F200.
G1 X15.1
G18 G3 X14.8 Z-4.45 I0. K0.3
G1 Z6. F400.
Y12.2
Z-2.975
Z-4.675 F200.
G2 X15.1 Z-4.975 I0.3 K0.
G1 X15.25
G17 G3 X15.55 Y12.5 I0. J0.3
X13.45 I-1.05 J0. F400.
X15.55 I1.05 J0.
X15.25 Y12.8 I-0.3 J0. F200.
G1 X15.1
G18 G3 X14.8 Z-4.675 I0. K0.3
G1 Z6. F400.
Y12.2
Z-3.2
Z-4.9 F200.
G2 X15.1 Z-5.2 I0.3 K0.
G1 X15.25
G17 G3 X15.55 Y12.5 I0. J0.3
X13.45 I-1.05 J0. F400.
X15.55 I1.05 J0.
X15.25 Y12.8 I-0.3 J0. F200.
G1 X15.1
G18 G3 X14.8 Z-4.9 I0. K0.3
G1 Z6. F400.
Y22.2
Z1.75
Z0.05 F200.
G2 X15.1 Z-0.25 I0.3 K0.
G1 X15.25
G17 G3 X15.55 Y22.5 I0. J0.3
X13.45 I-1.05 J0. F400.
X15.55 I1.05 J0.
X15.25 Y22.8 I-0.3 J0. F200.
G1 X15.1
G18 G3 X14.8 Z0.05 I0. K0.3
G1 Z6. F400.
Y22.2
Z1.5
Z-0.2 F200.
G2 X15.1 Z-0.5 I0.3 K0.
G1 X15.25
G17 G3 X15.55 Y22.5 I0. J0.3
X13.45 I-1.05 J0. F400.
X15.55 I1.05 J0.
X15.25 Y22.8 I-0.3 J0. F200.
G1 X15.1
G18 G3 X14.8 Z-0.2 I0. K0.3
G1 Z6. F400.
Y22.2
Z1.25
Z-0.45 F200.
G2 X15.1 Z-0.75 I0.3 K0.
G1 X15.25
G17 G3 X15.55 Y22.5 I0. J0.3
X13.45 I-1.05 J0. F400.
X15.55 I1.05 J0.
X15.25 Y22.8 I-0.3 J0. F200.
G1 X15.1
G18 G3 X14.8 Z-0.45 I0. K0.3
G1 Z6. F400.
Y22.2
Z1.
Z-0.7 F200.
G2 X15.1 Z-1. I0.3 K0.
G1 X15.25
G17 G3 X15.55 Y22.5 I0. J0.3
X13.45 I-1.05 J0. F400.
X15.55 I1.05 J0.
X15.25 Y22.8 I-0.3 J0. F200.
G1 X15.1
G18 G3 X14.8 Z-0.7 I0. K0.3
G1 Z6. F400.
Y22.2
Z0.75
Z-0.95 F200.
G2 X15.1 Z-1.25 I0.3 K0.
G1 X15.25
G17 G3 X15.55 Y22.5 I0. J0.3
X13.45 I-1.05 J0. F400.
X15.55 I1.05 J0.
X15.25 Y22.8 I-0.3 J0. F200.
G1 X15.1
G18 G3 X14.8 Z-0.95 I0. K0.3
G1 Z6. F400.
Y22.2
Z0.5
Z-1.2 F200.
G2 X15.1 Z-1.5 I0.3 K0.
G1 X15.25
G17 G3 X15.55 Y22.5 I0. J0.3
X13.45 I-1.05 J0. F400.
X15.55 I1.05 J0.
X15.25 Y22.8 I-0.3 J0. F200.
G1 X15.1
G18 G3 X14.8 Z-1.2 I0. K0.3
G1 Z6. F400.
Y22.2
Z0.25
Z-1.45 F200.
G2 X15.1 Z-1.75 I0.3 K0.
G1 X15.25
G17 G3 X15.55 Y22.5 I0. J0.3
X13.45 I-1.05 J0. F400.
X15.55 I1.05 J0.
X15.25 Y22.8 I-0.3 J0. F200.
G1 X15.1
G18 G3 X14.8 Z-1.45 I0. K0.3
G1 Z6. F400.
Y22.2
Z0.
Z-1.7 F200.
G2 X15.1 Z-2. I0.3 K0.
G1 X15.25
G17 G3 X15.55 Y22.5 I0. J0.3
X13.45 I-1.05 J0. F400.
X15.55 I1.05 J0.
X15.25 Y22.8 I-0.3 J0. F200.
G1 X15.1
G18 G3 X14.8 Z-1.7 I0. K0.3
G1 Z6. F400.
Y22.2
Z-0.25
Z-1.95 F200.
G2 X15.1 Z-2.25 I0.3 K0.
G1 X15.25
G17 G3 X15.55 Y22.5 I0. J0.3
X13.45 I-1.05 J0. F400.
X15.55 I1.05 J0.
X15.25 Y22.8 I-0.3 J0. F200.
G1 X15.1
G18 G3 X14.8 Z-1.95 I0. K0.3
G1 Z6. F400.
Y22.2
Z-0.5
Z-2.2 F200.
G2 X15.1 Z-2.5 I0.3 K0.
G1 X15.25
G17 G3 X15.55 Y22.5 I0. J0.3
X13.45 I-1.05 J0. F400.
X15.55 I1.05 J0.
X15.25 Y22.8 I-0.3 J0. F200.
G1 X15.1
G18 G3 X14.8 Z-2.2 I0. K0.3
G1 Z6. F400.
Y22.2
Z-0.75
Z-2.45 F200.
G2 X15.1 Z-2.75 I0.3 K0.
G1 X15.25
G17 G3 X15.55 Y22.5 I0. J0.3
X13.45 I-1.05 J0. F400.
X15.55 I1.05 J0.
X15.25 Y22.8 I-0.3 J0. F200.
G1 X15.1
G18 G3 X14.8 Z-2.45 I0. K0.3
G1 Z6. F400.
Y22.2
Z-1.
Z-2.7 F200.
G2 X15.1 Z-3. I0.3 K0.
G1 X15.25
G17 G3 X15.55 Y22.5 I0. J0.3
X13.45 I-1.05 J0. F400.
X15.55 I1.05 J0.
X15.25 Y22.8 I-0.3 J0. F200.
G1 X15.1
G18 G3 X14.8 Z-2.7 I0. K0.3
G1 Z6. F400.
Y22.2
Z-1.25
Z-2.95 F200.
G2 X15.1 Z-3.25 I0.3 K0.
G1 X15.25
G17 G3 X15.55 Y22.5 I0. J0.3
X13.45 I-1.05 J0. F400.
X15.55 I1.05 J0.
X15.25 Y22.8 I-0.3 J0. F200.
G1 X15.1
G18 G3 X14.8 Z-2.95 I0. K0.3
G1 Z6. F400.
Y22.2
Z-1.5
Z-3.2 F200.
G2 X15.1 Z-3.5 I0.3 K0.
G1 X15.25
G17 G3 X15.55 Y22.5 I0. J0.3
X13.45 I-1.05 J0. F400.
X15.55 I1.05 J0.
X15.25 Y22.8 I-0.3 J0. F200.
G1 X15.1
G18 G3 X14.8 Z-3.2 I0. K0.3
G1 Z6. F400.
Y22.2
Z-1.75
Z-3.45 F200.
G2 X15.1 Z-3.75 I0.3 K0.
G1 X15.25
G17 G3 X15.55 Y22.5 I0. J0.3
X13.45 I-1.05 J0. F400.
X15.55 I1.05 J0.
X15.25 Y22.8 I-0.3 J0. F200.
G1 X15.1
G18 G3 X14.8 Z-3.45 I0. K0.3
G1 Z6. F400.
Y22.2
Z-2.
Z-3.7 F200.
G2 X15.1 Z-4. I0.3 K0.
G1 X15.25
G17 G3 X15.55 Y22.5 I0. J0.3
X13.45 I-1.05 J0. F400.
X15.55 I1.05 J0.
X15.25 Y22.8 I-0.3 J0. F200.
G1 X15.1
G18 G3 X14.8 Z-3.7 I0. K0.3
G1 Z6. F400.
Y22.2
Z-2.25
Z-3.95 F200.
G2 X15.1 Z-4.25 I0.3 K0.
G1 X15.25
G17 G3 X15.55 Y22.5 I0. J0.3
X13.45 I-1.05 J0. F400.
X15.55 I1.05 J0.
X15.25 Y22.8 I-0.3 J0. F200.
G1 X15.1
G18 G3 X14.8 Z-3.95 I0. K0.3
G1 Z6. F400.
Y22.2
Z-2.5
Z-4.2 F200.
G2 X15.1 Z-4.5 I0.3 K0.
G1 X15.25
G17 G3 X15.55 Y22.5 I0. J0.3
X13.45 I-1.05 J0. F400.
X15.55 I1.05 J0.
X15.25 Y22.8 I-0.3 J0. F200.
G1 X15.1
G18 G3 X14.8 Z-4.2 I0. K0.3
G1 Z6. F400.
Y22.2
Z-2.75
Z-4.45 F200.
G2 X15.1 Z-4.75 I0.3 K0.
G1 X15.25
G17 G3 X15.55 Y22.5 I0. J0.3
X13.45 I-1.05 J0. F400.
X15.55 I1.05 J0.
X15.25 Y22.8 I-0.3 J0. F200.
G1 X15.1
G18 G3 X14.8 Z-4.45 I0. K0.3
G1 Z6. F400.
Y22.2
Z-2.975
Z-4.675 F200.
G2 X15.1 Z-4.975 I0.3 K0.
G1 X15.25
G17 G3 X15.55 Y22.5 I0. J0.3
X13.45 I-1.05 J0. F400.
X15.55 I1.05 J0.
X15.25 Y22.8 I-0.3 J0. F200.
G1 X15.1
G18 G3 X14.8 Z-4.675 I0. K0.3
G1 Z6. F400.
Y22.2
Z-3.2
Z-4.9 F200.
G2 X15.1 Z-5.2 I0.3 K0.
G1 X15.25
G17 G3 X15.55 Y22.5 I0. J0.3
X13.45 I-1.05 J0. F400.
X15.55 I1.05 J0.
X15.25 Y22.8 I-0.3 J0. F200.
G1 X15.1
G18 G3 X14.8 Z-4.9 I0. K0.3
G1 Z6. F400.
Y32.2
Z1.75
Z0.05 F200.
G2 X15.1 Z-0.25 I0.3 K0.
G1 X15.25
G17 G3 X15.55 Y32.5 I0. J0.3
X13.45 I-1.05 J0. F400.
X15.55 I1.05 J0.
X15.25 Y32.8 I-0.3 J0. F200.
G1 X15.1
G18 G3 X14.8 Z0.05 I0. K0.3
G1 Z6. F400.
Y32.2
Z1.5
Z-0.2 F200.
G2 X15.1 Z-0.5 I0.3 K0.
G1 X15.25
G17 G3 X15.55 Y32.5 I0. J0.3
X13.45 I-1.05 J0. F400.
X15.55 I1.05 J0.
X15.25 Y32.8 I-0.3 J0. F200.
G1 X15.1
G18 G3 X14.8 Z-0.2 I0. K0.3
G1 Z6. F400.
Y32.2
Z1.25
Z-0.45 F200.
G2 X15.1 Z-0.75 I0.3 K0.
G1 X15.25
G17 G3 X15.55 Y32.5 I0. J0.3
X13.45 I-1.05 J0. F400.
X15.55 I1.05 J0.
X15.25 Y32.8 I-0.3 J0. F200.
G1 X15.1
G18 G3 X14.8 Z-0.45 I0. K0.3
G1 Z6. F400.
Y32.2
Z1.
Z-0.7 F200.
G2 X15.1 Z-1. I0.3 K0.
G1 X15.25
G17 G3 X15.55 Y32.5 I0. J0.3
X13.45 I-1.05 J0. F400.
X15.55 I1.05 J0.
X15.25 Y32.8 I-0.3 J0. F200.
G1 X15.1
G18 G3 X14.8 Z-0.7 I0. K0.3
G1 Z6. F400.
Y32.2
Z0.75
Z-0.95 F200.
G2 X15.1 Z-1.25 I0.3 K0.
G1 X15.25
G17 G3 X15.55 Y32.5 I0. J0.3
X13.45 I-1.05 J0. F400.
X15.55 I1.05 J0.
X15.25 Y32.8 I-0.3 J0. F200.
G1 X15.1
G18 G3 X14.8 Z-0.95 I0. K0.3
G1 Z6. F400.
Y32.2
Z0.5
Z-1.2 F200.
G2 X15.1 Z-1.5 I0.3 K0.
G1 X15.25
G17 G3 X15.55 Y32.5 I0. J0.3
X13.45 I-1.05 J0. F400.
X15.55 I1.05 J0.
X15.25 Y32.8 I-0.3 J0. F200.
G1 X15.1
G18 G3 X14.8 Z-1.2 I0. K0.3
G1 Z6. F400.
Y32.2
Z0.25
Z-1.45 F200.
G2 X15.1 Z-1.75 I0.3 K0.
G1 X15.25
G17 G3 X15.55 Y32.5 I0. J0.3
X13.45 I-1.05 J0. F400.
X15.55 I1.05 J0.
X15.25 Y32.8 I-0.3 J0. F200.
G1 X15.1
G18 G3 X14.8 Z-1.45 I0. K0.3
G1 Z6. F400.
Y32.2
Z0.
Z-1.7 F200.
G2 X15.1 Z-2. I0.3 K0.
G1 X15.25
G17 G3 X15.55 Y32.5 I0. J0.3
X13.45 I-1.05 J0. F400.
X15.55 I1.05 J0.
X15.25 Y32.8 I-0.3 J0. F200.
G1 X15.1
G18 G3 X14.8 Z-1.7 I0. K0.3
G1 Z6. F400.
Y32.2
Z-0.25
Z-1.95 F200.
G2 X15.1 Z-2.25 I0.3 K0.
G1 X15.25
G17 G3 X15.55 Y32.5 I0. J0.3
X13.45 I-1.05 J0. F400.
X15.55 I1.05 J0.
X15.25 Y32.8 I-0.3 J0. F200.
G1 X15.1
G18 G3 X14.8 Z-1.95 I0. K0.3
G1 Z6. F400.
Y32.2
Z-0.5
Z-2.2 F200.
G2 X15.1 Z-2.5 I0.3 K0.
G1 X15.25
G17 G3 X15.55 Y32.5 I0. J0.3
X13.45 I-1.05 J0. F400.
X15.55 I1.05 J0.
X15.25 Y32.8 I-0.3 J0. F200.
G1 X15.1
G18 G3 X14.8 Z-2.2 I0. K0.3
G1 Z6. F400.
Y32.2
Z-0.75
Z-2.45 F200.
G2 X15.1 Z-2.75 I0.3 K0.
G1 X15.25
G17 G3 X15.55 Y32.5 I0. J0.3
X13.45 I-1.05 J0. F400.
X15.55 I1.05 J0.
X15.25 Y32.8 I-0.3 J0. F200.
G1 X15.1
G18 G3 X14.8 Z-2.45 I0. K0.3
G1 Z6. F400.
Y32.2
Z-1.
Z-2.7 F200.
G2 X15.1 Z-3. I0.3 K0.
G1 X15.25
G17 G3 X15.55 Y32.5 I0. J0.3
X13.45 I-1.05 J0. F400.
X15.55 I1.05 J0.
X15.25 Y32.8 I-0.3 J0. F200.
G1 X15.1
G18 G3 X14.8 Z-2.7 I0. K0.3
G1 Z6. F400.
Y32.2
Z-1.25
Z-2.95 F200.
G2 X15.1 Z-3.25 I0.3 K0.
G1 X15.25
G17 G3 X15.55 Y32.5 I0. J0.3
X13.45 I-1.05 J0. F400.
X15.55 I1.05 J0.
X15.25 Y32.8 I-0.3 J0. F200.
G1 X15.1
G18 G3 X14.8 Z-2.95 I0. K0.3
G1 Z6. F400.
Y32.2
Z-1.5
Z-3.2 F200.
G2 X15.1 Z-3.5 I0.3 K0.
G1 X15.25
G17 G3 X15.55 Y32.5 I0. J0.3
X13.45 I-1.05 J0. F400.
X15.55 I1.05 J0.
X15.25 Y32.8 I-0.3 J0. F200.
G1 X15.1
G18 G3 X14.8 Z-3.2 I0. K0.3
G1 Z6. F400.
Y32.2
Z-1.75
Z-3.45 F200.
G2 X15.1 Z-3.75 I0.3 K0.
G1 X15.25
G17 G3 X15.55 Y32.5 I0. J0.3
X13.45 I-1.05 J0. F400.
X15.55 I1.05 J0.
X15.25 Y32.8 I-0.3 J0. F200.
G1 X15.1
G18 G3 X14.8 Z-3.45 I0. K0.3
G1 Z6. F400.
Y32.2
Z-2.
Z-3.7 F200.
G2 X15.1 Z-4. I0.3 K0.
G1 X15.25
G17 G3 X15.55 Y32.5 I0. J0.3
X13.45 I-1.05 J0. F400.
X15.55 I1.05 J0.
X15.25 Y32.8 I-0.3 J0. F200.
G1 X15.1
G18 G3 X14.8 Z-3.7 I0. K0.3
G1 Z6. F400.
Y32.2
Z-2.25
Z-3.95 F200.
G2 X15.1 Z-4.25 I0.3 K0.
G1 X15.25
G17 G3 X15.55 Y32.5 I0. J0.3
X13.45 I-1.05 J0. F400.
X15.55 I1.05 J0.
X15.25 Y32.8 I-0.3 J0. F200.
G1 X15.1
G18 G3 X14.8 Z-3.95 I0. K0.3
G1 Z6. F400.
Y32.2
Z-2.5
Z-4.2 F200.
G2 X15.1 Z-4.5 I0.3 K0.
G1 X15.25
G17 G3 X15.55 Y32.5 I0. J0.3
X13.45 I-1.05 J0. F400.
X15.55 I1.05 J0.
X15.25 Y32.8 I-0.3 J0. F200.
G1 X15.1
G18 G3 X14.8 Z-4.2 I0. K0.3
G1 Z6. F400.
Y32.2
Z-2.75
Z-4.45 F200.
G2 X15.1 Z-4.75 I0.3 K0.
G1 X15.25
G17 G3 X15.55 Y32.5 I0. J0.3
X13.45 I-1.05 J0. F400.
X15.55 I1.05 J0.
X15.25 Y32.8 I-0.3 J0. F200.
G1 X15.1
G18 G3 X14.8 Z-4.45 I0. K0.3
G1 Z6. F400.
Y32.2
Z-2.975
Z-4.675 F200.
G2 X15.1 Z-4.975 I0.3 K0.
G1 X15.25
G17 G3 X15.55 Y32.5 I0. J0.3
X13.45 I-1.05 J0. F400.
X15.55 I1.05 J0.
X15.25 Y32.8 I-0.3 J0. F200.
G1 X15.1
G18 G3 X14.8 Z-4.675 I0. K0.3
G1 Z6. F400.
Y32.2
Z-3.2
Z-4.9 F200.
G2 X15.1 Z-5.2 I0.3 K0.
G1 X15.25
G17 G3 X15.55 Y32.5 I0. J0.3
X13.45 I-1.05 J0. F400.
X15.55 I1.05 J0.
X15.25 Y32.8 I-0.3 J0. F200.
G1 X15.1
G18 G3 X14.8 Z-4.9 I0. K0.3
G1 Z6. F400.
Y42.2
Z1.75
Z0.05 F200.
G2 X15.1 Z-0.25 I0.3 K0.
G1 X15.25
G17 G3 X15.55 Y42.5 I0. J0.3
X13.45 I-1.05 J0. F400.
X15.55 I1.05 J0.
X15.25 Y42.8 I-0.3 J0. F200.
G1 X15.1
G18 G3 X14.8 Z0.05 I0. K0.3
G1 Z6. F400.
Y42.2
Z1.5
Z-0.2 F200.
G2 X15.1 Z-0.5 I0.3 K0.
G1 X15.25
G17 G3 X15.55 Y42.5 I0. J0.3
X13.45 I-1.05 J0. F400.
X15.55 I1.05 J0.
X15.25 Y42.8 I-0.3 J0. F200.
G1 X15.1
G18 G3 X14.8 Z-0.2 I0. K0.3
G1 Z6. F400.
Y42.2
Z1.25
Z-0.45 F200.
G2 X15.1 Z-0.75 I0.3 K0.
G1 X15.25
G17 G3 X15.55 Y42.5 I0. J0.3
X13.45 I-1.05 J0. F400.
X15.55 I1.05 J0.
X15.25 Y42.8 I-0.3 J0. F200.
G1 X15.1
G18 G3 X14.8 Z-0.45 I0. K0.3
G1 Z6. F400.
Y42.2
Z1.
Z-0.7 F200.
G2 X15.1 Z-1. I0.3 K0.
G1 X15.25
G17 G3 X15.55 Y42.5 I0. J0.3
X13.45 I-1.05 J0. F400.
X15.55 I1.05 J0.
X15.25 Y42.8 I-0.3 J0. F200.
G1 X15.1
G18 G3 X14.8 Z-0.7 I0. K0.3
G1 Z6. F400.
Y42.2
Z0.75
Z-0.95 F200.
G2 X15.1 Z-1.25 I0.3 K0.
G1 X15.25
G17 G3 X15.55 Y42.5 I0. J0.3
X13.45 I-1.05 J0. F400.
X15.55 I1.05 J0.
X15.25 Y42.8 I-0.3 J0. F200.
G1 X15.1
G18 G3 X14.8 Z-0.95 I0. K0.3
G1 Z6. F400.
Y42.2
Z0.5
Z-1.2 F200.
G2 X15.1 Z-1.5 I0.3 K0.
G1 X15.25
G17 G3 X15.55 Y42.5 I0. J0.3
X13.45 I-1.05 J0. F400.
X15.55 I1.05 J0.
X15.25 Y42.8 I-0.3 J0. F200.
G1 X15.1
G18 G3 X14.8 Z-1.2 I0. K0.3
G1 Z6. F400.
Y42.2
Z0.25
Z-1.45 F200.
G2 X15.1 Z-1.75 I0.3 K0.
G1 X15.25
G17 G3 X15.55 Y42.5 I0. J0.3
X13.45 I-1.05 J0. F400.
X15.55 I1.05 J0.
X15.25 Y42.8 I-0.3 J0. F200.
G1 X15.1
G18 G3 X14.8 Z-1.45 I0. K0.3
G1 Z6. F400.
Y42.2
Z0.
Z-1.7 F200.
G2 X15.1 Z-2. I0.3 K0.
G1 X15.25
G17 G3 X15.55 Y42.5 I0. J0.3
X13.45 I-1.05 J0. F400.
X15.55 I1.05 J0.
X15.25 Y42.8 I-0.3 J0. F200.
G1 X15.1
G18 G3 X14.8 Z-1.7 I0. K0.3
G1 Z6. F400.
Y42.2
Z-0.25
Z-1.95 F200.
G2 X15.1 Z-2.25 I0.3 K0.
G1 X15.25
G17 G3 X15.55 Y42.5 I0. J0.3
X13.45 I-1.05 J0. F400.
X15.55 I1.05 J0.
X15.25 Y42.8 I-0.3 J0. F200.
G1 X15.1
G18 G3 X14.8 Z-1.95 I0. K0.3
G1 Z6. F400.
Y42.2
Z-0.5
Z-2.2 F200.
G2 X15.1 Z-2.5 I0.3 K0.
G1 X15.25
G17 G3 X15.55 Y42.5 I0. J0.3
X13.45 I-1.05 J0. F400.
X15.55 I1.05 J0.
X15.25 Y42.8 I-0.3 J0. F200.
G1 X15.1
G18 G3 X14.8 Z-2.2 I0. K0.3
G1 Z6. F400.
Y42.2
Z-0.75
Z-2.45 F200.
G2 X15.1 Z-2.75 I0.3 K0.
G1 X15.25
G17 G3 X15.55 Y42.5 I0. J0.3
X13.45 I-1.05 J0. F400.
X15.55 I1.05 J0.
X15.25 Y42.8 I-0.3 J0. F200.
G1 X15.1
G18 G3 X14.8 Z-2.45 I0. K0.3
G1 Z6. F400.
Y42.2
Z-1.
Z-2.7 F200.
G2 X15.1 Z-3. I0.3 K0.
G1 X15.25
G17 G3 X15.55 Y42.5 I0. J0.3
X13.45 I-1.05 J0. F400.
X15.55 I1.05 J0.
X15.25 Y42.8 I-0.3 J0. F200.
G1 X15.1
G18 G3 X14.8 Z-2.7 I0. K0.3
G1 Z6. F400.
Y42.2
Z-1.25
Z-2.95 F200.
G2 X15.1 Z-3.25 I0.3 K0.
G1 X15.25
G17 G3 X15.55 Y42.5 I0. J0.3
X13.45 I-1.05 J0. F400.
X15.55 I1.05 J0.
X15.25 Y42.8 I-0.3 J0. F200.
G1 X15.1
G18 G3 X14.8 Z-2.95 I0. K0.3
G1 Z6. F400.
Y42.2
Z-1.5
Z-3.2 F200.
G2 X15.1 Z-3.5 I0.3 K0.
G1 X15.25
G17 G3 X15.55 Y42.5 I0. J0.3
X13.45 I-1.05 J0. F400.
X15.55 I1.05 J0.
X15.25 Y42.8 I-0.3 J0. F200.
G1 X15.1
G18 G3 X14.8 Z-3.2 I0. K0.3
G1 Z6. F400.
Y42.2
Z-1.75
Z-3.45 F200.
G2 X15.1 Z-3.75 I0.3 K0.
G1 X15.25
G17 G3 X15.55 Y42.5 I0. J0.3
X13.45 I-1.05 J0. F400.
X15.55 I1.05 J0.
X15.25 Y42.8 I-0.3 J0. F200.
G1 X15.1
G18 G3 X14.8 Z-3.45 I0. K0.3
G1 Z6. F400.
Y42.2
Z-2.
Z-3.7 F200.
G2 X15.1 Z-4. I0.3 K0.
G1 X15.25
G17 G3 X15.55 Y42.5 I0. J0.3
X13.45 I-1.05 J0. F400.
X15.55 I1.05 J0.
X15.25 Y42.8 I-0.3 J0. F200.
G1 X15.1
G18 G3 X14.8 Z-3.7 I0. K0.3
G1 Z6. F400.
Y42.2
Z-2.25
Z-3.95 F200.
G2 X15.1 Z-4.25 I0.3 K0.
G1 X15.25
G17 G3 X15.55 Y42.5 I0. J0.3
X13.45 I-1.05 J0. F400.
X15.55 I1.05 J0.
X15.25 Y42.8 I-0.3 J0. F200.
G1 X15.1
G18 G3 X14.8 Z-3.95 I0. K0.3
G1 Z6. F400.
Y42.2
Z-2.5
Z-4.2 F200.
G2 X15.1 Z-4.5 I0.3 K0.
G1 X15.25
G17 G3 X15.55 Y42.5 I0. J0.3
X13.45 I-1.05 J0. F400.
X15.55 I1.05 J0.
X15.25 Y42.8 I-0.3 J0. F200.
G1 X15.1
G18 G3 X14.8 Z-4.2 I0. K0.3
G1 Z6. F400.
Y42.2
Z-2.75
Z-4.45 F200.
G2 X15.1 Z-4.75 I0.3 K0.
G1 X15.25
G17 G3 X15.55 Y42.5 I0. J0.3
X13.45 I-1.05 J0. F400.
X15.55 I1.05 J0.
X15.25 Y42.8 I-0.3 J0. F200.
G1 X15.1
G18 G3 X14.8 Z-4.45 I0. K0.3
G1 Z6. F400.
Y42.2
Z-2.975
Z-4.675 F200.
G2 X15.1 Z-4.975 I0.3 K0.
G1 X15.25
G17 G3 X15.55 Y42.5 I0. J0.3
X13.45 I-1.05 J0. F400.
X15.55 I1.05 J0.
X15.25 Y42.8 I-0.3 J0. F200.
G1 X15.1
G18 G3 X14.8 Z-4.675 I0. K0.3
G1 Z6. F400.
Y42.2
Z-3.2
Z-4.9 F200.
G2 X15.1 Z-5.2 I0.3 K0.
G1 X15.25
G17 G3 X15.55 Y42.5 I0. J0.3
X13.45 I-1.05 J0. F400.
X15.55 I1.05 J0.
X15.25 Y42.8 I-0.3 J0. F200.
G1 X15.1
G18 G3 X14.8 Z-4.9 I0. K0.3
G1 Z6. F400.
Y52.2
Z1.75
Z0.05 F200.
G2 X15.1 Z-0.25 I0.3 K0.
G1 X15.25
G17 G3 X15.55 Y52.5 I0. J0.3
X13.45 I-1.05 J0. F400.
X15.55 I1.05 J0.
X15.25 Y52.8 I-0.3 J0. F200.
G1 X15.1
G18 G3 X14.8 Z0.05 I0. K0.3
G1 Z6. F400.
Y52.2
Z1.5
Z-0.2 F200.
G2 X15.1 Z-0.5 I0.3 K0.
G1 X15.25
G17 G3 X15.55 Y52.5 I0. J0.3
X13.45 I-1.05 J0. F400.
X15.55 I1.05 J0.
X15.25 Y52.8 I-0.3 J0. F200.
G1 X15.1
G18 G3 X14.8 Z-0.2 I0. K0.3
G1 Z6. F400.
Y52.2
Z1.25
Z-0.45 F200.
G2 X15.1 Z-0.75 I0.3 K0.
G1 X15.25
G17 G3 X15.55 Y52.5 I0. J0.3
X13.45 I-1.05 J0. F400.
X15.55 I1.05 J0.
X15.25 Y52.8 I-0.3 J0. F200.
G1 X15.1
G18 G3 X14.8 Z-0.45 I0. K0.3
G1 Z6. F400.
Y52.2
Z1.
Z-0.7 F200.
G2 X15.1 Z-1. I0.3 K0.
G1 X15.25
G17 G3 X15.55 Y52.5 I0. J0.3
X13.45 I-1.05 J0. F400.
X15.55 I1.05 J0.
X15.25 Y52.8 I-0.3 J0. F200.
G1 X15.1
G18 G3 X14.8 Z-0.7 I0. K0.3
G1 Z6. F400.
Y52.2
Z0.75
Z-0.95 F200.
G2 X15.1 Z-1.25 I0.3 K0.
G1 X15.25
G17 G3 X15.55 Y52.5 I0. J0.3
X13.45 I-1.05 J0. F400.
X15.55 I1.05 J0.
X15.25 Y52.8 I-0.3 J0. F200.
G1 X15.1
G18 G3 X14.8 Z-0.95 I0. K0.3
G1 Z6. F400.
Y52.2
Z0.5
Z-1.2 F200.
G2 X15.1 Z-1.5 I0.3 K0.
G1 X15.25
G17 G3 X15.55 Y52.5 I0. J0.3
X13.45 I-1.05 J0. F400.
X15.55 I1.05 J0.
X15.25 Y52.8 I-0.3 J0. F200.
G1 X15.1
G18 G3 X14.8 Z-1.2 I0. K0.3
G1 Z6. F400.
Y52.2
Z0.25
Z-1.45 F200.
G2 X15.1 Z-1.75 I0.3 K0.
G1 X15.25
G17 G3 X15.55 Y52.5 I0. J0.3
X13.45 I-1.05 J0. F400.
X15.55 I1.05 J0.
X15.25 Y52.8 I-0.3 J0. F200.
G1 X15.1
G18 G3 X14.8 Z-1.45 I0. K0.3
G1 Z6. F400.
Y52.2
Z0.
Z-1.7 F200.
G2 X15.1 Z-2. I0.3 K0.
G1 X15.25
G17 G3 X15.55 Y52.5 I0. J0.3
X13.45 I-1.05 J0. F400.
X15.55 I1.05 J0.
X15.25 Y52.8 I-0.3 J0. F200.
G1 X15.1
G18 G3 X14.8 Z-1.7 I0. K0.3
G1 Z6. F400.
Y52.2
Z-0.25
Z-1.95 F200.
G2 X15.1 Z-2.25 I0.3 K0.
G1 X15.25
G17 G3 X15.55 Y52.5 I0. J0.3
X13.45 I-1.05 J0. F400.
X15.55 I1.05 J0.
X15.25 Y52.8 I-0.3 J0. F200.
G1 X15.1
G18 G3 X14.8 Z-1.95 I0. K0.3
G1 Z6. F400.
Y52.2
Z-0.5
Z-2.2 F200.
G2 X15.1 Z-2.5 I0.3 K0.
G1 X15.25
G17 G3 X15.55 Y52.5 I0. J0.3
X13.45 I-1.05 J0. F400.
X15.55 I1.05 J0.
X15.25 Y52.8 I-0.3 J0. F200.
G1 X15.1
G18 G3 X14.8 Z-2.2 I0. K0.3
G1 Z6. F400.
Y52.2
Z-0.75
Z-2.45 F200.
G2 X15.1 Z-2.75 I0.3 K0.
G1 X15.25
G17 G3 X15.55 Y52.5 I0. J0.3
X13.45 I-1.05 J0. F400.
X15.55 I1.05 J0.
X15.25 Y52.8 I-0.3 J0. F200.
G1 X15.1
G18 G3 X14.8 Z-2.45 I0. K0.3
G1 Z6. F400.
Y52.2
Z-1.
Z-2.7 F200.
G2 X15.1 Z-3. I0.3 K0.
G1 X15.25
G17 G3 X15.55 Y52.5 I0. J0.3
X13.45 I-1.05 J0. F400.
X15.55 I1.05 J0.
X15.25 Y52.8 I-0.3 J0. F200.
G1 X15.1
G18 G3 X14.8 Z-2.7 I0. K0.3
G1 Z6. F400.
Y52.2
Z-1.25
Z-2.95 F200.
G2 X15.1 Z-3.25 I0.3 K0.
G1 X15.25
G17 G3 X15.55 Y52.5 I0. J0.3
X13.45 I-1.05 J0. F400.
X15.55 I1.05 J0.
X15.25 Y52.8 I-0.3 J0. F200.
G1 X15.1
G18 G3 X14.8 Z-2.95 I0. K0.3
G1 Z6. F400.
Y52.2
Z-1.5
Z-3.2 F200.
G2 X15.1 Z-3.5 I0.3 K0.
G1 X15.25
G17 G3 X15.55 Y52.5 I0. J0.3
X13.45 I-1.05 J0. F400.
X15.55 I1.05 J0.
X15.25 Y52.8 I-0.3 J0. F200.
G1 X15.1
G18 G3 X14.8 Z-3.2 I0. K0.3
G1 Z6. F400.
Y52.2
Z-1.75
Z-3.45 F200.
G2 X15.1 Z-3.75 I0.3 K0.
G1 X15.25
G17 G3 X15.55 Y52.5 I0. J0.3
X13.45 I-1.05 J0. F400.
X15.55 I1.05 J0.
X15.25 Y52.8 I-0.3 J0. F200.
G1 X15.1
G18 G3 X14.8 Z-3.45 I0. K0.3
G1 Z6. F400.
Y52.2
Z-2.
Z-3.7 F200.
G2 X15.1 Z-4. I0.3 K0.
G1 X15.25
G17 G3 X15.55 Y52.5 I0. J0.3
X13.45 I-1.05 J0. F400.
X15.55 I1.05 J0.
X15.25 Y52.8 I-0.3 J0. F200.
G1 X15.1
G18 G3 X14.8 Z-3.7 I0. K0.3
G1 Z6. F400.
Y52.2
Z-2.25
Z-3.95 F200.
G2 X15.1 Z-4.25 I0.3 K0.
G1 X15.25
G17 G3 X15.55 Y52.5 I0. J0.3
X13.45 I-1.05 J0. F400.
X15.55 I1.05 J0.
X15.25 Y52.8 I-0.3 J0. F200.
G1 X15.1
G18 G3 X14.8 Z-3.95 I0. K0.3
G1 Z6. F400.
Y52.2
Z-2.5
Z-4.2 F200.
G2 X15.1 Z-4.5 I0.3 K0.
G1 X15.25
G17 G3 X15.55 Y52.5 I0. J0.3
X13.45 I-1.05 J0. F400.
X15.55 I1.05 J0.
X15.25 Y52.8 I-0.3 J0. F200.
G1 X15.1
G18 G3 X14.8 Z-4.2 I0. K0.3
G1 Z6. F400.
Y52.2
Z-2.75
Z-4.45 F200.
G2 X15.1 Z-4.75 I0.3 K0.
G1 X15.25
G17 G3 X15.55 Y52.5 I0. J0.3
X13.45 I-1.05 J0. F400.
X15.55 I1.05 J0.
X15.25 Y52.8 I-0.3 J0. F200.
G1 X15.1
G18 G3 X14.8 Z-4.45 I0. K0.3
G1 Z6. F400.
Y52.2
Z-2.975
Z-4.675 F200.
G2 X15.1 Z-4.975 I0.3 K0.
G1 X15.25
G17 G3 X15.55 Y52.5 I0. J0.3
X13.45 I-1.05 J0. F400.
X15.55 I1.05 J0.
X15.25 Y52.8 I-0.3 J0. F200.
G1 X15.1
G18 G3 X14.8 Z-4.675 I0. K0.3
G1 Z6. F400.
Y52.2
Z-3.2
Z-4.9 F200.
G2 X15.1 Z-5.2 I0.3 K0.
G1 X15.25
G17 G3 X15.55 Y52.5 I0. J0.3
X13.45 I-1.05 J0. F400.
X15.55 I1.05 J0.
X15.25 Y52.8 I-0.3 J0. F200.
G1 X15.1
G18 G3 X14.8 Z-4.9 I0. K0.3
G1 Z6. F400.
Y62.2
Z1.75
Z0.05 F200.
G2 X15.1 Z-0.25 I0.3 K0.
G1 X15.25
G17 G3 X15.55 Y62.5 I0. J0.3
X13.45 I-1.05 J0. F400.
X15.55 I1.05 J0.
X15.25 Y62.8 I-0.3 J0. F200.
G1 X15.1
G18 G3 X14.8 Z0.05 I0. K0.3
G1 Z6. F400.
Y62.2
Z1.5
Z-0.2 F200.
G2 X15.1 Z-0.5 I0.3 K0.
G1 X15.25
G17 G3 X15.55 Y62.5 I0. J0.3
X13.45 I-1.05 J0. F400.
X15.55 I1.05 J0.
X15.25 Y62.8 I-0.3 J0. F200.
G1 X15.1
G18 G3 X14.8 Z-0.2 I0. K0.3
G1 Z6. F400.
Y62.2
Z1.25
Z-0.45 F200.
G2 X15.1 Z-0.75 I0.3 K0.
G1 X15.25
G17 G3 X15.55 Y62.5 I0. J0.3
X13.45 I-1.05 J0. F400.
X15.55 I1.05 J0.
X15.25 Y62.8 I-0.3 J0. F200.
G1 X15.1
G18 G3 X14.8 Z-0.45 I0. K0.3
G1 Z6. F400.
Y62.2
Z1.
Z-0.7 F200.
G2 X15.1 Z-1. I0.3 K0.
G1 X15.25
G17 G3 X15.55 Y62.5 I0. J0.3
X13.45 I-1.05 J0. F400.
X15.55 I1.05 J0.
X15.25 Y62.8 I-0.3 J0. F200.
G1 X15.1
G18 G3 X14.8 Z-0.7 I0. K0.3
G1 Z6. F400.
Y62.2
Z0.75
Z-0.95 F200.
G2 X15.1 Z-1.25 I0.3 K0.
G1 X15.25
G17 G3 X15.55 Y62.5 I0. J0.3
X13.45 I-1.05 J0. F400.
X15.55 I1.05 J0.
X15.25 Y62.8 I-0.3 J0. F200.
G1 X15.1
G18 G3 X14.8 Z-0.95 I0. K0.3
G1 Z6. F400.
Y62.2
Z0.5
Z-1.2 F200.
G2 X15.1 Z-1.5 I0.3 K0.
G1 X15.25
G17 G3 X15.55 Y62.5 I0. J0.3
X13.45 I-1.05 J0. F400.
X15.55 I1.05 J0.
X15.25 Y62.8 I-0.3 J0. F200.
G1 X15.1
G18 G3 X14.8 Z-1.2 I0. K0.3
G1 Z6. F400.
Y62.2
Z0.25
Z-1.45 F200.
G2 X15.1 Z-1.75 I0.3 K0.
G1 X15.25
G17 G3 X15.55 Y62.5 I0. J0.3
X13.45 I-1.05 J0. F400.
X15.55 I1.05 J0.
X15.25 Y62.8 I-0.3 J0. F200.
G1 X15.1
G18 G3 X14.8 Z-1.45 I0. K0.3
G1 Z6. F400.
Y62.2
Z0.
Z-1.7 F200.
G2 X15.1 Z-2. I0.3 K0.
G1 X15.25
G17 G3 X15.55 Y62.5 I0. J0.3
X13.45 I-1.05 J0. F400.
X15.55 I1.05 J0.
X15.25 Y62.8 I-0.3 J0. F200.
G1 X15.1
G18 G3 X14.8 Z-1.7 I0. K0.3
G1 Z6. F400.
Y62.2
Z-0.25
Z-1.95 F200.
G2 X15.1 Z-2.25 I0.3 K0.
G1 X15.25
G17 G3 X15.55 Y62.5 I0. J0.3
X13.45 I-1.05 J0. F400.
X15.55 I1.05 J0.
X15.25 Y62.8 I-0.3 J0. F200.
G1 X15.1
G18 G3 X14.8 Z-1.95 I0. K0.3
G1 Z6. F400.
Y62.2
Z-0.5
Z-2.2 F200.
G2 X15.1 Z-2.5 I0.3 K0.
G1 X15.25
G17 G3 X15.55 Y62.5 I0. J0.3
X13.45 I-1.05 J0. F400.
X15.55 I1.05 J0.
X15.25 Y62.8 I-0.3 J0. F200.
G1 X15.1
G18 G3 X14.8 Z-2.2 I0. K0.3
G1 Z6. F400.
Y62.2
Z-0.75
Z-2.45 F200.
G2 X15.1 Z-2.75 I0.3 K0.
G1 X15.25
G17 G3 X15.55 Y62.5 I0. J0.3
X13.45 I-1.05 J0. F400.
X15.55 I1.05 J0.
X15.25 Y62.8 I-0.3 J0. F200.
G1 X15.1
G18 G3 X14.8 Z-2.45 I0. K0.3
G1 Z6. F400.
Y62.2
Z-1.
Z-2.7 F200.
G2 X15.1 Z-3. I0.3 K0.
G1 X15.25
G17 G3 X15.55 Y62.5 I0. J0.3
X13.45 I-1.05 J0. F400.
X15.55 I1.05 J0.
X15.25 Y62.8 I-0.3 J0. F200.
G1 X15.1
G18 G3 X14.8 Z-2.7 I0. K0.3
G1 Z6. F400.
Y62.2
Z-1.25
Z-2.95 F200.
G2 X15.1 Z-3.25 I0.3 K0.
G1 X15.25
G17 G3 X15.55 Y62.5 I0. J0.3
X13.45 I-1.05 J0. F400.
X15.55 I1.05 J0.
X15.25 Y62.8 I-0.3 J0. F200.
G1 X15.1
G18 G3 X14.8 Z-2.95 I0. K0.3
G1 Z6. F400.
Y62.2
Z-1.5
Z-3.2 F200.
G2 X15.1 Z-3.5 I0.3 K0.
G1 X15.25
G17 G3 X15.55 Y62.5 I0. J0.3
X13.45 I-1.05 J0. F400.
X15.55 I1.05 J0.
X15.25 Y62.8 I-0.3 J0. F200.
G1 X15.1
G18 G3 X14.8 Z-3.2 I0. K0.3
G1 Z6. F400.
Y62.2
Z-1.75
Z-3.45 F200.
G2 X15.1 Z-3.75 I0.3 K0.
G1 X15.25
G17 G3 X15.55 Y62.5 I0. J0.3
X13.45 I-1.05 J0. F400.
X15.55 I1.05 J0.
X15.25 Y62.8 I-0.3 J0. F200.
G1 X15.1
G18 G3 X14.8 Z-3.45 I0. K0.3
G1 Z6. F400.
Y62.2
Z-2.
Z-3.7 F200.
G2 X15.1 Z-4. I0.3 K0.
G1 X15.25
G17 G3 X15.55 Y62.5 I0. J0.3
X13.45 I-1.05 J0. F400.
X15.55 I1.05 J0.
X15.25 Y62.8 I-0.3 J0. F200.
G1 X15.1
G18 G3 X14.8 Z-3.7 I0. K0.3
G1 Z6. F400.
Y62.2
Z-2.25
Z-3.95 F200.
G2 X15.1 Z-4.25 I0.3 K0.
G1 X15.25
G17 G3 X15.55 Y62.5 I0. J0.3
X13.45 I-1.05 J0. F400.
X15.55 I1.05 J0.
X15.25 Y62.8 I-0.3 J0. F200.
G1 X15.1
G18 G3 X14.8 Z-3.95 I0. K0.3
G1 Z6. F400.
Y62.2
Z-2.5
Z-4.2 F200.
G2 X15.1 Z-4.5 I0.3 K0.
G1 X15.25
G17 G3 X15.55 Y62.5 I0. J0.3
X13.45 I-1.05 J0. F400.
X15.55 I1.05 J0.
X15.25 Y62.8 I-0.3 J0. F200.
G1 X15.1
G18 G3 X14.8 Z-4.2 I0. K0.3
G1 Z6. F400.
Y62.2
Z-2.75
Z-4.45 F200.
G2 X15.1 Z-4.75 I0.3 K0.
G1 X15.25
G17 G3 X15.55 Y62.5 I0. J0.3
X13.45 I-1.05 J0. F400.
X15.55 I1.05 J0.
X15.25 Y62.8 I-0.3 J0. F200.
G1 X15.1
G18 G3 X14.8 Z-4.45 I0. K0.3
G1 Z6. F400.
Y62.2
Z-2.975
Z-4.675 F200.
G2 X15.1 Z-4.975 I0.3 K0.
G1 X15.25
G17 G3 X15.55 Y62.5 I0. J0.3
X13.45 I-1.05 J0. F400.
X15.55 I1.05 J0.
X15.25 Y62.8 I-0.3 J0. F200.
G1 X15.1
G18 G3 X14.8 Z-4.675 I0. K0.3
G1 Z6. F400.
Y62.2
Z-3.2
Z-4.9 F200.
G2 X15.1 Z-5.2 I0.3 K0.
G1 X15.25
G17 G3 X15.55 Y62.5 I0. J0.3
X13.45 I-1.05 J0. F400.
X15.55 I1.05 J0.
X15.25 Y62.8 I-0.3 J0. F200.
G1 X15.1
G18 G3 X14.8 Z-4.9 I0. K0.3
G1 Z6. F400.
G17
(WHEN USING FUSION 360 FOR PERSONAL USE, THE FEEDRATE OF)
(RAPID MOVES IS REDUCED TO MATCH THE FEEDRATE OF CUTTING)
(MOVES, WHICH CAN INCREASE MACHINING TIME. UNRESTRICTED RAPID)
(MOVES ARE AVAILABLE WITH A FUSION 360 SUBSCRIPTION.)

(CUTOUTPLATE)
G0 X-1.099 Y-2.52
G1 Z6. F10.
Z2.25
Z1.05
X-1.095 Y-2.514 Z0.983 F50.
X-1.086 Y-2.494 Z0.92
X-1.071 Y-2.461 Z0.863
X-1.05 Y-2.418 Z0.815
X-1.026 Y-2.367 Z0.78
X-0.999 Y-2.31 Z0.758
X-0.97 Y-2.249 Z0.75
X-0.842 Y-1.978
G3 X-0.985 Y-1.579 I-0.271 J0.128
G2 X-2.3 Y0.5 I0.985 J2.079 F150.
G1 Y74.5
G2 X0. Y76.8 I2.3 J0.
G1 X49.
G2 X51.3 Y74.5 I0. J-2.3
G1 Y0.5
G2 X49. Y-1.8 I-2.3 J0.
G1 X0.
G2 X-0.985 Y-1.579 I0. J2.3
G1 Z6.
X-1.099 Y-2.52
Z2. F10.
Z0.8
X-1.095 Y-2.514 Z0.733 F50.
X-1.086 Y-2.494 Z0.67
X-1.071 Y-2.461 Z0.613
X-1.05 Y-2.418 Z0.565
X-1.026 Y-2.367 Z0.53
X-0.999 Y-2.31 Z0.508
X-0.97 Y-2.249 Z0.5
X-0.842 Y-1.978
G3 X-0.985 Y-1.579 I-0.271 J0.128
G2 X-2.3 Y0.5 I0.985 J2.079 F150.
G1 Y74.5
G2 X0. Y76.8 I2.3 J0.
G1 X49.
G2 X51.3 Y74.5 I0. J-2.3
G1 Y0.5
G2 X49. Y-1.8 I-2.3 J0.
G1 X0.
G2 X-0.985 Y-1.579 I0. J2.3
G1 Z6.
X-1.099 Y-2.52
Z1.75 F10.
Z0.55
X-1.095 Y-2.514 Z0.483 F50.
X-1.086 Y-2.494 Z0.42
X-1.071 Y-2.461 Z0.363
X-1.05 Y-2.418 Z0.315
X-1.026 Y-2.367 Z0.28
X-0.999 Y-2.31 Z0.258
X-0.97 Y-2.249 Z0.25
X-0.842 Y-1.978
G3 X-0.985 Y-1.579 I-0.271 J0.128
G2 X-2.3 Y0.5 I0.985 J2.079 F150.
G1 Y74.5
G2 X0. Y76.8 I2.3 J0.
G1 X49.
G2 X51.3 Y74.5 I0. J-2.3
G1 Y0.5
G2 X49. Y-1.8 I-2.3 J0.
G1 X0.
G2 X-0.985 Y-1.579 I0. J2.3
G1 Z6.
X-1.099 Y-2.52
Z1.5 F10.
Z0.3
X-1.095 Y-2.514 Z0.233 F50.
X-1.086 Y-2.494 Z0.17
X-1.071 Y-2.461 Z0.113
X-1.05 Y-2.418 Z0.065
X-1.026 Y-2.367 Z0.03
X-0.999 Y-2.31 Z0.008
X-0.97 Y-2.249 Z0.
X-0.842 Y-1.978
G3 X-0.985 Y-1.579 I-0.271 J0.128
G2 X-2.3 Y0.5 I0.985 J2.079 F150.
G1 Y74.5
G2 X0. Y76.8 I2.3 J0.
G1 X49.
G2 X51.3 Y74.5 I0. J-2.3
G1 Y0.5
G2 X49. Y-1.8 I-2.3 J0.
G1 X0.
G2 X-0.985 Y-1.579 I0. J2.3
G1 Z6.
X-1.099 Y-2.52
Z1.25 F10.
Z0.05
X-1.095 Y-2.514 Z-0.017 F50.
X-1.086 Y-2.494 Z-0.08
X-1.071 Y-2.461 Z-0.137
X-1.05 Y-2.418 Z-0.185
X-1.026 Y-2.367 Z-0.22
X-0.999 Y-2.31 Z-0.242
X-0.97 Y-2.249 Z-0.25
X-0.842 Y-1.978
G3 X-0.985 Y-1.579 I-0.271 J0.128
G2 X-2.3 Y0.5 I0.985 J2.079 F150.
G1 Y74.5
G2 X0. Y76.8 I2.3 J0.
G1 X49.
G2 X51.3 Y74.5 I0. J-2.3
G1 Y0.5
G2 X49. Y-1.8 I-2.3 J0.
G1 X0.
G2 X-0.985 Y-1.579 I0. J2.3
G1 Z6.
X-1.099 Y-2.52
Z1. F10.
Z-0.2
X-1.095 Y-2.514 Z-0.267 F50.
X-1.086 Y-2.494 Z-0.33
X-1.071 Y-2.461 Z-0.387
X-1.05 Y-2.418 Z-0.435
X-1.026 Y-2.367 Z-0.47
X-0.999 Y-2.31 Z-0.492
X-0.97 Y-2.249 Z-0.5
X-0.842 Y-1.978
G3 X-0.985 Y-1.579 I-0.271 J0.128
G2 X-2.3 Y0.5 I0.985 J2.079 F150.
G1 Y74.5
G2 X0. Y76.8 I2.3 J0.
G1 X49.
G2 X51.3 Y74.5 I0. J-2.3
G1 Y0.5
G2 X49. Y-1.8 I-2.3 J0.
G1 X0.
G2 X-0.985 Y-1.579 I0. J2.3
G1 Z6.
X-1.099 Y-2.52
Z0.75 F10.
Z-0.45
X-1.095 Y-2.514 Z-0.517 F50.
X-1.086 Y-2.494 Z-0.58
X-1.071 Y-2.461 Z-0.637
X-1.05 Y-2.418 Z-0.685
X-1.026 Y-2.367 Z-0.72
X-0.999 Y-2.31 Z-0.742
X-0.97 Y-2.249 Z-0.75
X-0.842 Y-1.978
G3 X-0.985 Y-1.579 I-0.271 J0.128
G2 X-2.3 Y0.5 I0.985 J2.079 F150.
G1 Y74.5
G2 X0. Y76.8 I2.3 J0.
G1 X49.
G2 X51.3 Y74.5 I0. J-2.3
G1 Y0.5
G2 X49. Y-1.8 I-2.3 J0.
G1 X0.
G2 X-0.985 Y-1.579 I0. J2.3
G1 Z6.
X-1.099 Y-2.52
Z0.5 F10.
Z-0.7
X-1.095 Y-2.514 Z-0.767 F50.
X-1.086 Y-2.494 Z-0.83
X-1.071 Y-2.461 Z-0.887
X-1.05 Y-2.418 Z-0.935
X-1.026 Y-2.367 Z-0.97
X-0.999 Y-2.31 Z-0.992
X-0.97 Y-2.249 Z-1.
X-0.842 Y-1.978
G3 X-0.985 Y-1.579 I-0.271 J0.128
G2 X-2.3 Y0.5 I0.985 J2.079 F150.
G1 Y74.5
G2 X0. Y76.8 I2.3 J0.
G1 X49.
G2 X51.3 Y74.5 I0. J-2.3
G1 Y0.5
G2 X49. Y-1.8 I-2.3 J0.
G1 X0.
G2 X-0.985 Y-1.579 I0. J2.3
G1 Z6.
X-1.099 Y-2.52
Z0.25 F10.
Z-0.95
X-1.095 Y-2.514 Z-1.017 F50.
X-1.086 Y-2.494 Z-1.08
X-1.071 Y-2.461 Z-1.137
X-1.05 Y-2.418 Z-1.185
X-1.026 Y-2.367 Z-1.22
X-0.999 Y-2.31 Z-1.242
X-0.97 Y-2.249 Z-1.25
X-0.842 Y-1.978
G3 X-0.985 Y-1.579 I-0.271 J0.128
G2 X-2.3 Y0.5 I0.985 J2.079 F150.
G1 Y74.5
G2 X0. Y76.8 I2.3 J0.
G1 X49.
G2 X51.3 Y74.5 I0. J-2.3
G1 Y0.5
G2 X49. Y-1.8 I-2.3 J0.
G1 X0.
G2 X-0.985 Y-1.579 I0. J2.3
G1 Z6.
X-1.099 Y-2.52
Z0. F10.
Z-1.2
X-1.095 Y-2.514 Z-1.267 F50.
X-1.086 Y-2.494 Z-1.33
X-1.071 Y-2.461 Z-1.387
X-1.05 Y-2.418 Z-1.435
X-1.026 Y-2.367 Z-1.47
X-0.999 Y-2.31 Z-1.492
X-0.97 Y-2.249 Z-1.5
X-0.842 Y-1.978
G3 X-0.985 Y-1.579 I-0.271 J0.128
G2 X-2.3 Y0.5 I0.985 J2.079 F150.
G1 Y74.5
G2 X0. Y76.8 I2.3 J0.
G1 X49.
G2 X51.3 Y74.5 I0. J-2.3
G1 Y0.5
G2 X49. Y-1.8 I-2.3 J0.
G1 X0.
G2 X-0.985 Y-1.579 I0. J2.3
G1 Z6.
X-1.099 Y-2.52
Z-0.25 F10.
Z-1.45
X-1.095 Y-2.514 Z-1.517 F50.
X-1.086 Y-2.494 Z-1.58
X-1.071 Y-2.461 Z-1.637
X-1.05 Y-2.418 Z-1.685
X-1.026 Y-2.367 Z-1.72
X-0.999 Y-2.31 Z-1.742
X-0.97 Y-2.249 Z-1.75
X-0.842 Y-1.978
G3 X-0.985 Y-1.579 I-0.271 J0.128
G2 X-2.3 Y0.5 I0.985 J2.079 F150.
G1 Y74.5
G2 X0. Y76.8 I2.3 J0.
G1 X49.
G2 X51.3 Y74.5 I0. J-2.3
G1 Y0.5
G2 X49. Y-1.8 I-2.3 J0.
G1 X0.
G2 X-0.985 Y-1.579 I0. J2.3
G1 Z6.
X-1.099 Y-2.52
Z-0.5 F10.
Z-1.7
X-1.095 Y-2.514 Z-1.767 F50.
X-1.086 Y-2.494 Z-1.83
X-1.071 Y-2.461 Z-1.887
X-1.05 Y-2.418 Z-1.935
X-1.026 Y-2.367 Z-1.97
X-0.999 Y-2.31 Z-1.992
X-0.97 Y-2.249 Z-2.
X-0.842 Y-1.978
G3 X-0.985 Y-1.579 I-0.271 J0.128
G2 X-2.3 Y0.5 I0.985 J2.079 F150.
G1 Y74.5
G2 X0. Y76.8 I2.3 J0.
G1 X49.
G2 X51.3 Y74.5 I0. J-2.3
G1 Y0.5
G2 X49. Y-1.8 I-2.3 J0.
G1 X0.
G2 X-0.985 Y-1.579 I0. J2.3
G1 Z6.
X-1.099 Y-2.52
Z-0.75 F10.
Z-1.95
X-1.095 Y-2.514 Z-2.017 F50.
X-1.086 Y-2.494 Z-2.08
X-1.071 Y-2.461 Z-2.137
X-1.05 Y-2.418 Z-2.185
X-1.026 Y-2.367 Z-2.22
X-0.999 Y-2.31 Z-2.242
X-0.97 Y-2.249 Z-2.25
X-0.842 Y-1.978
G3 X-0.985 Y-1.579 I-0.271 J0.128
G2 X-2.3 Y0.5 I0.985 J2.079 F150.
G1 Y74.5
G2 X0. Y76.8 I2.3 J0.
G1 X49.
G2 X51.3 Y74.5 I0. J-2.3
G1 Y0.5
G2 X49. Y-1.8 I-2.3 J0.
G1 X0.
G2 X-0.985 Y-1.579 I0. J2.3
G1 Z6.
X-1.099 Y-2.52
Z-1. F10.
Z-2.2
X-1.095 Y-2.514 Z-2.267 F50.
X-1.086 Y-2.494 Z-2.33
X-1.071 Y-2.461 Z-2.387
X-1.05 Y-2.418 Z-2.435
X-1.026 Y-2.367 Z-2.47
X-0.999 Y-2.31 Z-2.492
X-0.97 Y-2.249 Z-2.5
X-0.842 Y-1.978
G3 X-0.985 Y-1.579 I-0.271 J0.128
G2 X-2.3 Y0.5 I0.985 J2.079 F150.
G1 Y74.5
G2 X0. Y76.8 I2.3 J0.
G1 X49.
G2 X51.3 Y74.5 I0. J-2.3
G1 Y0.5
G2 X49. Y-1.8 I-2.3 J0.
G1 X0.
G2 X-0.985 Y-1.579 I0. J2.3
G1 Z6.
X-1.099 Y-2.52
Z-1.25 F10.
Z-2.45
X-1.095 Y-2.514 Z-2.517 F50.
X-1.086 Y-2.494 Z-2.58
X-1.071 Y-2.461 Z-2.637
X-1.05 Y-2.418 Z-2.685
X-1.026 Y-2.367 Z-2.72
X-0.999 Y-2.31 Z-2.742
X-0.97 Y-2.249 Z-2.75
X-0.842 Y-1.978
G3 X-0.985 Y-1.579 I-0.271 J0.128
G2 X-2.3 Y0.5 I0.985 J2.079 F150.
G1 Y74.5
G2 X0. Y76.8 I2.3 J0.
G1 X49.
G2 X51.3 Y74.5 I0. J-2.3
G1 Y0.5
G2 X49. Y-1.8 I-2.3 J0.
G1 X0.
G2 X-0.985 Y-1.579 I0. J2.3
G1 Z6.
X-1.099 Y-2.52
Z-1.5 F10.
Z-2.7
X-1.095 Y-2.514 Z-2.767 F50.
X-1.086 Y-2.494 Z-2.83
X-1.071 Y-2.461 Z-2.887
X-1.05 Y-2.418 Z-2.935
X-1.026 Y-2.367 Z-2.97
X-0.999 Y-2.31 Z-2.992
X-0.97 Y-2.249 Z-3.
X-0.842 Y-1.978
G3 X-0.985 Y-1.579 I-0.271 J0.128
G2 X-2.3 Y0.5 I0.985 J2.079 F150.
G1 Y74.5
G2 X0. Y76.8 I2.3 J0.
G1 X49.
G2 X51.3 Y74.5 I0. J-2.3
G1 Y0.5
G2 X49. Y-1.8 I-2.3 J0.
G1 X0.
G2 X-0.985 Y-1.579 I0. J2.3
G1 Z6.
X-1.099 Y-2.52
Z-1.75 F10.
Z-2.95
X-1.095 Y-2.514 Z-3.017 F50.
X-1.086 Y-2.494 Z-3.08
X-1.071 Y-2.461 Z-3.137
X-1.05 Y-2.418 Z-3.185
X-1.026 Y-2.367 Z-3.22
X-0.999 Y-2.31 Z-3.242
X-0.97 Y-2.249 Z-3.25
X-0.842 Y-1.978
G3 X-0.985 Y-1.579 I-0.271 J0.128
G2 X-2.3 Y0.5 I0.985 J2.079 F150.
G1 Y74.5
G2 X0. Y76.8 I2.3 J0.
G1 X49.
G2 X51.3 Y74.5 I0. J-2.3
G1 Y0.5
G2 X49. Y-1.8 I-2.3 J0.
G1 X0.
G2 X-0.985 Y-1.579 I0. J2.3
G1 Z6.
X-1.099 Y-2.52
Z-2. F10.
Z-3.2
X-1.095 Y-2.514 Z-3.267 F50.
X-1.086 Y-2.494 Z-3.33
X-1.071 Y-2.461 Z-3.387
X-1.05 Y-2.418 Z-3.435
X-1.026 Y-2.367 Z-3.47
X-0.999 Y-2.31 Z-3.492
X-0.97 Y-2.249 Z-3.5
X-0.842 Y-1.978
G3 X-0.985 Y-1.579 I-0.271 J0.128
G2 X-2.3 Y0.5 I0.985 J2.079 F150.
G1 Y74.5
G2 X0. Y76.8 I2.3 J0.
G1 X49.
G2 X51.3 Y74.5 I0. J-2.3
G1 Y0.5
G2 X49. Y-1.8 I-2.3 J0.
G1 X0.
G2 X-0.985 Y-1.579 I0. J2.3
G1 Z6.
X-1.099 Y-2.52
Z-2.25 F10.
Z-3.45
X-1.095 Y-2.514 Z-3.517 F50.
X-1.086 Y-2.494 Z-3.58
X-1.071 Y-2.461 Z-3.637
X-1.05 Y-2.418 Z-3.685
X-1.026 Y-2.367 Z-3.72
X-0.999 Y-2.31 Z-3.742
X-0.97 Y-2.249 Z-3.75
X-0.842 Y-1.978
G3 X-0.985 Y-1.579 I-0.271 J0.128
G2 X-2.3 Y0.5 I0.985 J2.079 F150.
G1 Y74.5
G2 X0. Y76.8 I2.3 J0.
G1 X49.
G2 X51.3 Y74.5 I0. J-2.3
G1 Y0.5
G2 X49. Y-1.8 I-2.3 J0.
G1 X0.
G2 X-0.985 Y-1.579 I0. J2.3
G1 Z6.
X-1.099 Y-2.52
Z-2.5 F10.
Z-3.7
X-1.095 Y-2.514 Z-3.767 F50.
X-1.086 Y-2.494 Z-3.83
X-1.071 Y-2.461 Z-3.887
X-1.05 Y-2.418 Z-3.935
X-1.026 Y-2.367 Z-3.97
X-0.999 Y-2.31 Z-3.992
X-0.97 Y-2.249 Z-4.
X-0.842 Y-1.978
G3 X-0.985 Y-1.579 I-0.271 J0.128
G2 X-2.3 Y0.5 I0.985 J2.079 F150.
G1 Y74.5
G2 X0. Y76.8 I2.3 J0.
G1 X49.
G2 X51.3 Y74.5 I0. J-2.3
G1 Y0.5
G2 X49. Y-1.8 I-2.3 J0.
G1 X0.
G2 X-0.985 Y-1.579 I0. J2.3
G1 Z6.
X-1.099 Y-2.52
Z-2.75 F10.
Z-3.95
X-1.095 Y-2.514 Z-4.017 F50.
X-1.086 Y-2.494 Z-4.08
X-1.071 Y-2.461 Z-4.137
X-1.05 Y-2.418 Z-4.185
X-1.026 Y-2.367 Z-4.22
X-0.999 Y-2.31 Z-4.242
X-0.97 Y-2.249 Z-4.25
X-0.842 Y-1.978
G3 X-0.985 Y-1.579 I-0.271 J0.128
G2 X-2.3 Y0.5 I0.985 J2.079 F150.
G1 Y74.5
G2 X0. Y76.8 I2.3 J0.
G1 X49.
G2 X51.3 Y74.5 I0. J-2.3
G1 Y0.5
G2 X49. Y-1.8 I-2.3 J0.
G1 X0.
G2 X-0.985 Y-1.579 I0. J2.3
G1 Z6.
X-1.099 Y-2.52
Z-3. F10.
Z-4.2
X-1.095 Y-2.514 Z-4.267 F50.
X-1.086 Y-2.494 Z-4.33
X-1.071 Y-2.461 Z-4.387
X-1.05 Y-2.418 Z-4.435
X-1.026 Y-2.367 Z-4.47
X-0.999 Y-2.31 Z-4.492
X-0.97 Y-2.249 Z-4.5
X-0.842 Y-1.978
G3 X-0.985 Y-1.579 I-0.271 J0.128
G2 X-2.3 Y0.5 I0.985 J2.079 F150.
G1 Y74.5
G2 X0. Y76.8 I2.3 J0.
G1 X49.
G2 X51.3 Y74.5 I0. J-2.3
G1 Y0.5
G2 X49. Y-1.8 I-2.3 J0.
G1 X0.
G2 X-0.985 Y-1.579 I0. J2.3
G1 Z6.
X-1.099 Y-2.52
Z-3.25 F10.
Z-4.45
X-1.095 Y-2.514 Z-4.517 F50.
X-1.086 Y-2.494 Z-4.58
X-1.071 Y-2.461 Z-4.637
X-1.05 Y-2.418 Z-4.685
X-1.026 Y-2.367 Z-4.72
X-0.999 Y-2.31 Z-4.742
X-0.97 Y-2.249 Z-4.75
X-0.842 Y-1.978
G3 X-0.985 Y-1.579 I-0.271 J0.128
G2 X-2.3 Y0.5 I0.985 J2.079 F150.
G1 Y9.957
Z-4.5
Y15.957
Z-4.75 F10.
Y34.871 F150.
Z-4.5
Y40.871
Z-4.75 F10.
Y59.785 F150.
Z-4.5
Y65.785
Z-4.75 F10.
Y74.5 F150.
G2 X0. Y76.8 I2.3 J0.
G1 X9.414
Z-4.5
X15.414
Z-4.75 F10.
X34.328 F150.
Z-4.5
X40.328
Z-4.75 F10.
X49. F150.
G2 X51.3 Y74.5 I0. J-2.3
G1 Y65.043
Z-4.5
Y59.043
Z-4.75 F10.
Y40.129 F150.
Z-4.5
Y34.129
Z-4.75 F10.
Y15.215 F150.
Z-4.5
Y9.215
Z-4.75 F10.
Y0.5 F150.
G2 X49. Y-1.8 I-2.3 J0.
G1 X39.586
Z-4.5
X33.586
Z-4.75 F10.
X14.672 F150.
Z-4.5
X8.672
Z-4.75 F10.
X0. F150.
G2 X-0.985 Y-1.579 I0. J2.3
G1 Z6.
X-1.099 Y-2.52
Z-3.5 F10.
Z-4.7
X-1.095 Y-2.514 Z-4.767 F50.
X-1.086 Y-2.494 Z-4.83
X-1.071 Y-2.461 Z-4.887
X-1.05 Y-2.418 Z-4.935
X-1.026 Y-2.367 Z-4.97
X-0.999 Y-2.31 Z-4.992
X-0.97 Y-2.249 Z-5.
X-0.842 Y-1.978
G3 X-0.985 Y-1.579 I-0.271 J0.128
G2 X-2.3 Y0.5 I0.985 J2.079 F150.
G1 Y9.957
Z-4.5
Y15.957
Z-5. F10.
Y34.871 F150.
Z-4.5
Y40.871
Z-5. F10.
Y59.785 F150.
Z-4.5
Y65.785
Z-5. F10.
Y74.5 F150.
G2 X0. Y76.8 I2.3 J0.
G1 X9.414
Z-4.5
X15.414
Z-5. F10.
X34.328 F150.
Z-4.5
X40.328
Z-5. F10.
X49. F150.
G2 X51.3 Y74.5 I0. J-2.3
G1 Y65.043
Z-4.5
Y59.043
Z-5. F10.
Y40.129 F150.
Z-4.5
Y34.129
Z-5. F10.
Y15.215 F150.
Z-4.5
Y9.215
Z-5. F10.
Y0.5 F150.
G2 X49. Y-1.8 I-2.3 J0.
G1 X39.586
Z-4.5
X33.586
Z-5. F10.
X14.672 F150.
Z-4.5
X8.672
Z-5. F10.
X0. F150.
G2 X-0.985 Y-1.579 I0. J2.3
X-1.125 Y-1.332 I0.106 J0.224
G3 X-1.238 Y-1.071 I-0.297 J0.027
G2 X-2. Y0.5 I1.238 J1.571
G1 Y9.957
Z-4.5
Y15.957
Z-5. F10.
Y34.871 F150.
Z-4.5
Y40.871
Z-5. F10.
Y59.785 F150.
Z-4.5
Y65.785
Z-5. F10.
Y74.5 F150.
G2 X0. Y76.5 I2. J0.
G1 X9.414
Z-4.5
X15.414
Z-5. F10.
X34.328 F150.
Z-4.5
X40.328
Z-5. F10.
X49. F150.
G2 X51. Y74.5 I0. J-2.
G1 Y65.043
Z-4.5
Y59.043
Z-5. F10.
Y40.129 F150.
Z-4.5
Y34.129
Z-5. F10.
Y15.215 F150.
Z-4.5
Y9.215
Z-5. F10.
Y0.5 F150.
G2 X49. Y-1.5 I-2. J0.
G1 X39.586
Z-4.5
X33.586
Z-5. F10.
X14.672 F150.
Z-4.5
X8.672
Z-5. F10.
X0. F150.
G2 X-1.238 Y-1.071 I0. J2.
G1 Z6.

G28 G91 Z0.
G90
G28 G91 X0. Y0.
G90
M30
