(1012SLITTINGSAWGUIDE)
(SLITTING SAW GUIDE)
(MACHINE)
(  VENDOR HOMEMADE)
(  DESCRIPTION GENERIC 3-AXIS)
(T10  D=3. CR=0. - ZMIN=-5.2 - FLAT END MILL)
G90 G94 G91.1 G40 G49 G17
G21
(WHEN USING FUSION 360 FOR PERSONAL USE, THE FEEDRATE OF)
(RAPID MOVES IS REDUCED TO MATCH THE FEEDRATE OF CUTTING)
(MOVES, WHICH CAN INCREASE MACHINING TIME. UNRESTRICTED RAPID)
(MOVES ARE AVAILABLE WITH A FUSION 360 SUBSCRIPTION.)
G28 G91 Z0.
G90

(BORE8)
M5
T10 M6
S9000 M3
G54
G0 X6.85 Y-0.3
G43 Z3. H10
G1 Z2. F150.
Z0.3 F50.
G18 G2 X7.15 Z0. I0.3 K0.
G1 X7.3
G17 G3 X7.6 Y0. I0. J0.3
X4.4 Z-0.108 I-1.6 J0. F150.
X7.6 Z-0.217 I1.6 J0.
X4.4 Z-0.325 I-1.6 J0.
X7.6 Z-0.433 I1.6 J0.
X4.4 Z-0.541 I-1.6 J0.
X7.6 Z-0.65 I1.6 J0.
X4.4 Z-0.758 I-1.6 J0.
X7.6 Z-0.866 I1.6 J0.
X4.4 Z-0.974 I-1.6 J0.
X7.6 Z-1.083 I1.6 J0.
X4.4 Z-1.191 I-1.6 J0.
X7.6 Z-1.299 I1.6 J0.
X4.4 Z-1.407 I-1.6 J0.
X7.6 Z-1.516 I1.6 J0.
X4.4 Z-1.624 I-1.6 J0.
X7.6 Z-1.732 I1.6 J0.
X4.4 Z-1.84 I-1.6 J0.
X7.6 Z-1.949 I1.6 J0.
X4.4 Z-2.057 I-1.6 J0.
X7.6 Z-2.165 I1.6 J0.
X4.4 Z-2.273 I-1.6 J0.
X7.6 Z-2.382 I1.6 J0.
X4.4 Z-2.49 I-1.6 J0.
X7.6 Z-2.598 I1.6 J0.
X4.4 Z-2.706 I-1.6 J0.
X7.6 Z-2.815 I1.6 J0.
X4.4 Z-2.923 I-1.6 J0.
X7.6 Z-3.031 I1.6 J0.
X4.4 Z-3.139 I-1.6 J0.
X7.6 Z-3.248 I1.6 J0.
X4.4 Z-3.356 I-1.6 J0.
X7.6 Z-3.464 I1.6 J0.
X4.4 Z-3.572 I-1.6 J0.
X7.6 Z-3.681 I1.6 J0.
X4.4 Z-3.789 I-1.6 J0.
X7.6 Z-3.897 I1.6 J0.
X4.4 Z-4.005 I-1.6 J0.
X7.6 Z-4.114 I1.6 J0.
X4.4 Z-4.222 I-1.6 J0.
X7.6 Z-4.33 I1.6 J0.
X4.4 Z-4.438 I-1.6 J0.
X7.6 Z-4.547 I1.6 J0.
X4.4 Z-4.655 I-1.6 J0.
X7.6 Z-4.763 I1.6 J0.
X4.4 Z-4.871 I-1.6 J0.
X7.6 Z-4.98 I1.6 J0.
X4.4 Z-5.088 I-1.6 J0.
X6.088 Y-1.598 Z-5.144 I1.6 J0.
X7.59 Y0.176 Z-5.2 I-0.088 J1.598
X4.41 Y-0.176 I-1.59 J-0.176
X7.59 Y0.176 I1.59 J0.176
X7.259 Y0.441 I-0.298 J-0.033 F50.
G1 X7.11 Y0.424
X7.044 Y0.417 Z-5.192
X6.981 Y0.41 Z-5.17
X6.924 Y0.404 Z-5.135
X6.877 Y0.399 Z-5.087
X6.841 Y0.395 Z-5.03
X6.819 Y0.392 Z-4.967
X6.812 Y0.391 Z-4.9
Z3. F150.
(WHEN USING FUSION 360 FOR PERSONAL USE, THE FEEDRATE OF)
(RAPID MOVES IS REDUCED TO MATCH THE FEEDRATE OF CUTTING)
(MOVES, WHICH CAN INCREASE MACHINING TIME. UNRESTRICTED RAPID)
(MOVES ARE AVAILABLE WITH A FUSION 360 SUBSCRIPTION.)

(CIRCULAR2)
G0 Z5.
X29.15 Y0.3
G1 Z1.7 F250.
Z0. F100.
G18 G3 X28.85 Z-0.3 I-0.3 K0.
G1 X28.7
G17 G3 X28.4 Y0. I0. J-0.3
G2 X-3. I-15.7 J0. F250.
X28.4 I15.7 J0.
G3 X28.7 Y-0.3 I0.3 J0. F50.
G1 X28.85
G18 G2 X29.15 Z0. I0. K0.3
G1 Z3. F250.
X27.65 Y0.3
Z1.7
Z0. F100.
G3 X27.35 Z-0.3 I-0.3 K0.
G1 X27.2
G17 G3 X26.9 Y0. I0. J-0.3
G2 X-1.5 I-14.2 J0. F250.
X26.9 I14.2 J0.
G3 X27.2 Y-0.3 I0.3 J0. F50.
G1 X27.35
G18 G2 X27.65 Z0. I0. K0.3
G1 Z3. F250.
X29.15 Y0.3
Z1.2
Z-0.5 F100.
G3 X28.85 Z-0.8 I-0.3 K0.
G1 X28.7
G17 G3 X28.4 Y0. I0. J-0.3
G2 X-3. I-15.7 J0. F250.
X28.4 I15.7 J0.
G3 X28.7 Y-0.3 I0.3 J0. F50.
G1 X28.85
G18 G2 X29.15 Z-0.5 I0. K0.3
G1 Z3. F250.
X27.65 Y0.3
Z1.2
Z-0.5 F100.
G3 X27.35 Z-0.8 I-0.3 K0.
G1 X27.2
G17 G3 X26.9 Y0. I0. J-0.3
G2 X-1.5 I-14.2 J0. F250.
X26.9 I14.2 J0.
G3 X27.2 Y-0.3 I0.3 J0. F50.
G1 X27.35
G18 G2 X27.65 Z-0.5 I0. K0.3
G1 Z3. F250.
X29.15 Y0.3
Z0.7
Z-1. F100.
G3 X28.85 Z-1.3 I-0.3 K0.
G1 X28.7
G17 G3 X28.4 Y0. I0. J-0.3
G2 X-3. I-15.7 J0. F250.
X28.4 I15.7 J0.
G3 X28.7 Y-0.3 I0.3 J0. F50.
G1 X28.85
G18 G2 X29.15 Z-1. I0. K0.3
G1 Z3. F250.
X27.65 Y0.3
Z0.7
Z-1. F100.
G3 X27.35 Z-1.3 I-0.3 K0.
G1 X27.2
G17 G3 X26.9 Y0. I0. J-0.3
G2 X-1.5 I-14.2 J0. F250.
X26.9 I14.2 J0.
G3 X27.2 Y-0.3 I0.3 J0. F50.
G1 X27.35
G18 G2 X27.65 Z-1. I0. K0.3
G1 Z3. F250.
X29.15 Y0.3
Z0.2
Z-1.5 F100.
G3 X28.85 Z-1.8 I-0.3 K0.
G1 X28.7
G17 G3 X28.4 Y0. I0. J-0.3
G2 X-3. I-15.7 J0. F250.
X28.4 I15.7 J0.
G3 X28.7 Y-0.3 I0.3 J0. F50.
G1 X28.85
G18 G2 X29.15 Z-1.5 I0. K0.3
G1 Z3. F250.
X27.65 Y0.3
Z0.2
Z-1.5 F100.
G3 X27.35 Z-1.8 I-0.3 K0.
G1 X27.2
G17 G3 X26.9 Y0. I0. J-0.3
G2 X-1.5 I-14.2 J0. F250.
X26.9 I14.2 J0.
G3 X27.2 Y-0.3 I0.3 J0. F50.
G1 X27.35
G18 G2 X27.65 Z-1.5 I0. K0.3
G1 Z3. F250.
X29.15 Y0.3
Z-0.3
Z-2. F100.
G3 X28.85 Z-2.3 I-0.3 K0.
G1 X28.7
G17 G3 X28.4 Y0. I0. J-0.3
G2 X-3. I-15.7 J0. F250.
X28.4 I15.7 J0.
G3 X28.7 Y-0.3 I0.3 J0. F50.
G1 X28.85
G18 G2 X29.15 Z-2. I0. K0.3
G1 Z3. F250.
X27.65 Y0.3
Z-0.3
Z-2. F100.
G3 X27.35 Z-2.3 I-0.3 K0.
G1 X27.2
G17 G3 X26.9 Y0. I0. J-0.3
G2 X-1.5 I-14.2 J0. F250.
X26.9 I14.2 J0.
G3 X27.2 Y-0.3 I0.3 J0. F50.
G1 X27.35
G18 G2 X27.65 Z-2. I0. K0.3
G1 Z3. F250.
X29.15 Y0.3
Z-0.8
Z-2.5 F100.
G3 X28.85 Z-2.8 I-0.3 K0.
G1 X28.7
G17 G3 X28.4 Y0. I0. J-0.3
G2 X-3. I-15.7 J0. F250.
X28.4 I15.7 J0.
G3 X28.7 Y-0.3 I0.3 J0. F50.
G1 X28.85
G18 G2 X29.15 Z-2.5 I0. K0.3
G1 Z3. F250.
X27.65 Y0.3
Z-0.8
Z-2.5 F100.
G3 X27.35 Z-2.8 I-0.3 K0.
G1 X27.2
G17 G3 X26.9 Y0. I0. J-0.3
G2 X-1.5 I-14.2 J0. F250.
X26.9 I14.2 J0.
G3 X27.2 Y-0.3 I0.3 J0. F50.
G1 X27.35
G18 G2 X27.65 Z-2.5 I0. K0.3
G1 Z3. F250.
X29.15 Y0.3
Z-1.3
Z-3. F100.
G3 X28.85 Z-3.3 I-0.3 K0.
G1 X28.7
G17 G3 X28.4 Y0. I0. J-0.3
G2 X-3. I-15.7 J0. F250.
X28.4 I15.7 J0.
G3 X28.7 Y-0.3 I0.3 J0. F50.
G1 X28.85
G18 G2 X29.15 Z-3. I0. K0.3
G1 Z3. F250.
X27.65 Y0.3
Z-1.3
Z-3. F100.
G3 X27.35 Z-3.3 I-0.3 K0.
G1 X27.2
G17 G3 X26.9 Y0. I0. J-0.3
G2 X-1.5 I-14.2 J0. F250.
X26.9 I14.2 J0.
G3 X27.2 Y-0.3 I0.3 J0. F50.
G1 X27.35
G18 G2 X27.65 Z-3. I0. K0.3
G1 Z3. F250.
X29.15 Y0.3
Z-1.8
Z-3.5 F100.
G3 X28.85 Z-3.8 I-0.3 K0.
G1 X28.7
G17 G3 X28.4 Y0. I0. J-0.3
G2 X-3. I-15.7 J0. F250.
X28.4 I15.7 J0.
G3 X28.7 Y-0.3 I0.3 J0. F50.
G1 X28.85
G18 G2 X29.15 Z-3.5 I0. K0.3
G1 Z3. F250.
X27.65 Y0.3
Z-1.8
Z-3.5 F100.
G3 X27.35 Z-3.8 I-0.3 K0.
G1 X27.2
G17 G3 X26.9 Y0. I0. J-0.3
G2 X-1.5 I-14.2 J0. F250.
X26.9 I14.2 J0.
G3 X27.2 Y-0.3 I0.3 J0. F50.
G1 X27.35
G18 G2 X27.65 Z-3.5 I0. K0.3
G1 Z3. F250.
X29.15 Y0.3
Z-2.3
Z-4. F100.
G3 X28.85 Z-4.3 I-0.3 K0.
G1 X28.7
G17 G3 X28.4 Y0. I0. J-0.3
G2 X-3. I-15.7 J0. F250.
X28.4 I15.7 J0.
G3 X28.7 Y-0.3 I0.3 J0. F50.
G1 X28.85
G18 G2 X29.15 Z-4. I0. K0.3
G1 Z3. F250.
X27.65 Y0.3
Z-2.3
Z-4. F100.
G3 X27.35 Z-4.3 I-0.3 K0.
G1 X27.2
G17 G3 X26.9 Y0. I0. J-0.3
G2 X-1.5 I-14.2 J0. F250.
X26.9 I14.2 J0.
G3 X27.2 Y-0.3 I0.3 J0. F50.
G1 X27.35
G18 G2 X27.65 Z-4. I0. K0.3
G1 Z3. F250.
X29.15 Y0.3
Z-2.8
Z-4.5 F100.
G3 X28.85 Z-4.8 I-0.3 K0.
G1 X28.7
G17 G3 X28.4 Y0. I0. J-0.3
G2 X-3. I-15.7 J0. F250.
X28.4 I15.7 J0.
G3 X28.7 Y-0.3 I0.3 J0. F50.
G1 X28.85
G18 G2 X29.15 Z-4.5 I0. K0.3
G1 Z3. F250.
X27.65 Y0.3
Z-2.8
Z-4.5 F100.
G3 X27.35 Z-4.8 I-0.3 K0.
G1 X27.2
G17 G3 X26.9 Y0. I0. J-0.3
G2 X-1.5 I-14.2 J0. F250.
X26.9 I14.2 J0.
G3 X27.2 Y-0.3 I0.3 J0. F50.
G1 X27.35
G18 G2 X27.65 Z-4.5 I0. K0.3
G1 Z5. F250.
G17

G28 G91 Z0.
G90
G28 G91 X0. Y0.
G90
M30
