(1014)
(1014 - LOOP ENGRAVING TEST)
(MACHINE)
(  VENDOR HOMEMADE)
(  DESCRIPTION GENERIC 3-AXIS)
(T13  D=3.175 CR=0. TAPER=10DEG - ZMIN=-2. - CHAMFER MILL)
G90 G94 G91.1 G40 G49 G17
G21
(WHEN USING FUSION 360 FOR PERSONAL USE, THE FEEDRATE OF)
(RAPID MOVES IS REDUCED TO MATCH THE FEEDRATE OF CUTTING)
(MOVES, WHICH CAN INCREASE MACHINING TIME. UNRESTRICTED RAPID)
(MOVES ARE AVAILABLE WITH A FUSION 360 SUBSCRIPTION.)
G28 G91 Z0.
G90

(ENGRAVE1)
M5
T13 M6
S5000 M3
G54
G0 X16.68 Y48.454
G43 Z5. H13
G1 Z-0.001 F67.
X16.779 Y48.762 Z-0.94 F200.
X16.879 Y49.049 Z-1.783
X16.91 Y49.127 Z-2.
X17.407 Y49.565
X17.373 Y49.645
X17.366 Y49.664
X17.309 Y49.824
X17.301 Y49.848
X17.256 Y50.01
X17.249 Y50.039
X17.218 Y50.205
X17.214 Y50.228
X17.195 Y50.397
X17.193 Y50.416
X17.172 Y50.757
Y50.808
X17.18 Y50.859
X17.196 Y50.907
X17.383 Y51.385
X17.368 Y51.362
X17.27 Y51.195
X17.188 Y51.02
X17.119 Y50.835
X17.061 Y50.638
X17.013 Y50.434
X16.938 Y49.99
X16.883 Y49.555
X16.893 Y49.311
X16.91 Y49.127
X16.893 Y49.311
X16.883 Y49.555
X16.938 Y49.99
X17.013 Y50.434
X17.061 Y50.638
X17.119 Y50.835
X17.188 Y51.02
X17.27 Y51.195
X17.368 Y51.362
X17.383 Y51.385
X17.418 Y51.45 Z-1.952
X17.467 Y51.536 Z-1.898
X17.577 Y51.715 Z-1.749
X17.7 Y51.893 Z-1.592
X17.742 Y51.95 Z-1.532
X17.916 Y52.168 Z-1.346
X17.988 Y52.25 Z-1.305
X18.109 Y52.38 Z-1.219
X18.118 Y52.39 Z-1.217
X18.306 Y52.569 Z-1.186
X18.315 Y52.575 Z-1.178
X18.325 Y52.582 Z-1.174
X18.547 Y52.729 Z-1.078
X18.556 Y52.735 Z-1.077
X18.796 Y52.874 Z-1.067
X19.046 Y52.999 Z-1.112
X19.269 Y53.1 Z-1.204
X19.307 Y53.116 Z-1.216
X19.522 Y53.199 Z-1.316
X19.579 Y53.22 Z-1.336
X19.776 Y53.287 Z-1.43
X19.859 Y53.313 Z-1.458
X20.029 Y53.363 Z-1.531
X20.147 Y53.394 Z-1.562
X20.282 Y53.427 Z-1.608
X20.538 Y53.483 Z-1.652
X20.743 Y53.522 Z-1.657
X20.78 Y53.527 Z-1.672
X20.799 Y53.528 Z-1.686
X20.816 Z-1.693
X20.832 Z-1.707
X20.849 Z-1.725
X20.866 Z-1.748
X20.883 Y53.525 Z-1.767
X20.9 Y53.523 Z-1.791
X20.934 Y53.519 Z-1.853
X20.969 Y53.511 Z-1.917
X21.003 Y53.504 Z-2.
Z5.
X17.331 Y44.062
Z-0.001 F67.
X18.159 Y44.373 Z-2. F200.
X18.373 Y44.58
X18.987 Y44.512
G3 X19.277 Y44.615 I0.039 J0.351
G1 X19.306 Y44.644
G3 X19.576 Y44.489 I0.292 J0.197
G1 X20.467 Y44.433
X20.293 Y44.264
X18.159 Y44.373
X20.293 Y44.264
X20.467 Y44.433
X21.286 Y44.734 Z-0.001
X20.467 Y44.433 Z-2.
X19.576 Y44.489
G2 X19.306 Y44.644 I0.022 J0.352
G1 X19.311 Y44.68 Z-1.871
X19.315 Y44.715 Z-1.757
X19.323 Y44.748 Z-1.649
X19.33 Y44.781 Z-1.558
X19.341 Y44.811 Z-1.471
X19.346 Y44.826 Z-1.434
X19.364 Y44.868 Z-1.337
X19.371 Y44.881 Z-1.311
X19.377 Y44.895 Z-1.291
X19.385 Y44.907 Z-1.266
X19.393 Y44.92 Z-1.246
X19.401 Y44.932 Z-1.232
X19.414 Y44.952 Z-1.216
X19.427 Y44.968 Z-1.205
X19.434 Y44.976 Z-1.204
X19.44 Y44.984 Z-1.205
X19.447 Y44.991 Z-1.204
X19.462 Y45.005 Z-1.21
X19.484 Y45.025 Z-1.227
X19.663 Y45.162 Z-1.466
X19.8 Y45.276 Z-1.699
X19.928 Y45.389 Z-1.901
X19.983 Y45.445 Z-2.
X20.062 Y45.495
X20.19 Y45.591
X20.312 Y45.699
X20.53 Y45.921
X20.669 Y46.207
X20.733 Y46.363
X20.784 Y46.52
X20.824 Y46.685
X20.856 Y46.858
X20.908 Y47.231
X21. Y48.05
X21.001 Y48.053
X21.058 Y48.525
G2 X21.313 Y48.822 I0.35 J-0.042
X21.129 Y49.172 I0.166 J0.311
G1 X21.587 Y53.321
G2 X21.743 Y53.577 I0.351 J-0.039
G1 X21.338 Y53.545
X21.071 Y53.514
X21.003 Y53.504
G2 X21.129 Y53.193 I-0.225 J-0.272
G1 X20.528 Y47.771
Y47.77
X20.449 Y47.076
X20.448 Y47.065
X20.4 Y46.739
X20.398 Y46.727
X20.341 Y46.406
X20.336 Y46.383
X20.258 Y46.072
X20.247 Y46.036
X20.139 Y45.741
X20.124 Y45.707
X20.055 Y45.567
X20.042 Y45.543
X19.983 Y45.445
X20.042 Y45.543
X20.055 Y45.567
X20.124 Y45.707
X20.139 Y45.741
X20.247 Y46.036
X20.258 Y46.072
X20.336 Y46.383
X20.341 Y46.406
X20.398 Y46.727
X20.4 Y46.739
X20.448 Y47.065
X20.449 Y47.076
X20.528 Y47.77
Y47.771
X21.129 Y53.193
G3 X21.003 Y53.504 I-0.351 J0.039
G1 X21.071 Y53.514
X21.338 Y53.545
X21.743 Y53.577
X21.768 Y53.584 Z-1.964
X21.816 Y53.597 Z-1.913
X21.853 Y53.604 Z-1.888
X21.877 Y53.608 Z-1.879
X21.89 Y53.61 Z-1.877
X21.905 Y53.611 Z-1.873
X21.934 Y53.612
X21.948 Y53.613 Z-1.877
X22.444 Y53.617 Z-1.993
X22.492 Y53.616 Z-1.996
X22.522 Y53.615 Z-2.
X22.751 Y53.6
X22.765 Y53.599
X23.017 Y53.572
X23.037 Y53.569
X23.278 Y53.53
X23.305 Y53.524
X23.533 Y53.468
X23.567 Y53.458
X23.78 Y53.382
X23.821 Y53.365
X24.016 Y53.266
X24.062 Y53.238
X24.236 Y53.113
X24.282 Y53.074
X24.433 Y52.921
X24.467 Y52.88
X24.598 Y52.7
X24.62 Y52.665
X24.732 Y52.463
X24.746 Y52.436
X24.845 Y52.216
X24.853 Y52.196
X24.941 Y51.963
X24.946 Y51.948
X25.105 Y51.46
X25.118 Y51.406
X25.123 Y51.351
X25.118 Y51.295
X25.065 Y50.959
X25.062 Y50.943
X24.994 Y50.614
X24.989 Y50.592
X24.945 Y50.433
X24.939 Y50.413
X24.887 Y50.259
X24.877 Y50.234
X24.814 Y50.086
X24.801 Y50.058
X24.726 Y49.917
X24.724 Y49.914
X24.782 Y49.964
X24.923 Y50.103
X25.048 Y50.247
X25.155 Y50.398
X25.248 Y50.561
X25.329 Y50.739
X25.4 Y50.927
X25.523 Y51.351
X25.604 Y51.701
X25.431 Y52.178
X25.322 Y52.438
X25.204 Y52.675
X25.078 Y52.883
X24.936 Y53.062
X24.868 Y53.131
X24.791 Y53.196
X24.708 Y53.255
X24.624 Y53.305
X24.419 Y53.401
X24.192 Y53.474
X23.941 Y53.529
X23.668 Y53.567
X23.378 Y53.592
X23.074 Y53.606
X22.522 Y53.615
X23.074 Y53.606
X23.378 Y53.592
X23.668 Y53.567
X23.941 Y53.529
X24.192 Y53.474
X24.419 Y53.401
X24.624 Y53.305
X24.708 Y53.255
X24.791 Y53.196
X24.868 Y53.131
X24.936 Y53.062
X25.078 Y52.883
X25.204 Y52.675
X25.322 Y52.438
X25.431 Y52.178
X25.604 Y51.701
X25.523 Y51.351
X25.4 Y50.927
X25.329 Y50.739
X25.248 Y50.561
X25.155 Y50.398
X25.048 Y50.247
X24.923 Y50.103
X24.782 Y49.964
X24.724 Y49.914
X24.705 Y49.892 Z-1.974
X24.638 Y49.815 Z-1.892
X24.579 Y49.753 Z-1.815
X24.487 Y49.661 Z-1.72
X24.453 Y49.629 Z-1.678
X24.443 Y49.62 Z-1.669
X24.174 Y49.39 Z-1.449
X24.138 Y49.362 Z-1.431
X23.897 Y49.18 Z-1.278
X23.744 Y49.069 Z-1.203
X23.716 Y49.044
X23.707 Y49.036 Z-1.208
X23.699 Y49.028 Z-1.217
X23.691 Y49.019 Z-1.223
X23.683 Y49.01 Z-1.232
X23.661 Y48.983 Z-1.274
X23.654 Y48.973 Z-1.29
X23.631 Y48.938 Z-1.367
X23.611 Y48.907 Z-1.459
X23.588 Y48.869 Z-1.6
X23.557 Y48.82 Z-1.82
X23.535 Y48.783 Z-2.
X23.058 Y48.716
X23.033 Y48.714
X22.999 Y48.727 Z-1.911
X22.944 Y48.744 Z-1.793
X22.889 Y48.757 Z-1.705
X22.848 Y48.763 Z-1.658
X22.82 Y48.766 Z-1.636
X22.807 Y48.767 Z-1.631
X22.793 Z-1.621
X22.779 Z-1.616
X22.766 Z-1.614
X22.746 Y48.766 Z-1.616
X22.524 Y48.753 Z-1.631
X22.416 Y48.751 Z-1.669
X22.095 Y48.754 Z-1.742
X21.972 Y48.759 Z-1.748
X21.96 Y48.76 Z-1.751
X21.767 Y48.775 Z-1.805
X21.42 Y48.81 Z-1.862
X21.397 Y48.813 Z-1.876
X21.369 Y48.816 Z-1.905
X21.353 Y48.818 Z-1.928
X21.335 Y48.82 Z-1.959
X21.313 Y48.822 Z-2.
X21.335 Y48.82 Z-1.959
X21.353 Y48.818 Z-1.928
X21.369 Y48.816 Z-1.905
X21.397 Y48.813 Z-1.876
X21.42 Y48.81 Z-1.862
X21.767 Y48.775 Z-1.805
X21.96 Y48.76 Z-1.751
X21.972 Y48.759 Z-1.748
X22.095 Y48.754 Z-1.742
X22.416 Y48.751 Z-1.669
X22.524 Y48.753 Z-1.631
X22.746 Y48.766 Z-1.616
X22.766 Y48.767 Z-1.614
X22.779 Z-1.616
X22.793 Z-1.621
X22.807 Z-1.631
X22.82 Y48.766 Z-1.636
X22.848 Y48.763 Z-1.658
X22.889 Y48.757 Z-1.705
X22.944 Y48.744 Z-1.793
X22.999 Y48.727 Z-1.911
X23.033 Y48.714 Z-2.
X23.063 Y48.675
X23.087 Y48.632
X23.498 Y47.751
X23.71 Y47.322
X23.932 Y46.901
X24.169 Y46.489
X24.419 Y46.083
X24.946 Y45.277
X25.243 Y44.863
X25.39 Y44.685
X25.543 Y44.529
X25.705 Y44.401
X25.887 Y44.294
X26.098 Y44.197
X26.214 Y44.15
X26.371 Y44.2
X26.471 Y44.245
X26.562 Y44.301
X26.652 Y44.374
X26.744 Y44.461
X26.86 Y44.588
X26.97 Y44.661 Z-1.813
X27.044 Y44.71 Z-1.684
X27.061 Y44.723 Z-1.653
X27.223 Y44.849 Z-1.436
X27.242 Y44.866 Z-1.408
X27.317 Y44.939 Z-1.326
X27.393 Y45.029 Z-1.249
X27.404 Y45.043 Z-1.238
X27.422 Y45.068 Z-1.231
X27.494 Y45.184 Z-1.16
X27.515 Y45.224 Z-1.121
X27.554 Y45.311 Z-1.082
X27.593 Y45.412 Z-1.008
X27.597 Y45.422 Z-1.001
X27.644 Y45.566 Z-0.947
X27.645 Y45.603 Z-0.879
X27.64 Y45.665 Z-0.724
X27.62 Y45.747 Z-0.447
X27.581 Y45.864 Z-0.002
X27.62 Y45.747 Z-0.447
X27.64 Y45.665 Z-0.724
X27.645 Y45.603 Z-0.879
X27.644 Y45.566 Z-0.947
X27.597 Y45.422 Z-1.001
X27.593 Y45.412 Z-1.008
X27.554 Y45.311 Z-1.082
X27.515 Y45.224 Z-1.121
X27.494 Y45.184 Z-1.16
X27.422 Y45.068 Z-1.231
X27.404 Y45.043 Z-1.238
X27.393 Y45.029 Z-1.249
X27.317 Y44.939 Z-1.326
X27.242 Y44.866 Z-1.408
X27.223 Y44.849 Z-1.436
X27.061 Y44.723 Z-1.653
X27.044 Y44.71 Z-1.684
X26.97 Y44.661 Z-1.813
X26.86 Y44.588 Z-2.
X26.673 Y44.537
X26.599 Y44.525
X26.525 Y44.529
X26.452 Y44.548
X26.177 Y44.655
X26.138 Y44.673
X26.011 Y44.74
X25.968 Y44.768
X25.853 Y44.853
X25.817 Y44.884
X25.714 Y44.984
X25.69 Y45.01
X25.596 Y45.122
X25.579 Y45.144
X25.405 Y45.388
X25.391 Y45.409
X24.96 Y46.118
X24.956 Y46.126
X24.542 Y46.845
X24.537 Y46.854
X24.146 Y47.585
X24.143 Y47.59
X23.763 Y48.328
X23.762 Y48.33
X23.554 Y48.737
X23.535 Y48.783
Z5.
X34.033 Y50.628
Z-0.001 F67.
X33.824 Y50.508 Z-0.965 F200.
X33.607 Y50.376 Z-2.
X33.358 Y50.425
X33.067 Y50.452
X32.783 Y50.461
X32.329 Y50.406
X32.152 Y50.377
X32.086 Y50.379 Z-1.928
X31.886 Z-1.748
X31.63 Y50.364 Z-1.528
X31.517 Y50.354 Z-1.412
X31.498 Y50.352 Z-1.393
X31.461 Y50.346 Z-1.371
X31.408 Y50.333 Z-1.363
X31.197 Y50.274 Z-1.291
X31.172 Y50.266 Z-1.276
X30.991 Y50.203 Z-1.201
X30.892 Y50.164 Z-1.134
X30.789 Y50.117 Z-1.1
X30.641 Y50.042 Z-1.016
X30.632 Y50.037 Z-1.011
X30.591 Y50.013 Z-1.004
X30.51 Y49.963 Z-0.973
X30.401 Y49.887 Z-0.966
X30.39 Y49.879 Z-0.964
X30.275 Y49.787 Z-0.977
X30.222 Y49.74 Z-0.999
X30.166 Y49.688 Z-1.014
X29.965 Y49.481 Z-1.147
X29.888 Y49.396 Z-1.227
X29.769 Y49.257 Z-1.339
X29.588 Y49.037 Z-1.545
X29.582 Y49.028 Z-1.548
X29.57 Y49.009 Z-1.552
X29.341 Y48.608 Z-1.863
X29.228 Y48.401 Z-2.
X29.182 Y48.293
X29.174 Y48.272
X29.046 Y47.903
X29.038 Y47.877
X28.939 Y47.501
X28.932 Y47.472
X28.866 Y47.088
X28.863 Y47.065
X28.822 Y46.675
X28.82 Y46.656
X28.781 Y45.868
Y45.842
X28.788 Y45.515
X28.793 Y45.469
X28.816 Y45.32
X28.832 Y45.256
X28.879 Y45.124
X28.909 Y45.06
X28.944 Y45.003
X28.977 Y44.957
X29.02 Y44.905
X29.047 Y44.877
X29.076 Y44.852
X29.188 Y44.767
X29.243 Y44.732
X29.379 Y44.664
X29.405 Y44.653
X29.552 Y44.593
X29.607 Y44.576
X29.663 Y44.568
X29.721 Y44.569
X29.777 Y44.58
X29.939 Y44.624
X29.859 Y44.567
X29.686 Y44.463
X29.508 Y44.383
X29.318 Y44.321
X28.966 Y44.243
X28.821 Y44.298
X28.616 Y44.395
X28.547 Y44.438
X28.492 Y44.482
X28.453 Y44.527
X28.42 Y44.579
X28.39 Y44.645
X28.365 Y44.726
X28.345 Y44.822
X28.331 Y44.927
X28.315 Y45.182
X28.313 Y45.443
X28.357 Y45.94
X28.418 Y46.44
X28.458 Y46.677
X28.508 Y46.909
X28.569 Y47.133
X28.642 Y47.35
X28.73 Y47.561
X28.833 Y47.769
X28.949 Y47.975
X29.075 Y48.179
X29.228 Y48.401
X29.075 Y48.179
X28.949 Y47.975
X28.833 Y47.769
X28.73 Y47.561
X28.642 Y47.35
X28.569 Y47.133
X28.508 Y46.909
X28.458 Y46.677
X28.418 Y46.44
X28.357 Y45.94
X28.313 Y45.443
X28.315 Y45.182
X28.331 Y44.927
X28.345 Y44.822
X28.365 Y44.726
X28.39 Y44.645
X28.42 Y44.579
X28.453 Y44.527
X28.492 Y44.482
X28.547 Y44.438
X28.616 Y44.395
X28.821 Y44.298
X28.966 Y44.243
X29.318 Y44.321
X29.508 Y44.383
X29.686 Y44.463
X29.859 Y44.567
X29.939 Y44.624
X30.014 Y44.66 Z-1.917
X30.043 Y44.675 Z-1.888
X30.245 Y44.785 Z-1.644
X30.47 Y44.924 Z-1.425
X30.663 Y45.072 Z-1.252
X30.673 Y45.081 Z-1.247
X30.86 Y45.243 Z-1.157
X30.981 Y45.357 Z-1.137
X31.038 Y45.414 Z-1.12
X31.22 Y45.606 Z-1.114
X31.371 Y45.774 Z-1.081
X31.445 Y45.864 Z-1.094
X31.657 Y46.134 Z-1.08
X31.86 Y46.414 Z-1.052
X31.907 Y46.482 Z-1.038
X32.151 Y46.85 Z-1.032
X32.255 Y47.018 Z-1.063
X32.27 Y47.039 Z-1.081
X32.279 Y47.05 Z-1.092
X32.288 Y47.06 Z-1.107
X32.306 Y47.081 Z-1.154
X32.317 Y47.09 Z-1.176
X32.327 Y47.1 Z-1.203
X32.349 Y47.119 Z-1.27
X32.373 Y47.136 Z-1.341
X32.398 Y47.154 Z-1.43
X32.426 Y47.169 Z-1.524
X32.473 Y47.194 Z-1.705
X32.508 Y47.209 Z-1.845
X32.544 Y47.225 Z-2.
X32.607 Y47.367
X32.614 Y47.384
X32.691 Y47.584
X32.698 Y47.604
X32.828 Y48.014
X32.833 Y48.034
X32.941 Y48.455
X32.943 Y48.465
X33.04 Y48.891
X33.044 Y48.917
X33.159 Y49.689
G3 X32.962 Y50.059 I-0.349 J0.052
G1 X32.649 Y50.209
X32.63 Y50.217
X32.471 Y50.282
X32.448 Y50.291
X32.285 Y50.344
X32.255 Y50.353
X32.152 Y50.377
X32.255 Y50.353
X32.285 Y50.344
X32.448 Y50.291
X32.471 Y50.282
X32.63 Y50.217
X32.649 Y50.209
X32.962 Y50.059
G2 X33.159 Y49.689 I-0.152 J-0.318
G1 X33.044 Y48.917
X33.04 Y48.891
X32.943 Y48.465
X32.941 Y48.455
X32.833 Y48.034
X32.828 Y48.014
X32.698 Y47.604
X32.691 Y47.584
X32.614 Y47.384
X32.607 Y47.367
X32.544 Y47.225
G2 X32.751 Y46.85 I-0.141 J-0.323
G1 X32.672 Y46.32
X32.58 Y45.695
X32.509 Y45.128
X32.476 Y44.845
X32.462 Y44.582
X32.48 Y44.367
X32.494 Y44.31
X32.502 Y44.294
Y44.293
X32.533 Y44.276
X32.612 Y44.247
X32.634 Y44.241
X32.769 Y44.276
X32.975 Y44.34
X33.153 Y44.415
X33.246 Y44.47
X33.267 Y44.473 Z-1.947
X33.308 Y44.478 Z-1.854
X33.329 Y44.482 Z-1.815
X33.357 Y44.491 Z-1.747
X33.385 Y44.5 Z-1.693
X33.412 Y44.511 Z-1.641
X33.438 Y44.523 Z-1.604
X33.463 Y44.536 Z-1.568
X33.515 Y44.567 Z-1.525
X33.69 Y44.687 Z-1.313
X33.889 Y44.846 Z-1.045
X33.898 Y44.853 Z-1.033
X34.066 Y45.006 Z-0.874
X34.088 Y45.026 Z-0.852
X34.25 Y45.204 Z-0.797
X34.4 Y45.408 Z-0.801
X34.431 Y45.455 Z-0.818
X34.499 Y45.572 Z-0.825
X34.527 Y45.627 Z-0.814
X34.559 Y45.694 Z-0.817
X34.653 Y45.916 Z-0.777
Y45.93 Z-0.747
X34.65 Y45.98 Z-0.613
X34.635 Y46.047 Z-0.376
X34.605 Y46.143 Z-0.001
X34.635 Y46.047 Z-0.376
X34.65 Y45.98 Z-0.613
X34.653 Y45.93 Z-0.747
Y45.916 Z-0.777
X34.559 Y45.694 Z-0.817
X34.527 Y45.627 Z-0.814
X34.499 Y45.572 Z-0.825
X34.431 Y45.455 Z-0.818
X34.4 Y45.408 Z-0.801
X34.25 Y45.204 Z-0.797
X34.088 Y45.026 Z-0.852
X34.066 Y45.006 Z-0.874
X33.898 Y44.853 Z-1.033
X33.889 Y44.846 Z-1.045
X33.69 Y44.687 Z-1.313
X33.515 Y44.567 Z-1.525
X33.463 Y44.536 Z-1.568
X33.438 Y44.523 Z-1.604
X33.412 Y44.511 Z-1.641
X33.385 Y44.5 Z-1.693
X33.357 Y44.491 Z-1.747
X33.329 Y44.482 Z-1.815
X33.308 Y44.478 Z-1.854
X33.267 Y44.473 Z-1.947
X33.246 Y44.47 Z-2.
X33.227 Y44.479
X33.134 Y44.521
X33.099 Y44.54
X33.067 Y44.563
X33.03 Y44.591
X32.991 Y44.626
X32.957 Y44.667
X32.932 Y44.704
X32.899 Y44.761
X32.878 Y44.823
X32.856 Y44.916
X32.849 Y44.953
X32.846 Y44.992
X32.844 Y45.099
X32.845 Y45.133
X32.879 Y45.588
X32.881 Y45.607
X32.939 Y46.06
X32.94 Y46.064
X33.004 Y46.521
X33.005 Y46.523
X33.462 Y49.684
X33.466 Y49.704
X33.559 Y50.162
X33.56 Y50.17
X33.607 Y50.376
Z5.
X39.613 Y46.243
Z-0.001 F67.
X39.625 Y46.137 Z-0.331 F200.
X39.63 Y46.051 Z-0.574
X39.626 Y45.977 Z-0.74
X39.62 Y45.928 Z-0.83
X39.609 Y45.9 Z-0.845
X39.554 Y45.768 Z-0.936
X39.484 Y45.611 Z-1.025
X39.474 Y45.589 Z-1.043
X39.385 Y45.431 Z-1.132
X39.334 Y45.354 Z-1.14
X39.286 Y45.289 Z-1.171
X39.229 Y45.223 Z-1.172
X39.166 Y45.155 Z-1.195
X39.124 Y45.115 Z-1.194
X39.117 Y45.109 Z-1.196
X39.026 Y45.029 Z-1.229
X39.004 Y45.012 Z-1.23
X38.994 Y45.005 Z-1.234
X38.873 Y44.919 Z-1.288
X38.864 Y44.913 Z-1.295
X38.73 Y44.827 Z-1.4
X38.685 Y44.801 Z-1.444
X38.585 Y44.747 Z-1.524
X38.304 Y44.608 Z-1.813
X38.274 Y44.595 Z-1.849
X38.117 Y44.529 Z-2.
X38.083 Y44.508
X37.907 Y44.419
X37.727 Y44.351
X37.535 Y44.301
X37.138 Y44.232
X36.856 Y44.27
X36.727 Y44.302
X36.617 Y44.344
X36.515 Y44.405
X36.411 Y44.487
X36.201 Y44.689
X36.023 Y44.994
X35.948 Y45.15
X35.892 Y45.304
X35.854 Y45.467
X35.829 Y45.642
X35.803 Y46.017
X35.845 Y46.444
X35.902 Y46.885
X35.986 Y47.307
X36.04 Y47.502
X36.105 Y47.694
X36.183 Y47.882
X36.261 Y48.044
X36.239 Y47.926
X36.235 Y47.9
X36.205 Y47.618
X36.203 Y47.597
X36.177 Y47.025
Y46.991
X36.198 Y46.58
X36.199 Y46.558
X36.222 Y46.356
X36.226 Y46.33
X36.263 Y46.131
X36.271 Y46.098
X36.327 Y45.904
X36.337 Y45.874
X36.411 Y45.685
X36.421 Y45.662
X36.597 Y45.291
X36.619 Y45.252
X36.645 Y45.216
X36.848 Y44.974
X36.874 Y44.946
X36.985 Y44.84
X37.023 Y44.808
X37.144 Y44.722
X37.199 Y44.689
X37.333 Y44.626
X37.383 Y44.607
X37.528 Y44.563
X37.569 Y44.554
X37.879 Y44.501
X37.951 Y44.496
X38.022 Y44.506
X38.117 Y44.529
X38.022 Y44.506
X37.951 Y44.496
X37.879 Y44.501
X37.569 Y44.554
X37.528 Y44.563
X37.383 Y44.607
X37.333 Y44.626
X37.199 Y44.689
X37.144 Y44.722
X37.023 Y44.808
X36.985 Y44.84
X36.874 Y44.946
X36.848 Y44.974
X36.645 Y45.216
X36.619 Y45.252
X36.597 Y45.291
X36.421 Y45.662
X36.411 Y45.685
X36.337 Y45.874
X36.327 Y45.904
X36.271 Y46.098
X36.263 Y46.131
X36.226 Y46.33
X36.222 Y46.356
X36.199 Y46.558
X36.198 Y46.58
X36.177 Y46.991
Y47.025
X36.203 Y47.597
X36.205 Y47.618
X36.235 Y47.9
X36.239 Y47.926
X36.261 Y48.044
X36.268 Y48.067 Z-1.982
X36.322 Y48.213 Z-1.834
X36.328 Y48.228 Z-1.823
X36.439 Y48.487 Z-1.631
X36.451 Y48.511 Z-1.612
X36.59 Y48.779 Z-1.435
X36.643 Y48.872 Z-1.394
X36.87 Y49.258 Z-1.184
X36.897 Y49.294 Z-1.146
X36.905 Y49.304 Z-1.141
X36.913 Y49.315 Z-1.142
X37.07 Y49.488 Z-1.113
X37.137 Y49.56
X37.236 Y49.661 Z-1.1
X37.404 Y49.818 Z-1.135
X37.432 Y49.841 Z-1.155
X37.601 Y49.97 Z-1.241
X37.615 Y49.979 Z-1.254
X37.751 Y50.06 Z-1.377
X37.815 Y50.096 Z-1.423
X37.831 Y50.104 Z-1.441
X37.917 Y50.144 Z-1.538
X38.044 Y50.198 Z-1.652
X38.083 Y50.213 Z-1.698
X38.25 Y50.268 Z-1.849
X38.283 Y50.278 Z-1.871
X38.42 Y50.313 Z-1.978
X38.458 Y50.322 Z-2.
X38.504 Y50.327
X38.574 Y50.329
X38.855 Y50.307
X38.882 Y50.304
X39.159 Y50.262
X39.201 Y50.253
X39.471 Y50.176
X39.495 Y50.169
X39.528 Y50.157
X39.839 Y50.53
X39.721 Y50.545
X39.526 Y50.553
X39.155 Y50.493
X38.768 Y50.414
X38.592 Y50.366
X38.458 Y50.322
X38.592 Y50.366
X38.768 Y50.414
X39.155 Y50.493
X39.526 Y50.553
X39.721 Y50.545
X39.839 Y50.53
X39.934 Y50.568 Z-1.722
X40.176 Y50.645 Z-0.946
X40.456 Y50.721 Z-0.001
Z5.
X42.82 Y47.681
Z-2. F67.
X42.851 Y47.694 Z-1.871 F200.
X42.881 Y47.708 Z-1.752
X42.909 Y47.723 Z-1.642
X42.936 Y47.738 Z-1.543
X42.961 Y47.755 Z-1.451
X42.985 Y47.771 Z-1.373
X43.006 Y47.789 Z-1.299
X43.028 Y47.807 Z-1.241
X43.046 Y47.827 Z-1.185
X43.055 Y47.836 Z-1.164
X43.064 Y47.846 Z-1.147
X43.081 Y47.868 Z-1.114
X43.089 Y47.878 Z-1.104
X43.273 Y48.163 Z-1.001
X43.487 Y48.476 Z-0.95
X43.684 Y48.755 Z-0.873
X43.698 Y48.773 Z-0.865
X43.893 Y49.014 Z-0.836
X44.091 Y49.237 Z-0.796
X44.124 Y49.273 Z-0.798
X44.299 Y49.449 Z-0.782
X44.368 Y49.512 Z-0.803
X44.522 Y49.645 Z-0.833
X44.645 Y49.741 Z-0.902
X44.77 Y49.831 Z-1.007
X44.918 Y49.925 Z-1.179
X45.031 Y49.991 Z-1.279
X45.313 Y50.136 Z-1.605
X45.325 Y50.142 Z-1.62
X45.547 Y50.241 Z-1.865
X45.617 Y50.268 Z-1.923
X45.657 Y50.281 Z-1.97
X45.677 Y50.287 Z-2.
X45.74 Y50.323
X45.924 Y50.402
X46.121 Y50.463
X46.494 Y50.543
X46.566 Y50.522
X46.685 Y50.476
X46.764 Y50.43
X46.769 Y50.425
X46.779 Y50.412
X46.79 Y50.391
X46.801 Y50.363
X46.827 Y50.247
X46.842 Y50.1
X46.849 Y49.945
X46.822 Y49.535
X46.767 Y49.109
X46.388 Y46.443
X46.387 Y46.437
X46.309 Y45.806
X46.307 Y45.782
X46.27 Y45.148
Y45.126
Y45.
X46.273 Y44.955
X46.281 Y44.897
X46.294 Y44.837
X46.31 Y44.785
X46.327 Y44.741
X46.349 Y44.701
X46.378 Y44.656
X46.409 Y44.614
X46.446 Y44.578
X46.487 Y44.542
X46.52 Y44.518
X46.555 Y44.497
X46.651 Y44.447
X46.701 Y44.452 Z-1.852
X46.738 Y44.457 Z-1.762
X46.773 Y44.464 Z-1.676
X46.808 Y44.472 Z-1.611
X46.831 Y44.48 Z-1.561
X46.875 Y44.499 Z-1.484
X46.897 Y44.509 Z-1.458
X46.917 Y44.521 Z-1.432
X46.937 Y44.533 Z-1.418
X46.964 Y44.551 Z-1.399
X47.14 Y44.674 Z-1.236
X47.324 Y44.812 Z-1.093
X47.333 Y44.819 Z-1.086
X47.342 Y44.826 Z-1.082
X47.52 Y44.978 Z-1.007
X47.533 Y44.99
X47.557 Y45.013 Z-1.011
X47.675 Y45.139 Z-0.998
X47.692 Y45.159 Z-0.99
X47.7 Y45.169
X47.778 Y45.271 Z-0.998
X47.842 Y45.366 Z-0.97
X47.867 Y45.407
X47.944 Y45.553 Z-0.912
X47.956 Y45.58 Z-0.894
X48.069 Y45.85 Z-0.763
X48.07 Y45.868 Z-0.723
X48.069 Y45.915 Z-0.595
X48.057 Y45.979 Z-0.368
X48.032 Y46.072 Z0.
X48.057 Y45.979 Z-0.368
X48.069 Y45.915 Z-0.595
X48.07 Y45.868 Z-0.723
X48.069 Y45.85 Z-0.763
X47.956 Y45.58 Z-0.894
X47.944 Y45.553 Z-0.912
X47.867 Y45.407 Z-0.97
X47.842 Y45.366
X47.778 Y45.271 Z-0.998
X47.7 Y45.169 Z-0.99
X47.692 Y45.159
X47.675 Y45.139 Z-0.998
X47.557 Y45.013 Z-1.011
X47.533 Y44.99 Z-1.007
X47.52 Y44.978
X47.342 Y44.826 Z-1.082
X47.333 Y44.819 Z-1.086
X47.324 Y44.812 Z-1.093
X47.14 Y44.674 Z-1.236
X46.964 Y44.551 Z-1.399
X46.937 Y44.533 Z-1.418
X46.917 Y44.521 Z-1.432
X46.897 Y44.509 Z-1.458
X46.875 Y44.499 Z-1.484
X46.831 Y44.48 Z-1.561
X46.808 Y44.472 Z-1.611
X46.773 Y44.464 Z-1.676
X46.738 Y44.457 Z-1.762
X46.701 Y44.452 Z-1.852
X46.651 Y44.447 Z-2.
X46.639 Y44.439
X46.509 Y44.369
X46.37 Y44.314
X46.12 Y44.244
X46.093 Y44.252
X46.004 Y44.288
X45.959 Y44.316
X45.941 Y44.355
X45.926 Y44.428
X45.91 Y44.68
X45.927 Y45.064
X45.956 Y45.456
X46.056 Y46.254
X46.299 Y47.983
X46.3 Y47.988
X46.383 Y48.662
X46.386 Y48.686
X46.424 Y49.364
Y49.409
X46.409 Y49.615
X46.401 Y49.666
X46.381 Y49.758
X46.358 Y49.828
X46.322 Y49.907
X46.295 Y49.955
X46.262 Y49.999
X46.205 Y50.061
X46.167 Y50.097
X46.125 Y50.127
X46.048 Y50.173
X45.981 Y50.204
X45.792 Y50.268
X45.736 Y50.282
X45.677 Y50.287
Z5.
X41.473 Y43.876
Z-0.001 F67.
X41.886 Y44.426 Z-2. F200.
X42.21 Y44.559
X42.373 Y46.067
X42.379 Y46.101
X42.529 Y46.818
X42.534 Y46.84
X42.631 Y47.189
X42.639 Y47.215
X42.762 Y47.554
X42.774 Y47.584
X42.82 Y47.681
G2 X42.595 Y48.049 I0.126 J0.329
G1 X43.089 Y52.463
X43.09 Y52.47
X43.172 Y53.084
X43.174 Y53.095
X43.223 Y53.395
X43.226 Y53.408
X43.23 Y53.43
X43.149 Y53.255
X43.06 Y53.034
X42.983 Y52.807
X42.851 Y52.325
X42.744 Y51.824
X42.651 Y51.321
X41.959 Y45.067
Y45.066
X41.901 Y44.566
X41.886 Y44.426
X41.901 Y44.566
X41.959 Y45.066
Y45.067
X42.651 Y51.321
X42.744 Y51.824
X42.851 Y52.325
X42.983 Y52.807
X43.06 Y53.034
X43.149 Y53.255
X43.23 Y53.43
X43.245 Y53.474 Z-1.969
X43.329 Y53.707 Z-1.768
X43.451 Y53.993 Z-1.507
X43.533 Y54.167 Z-1.383
X43.583 Y54.266 Z-1.296
X43.723 Y54.513 Z-1.138
X43.729 Y54.522 Z-1.136
X43.789 Y54.617 Z-1.109
X43.879 Y54.752 Z-1.057
X43.887 Y54.764
X44.053 Y54.981 Z-1.073
X44.094 Y55.028 Z-1.103
X44.257 Y55.185 Z-1.115
X44.267 Y55.194 Z-1.121
X44.422 Y55.324 Z-1.21
X44.482 Y55.372 Z-1.236
X44.491 Y55.379 Z-1.244
X44.732 Y55.554 Z-1.438
X44.784 Y55.588 Z-1.492
X44.989 Y55.716 Z-1.667
X45.145 Y55.803 Z-1.803
X45.261 Y55.863 Z-1.882
X45.324 Y55.894 Z-1.932
X45.44 Y55.946 Z-2.
X45.822 Y56.076
X45.888 Y56.092
X45.955 Y56.095
X46.152 Y56.084
X46.171 Y56.082
X46.366 Y56.06
X46.397 Y56.055
X46.589 Y56.016
X46.604 Y56.013
X46.956 Y56.358
X46.67 Y56.316
X46.242 Y56.236
X46.044 Y56.187
X45.852 Y56.129
X45.671 Y56.06
X45.498 Y55.979
X45.44 Y55.946
X45.498 Y55.979
X45.671 Y56.06
X45.852 Y56.129
X46.044 Y56.187
X46.242 Y56.236
X46.67 Y56.316
X46.956 Y56.358
X47.08 Y56.419 Z-1.757
X47.396 Y56.538 Z-0.986
X47.759 Y56.651 Z-0.002
Z5.
X51.774 Y50.319
Z-1.998 F67.
X51.742 Y50.315 Z-1.953 F200.
X51.706 Y50.309 Z-1.893
X51.675 Y50.304 Z-1.85
X51.66 Y50.301 Z-1.835
X51.645 Y50.296 Z-1.816
X51.63 Y50.292 Z-1.801
X51.58 Y50.276 Z-1.772
X51.428 Y50.218 Z-1.647
X51.276 Y50.152 Z-1.48
X51.255 Y50.141 Z-1.452
X51.127 Y50.069 Z-1.323
X51.076 Y50.038 Z-1.261
X50.983 Y49.972 Z-1.191
X50.926 Y49.927 Z-1.131
X50.913 Y49.916 Z-1.117
X50.777 Y49.791 Z-1.052
X50.769 Y49.783 Z-1.048
X50.712 Y49.723 Z-1.049
X50.644 Y49.647 Z-1.029
X50.47 Y49.43 Z-1.05
X50.411 Y49.354 Z-1.048
X50.402 Y49.341
X50.253 Y49.113 Z-1.173
X50.131 Y48.909 Z-1.235
X50.03 Y48.73 Z-1.322
X50.005 Y48.684 Z-1.341
X49.888 Y48.449 Z-1.484
X49.836 Y48.333 Z-1.58
X49.782 Y48.204 Z-1.668
X49.687 Y47.955 Z-1.88
X49.641 Y47.811 Z-2.
X49.58 Y47.454
G3 X49.834 Y47.055 I0.348 J-0.059
G1 X50.02 Y47.004
X50.077 Y46.993
X50.156 Y46.985
X49.783 Y46.856
G3 X49.549 Y46.478 I0.115 J-0.333
G1 X49.591 Y46.149
X49.593 Y46.131
X49.65 Y45.815
X49.656 Y45.788
X49.695 Y45.64
X49.703 Y45.614
X49.751 Y45.474
X49.764 Y45.442
X49.824 Y45.312
X49.844 Y45.274
X49.917 Y45.155
X49.946 Y45.114
X50.034 Y45.009
X50.073 Y44.968
X50.178 Y44.878
X50.216 Y44.849
X50.335 Y44.771
X50.368 Y44.752
X50.499 Y44.685
X50.535 Y44.67
X50.824 Y44.56
X50.848 Y44.552
X51.157 Y44.46
X51.217 Y44.448
X51.278 Y44.446
X51.338 Y44.455
X51.411 Y44.472
X51.435 Y44.48 Z-1.99
X51.578 Y44.529 Z-1.902
X51.678 Y44.568 Z-1.817
X51.719 Y44.585 Z-1.788
X51.861 Y44.652 Z-1.653
X52.004 Y44.725 Z-1.491
X52.155 Y44.817 Z-1.312
X52.305 Y44.916 Z-1.167
X52.445 Y45.026 Z-1.038
X52.576 Y45.141 Z-0.964
X52.697 Y45.262 Z-0.923
X52.815 Y45.391 Z-0.926
X52.824 Y45.401 Z-0.93
X52.961 Y45.571 Z-0.976
X53.027 Y45.66
X53.08 Y45.739 Z-0.999
X53.128 Y45.818 Z-0.991
X53.172 Y45.902 Z-0.958
X53.199 Y45.958 Z-0.921
X53.246 Y46.061 Z-0.866
X53.251 Y46.095 Z-0.797
X53.254 Y46.153 Z-0.65
X53.246 Y46.228 Z-0.403
X53.225 Y46.336 Z-0.002
X53.246 Y46.228 Z-0.403
X53.254 Y46.153 Z-0.65
X53.251 Y46.095 Z-0.797
X53.246 Y46.061 Z-0.866
X53.199 Y45.958 Z-0.921
X53.172 Y45.902 Z-0.958
X53.128 Y45.818 Z-0.991
X53.08 Y45.739 Z-0.999
X53.027 Y45.66 Z-0.976
X52.961 Y45.571
X52.824 Y45.401 Z-0.93
X52.815 Y45.391 Z-0.926
X52.697 Y45.262 Z-0.923
X52.576 Y45.141 Z-0.964
X52.445 Y45.026 Z-1.038
X52.305 Y44.916 Z-1.167
X52.155 Y44.817 Z-1.312
X52.004 Y44.725 Z-1.491
X51.861 Y44.652 Z-1.653
X51.719 Y44.585 Z-1.788
X51.678 Y44.568 Z-1.817
X51.578 Y44.529 Z-1.902
X51.435 Y44.48 Z-1.99
X51.411 Y44.472 Z-2.
X51.29 Y44.426
X51.14 Y44.378
X50.808 Y44.294
X50.515 Y44.233
X50.246 Y44.269
X50.12 Y44.3
X50.013 Y44.341
X49.913 Y44.4
X49.811 Y44.479
X49.603 Y44.678
X49.426 Y44.967
X49.352 Y45.113
X49.297 Y45.258
X49.26 Y45.411
X49.235 Y45.576
X49.208 Y45.928
X49.257 Y46.338
X49.321 Y46.765
X49.409 Y47.176
X49.464 Y47.367
X49.53 Y47.556
X49.608 Y47.742
X49.641 Y47.811
X49.608 Y47.742
X49.53 Y47.556
X49.464 Y47.367
X49.409 Y47.176
X49.321 Y46.765
X49.257 Y46.338
X49.208 Y45.928
X49.235 Y45.576
X49.26 Y45.411
X49.297 Y45.258
X49.352 Y45.113
X49.426 Y44.967
X49.603 Y44.678
X49.811 Y44.479
X49.913 Y44.4
X50.013 Y44.341
X50.12 Y44.3
X50.246 Y44.269
X50.515 Y44.233
X50.808 Y44.294
X51.14 Y44.378
X51.29 Y44.426
X51.411 Y44.472
X51.338 Y44.455
X51.278 Y44.446
X51.217 Y44.448
X51.157 Y44.46
X50.848 Y44.552
X50.824 Y44.56
X50.535 Y44.67
X50.499 Y44.685
X50.368 Y44.752
X50.335 Y44.771
X50.216 Y44.849
X50.178 Y44.878
X50.073 Y44.968
X50.034 Y45.009
X49.946 Y45.114
X49.917 Y45.155
X49.844 Y45.274
X49.824 Y45.312
X49.764 Y45.442
X49.751 Y45.474
X49.703 Y45.614
X49.695 Y45.64
X49.656 Y45.788
X49.65 Y45.815
X49.593 Y46.131
X49.591 Y46.149
X49.549 Y46.478
G2 X49.783 Y46.856 I0.35 J0.045
G1 X50.156 Y46.985
X50.272 Y46.998 Z-1.856
X50.289 Y47.001 Z-1.833
X50.305 Y47.003 Z-1.815
X50.476 Y47.039 Z-1.698
X50.753 Y47.108 Z-1.46
X50.809 Y47.125 Z-1.422
X50.973 Y47.179 Z-1.281
X50.983 Y47.183 Z-1.272
X51.13 Y47.239 Z-1.187
X51.197 Y47.269 Z-1.129
X51.391 Y47.369 Z-1.03
X51.434 Y47.393 Z-1.019
X51.584 Y47.488 Z-0.952
X51.724 Y47.584 Z-0.925
X51.939 Y47.743 Z-0.838
X51.946 Y47.748 Z-0.836
X51.953 Y47.754
X52.243 Y48.017 Z-0.933
X52.266 Y48.039 Z-0.947
X52.377 Y48.166 Z-0.973
X52.384 Y48.174 Z-0.975
X52.45 Y48.259 Z-1.029
X52.5 Y48.326 Z-1.064
X52.509 Y48.339 Z-1.07
X52.61 Y48.499 Z-1.234
X52.621 Y48.519 Z-1.249
X52.711 Y48.699 Z-1.463
X52.732 Y48.747 Z-1.529
X52.823 Y48.993 Z-1.81
X52.852 Y49.086 Z-1.887
X52.862 Y49.126 Z-1.919
X52.87 Y49.17 Z-1.968
X52.873 Y49.192 Z-2.
X52.872 Y49.196
X52.843 Y49.379
X52.839 Y49.401
X52.8 Y49.574
X52.785 Y49.623
X52.726 Y49.775
X52.698 Y49.831
X52.658 Y49.897
X52.625 Y49.943
X52.576 Y50.
X52.531 Y50.044
X52.473 Y50.091
X52.428 Y50.123
X52.361 Y50.162
X52.305 Y50.188
X52.151 Y50.245
X52.103 Y50.259
X51.929 Y50.295
X51.907 Y50.299
X51.775 Y50.319
X51.9 Y50.366
X52.248 Y50.472
X52.543 Y50.547
X52.651 Y50.527
X52.798 Y50.49
X52.905 Y50.446
X52.922 Y50.435
X52.936 Y50.422
X52.949 Y50.404
X52.962 Y50.381
X53.001 Y50.265
X53.03 Y50.112
X53.047 Y49.976
X53.009 Y49.738
X52.955 Y49.469
X52.883 Y49.219
X52.873 Y49.192
Z5.
X57.224 Y46.164
Z-0.001 F67.
X57.261 Y46.061 Z-0.411 F200.
X57.278 Y45.992 Z-0.643
X57.281 Y45.942 Z-0.766
X57.28 Y45.908 Z-0.825
X57.263 Y45.857 Z-0.839
X57.164 Y45.596 Z-0.969
X57.158 Y45.584 Z-0.971
X57.088 Y45.447 Z-1.05
X57.023 Y45.338 Z-1.07
X57.003 Y45.307 Z-1.082
X56.904 Y45.171 Z-1.088
X56.853 Y45.108 Z-1.071
X56.791 Y45.037
X56.712 Y44.951 Z-1.05
X56.703 Y44.942 Z-1.049
X56.558 Y44.803 Z-1.081
X56.551 Y44.797
X56.458 Y44.723 Z-1.151
X56.446 Y44.714 Z-1.16
X56.355 Y44.652 Z-1.267
X56.344 Y44.645 Z-1.28
X56.203 Y44.562 Z-1.492
X56.16 Y44.538 Z-1.546
X56.146 Y44.532 Z-1.561
X56.132 Y44.525 Z-1.581
X56.104 Y44.512 Z-1.634
X56.089 Y44.506 Z-1.659
X56.044 Y44.49 Z-1.76
X56.02 Y44.485 Z-1.81
X55.97 Y44.476 Z-1.93
X55.945 Y44.472 Z-2.
X55.893 Y44.436
X55.766 Y44.367
X55.628 Y44.313
X55.378 Y44.244
X55.341 Y44.255
X55.244 Y44.295
X55.187 Y44.33
X55.164 Y44.382
X55.146 Y44.469
X55.135 Y44.594
X55.13 Y44.735
X55.146 Y45.247
X55.192 Y45.762
X55.27 Y46.393
X55.271 Y46.398
X55.82 Y51.366
X55.908 Y51.869
X56.008 Y52.368
X56.132 Y52.851
X56.205 Y53.078
X56.289 Y53.302
X56.384 Y53.52
X56.419 Y53.59
X56.4 Y53.509
X56.396 Y53.489
X56.339 Y53.16
X56.336 Y53.144
X56.251 Y52.475
Y52.47
X55.585 Y46.475
Y46.473
X55.534 Y45.977
X55.532 Y45.96
X55.505 Y45.462
X55.494 Y45.269
Y45.234
X55.497 Y45.142
X55.502 Y45.096
X55.517 Y45.009
X55.535 Y44.944
X55.565 Y44.865
X55.582 Y44.826
X55.604 Y44.79
X55.652 Y44.72
X55.678 Y44.687
X55.708 Y44.657
X55.844 Y44.535
X55.892 Y44.5
X55.945 Y44.472
X55.892 Y44.5
X55.844 Y44.535
X55.708 Y44.657
X55.678 Y44.687
X55.652 Y44.72
X55.604 Y44.79
X55.582 Y44.826
X55.565 Y44.865
X55.535 Y44.944
X55.517 Y45.009
X55.502 Y45.096
X55.497 Y45.142
X55.494 Y45.234
Y45.269
X55.505 Y45.462
X55.532 Y45.96
X55.534 Y45.977
X55.585 Y46.473
Y46.475
X56.251 Y52.47
Y52.475
X56.336 Y53.144
X56.339 Y53.16
X56.396 Y53.489
X56.4 Y53.509
X56.419 Y53.59
X56.473 Y53.741 Z-1.893
X56.507 Y53.825 Z-1.816
X56.651 Y54.153 Z-1.587
X56.674 Y54.202 Z-1.563
X56.814 Y54.47 Z-1.388
X56.918 Y54.654 Z-1.304
X57.159 Y55.066 Z-1.078
X57.167 Y55.079 Z-1.071
X57.175 Y55.091 Z-1.07
X57.185 Y55.103 Z-1.062
X57.361 Y55.284 Z-1.047
X57.475 Y55.395 Z-1.057
X57.535 Y55.452 Z-1.054
X57.721 Y55.612 Z-1.107
X57.733 Y55.621 Z-1.111
X57.804 Y55.674 Z-1.168
X57.927 Y55.76 Z-1.243
X57.935 Y55.765 Z-1.246
X57.96 Y55.781 Z-1.272
X58.155 Y55.887 Z-1.465
X58.174 Y55.896 Z-1.48
X58.337 Y55.965 Z-1.668
X58.406 Y55.992 Z-1.731
X58.517 Y56.029 Z-1.857
X58.659 Y56.07 Z-1.988
X58.672 Y56.074 Z-2.
X58.673
X58.91 Y56.094
X58.952 Y56.095
X59.152 Y56.088
X59.172 Y56.087
X59.371 Y56.069
X59.406 Y56.064
X59.602 Y56.025
X59.619 Y56.022
X59.959 Y56.369
X59.658 Y56.327
X59.244 Y56.251
X59.053 Y56.205
X58.868 Y56.15
X58.694 Y56.084
X58.672 Y56.074
X58.694 Y56.084
X58.868 Y56.15
X59.053 Y56.205
X59.244 Y56.251
X59.658 Y56.327
X59.959 Y56.369
X60.057 Y56.419 Z-1.799
X60.376 Y56.545 Z-1.007
X60.742 Y56.665 Z-0.001
Z5.
X59.041 Y49.577
Z-0.001 F67.
X59.393 Y50.237 Z-2. F200.
Y52.932
X59.703 Y53.162
X60.056 Y53.861 Z-0.001
X59.703 Y53.162 Z-2.
Y50.445
X59.393 Y50.237
Z5.
X60.464 Y44.262
Z-0.001 F67.
X60.915 Y44.321 Z-1.364 F200.
X61.137 Y44.357 Z-2.
X61.45 Y44.614
X61.532 Y44.546
X61.56 Y44.525
X61.72 Y44.417
X61.757 Y44.395
X61.927 Y44.308
X61.975 Y44.288
X62.106 Y44.244
X61.962 Y44.23
X61.611 Y44.257
X61.44 Y44.28
X61.278 Y44.314
X61.137 Y44.357
X61.278 Y44.314
X61.44 Y44.28
X61.611 Y44.257
X61.962 Y44.23
X62.106 Y44.244
X62.179 Y44.236 Z-1.912
X62.395 Y44.223 Z-1.727
X62.41 Z-1.714
X62.466 Y44.222 Z-1.681
X62.711 Y44.23 Z-1.482
X62.826 Y44.239 Z-1.357
X62.841 Y44.241 Z-1.339
X62.856 Y44.243 Z-1.325
X62.95 Y44.261 Z-1.289
X63.102 Y44.302 Z-1.177
X63.183 Y44.326 Z-1.13
X63.318 Y44.375 Z-1.015
X63.419 Y44.416 Z-0.953
X63.427 Y44.42 Z-0.947
X63.527 Y44.472 Z-0.889
X63.536 Y44.476 Z-0.884
X63.623 Y44.529 Z-0.869
X63.63 Y44.533
X63.717 Y44.594 Z-0.898
X63.728 Y44.603 Z-0.902
X63.808 Y44.671 Z-0.987
X63.819 Y44.681 Z-0.998
X63.847 Y44.708 Z-1.048
X63.898 Y44.772 Z-1.105
X63.962 Y44.862 Z-1.223
X64.03 Y44.967 Z-1.389
X64.1 Y45.089 Z-1.613
X64.147 Y45.182 Z-1.752
X64.191 Y45.273 Z-1.905
X64.22 Y45.348 Z-2.
X64.276 Y45.432
X64.348 Y45.59
X64.401 Y45.773
X64.443 Y45.982
X64.467 Y46.137
X64.423 Y46.297
X64.356 Y46.511
X64.277 Y46.703
X64.18 Y46.879
X64.059 Y47.051
X63.918 Y47.22
X63.583 Y47.575
Y47.576
X63.141 Y48.046
X62.853 Y48.343
X62.84 Y48.358
X62.705 Y48.514
X62.689 Y48.534
X62.568 Y48.697
X62.549 Y48.726
X62.445 Y48.899
X62.427 Y48.934
X62.343 Y49.119
X62.329 Y49.152
X62.197 Y49.542
X62.185 Y49.586
X62.179 Y49.63
X62.14 Y49.567
X62.084 Y49.435
X62.044 Y49.283
X61.997 Y48.971
X62.096 Y48.631
X62.164 Y48.461
X62.251 Y48.303
X62.359 Y48.149
X62.485 Y47.995
X62.786 Y47.674
X63.192 Y47.254
X63.194 Y47.252
X63.515 Y46.916
X63.53 Y46.9
X63.678 Y46.724
X63.694 Y46.703
X63.827 Y46.519
X63.846 Y46.489
X63.959 Y46.294
X63.977 Y46.258
X64.067 Y46.05
X64.08 Y46.016
X64.219 Y45.578
X64.232 Y45.524
X64.236 Y45.468
X64.231 Y45.413
X64.22 Y45.348
X64.231 Y45.413
X64.236 Y45.468
X64.232 Y45.524
X64.219 Y45.578
X64.08 Y46.016
X64.067 Y46.05
X63.977 Y46.258
X63.959 Y46.294
X63.846 Y46.489
X63.827 Y46.519
X63.694 Y46.703
X63.678 Y46.724
X63.53 Y46.9
X63.515 Y46.916
X63.194 Y47.252
X63.192 Y47.254
X62.786 Y47.674
X62.485 Y47.995
X62.359 Y48.149
X62.251 Y48.303
X62.164 Y48.461
X62.096 Y48.631
X61.997 Y48.971
X62.044 Y49.283
X62.084 Y49.435
X62.14 Y49.567
X62.179 Y49.63
X62.19 Y49.666 Z-1.934
X62.195 Y49.683 Z-1.91
X62.201 Y49.701 Z-1.89
X62.275 Y49.853 Z-1.665
X62.285 Y49.871 Z-1.633
X62.374 Y50.02 Z-1.388
X62.385 Y50.036 Z-1.36
X62.477 Y50.166 Z-1.208
X62.483 Y50.174 Z-1.199
X62.494 Y50.185 Z-1.176
X62.554 Y50.24 Z-1.088
X62.567 Y50.25 Z-1.071
X62.63 Y50.299 Z-1.023
X62.646 Y50.31 Z-1.012
X62.779 Y50.389 Z-1.025
X62.789 Y50.393 Z-1.024
X62.798 Y50.398 Z-1.027
X62.852 Y50.423 Z-1.072
X62.948 Y50.46 Z-1.125
X62.96 Y50.465 Z-1.132
X63.058 Y50.496 Z-1.223
X63.12 Y50.512 Z-1.262
X63.262 Y50.545 Z-1.373
X63.289 Y50.55 Z-1.385
X63.3 Y50.551 Z-1.389
X63.312 Y50.552 Z-1.396
X63.47 Y50.565 Z-1.55
X63.666 Y50.57 Z-1.69
X63.851 Y50.563 Z-1.825
X63.866 Y50.561 Z-1.836
X64.032 Y50.546 Z-2.
X64.129 Y50.554
X64.412 Y50.536
X64.656 Y50.505
X64.476 Y50.339
X64.425 Y50.37
X64.402 Y50.383
X64.258 Y50.457
X64.229 Y50.471
X64.081 Y50.53
X64.043 Y50.543
X64.032 Y50.546
X64.043 Y50.543
X64.081 Y50.53
X64.229 Y50.471
X64.258 Y50.457
X64.402 Y50.383
X64.425 Y50.37
X64.476 Y50.339
X64.656 Y50.505
X64.703 Y50.521 Z-1.881
X65.028 Y50.608 Z-0.997
X65.378 Y50.693 Z0.
Z5.
X56.204 Y21.079
Z-0.001 F67.
X56.656 Y21.138 Z-1.364 F200.
X56.877 Y21.174 Z-2.
X57.19 Y21.431
X57.273 Y21.363
X57.3 Y21.342
X57.461 Y21.234
X57.497 Y21.212
X57.667 Y21.125
X57.715 Y21.105
X57.846 Y21.06
X57.703 Y21.047
X57.351 Y21.074
X57.18 Y21.097
X57.018 Y21.131
X56.877 Y21.174
X57.018 Y21.131
X57.18 Y21.097
X57.351 Y21.074
X57.703 Y21.047
X57.846 Y21.06
X57.92 Y21.053 Z-1.912
X58.136 Y21.04 Z-1.726
X58.15 Z-1.714
X58.206 Y21.039 Z-1.681
X58.452 Y21.047 Z-1.482
X58.566 Y21.056 Z-1.357
X58.581 Y21.058 Z-1.339
X58.596 Y21.06 Z-1.325
X58.69 Y21.078 Z-1.289
X58.842 Y21.119 Z-1.177
X58.924 Y21.143 Z-1.131
X59.058 Y21.192 Z-1.015
X59.16 Y21.233 Z-0.953
X59.167 Y21.237 Z-0.947
X59.267 Y21.288 Z-0.888
X59.276 Y21.293 Z-0.884
X59.364 Y21.346 Z-0.869
X59.37 Y21.35 Z-0.868
X59.457 Y21.411 Z-0.898
X59.468 Y21.42 Z-0.902
X59.549 Y21.488 Z-0.987
X59.559 Y21.498 Z-0.998
X59.587 Y21.525 Z-1.048
X59.638 Y21.589 Z-1.105
X59.702 Y21.678 Z-1.223
X59.77 Y21.784 Z-1.388
X59.841 Y21.906 Z-1.613
X59.888 Y21.999 Z-1.753
X59.931 Y22.09 Z-1.905
X59.96 Y22.165 Z-2.
X59.971 Y22.23
X59.976 Y22.285
X59.972 Y22.34
X59.959 Y22.394
X59.82 Y22.833
X59.808 Y22.866
X59.718 Y23.074
X59.699 Y23.111
X59.587 Y23.306
X59.567 Y23.336
X59.434 Y23.52
X59.418 Y23.541
X59.27 Y23.716
X59.256 Y23.732
X58.934 Y24.069
X58.933 Y24.071
X58.527 Y24.491
X58.225 Y24.812
X58.099 Y24.966
X57.991 Y25.12
X57.905 Y25.278
X57.836 Y25.448
X57.737 Y25.788
X57.785 Y26.1
X57.825 Y26.252
X57.88 Y26.384
X57.92 Y26.447
X57.926 Y26.402
X57.937 Y26.359
X58.07 Y25.969
X58.083 Y25.936
X58.167 Y25.751
X58.186 Y25.716
X58.289 Y25.543
X58.309 Y25.514
X58.43 Y25.351
X58.446 Y25.331
X58.58 Y25.175
X58.594 Y25.16
X58.882 Y24.863
X59.323 Y24.392
X59.324
X59.658 Y24.037
X59.799 Y23.868
X59.92 Y23.696
X60.018 Y23.52
X60.096 Y23.328
X60.164 Y23.114
X60.207 Y22.954
X60.183 Y22.799
X60.142 Y22.59
X60.088 Y22.407
X60.016 Y22.249
X59.96 Y22.165
X60.016 Y22.249
X60.088 Y22.407
X60.142 Y22.59
X60.183 Y22.799
X60.207 Y22.954
X60.164 Y23.114
X60.096 Y23.328
X60.018 Y23.52
X59.92 Y23.696
X59.799 Y23.868
X59.658 Y24.037
X59.324 Y24.392
X59.323
X58.882 Y24.863
X58.594 Y25.16
X58.58 Y25.175
X58.446 Y25.331
X58.43 Y25.351
X58.309 Y25.514
X58.289 Y25.543
X58.186 Y25.716
X58.167 Y25.751
X58.083 Y25.936
X58.07 Y25.969
X57.937 Y26.359
X57.926 Y26.402
X57.92 Y26.447
X57.93 Y26.483 Z-1.934
X57.936 Y26.5 Z-1.909
X57.941 Y26.518 Z-1.89
X57.954 Y26.545 Z-1.848
X58.015 Y26.67 Z-1.665
X58.035 Y26.705 Z-1.602
X58.125 Y26.853 Z-1.36
X58.136 Y26.869 Z-1.342
X58.223 Y26.991 Z-1.199
X58.234 Y27.002 Z-1.176
X58.294 Y27.057 Z-1.088
X58.307 Y27.067 Z-1.071
X58.32 Y27.077 Z-1.061
X58.386 Y27.127 Z-1.012
X58.394 Y27.132 Z-1.01
X58.407 Y27.14 Z-1.012
X58.538 Y27.215 Z-1.027
X58.547 Y27.22 Z-1.033
X58.557 Y27.224 Z-1.043
X58.593 Y27.24 Z-1.072
X58.701 Y27.282 Z-1.132
X58.713 Y27.286 Z-1.144
X58.799 Y27.313 Z-1.223
X58.873 Y27.332 Z-1.271
X59.003 Y27.362 Z-1.373
X59.052 Y27.369 Z-1.396
X59.076 Y27.372 Z-1.419
X59.211 Y27.382 Z-1.55
X59.429 Y27.387 Z-1.708
X59.607 Y27.378 Z-1.836
X59.622 Y27.377 Z-1.851
X59.773 Y27.363 Z-2.
X59.869 Y27.371
X60.152 Y27.353
X60.396 Y27.322
X60.217 Y27.156
X60.165 Y27.187
X60.142 Y27.2
X59.999 Y27.274
X59.969 Y27.288
X59.821 Y27.347
X59.783 Y27.36
X59.773 Y27.363
X59.783 Y27.36
X59.821 Y27.347
X59.969 Y27.288
X59.999 Y27.274
X60.142 Y27.2
X60.165 Y27.187
X60.217 Y27.156
X60.396 Y27.322
X60.444 Y27.337 Z-1.881
X60.768 Y27.425 Z-0.997
X61.118 Y27.509 Z0.
Z5.
X54.109 Y27.136
Z-1.998 F67.
X54.077 Y27.132 Z-1.953 F200.
X54.042 Y27.126 Z-1.893
X54.011 Y27.12 Z-1.85
X53.995 Y27.118 Z-1.835
X53.98 Y27.113 Z-1.816
X53.965 Y27.109 Z-1.801
X53.915 Y27.093 Z-1.772
X53.764 Y27.035 Z-1.647
X53.612 Y26.969 Z-1.48
X53.591 Y26.958 Z-1.451
X53.462 Y26.886 Z-1.323
X53.412 Y26.855 Z-1.261
X53.319 Y26.789 Z-1.191
X53.262 Y26.744 Z-1.131
X53.249 Y26.733 Z-1.117
X53.112 Y26.607 Z-1.052
X53.104 Y26.599 Z-1.048
X53.047 Y26.54 Z-1.049
X52.979 Y26.464 Z-1.029
X52.805 Y26.247 Z-1.05
X52.746 Y26.171 Z-1.048
X52.737 Y26.158
X52.588 Y25.93 Z-1.173
X52.466 Y25.726 Z-1.235
X52.365 Y25.547 Z-1.322
X52.34 Y25.501 Z-1.341
X52.223 Y25.266 Z-1.484
X52.171 Y25.15 Z-1.58
X52.117 Y25.021 Z-1.668
X52.023 Y24.772 Z-1.88
X51.976 Y24.628 Z-2.
X51.915 Y24.271
G3 X52.169 Y23.872 I0.348 J-0.059
G1 X52.356 Y23.82
X52.413 Y23.81
X52.491 Y23.802
X52.119 Y23.672
G3 X51.884 Y23.295 I0.115 J-0.333
G1 X51.926 Y22.966
X51.929 Y22.947
X51.986 Y22.632
X51.992 Y22.605
X52.031 Y22.457
X52.038 Y22.431
X52.087 Y22.291
X52.099 Y22.259
X52.159 Y22.128
X52.179 Y22.091
X52.252 Y21.972
X52.282 Y21.931
X52.37 Y21.825
X52.409 Y21.786
X52.513 Y21.695
X52.552 Y21.665
X52.671 Y21.588
X52.704 Y21.569
X52.835 Y21.502
X52.87 Y21.487
X53.16 Y21.377
X53.183 Y21.369
X53.493 Y21.277
X53.552 Y21.265
X53.613 Y21.263
X53.674 Y21.272
X53.746 Y21.289
X53.626 Y21.243
X53.476 Y21.195
X53.143 Y21.111
X52.851 Y21.05
X52.581 Y21.086
X52.456 Y21.117
X52.348 Y21.158
X52.248 Y21.217
X52.146 Y21.296
X51.939 Y21.495
X51.761 Y21.784
X51.688 Y21.93
X51.633 Y22.075
X51.595 Y22.227
X51.57 Y22.393
X51.544 Y22.745
X51.592 Y23.155
X51.656 Y23.582
X51.745 Y23.993
X51.8 Y24.184
X51.866 Y24.372
X51.943 Y24.558
X51.976 Y24.628
X51.943 Y24.558
X51.866 Y24.372
X51.8 Y24.184
X51.745 Y23.993
X51.656 Y23.582
X51.592 Y23.155
X51.544 Y22.745
X51.57 Y22.393
X51.595 Y22.227
X51.633 Y22.075
X51.688 Y21.93
X51.761 Y21.784
X51.939 Y21.495
X52.146 Y21.296
X52.248 Y21.217
X52.348 Y21.158
X52.456 Y21.117
X52.581 Y21.086
X52.851 Y21.05
X53.143 Y21.111
X53.476 Y21.195
X53.626 Y21.243
X53.746 Y21.289
X53.771 Y21.296 Z-1.99
X53.913 Y21.346 Z-1.902
X54.013 Y21.385 Z-1.817
X54.054 Y21.402 Z-1.788
X54.196 Y21.469 Z-1.653
X54.339 Y21.542 Z-1.491
X54.491 Y21.634 Z-1.312
X54.641 Y21.733 Z-1.167
X54.78 Y21.843 Z-1.038
X54.911 Y21.958 Z-0.964
X55.032 Y22.079 Z-0.924
X55.151 Y22.208 Z-0.926
X55.159 Y22.218 Z-0.929
X55.296 Y22.387 Z-0.976
X55.362 Y22.477
X55.416 Y22.556 Z-0.999
X55.463 Y22.635 Z-0.991
X55.508 Y22.719 Z-0.958
X55.534 Y22.774 Z-0.921
X55.581 Y22.878 Z-0.866
X55.586 Y22.912 Z-0.797
X55.589 Y22.97 Z-0.65
X55.581 Y23.045 Z-0.403
X55.56 Y23.153 Z-0.002
X55.581 Y23.045 Z-0.403
X55.589 Y22.97 Z-0.65
X55.586 Y22.912 Z-0.797
X55.581 Y22.878 Z-0.866
X55.534 Y22.774 Z-0.921
X55.508 Y22.719 Z-0.958
X55.463 Y22.635 Z-0.991
X55.416 Y22.556 Z-0.999
X55.362 Y22.477 Z-0.976
X55.296 Y22.387
X55.159 Y22.218 Z-0.929
X55.151 Y22.208 Z-0.926
X55.032 Y22.079 Z-0.924
X54.911 Y21.958 Z-0.964
X54.78 Y21.843 Z-1.038
X54.641 Y21.733 Z-1.167
X54.491 Y21.634 Z-1.312
X54.339 Y21.542 Z-1.491
X54.196 Y21.469 Z-1.653
X54.054 Y21.402 Z-1.788
X54.013 Y21.385 Z-1.817
X53.913 Y21.346 Z-1.902
X53.771 Y21.296 Z-1.99
X53.746 Y21.289 Z-2.
X53.674 Y21.272
X53.613 Y21.263
X53.552 Y21.265
X53.493 Y21.277
X53.183 Y21.369
X53.16 Y21.377
X52.87 Y21.487
X52.835 Y21.502
X52.704 Y21.569
X52.671 Y21.588
X52.552 Y21.665
X52.513 Y21.695
X52.409 Y21.786
X52.37 Y21.825
X52.282 Y21.931
X52.252 Y21.972
X52.179 Y22.091
X52.159 Y22.128
X52.099 Y22.259
X52.087 Y22.291
X52.038 Y22.431
X52.031 Y22.457
X51.992 Y22.605
X51.986 Y22.632
X51.929 Y22.947
X51.926 Y22.966
X51.884 Y23.295
G2 X52.119 Y23.672 I0.35 J0.045
G1 X52.491 Y23.802
X52.608 Y23.815 Z-1.856
X52.624 Y23.818 Z-1.833
X52.64 Y23.82 Z-1.815
X52.812 Y23.856 Z-1.698
X53.088 Y23.925 Z-1.46
X53.145 Y23.941 Z-1.421
X53.308 Y23.996 Z-1.281
X53.319 Y23.999 Z-1.272
X53.465 Y24.056 Z-1.187
X53.532 Y24.086 Z-1.129
X53.727 Y24.186 Z-1.03
X53.77 Y24.21 Z-1.02
X53.92 Y24.305 Z-0.952
X54.059 Y24.401 Z-0.925
X54.275 Y24.56 Z-0.838
X54.282 Y24.565 Z-0.836
X54.288 Y24.571
X54.579 Y24.834 Z-0.932
X54.601 Y24.856 Z-0.947
X54.712 Y24.982 Z-0.973
X54.719 Y24.991 Z-0.975
X54.785 Y25.076 Z-1.029
X54.836 Y25.143 Z-1.064
X54.844 Y25.156 Z-1.07
X54.946 Y25.316 Z-1.234
X54.957 Y25.336 Z-1.249
X55.047 Y25.516 Z-1.463
X55.068 Y25.564 Z-1.529
X55.159 Y25.81 Z-1.81
X55.188 Y25.903 Z-1.887
X55.197 Y25.943 Z-1.919
X55.205 Y25.986 Z-1.968
X55.208 Y26.009 Z-2.
X55.219 Y26.035
X55.29 Y26.286
X55.345 Y26.555
X55.383 Y26.793
X55.366 Y26.929
X55.337 Y27.082
X55.297 Y27.198
X55.285 Y27.221
X55.272 Y27.238
X55.257 Y27.252
X55.24 Y27.263
X55.133 Y27.307
X54.987 Y27.344
X54.879 Y27.363
X54.583 Y27.289
X54.235 Y27.183
X54.11 Y27.136
X54.243 Y27.116
X54.265 Y27.112
X54.438 Y27.075
X54.487 Y27.062
X54.641 Y27.005
X54.696 Y26.979
X54.763 Y26.94
X54.809 Y26.908
X54.867 Y26.861
X54.912 Y26.817
X54.96 Y26.76
X54.994 Y26.714
X55.034 Y26.648
X55.061 Y26.592
X55.12 Y26.44
X55.135 Y26.39
X55.174 Y26.218
X55.178 Y26.195
X55.208 Y26.013
Y26.009
Z5.
X50.281 Y22.96
Z-0.001 F67.
X50.311 Y22.865 Z-0.369 F200.
X50.327 Y22.798 Z-0.603
X50.331 Y22.748 Z-0.736
X50.33 Y22.731 Z-0.77
X50.242 Y22.509 Z-0.815
X50.22 Y22.459 Z-0.812
X50.185 Y22.388 Z-0.827
X50.122 Y22.272 Z-0.822
X50.103 Y22.241 Z-0.811
X49.964 Y22.04 Z-0.812
X49.959 Y22.033 Z-0.811
X49.803 Y21.853 Z-0.872
X49.793 Y21.843 Z-0.875
X49.616 Y21.676 Z-1.051
X49.607 Y21.668 Z-1.059
X49.414 Y21.51 Z-1.328
X49.237 Y21.384 Z-1.548
X49.204 Y21.363 Z-1.576
X49.192 Y21.357 Z-1.584
X49.17 Y21.344 Z-1.61
X49.134 Y21.326 Z-1.661
X49.084 Y21.306 Z-1.755
X49.058 Y21.297 Z-1.814
X49.036 Y21.292 Z-1.853
X49.015 Y21.288 Z-1.899
X48.971 Y21.282 Z-2.
X48.887 Y21.23
X48.713 Y21.156
X48.512 Y21.093
X48.383 Y21.059
X48.355 Y21.067
X48.269 Y21.099
X48.228 Y21.123
X48.214 Y21.153
X48.199 Y21.218
X48.181 Y21.454
X48.211 Y21.979
X48.264 Y22.523
X48.336 Y23.149
Y23.151
X48.393 Y23.681
G3 X48.19 Y24.039 I-0.351 J0.038
G1 X48.12 Y24.008 Z-1.7
X48.091 Y23.993 Z-1.579
X48.061 Y23.977 Z-1.473
X48.036 Y23.961 Z-1.374
X48.01 Y23.944 Z-1.291
X47.976 Y23.916 Z-1.181
X47.965 Y23.907 Z-1.154
X47.947 Y23.886 Z-1.097
X47.937 Y23.876 Z-1.076
X47.912 Y23.845 Z-1.032
X47.895 Y23.819 Z-1.015
X47.886 Y23.806 Z-1.014
X47.809 Y23.666 Z-1.009
X47.586 Y23.291 Z-1.073
X47.557 Y23.246 Z-1.089
X47.382 Y22.986 Z-1.143
X47.342 Y22.931
X47.197 Y22.736 Z-1.162
X47.074 Y22.581 Z-1.139
X47.065 Y22.572 Z-1.14
X46.999 Y22.496 Z-1.158
X46.783 Y22.267 Z-1.164
X46.73 Y22.213 Z-1.157
X46.546 Y22.04 Z-1.185
X46.36 Y21.881 Z-1.273
X46.303 Y21.837 Z-1.324
X46.15 Y21.729 Z-1.427
X46.136 Y21.719 Z-1.442
X45.914 Y21.584 Z-1.682
X45.87 Y21.559 Z-1.741
X45.69 Y21.466 Z-1.941
X45.657 Y21.45 Z-1.982
X45.638 Y21.442 Z-2.
X45.467 Y21.332
X45.273 Y21.235
X45.064 Y21.159
X44.833 Y21.095
X44.687 Y21.06
X44.537 Y21.114
X44.328 Y21.209
X44.257 Y21.252
X44.2 Y21.297
X44.159 Y21.341
X44.125 Y21.393
X44.094 Y21.458
X44.068 Y21.539
X44.047 Y21.635
X44.032 Y21.741
X44.015 Y21.998
X44.011 Y22.259
X44.057 Y22.745
X44.12 Y23.236
X44.161 Y23.469
X44.211 Y23.698
X44.272 Y23.919
X44.344 Y24.132
X44.431 Y24.341
X44.532 Y24.547
X44.645 Y24.753
X44.768 Y24.955
X44.879 Y25.121
X44.873 Y25.107
X44.743 Y24.736
X44.735 Y24.709
X44.635 Y24.331
X44.628 Y24.301
X44.562 Y23.914
X44.558 Y23.891
X44.518 Y23.498
X44.516 Y23.479
X44.478 Y22.684
Y22.66
X44.485 Y22.334
X44.489 Y22.288
X44.512 Y22.139
X44.527 Y22.077
X44.573 Y21.945
X44.602 Y21.882
X44.637 Y21.824
X44.669 Y21.778
X44.712 Y21.726
X44.738 Y21.698
X44.768 Y21.672
X44.878 Y21.587
X44.933 Y21.552
X45.068 Y21.483
X45.094 Y21.471
X45.24 Y21.411
X45.294 Y21.394
X45.351 Y21.385
X45.408 Y21.386
X45.464 Y21.396
X45.638 Y21.442
X45.464 Y21.396
X45.408 Y21.386
X45.351 Y21.385
X45.294 Y21.394
X45.24 Y21.411
X45.094 Y21.471
X45.068 Y21.483
X44.933 Y21.552
X44.878 Y21.587
X44.768 Y21.672
X44.738 Y21.698
X44.712 Y21.726
X44.669 Y21.778
X44.637 Y21.824
X44.602 Y21.882
X44.573 Y21.945
X44.527 Y22.077
X44.512 Y22.139
X44.489 Y22.288
X44.485 Y22.334
X44.478 Y22.66
Y22.684
X44.516 Y23.479
X44.518 Y23.498
X44.558 Y23.891
X44.562 Y23.914
X44.628 Y24.301
X44.635 Y24.331
X44.735 Y24.709
X44.743 Y24.736
X44.873 Y25.107
X44.879 Y25.121
X44.88 Y25.124 Z-1.998
X45.019 Y25.385 Z-1.831
X45.073 Y25.482 Z-1.758
X45.261 Y25.812 Z-1.537
X45.286 Y25.847 Z-1.494
X45.299 Y25.865 Z-1.482
X45.487 Y26.099 Z-1.323
X45.54 Y26.161 Z-1.289
X45.686 Y26.328 Z-1.178
X45.847 Y26.497 Z-1.116
X45.891 Y26.54 Z-1.094
X46.003 Y26.64 Z-1.077
X46.009 Y26.645 Z-1.078
X46.122 Y26.734 Z-1.077
X46.181 Y26.776 Z-1.096
X46.239 Y26.814 Z-1.102
X46.248 Y26.819 Z-1.105
X46.362 Y26.888 Z-1.154
X46.373 Y26.893 Z-1.157
X46.384 Y26.899 Z-1.163
X46.547 Y26.976 Z-1.255
X46.644 Y27.017 Z-1.285
X46.737 Y27.051 Z-1.344
X46.934 Y27.114 Z-1.42
X47.136 Y27.165 Z-1.486
X47.232 Y27.186 Z-1.502
X47.273 Y27.192 Z-1.527
X47.347 Y27.198 Z-1.603
X47.61 Y27.207 Z-1.833
X47.769 Y27.208 Z-2.
X47.783 Y27.205
X47.922 Y27.169
X47.961 Y27.156
X48.23 Y27.051
X48.258 Y27.039
X48.52 Y26.91
G2 X48.715 Y26.557 I-0.156 J-0.316
G1 X48.629 Y25.748
X48.625 Y25.721
X48.547 Y25.296
X48.545 Y25.286
X48.455 Y24.866
X48.45 Y24.847
X48.337 Y24.437
X48.33 Y24.416
X48.261 Y24.216
X48.255 Y24.199
X48.19 Y24.039
X48.255 Y24.199
X48.261 Y24.216
X48.33 Y24.416
X48.337 Y24.437
X48.45 Y24.847
X48.455 Y24.866
X48.545 Y25.286
X48.547 Y25.296
X48.625 Y25.721
X48.629 Y25.748
X48.715 Y26.557
G3 X48.52 Y26.91 I-0.351 J0.037
G1 X48.258 Y27.039
X48.23 Y27.051
X47.961 Y27.156
X47.922 Y27.169
X47.783 Y27.205
X47.769 Y27.208
X47.797 Y27.214
X48.217 Y27.277
X48.461 Y27.265
G3 X48.829 Y27.576 I0.018 J0.352
G1 X48.899 Y28.182
X48.986 Y28.687
X49.086 Y29.188
X49.21 Y29.672
X49.283 Y29.9
X49.366 Y30.124
X49.462 Y30.342
X49.5 Y30.419
X49.479 Y30.328
X49.475 Y30.309
X49.418 Y29.978
X49.415 Y29.962
X49.331 Y29.292
X49.33 Y29.287
X48.665 Y23.328
Y23.327
X48.615 Y22.87
X48.614 Y22.866
X48.572 Y22.433
X48.571 Y22.417
X48.549 Y21.984
X48.548 Y21.966
Y21.847
X48.556 Y21.774
X48.578 Y21.67
X48.596 Y21.611
X48.624 Y21.556
X48.65 Y21.514
X48.681 Y21.472
X48.717 Y21.435
X48.756 Y21.402
X48.788 Y21.376
X48.824 Y21.355
X48.923 Y21.303
X48.971 Y21.282
X48.923 Y21.303
X48.824 Y21.355
X48.788 Y21.376
X48.756 Y21.402
X48.717 Y21.435
X48.681 Y21.472
X48.65 Y21.514
X48.624 Y21.556
X48.596 Y21.611
X48.578 Y21.67
X48.556 Y21.774
X48.548 Y21.847
Y21.966
X48.549 Y21.984
X48.571 Y22.417
X48.572 Y22.433
X48.614 Y22.866
X48.615 Y22.87
X48.665 Y23.327
Y23.328
X49.33 Y29.287
X49.331 Y29.292
X49.415 Y29.962
X49.418 Y29.978
X49.475 Y30.309
X49.479 Y30.328
X49.5 Y30.419
X49.552 Y30.563 Z-1.898
X49.594 Y30.668 Z-1.805
X49.738 Y30.994 Z-1.581
X49.753 Y31.024 Z-1.567
X49.9 Y31.306 Z-1.384
X49.997 Y31.477 Z-1.306
X50.247 Y31.903 Z-1.071
X50.255 Y31.915 Z-1.07
X50.265 Y31.927 Z-1.062
X50.275 Y31.938 Z-1.061
X50.446 Y32.112 Z-1.046
X50.554 Y32.217 Z-1.055
X50.627 Y32.285 Z-1.053
X50.81 Y32.441 Z-1.107
X50.822 Y32.45 Z-1.117
X50.884 Y32.496 Z-1.166
X51.02 Y32.589 Z-1.249
X51.056 Y32.611 Z-1.29
X51.267 Y32.722 Z-1.495
X51.417 Y32.785 Z-1.668
X51.506 Y32.818 Z-1.754
X51.597 Y32.848 Z-1.859
X51.75 Y32.892 Z-2.
X51.983 Y32.911
X52.024 Y32.912
X52.226 Y32.905
X52.246 Y32.904
X52.446 Y32.886
X52.481 Y32.881
X52.679 Y32.843
X52.698 Y32.838
X53.039 Y33.186
X52.737 Y33.144
X52.324 Y33.069
X52.133 Y33.023
X51.949 Y32.968
X51.774 Y32.903
X51.75 Y32.892
X51.774 Y32.903
X51.949 Y32.968
X52.133 Y33.023
X52.324 Y33.069
X52.737 Y33.144
X53.039 Y33.186
X53.136 Y33.236 Z-1.8
X53.456 Y33.362 Z-1.006
X53.821 Y33.482 Z-0.002
Z5.
X42.255 Y27.445
Z-0.001 F67.
X42.047 Y27.325 Z-0.966 F200.
X41.83 Y27.193 Z-2.
X41.58 Y27.242
X41.29 Y27.269
X41.005 Y27.278
X40.551 Y27.222
X40.374 Y27.194
X40.478 Y27.17
X40.508 Y27.161
X40.67 Y27.108
X40.694 Y27.099
X40.853 Y27.034
X40.871 Y27.026
X41.185 Y26.876
G2 X41.381 Y26.506 I-0.152 J-0.318
G1 X41.267 Y25.734
X41.262 Y25.708
X41.166 Y25.281
X41.163 Y25.272
X41.056 Y24.851
X41.05 Y24.831
X40.921 Y24.421
X40.913 Y24.4
X40.836 Y24.201
X40.83 Y24.184
X40.766 Y24.042
G2 X40.974 Y23.667 I-0.141 J-0.323
G1 X40.895 Y23.137
X40.802 Y22.512
X40.732 Y21.945
X40.699 Y21.662
X40.685 Y21.399
X40.703 Y21.183
X40.716 Y21.127
X40.724 Y21.111
X40.725 Y21.11
X40.755 Y21.093
X40.834 Y21.064
X40.857 Y21.058
X40.992 Y21.093
X41.197 Y21.157
X41.375 Y21.232
X41.468 Y21.287
X41.449 Y21.295
X41.357 Y21.338
X41.321 Y21.357
X41.288 Y21.38
X41.252 Y21.408
X41.213 Y21.444
X41.18 Y21.484
X41.154 Y21.521
X41.122 Y21.577
X41.101 Y21.639
X41.078 Y21.732
X41.071 Y21.77
X41.068 Y21.809
X41.066 Y21.916
X41.067 Y21.949
X41.101 Y22.405
X41.103 Y22.424
X41.162 Y22.877
Y22.88
X41.227 Y23.338
Y23.34
X41.685 Y26.501
X41.688 Y26.521
X41.781 Y26.979
X41.783 Y26.987
X41.83 Y27.193
X41.783 Y26.987
X41.781 Y26.979
X41.688 Y26.521
X41.685 Y26.501
X41.227 Y23.34
Y23.338
X41.162 Y22.88
Y22.877
X41.103 Y22.424
X41.101 Y22.405
X41.067 Y21.949
X41.066 Y21.916
X41.068 Y21.809
X41.071 Y21.77
X41.078 Y21.732
X41.101 Y21.639
X41.122 Y21.577
X41.154 Y21.521
X41.18 Y21.484
X41.213 Y21.444
X41.252 Y21.408
X41.288 Y21.38
X41.321 Y21.357
X41.357 Y21.338
X41.449 Y21.295
X41.468 Y21.287
X41.489 Y21.29 Z-1.947
X41.531 Y21.295 Z-1.854
X41.551 Y21.299 Z-1.814
X41.579 Y21.308 Z-1.746
X41.608 Y21.317 Z-1.693
X41.634 Y21.328 Z-1.641
X41.661 Y21.34 Z-1.604
X41.686 Y21.353 Z-1.568
X41.738 Y21.384 Z-1.525
X41.912 Y21.504 Z-1.313
X42.112 Y21.663 Z-1.045
X42.12 Y21.67 Z-1.033
X42.288 Y21.822 Z-0.874
X42.31 Y21.843 Z-0.852
X42.473 Y22.021 Z-0.797
X42.623 Y22.225 Z-0.801
X42.654 Y22.272 Z-0.818
X42.721 Y22.389 Z-0.825
X42.75 Y22.444 Z-0.814
X42.781 Y22.511 Z-0.818
X42.875 Y22.733 Z-0.777
X42.876 Y22.747 Z-0.747
X42.872 Y22.797 Z-0.613
X42.857 Y22.864 Z-0.376
X42.828 Y22.96 Z-0.001
X42.857 Y22.864 Z-0.376
X42.872 Y22.797 Z-0.613
X42.876 Y22.747 Z-0.747
X42.875 Y22.733 Z-0.777
X42.781 Y22.511 Z-0.818
X42.75 Y22.444 Z-0.814
X42.721 Y22.389 Z-0.825
X42.654 Y22.272 Z-0.818
X42.623 Y22.225 Z-0.801
X42.473 Y22.021 Z-0.797
X42.31 Y21.843 Z-0.852
X42.288 Y21.822 Z-0.874
X42.12 Y21.67 Z-1.033
X42.112 Y21.663 Z-1.045
X41.912 Y21.504 Z-1.313
X41.738 Y21.384 Z-1.525
X41.686 Y21.353 Z-1.568
X41.661 Y21.34 Z-1.604
X41.634 Y21.328 Z-1.641
X41.608 Y21.317 Z-1.693
X41.579 Y21.308 Z-1.746
X41.551 Y21.299 Z-1.814
X41.531 Y21.295 Z-1.854
X41.489 Y21.29 Z-1.947
X41.468 Y21.287 Z-2.
X41.375 Y21.232
X41.197 Y21.157
X40.992 Y21.093
X40.857 Y21.058
X40.834 Y21.064
X40.755 Y21.093
X40.725 Y21.11
X40.724 Y21.111
X40.716 Y21.127
X40.703 Y21.183
X40.685 Y21.399
X40.699 Y21.662
X40.732 Y21.945
X40.802 Y22.512
X40.895 Y23.137
X40.974 Y23.667
G3 X40.766 Y24.042 I-0.349 J0.052
G1 X40.731 Y24.026 Z-1.846
X40.677 Y24.001 Z-1.632
X40.649 Y23.986 Z-1.523
X40.62 Y23.97 Z-1.429
X40.596 Y23.953 Z-1.341
X40.571 Y23.936 Z-1.27
X40.55 Y23.917 Z-1.202
X40.529 Y23.898 Z-1.154
X40.511 Y23.877 Z-1.107
X40.502 Y23.867 Z-1.092
X40.478 Y23.835 Z-1.063
X40.468 Y23.821 Z-1.06
X40.367 Y23.658 Z-1.031
X40.124 Y23.29 Z-1.039
X40.083 Y23.231 Z-1.052
X39.866 Y22.934 Z-1.079
X39.668 Y22.681 Z-1.094
X39.582 Y22.578 Z-1.082
X39.442 Y22.423 Z-1.113
X39.251 Y22.221 Z-1.122
X39.203 Y22.174 Z-1.137
X39.069 Y22.048 Z-1.161
X38.885 Y21.889 Z-1.252
X38.875 Y21.88 Z-1.261
X38.683 Y21.734 Z-1.434
X38.666 Y21.722 Z-1.453
X38.445 Y21.589 Z-1.669
X38.266 Y21.492 Z-1.888
X38.223 Y21.47 Z-1.931
X38.161 Y21.441 Z-2.
X38.081 Y21.384
X37.908 Y21.28
X37.731 Y21.199
X37.54 Y21.138
X37.189 Y21.06
X37.043 Y21.115
X36.838 Y21.212
X36.769 Y21.255
X36.715 Y21.299
X36.675 Y21.344
X36.642 Y21.396
X36.613 Y21.461
X36.587 Y21.543
X36.567 Y21.638
X36.553 Y21.744
X36.538 Y21.999
X36.535 Y22.259
X36.579 Y22.757
X36.641 Y23.257
X36.681 Y23.494
X36.731 Y23.726
X36.792 Y23.95
X36.865 Y24.167
X36.953 Y24.377
X37.055 Y24.586
X37.171 Y24.792
X37.298 Y24.996
X37.45 Y25.218
X37.563 Y25.425 Z-1.863
X37.78 Y25.807 Z-1.568
X37.792 Y25.826 Z-1.552
X37.811 Y25.854 Z-1.545
X37.985 Y26.066 Z-1.345
X38.11 Y26.212 Z-1.227
X38.175 Y26.285 Z-1.157
X38.376 Y26.493 Z-1.019
X38.444 Y26.557 Z-0.999
X38.487 Y26.594 Z-0.98
X38.599 Y26.686 Z-0.963
X38.718 Y26.771 Z-0.97
X38.813 Y26.83 Z-1.004
X38.854 Y26.854 Z-1.011
X39.012 Y26.934 Z-1.1
X39.104 Y26.976 Z-1.131
X39.114 Y26.98 Z-1.134
X39.214 Y27.02 Z-1.201
X39.383 Y27.079 Z-1.271
X39.419 Y27.091 Z-1.291
X39.631 Y27.15 Z-1.363
X39.665 Y27.159 Z-1.368
X39.683 Y27.162 Z-1.371
X39.72 Y27.169 Z-1.393
X39.853 Y27.181 Z-1.528
X40.079 Y27.195 Z-1.725
X40.282 Y27.196 Z-1.902
X40.374 Y27.194 Z-2.
X40.282 Y27.196 Z-1.902
X40.079 Y27.195 Z-1.725
X39.853 Y27.181 Z-1.528
X39.72 Y27.169 Z-1.393
X39.683 Y27.162 Z-1.371
X39.665 Y27.159 Z-1.368
X39.631 Y27.15 Z-1.363
X39.419 Y27.091 Z-1.291
X39.383 Y27.079 Z-1.271
X39.214 Y27.02 Z-1.201
X39.114 Y26.98 Z-1.134
X39.104 Y26.976 Z-1.131
X39.012 Y26.934 Z-1.1
X38.854 Y26.854 Z-1.011
X38.813 Y26.83 Z-1.004
X38.718 Y26.771 Z-0.97
X38.599 Y26.686 Z-0.963
X38.487 Y26.594 Z-0.98
X38.444 Y26.557 Z-0.999
X38.376 Y26.493 Z-1.019
X38.175 Y26.285 Z-1.157
X38.11 Y26.212 Z-1.227
X37.985 Y26.066 Z-1.345
X37.811 Y25.854 Z-1.545
X37.792 Y25.826 Z-1.552
X37.78 Y25.807 Z-1.568
X37.563 Y25.425 Z-1.863
X37.45 Y25.218 Z-2.
X37.405 Y25.11
X37.397 Y25.089
X37.269 Y24.72
X37.261 Y24.694
X37.161 Y24.318
X37.155 Y24.289
X37.088 Y23.905
X37.085 Y23.882
X37.044 Y23.492
X37.043 Y23.473
X37.003 Y22.684
Y22.659
X37.011 Y22.332
X37.015 Y22.285
X37.038 Y22.136
X37.054 Y22.073
X37.101 Y21.941
X37.131 Y21.878
X37.166 Y21.82
X37.199 Y21.773
X37.243 Y21.722
X37.269 Y21.694
X37.299 Y21.669
X37.41 Y21.584
X37.466 Y21.549
X37.601 Y21.481
X37.627 Y21.47
X37.774 Y21.41
X37.829 Y21.393
X37.886 Y21.385
X37.943 Y21.386
X37.999 Y21.397
X38.161 Y21.441
Z5.
X30.12 Y24.498
Z-2. F67.
X30.15 Y24.511 Z-1.871 F200.
X30.208 Y24.54 Z-1.642
X30.236 Y24.555 Z-1.543
X30.26 Y24.572 Z-1.451
X30.285 Y24.588 Z-1.373
X30.306 Y24.606 Z-1.299
X30.327 Y24.624 Z-1.241
X30.346 Y24.644 Z-1.185
X30.364 Y24.663 Z-1.147
X30.381 Y24.685 Z-1.115
X30.388 Y24.695 Z-1.104
X30.395 Y24.704 Z-1.098
X30.403 Y24.714 Z-1.097
X30.578 Y24.988 Z-0.999
X30.787 Y25.293 Z-0.95
X31.006 Y25.601 Z-0.862
X31.197 Y25.836 Z-0.836
X31.397 Y26.062 Z-0.795
X31.424 Y26.09 Z-0.798
X31.61 Y26.277 Z-0.784
X31.668 Y26.328 Z-0.803
X31.834 Y26.472 Z-0.838
X31.955 Y26.566 Z-0.91
X32.086 Y26.659 Z-1.024
X32.218 Y26.742 Z-1.179
X32.351 Y26.818 Z-1.299
X32.642 Y26.967 Z-1.643
X32.847 Y27.058 Z-1.865
X32.917 Y27.085 Z-1.923
X32.957 Y27.098 Z-1.97
X32.977 Y27.104 Z-2.
X33.04 Y27.139
X33.224 Y27.219
X33.42 Y27.28
X33.794 Y27.36
X33.866 Y27.339
X33.985 Y27.293
X34.063 Y27.247
X34.069 Y27.242
X34.079 Y27.229
X34.09 Y27.208
X34.101 Y27.18
X34.127 Y27.064
X34.141 Y26.917
X34.149 Y26.762
X34.122 Y26.351
X34.066 Y25.926
X33.688 Y23.26
X33.687
Y23.254
X33.608 Y22.623
X33.606 Y22.599
X33.57 Y21.964
Y21.944
Y21.817
X33.573 Y21.772
X33.581 Y21.714
X33.594 Y21.654
X33.61 Y21.602
X33.627 Y21.558
X33.649 Y21.518
X33.677 Y21.473
X33.708 Y21.431
X33.746 Y21.394
X33.787 Y21.359
X33.82 Y21.334
X33.855 Y21.314
X33.951 Y21.264
X34.001 Y21.269 Z-1.852
X34.038 Y21.273 Z-1.762
X34.073 Y21.281 Z-1.676
X34.107 Y21.289 Z-1.612
X34.13 Y21.297 Z-1.561
X34.175 Y21.316 Z-1.484
X34.196 Y21.326 Z-1.458
X34.217 Y21.338 Z-1.432
X34.237 Y21.35 Z-1.418
X34.264 Y21.367 Z-1.399
X34.439 Y21.491 Z-1.236
X34.624 Y21.629 Z-1.093
X34.633 Y21.636 Z-1.085
X34.642 Y21.643 Z-1.082
X34.82 Y21.795 Z-1.007
X34.833 Y21.807
X34.856 Y21.83 Z-1.011
X34.975 Y21.956 Z-0.998
X34.992 Y21.976 Z-0.99
X35. Y21.986
X35.078 Y22.088 Z-0.998
X35.141 Y22.183 Z-0.97
X35.167 Y22.224
X35.244 Y22.369 Z-0.912
X35.256 Y22.397 Z-0.894
X35.369 Y22.667 Z-0.763
X35.37 Y22.685 Z-0.723
X35.369 Y22.731 Z-0.595
X35.357 Y22.795 Z-0.368
X35.331 Y22.888 Z-0.001
X35.357 Y22.795 Z-0.368
X35.369 Y22.731 Z-0.595
X35.37 Y22.685 Z-0.723
X35.369 Y22.667 Z-0.763
X35.256 Y22.397 Z-0.894
X35.244 Y22.369 Z-0.912
X35.167 Y22.224 Z-0.97
X35.141 Y22.183
X35.078 Y22.088 Z-0.998
X35. Y21.986 Z-0.99
X34.992 Y21.976
X34.975 Y21.956 Z-0.998
X34.856 Y21.83 Z-1.011
X34.833 Y21.807 Z-1.007
X34.82 Y21.795
X34.642 Y21.643 Z-1.082
X34.633 Y21.636 Z-1.085
X34.624 Y21.629 Z-1.093
X34.439 Y21.491 Z-1.236
X34.264 Y21.367 Z-1.399
X34.237 Y21.35 Z-1.418
X34.217 Y21.338 Z-1.432
X34.196 Y21.326 Z-1.458
X34.175 Y21.316 Z-1.484
X34.13 Y21.297 Z-1.561
X34.107 Y21.289 Z-1.612
X34.073 Y21.281 Z-1.676
X34.038 Y21.273 Z-1.762
X34.001 Y21.269 Z-1.852
X33.951 Y21.264 Z-2.
X33.939 Y21.256
X33.809 Y21.186
X33.67 Y21.131
X33.42 Y21.061
X33.393 Y21.069
X33.304 Y21.105
X33.258 Y21.133
X33.241 Y21.172
X33.226 Y21.245
X33.21 Y21.497
X33.226 Y21.881
X33.255 Y22.273
X33.356 Y23.071
X33.599 Y24.799
X33.6 Y24.805
X33.683 Y25.479
X33.685 Y25.503
X33.724 Y26.181
X33.723 Y26.226
X33.709 Y26.432
X33.701 Y26.483
X33.681 Y26.575
X33.658 Y26.645
X33.621 Y26.724
X33.595 Y26.772
X33.561 Y26.815
X33.504 Y26.878
X33.467 Y26.914
X33.425 Y26.943
X33.348 Y26.989
X33.28 Y27.021
X33.092 Y27.085
X33.035 Y27.099
X32.977 Y27.104
Z5.
X28.772 Y20.693
Z-0.001 F67.
X29.186 Y21.243 Z-2. F200.
X29.51 Y21.376
X29.673 Y22.884
X29.679 Y22.918
X29.829 Y23.635
X29.834 Y23.656
X29.93 Y24.006
X29.939 Y24.032
X30.062 Y24.371
X30.074 Y24.401
X30.12 Y24.498
G2 X29.895 Y24.866 I0.126 J0.329
G1 X30.389 Y29.28
X30.39 Y29.287
X30.472 Y29.901
X30.473 Y29.912
X30.523 Y30.212
X30.525 Y30.225
X30.53 Y30.247
X30.448 Y30.072
X30.36 Y29.85
X30.283 Y29.624
X30.151 Y29.141
X30.044 Y28.641
X29.951 Y28.138
X29.258 Y21.884
Y21.883
X29.201 Y21.383
X29.186 Y21.243
X29.201 Y21.383
X29.258 Y21.883
Y21.884
X29.951 Y28.138
X30.044 Y28.641
X30.151 Y29.141
X30.283 Y29.624
X30.36 Y29.85
X30.448 Y30.072
X30.53 Y30.247
X30.544 Y30.291 Z-1.969
X30.622 Y30.508 Z-1.781
X30.743 Y30.793 Z-1.521
X30.832 Y30.984 Z-1.383
X30.873 Y31.064 Z-1.31
X31.017 Y31.32 Z-1.145
X31.023 Y31.329 Z-1.138
X31.089 Y31.434 Z-1.109
X31.173 Y31.56 Z-1.06
X31.179 Y31.569 Z-1.057
X31.344 Y31.787 Z-1.072
X31.353 Y31.798 Z-1.073
X31.394 Y31.845 Z-1.103
X31.547 Y31.992 Z-1.114
X31.557 Y32.002
X31.722 Y32.141 Z-1.21
X31.781 Y32.189 Z-1.236
X32.015 Y32.359 Z-1.422
X32.084 Y32.405 Z-1.492
X32.264 Y32.518 Z-1.648
X32.445 Y32.62 Z-1.803
X32.548 Y32.673 Z-1.872
X32.624 Y32.711 Z-1.932
X32.74 Y32.763 Z-2.
X33.122 Y32.893
X33.188 Y32.909
X33.255 Y32.912
X33.451 Y32.901
X33.471 Y32.899
X33.666 Y32.877
X33.697 Y32.872
X33.889 Y32.833
X33.904 Y32.829
X34.256 Y33.174
X33.97 Y33.133
X33.542 Y33.053
X33.344 Y33.004
X33.152 Y32.946
X32.971 Y32.877
X32.798 Y32.796
X32.74 Y32.763
X32.798 Y32.796
X32.971 Y32.877
X33.152 Y32.946
X33.344 Y33.004
X33.542 Y33.053
X33.97 Y33.133
X34.256 Y33.174
X34.38 Y33.236 Z-1.757
X34.695 Y33.354 Z-0.985
X35.059 Y33.468 Z-0.002
Z5.
X20.539 Y22.145
Z-0.001 F67.
X21.023 Y22.026 Z-2. F200.
X21.559 Y22.35
X21.755 Y22.881 Z-0.001
X21.559 Y22.35 Z-2.
X21.618 Y22.189
X21.624 Y22.174
X21.699 Y21.996
X21.708 Y21.975
X21.792 Y21.808
X21.807 Y21.781
X21.902 Y21.627
X21.925 Y21.595
X22.033 Y21.457
X22.065 Y21.42
X22.189 Y21.301
X22.231 Y21.266
X22.371 Y21.167
X22.412 Y21.142
X22.568 Y21.061
X22.603 Y21.045
X22.772 Y20.979
X22.786 Y20.974
X22.724 Y20.979
X22.336 Y21.032
X22.164 Y21.068
X22.002 Y21.113
X21.855 Y21.169
X21.722 Y21.236
X21.601 Y21.316
X21.487 Y21.414
X21.375 Y21.53
X21.269 Y21.661
X21.052 Y21.977
X21.023 Y22.026
X21.052 Y21.977
X21.269 Y21.661
X21.375 Y21.53
X21.487 Y21.414
X21.601 Y21.316
X21.722 Y21.236
X21.855 Y21.169
X22.002 Y21.113
X22.164 Y21.068
X22.336 Y21.032
X22.724 Y20.979
X22.786 Y20.974
X22.801 Y20.971 Z-1.991
X23.007 Y20.933 Z-1.874
X23.111 Y20.917 Z-1.833
X23.215 Y20.908 Z-1.751
X23.424 Y20.897 Z-1.611
X23.456 Y20.895 Z-1.593
X23.832 Y20.887 Z-1.346
X23.845 Y20.888 Z-1.334
X23.858 Z-1.325
X23.87 Y20.889 Z-1.32
X23.883 Y20.89
X24.16 Y20.921 Z-1.262
X24.291 Y20.943 Z-1.201
X24.501 Y20.986 Z-1.15
X24.654 Y21.031 Z-1.114
X24.695 Y21.046 Z-1.097
X24.707 Y21.05 Z-1.096
X24.81 Y21.091 Z-1.092
X24.898 Y21.131 Z-1.07
X24.901 Y21.132
X25.088 Y21.228 Z-1.085
X25.123 Y21.248 Z-1.097
X25.429 Y21.434 Z-1.14
X25.439 Y21.441 Z-1.138
X25.449 Y21.449 Z-1.142
X25.459 Y21.457 Z-1.15
X25.469 Y21.464 Z-1.162
X25.695 Y21.653 Z-1.395
X25.75 Y21.711 Z-1.413
X25.759 Y21.72 Z-1.419
X25.883 Y21.862 Z-1.515
X25.896 Y21.878 Z-1.531
X26.012 Y22.036 Z-1.678
X26.025 Y22.056 Z-1.706
X26.065 Y22.12 Z-1.797
X26.124 Y22.225 Z-1.912
X26.154 Y22.285 Z-2.
X26.217 Y22.361
X26.286 Y22.464
X26.347 Y22.571
X26.398 Y22.682
X26.44 Y22.796
X26.51 Y23.066
X26.559 Y23.357
X26.591 Y23.614
X26.538 Y23.888
X26.465 Y24.194
X26.369 Y24.476
X26.314 Y24.596
X26.248 Y24.713
X26.172 Y24.828
X26.087 Y24.938
X25.879 Y25.167
X25.645 Y25.389
X25.396 Y25.61
X24.707 Y26.178
X24.297 Y26.513
X24.29 Y26.518
X23.888 Y26.863
X23.876 Y26.875
X23.492 Y27.239
X23.482 Y27.249
X23.112 Y27.628
X23.073 Y27.675
X22.923 Y27.895
X22.909 Y27.918
X22.843 Y28.031
X22.828 Y28.06
X22.774 Y28.178
X22.759 Y28.217
X22.719 Y28.34
X22.709 Y28.374
X22.682 Y28.502
X22.677 Y28.531
X22.643 Y28.795
X22.64 Y28.857
X22.649 Y28.92
X22.724 Y29.242
X22.683 Y29.19
X22.626 Y29.101
X22.576 Y29.008
X22.533 Y28.91
X22.499 Y28.811
X22.441 Y28.574
X22.401 Y28.318
X22.374 Y28.077
X22.397 Y27.826
X22.416 Y27.707
X22.443 Y27.598
X22.483 Y27.492
X22.534 Y27.383
X22.659 Y27.163
X22.949 Y26.83
X23.272 Y26.497
X23.62 Y26.185
X23.989 Y25.879
X24.852 Y25.18
X24.862 Y25.171
X25.103 Y24.962
X25.112 Y24.954
X25.342 Y24.738
X25.359 Y24.721
X25.57 Y24.494
X25.595 Y24.464
X25.776 Y24.22
X25.797 Y24.189
X25.873 Y24.059
X25.886 Y24.034
X25.952 Y23.898
X25.966 Y23.864
X26.07 Y23.577
X26.08 Y23.545
X26.158 Y23.244
X26.162 Y23.228
X26.227 Y22.919
X26.235 Y22.861
X26.232 Y22.803
X26.189 Y22.447
X26.183 Y22.413
X26.154 Y22.285
X26.183 Y22.413
X26.189 Y22.447
X26.232 Y22.803
X26.235 Y22.861
X26.227 Y22.919
X26.162 Y23.228
X26.158 Y23.244
X26.08 Y23.545
X26.07 Y23.577
X25.966 Y23.864
X25.952 Y23.898
X25.886 Y24.034
X25.873 Y24.059
X25.797 Y24.189
X25.776 Y24.22
X25.595 Y24.464
X25.57 Y24.494
X25.359 Y24.721
X25.342 Y24.738
X25.112 Y24.954
X25.103 Y24.962
X24.862 Y25.171
X24.852 Y25.18
X23.989 Y25.879
X23.62 Y26.185
X23.272 Y26.497
X22.949 Y26.83
X22.659 Y27.163
X22.534 Y27.383
X22.483 Y27.492
X22.443 Y27.598
X22.416 Y27.707
X22.397 Y27.826
X22.374 Y28.077
X22.401 Y28.318
X22.441 Y28.574
X22.499 Y28.811
X22.533 Y28.91
X22.576 Y29.008
X22.626 Y29.101
X22.683 Y29.19
X22.724 Y29.242
X22.806 Y29.407 Z-1.795
X22.898 Y29.561 Z-1.582
X22.945 Y29.636 Z-1.495
X23.002 Y29.719 Z-1.387
X23.098 Y29.846 Z-1.265
X23.109 Y29.857 Z-1.243
X23.224 Y29.964 Z-1.089
X23.237 Y29.975 Z-1.073
X23.321 Y30.041 Z-1.02
X23.371 Y30.077 Z-0.984
X23.5 Y30.159 Z-0.968
X23.506 Y30.162 Z-0.967
X23.585 Y30.204 Z-0.991
X23.659 Y30.24 Z-1.
X23.806 Y30.301 Z-1.069
X23.86 Y30.322 Z-1.107
X23.97 Y30.355 Z-1.151
X24.138 Y30.4 Z-1.259
X24.307 Y30.434 Z-1.309
X24.421 Y30.453 Z-1.36
X24.659 Y30.482 Z-1.405
X24.677 Y30.483 Z-1.408
X24.714 Y30.486 Z-1.431
X25.022 Y30.489 Z-1.547
X25.201 Y30.486 Z-1.643
X25.324 Y30.479 Z-1.734
X25.398 Y30.469 Z-1.757
X25.571 Y30.438 Z-1.861
X25.74 Y30.4 Z-2.
X25.756 Y30.394
X25.778 Y30.385
X26.074 Y30.247
X26.133 Y30.212
X26.332 Y30.067
X26.362 Y30.042
X26.45 Y29.962
X26.484 Y29.927
X26.558 Y29.838
X26.595 Y29.784
X26.651 Y29.683
X26.675 Y29.63
X26.714 Y29.519
X26.726 Y29.475
X26.737 Y29.426
X26.716 Y29.223 Z-1.642
X26.713 Y29.198 Z-1.599
X26.704 Y29.151 Z-1.537
X26.698 Y29.128 Z-1.517
X26.62 Y28.847 Z-1.278
X26.608 Y28.817 Z-1.237
X26.583 Y28.763 Z-1.184
X26.573 Y28.746 Z-1.153
X26.552 Y28.719 Z-1.081
X26.491 Y28.652 Z-0.851
X26.441 Y28.622 Z-0.625
X26.491 Y28.652 Z-0.851
X26.552 Y28.719 Z-1.081
X26.573 Y28.746 Z-1.153
X26.583 Y28.763 Z-1.184
X26.608 Y28.817 Z-1.237
X26.62 Y28.847 Z-1.278
X26.698 Y29.128 Z-1.517
X26.704 Y29.151 Z-1.537
X26.713 Y29.198 Z-1.599
X26.716 Y29.223 Z-1.642
X26.737 Y29.426 Z-2.
X26.74 Y29.432
X27.014 Y30.062
X26.829 Y30.144
X26.588 Y30.235
X26.348 Y30.307
X26.103 Y30.357
X25.849 Y30.392
X25.74 Y30.4
X25.849 Y30.392
X26.103 Y30.357
X26.348 Y30.307
X26.588 Y30.235
X26.829 Y30.144
X27.014 Y30.062
X27.477 Y30.242 Z-0.001
Z5.

G28 G91 Z0.
G90
G28 G91 X0. Y0.
G90
M30
