(2001A-SECONDHOLEROUGHING)
(MACHINE)
(  VENDOR HOMEMADE)
(  DESCRIPTION GENERIC 3-AXIS)
(T10  D=3. CR=0. - ZMIN=-5.5 - FLAT END MILL)
G90 G94 G91.1 G40 G49 G17
G21
(WHEN USING FUSION 360 FOR PERSONAL USE, THE FEEDRATE OF)
(RAPID MOVES IS REDUCED TO MATCH THE FEEDRATE OF CUTTING)
(MOVES, WHICH CAN INCREASE MACHINING TIME. UNRESTRICTED RAPID)
(MOVES ARE AVAILABLE WITH A FUSION 360 SUBSCRIPTION.)
G28 G91 Z0.
G90

(MAKE SECOND HOLE)
M5
T10 M6
S9000 M3
G54
G0 X21.208 Y23.88
G43 Z15. H10
G1 Z5. F400.
Z2.5
G3 X22.213 Y24.961 Z2.439 I0.161 J0.858 F333.
X20.807 Y25.403 Z2.377 I-0.843 J-0.223
X21.012 Y23.945 Z2.316 I0.563 J-0.664
X22.238 Y24.755 Z2.254 I0.357 J0.793
X20.981 Y25.514 Z2.193 I-0.868 J-0.018
X20.837 Y24.054 Z2.132 I0.389 J-0.775
X22.215 Y24.551 Z2.07 I0.532 J0.683
X21.176 Y25.58 Z2.009 I-0.845 J0.187
X20.693 Y24.201 Z1.947 I0.194 J-0.842
X22.144 Y24.358 Z1.886 I0.676 J0.536
X21.38 Y25.599 Z1.825 I-0.774 J0.379
X20.588 Y24.378 Z1.763 I-0.01 J-0.861
X22.03 Y24.188 Z1.702 I0.781 J0.36
X21.582 Y25.569 Z1.64 I-0.66 J0.549
X20.529 Y24.573 Z1.579 I-0.212 J-0.831
X21.879 Y24.05 Z1.518 I0.84 J0.165
X21.771 Y25.493 Z1.456 I-0.51 J0.687
X20.517 Y24.776 Z1.395 I-0.401 J-0.755
X21.701 Y23.952 Z1.333 I0.853 J-0.038
X21.936 Y25.374 Z1.272 I-0.332 J0.785
X20.553 Y24.975 Z1.211 I-0.565 J-0.636
X21.506 Y23.899 Z1.149 I0.816 J-0.237
X22.067 Y25.221 Z1.088 I-0.137 J0.838
X20.635 Y25.16 Z1.026 I-0.697 J-0.483
X21.305 Y23.894 Z0.965 I0.735 J-0.421
X22.159 Y25.041 Z0.904 I0.065 J0.843
X20.757 Y25.319 Z0.842 I-0.788 J-0.304
X21.108 Y23.936 Z0.781 I0.612 J-0.581
X22.205 Y24.846 Z0.719 I0.261 J0.801
X20.913 Y25.444 Z0.658 I-0.835 J-0.109
X20.928 Y24.023 Z0.596 I0.456 J-0.706
X22.204 Y24.646 Z0.535 I0.441 J0.714
X21.094 Y25.529 Z0.474 I-0.833 J0.091
X20.774 Y24.15 Z0.412 I0.276 J-0.791
X22.155 Y24.453 Z0.351 I0.595 J0.588
X21.289 Y25.569 Z0.289 I-0.785 J0.284
X20.655 Y24.309 Z0.228 I0.081 J-0.83
X22.063 Y24.278 Z0.167 I0.714 J0.429
X21.487 Y25.561 Z0.105 I-0.693 J0.46
X20.577 Y24.49 Z0.044 I-0.117 J-0.823
X21.933 Y24.129 Z-0.018 I0.792 J0.248
X21.677 Y25.507 Z-0.079 I-0.563 J0.608
X20.544 Y24.685 Z-0.14 I-0.307 J-0.769
X21.772 Y24.016 Z-0.202 I0.825 J0.053
X21.848 Y25.41 Z-0.263 I-0.402 J0.721
X20.558 Y24.88 Z-0.325 I-0.477 J-0.672
X21.589 Y23.945 Z-0.386 I0.811 J-0.142
X21.99 Y25.276 Z-0.447 I-0.22 J0.792
X20.618 Y25.067 Z-0.509 I-0.62 J-0.538
X21.396 Y23.919 Z-0.57 I0.752 J-0.328
X22.097 Y25.113 Z-0.632 I-0.027 J0.819
X20.719 Y25.233 Z-0.693 I-0.727 J-0.375
X21.202 Y23.939 Z-0.754 I0.65 J-0.494
X22.162 Y24.93 Z-0.816 I0.167 J0.799
X20.856 Y25.37 Z-0.877 I-0.792 J-0.192
X21.02 Y24.004 Z-0.939 I0.513 J-0.631
X22.182 Y24.738 Z-1. I0.349 J0.734
X20.556 I-0.813 J0.
X22.182 I0.813 J0.
G1 X22.2 Y24.967 F400.
X22.182 Y25.188
X22.096 Y25.392
X21.951 Y25.559
X21.927 Y25.579
X21.894 Y25.604
X21.861 Y25.623
X21.796 Y25.65
X21.591 Y25.724
X21.55 Y25.734
X21.468 Y25.741
X21.304
X21.222 Y25.74
X21.181 Y25.734
X21.14 Y25.722
X20.976 Y25.662
X20.894 Y25.631
X20.853 Y25.609
X20.811 Y25.579
X20.648 Y25.442
X20.618 Y25.415
X20.583 Y25.374
X20.554 Y25.333
X20.448 Y25.149
X20.431 Y25.118
X20.418 Y25.087
X20.383 Y24.923
X20.357 Y24.759
X20.356 Y24.718
X20.361 Y24.677
X20.404 Y24.431
X20.416 Y24.39
X20.434 Y24.349
X20.484 Y24.263
X20.579 Y24.103
X20.61 Y24.068
X20.648 Y24.032
X20.812 Y23.895
X20.853 Y23.866
X20.894 Y23.844
X20.976 Y23.812
X21.14 Y23.753
X21.181 Y23.741
X21.222 Y23.735
X21.304 Y23.733
X21.468
X21.55 Y23.74
X21.591 Y23.75
X21.837 Y23.839
X21.878 Y23.86
X21.96 Y23.922
X22.123 Y24.061
X22.143 Y24.082
X22.159 Y24.103
X22.257 Y24.267
X22.287 Y24.32
X22.316 Y24.376
X22.334 Y24.431
X22.378 Y24.677
X22.382 Y24.718
Y24.759
X22.355 Y24.923
X22.32 Y25.087
X22.306 Y25.121
X22.185 Y25.332
X22.158 Y25.372
X22.142 Y25.393
X22.121 Y25.415
X21.951 Y25.559
G3 X21.521 Y25.495 I-0.184 J-0.237 F200.
G1 X21.503 Y25.446 Z-0.995
X21.485 Y25.398 Z-0.981
X21.468 Y25.353 Z-0.958
X21.467 Y25.322 Z-0.937
X21.476 Y25.275 Z-0.889
X21.483 Y25.239 Z-0.832
X21.487 Y25.217 Z-0.768
X21.489 Y25.209 Z-0.7
Z5. F400.
X21.207 Y23.88
Z1.5
G3 X22.213 Y24.96 Z1.439 I0.162 J0.857 F333.
X20.808 Y25.404 Z1.377 I-0.843 J-0.222
X21.01 Y23.946 Z1.316 I0.562 J-0.665
X22.238 Y24.754 Z1.254 I0.358 J0.792
X20.982 Y25.515 Z1.193 I-0.868 J-0.017
X20.836 Y24.055 Z1.132 I0.388 J-0.776
X22.214 Y24.55 Z1.07 I0.533 J0.683
X21.177 Y25.581 Z1.009 I-0.844 J0.188
X20.692 Y24.202 Z0.947 I0.193 J-0.842
X22.143 Y24.357 Z0.886 I0.677 J0.536
X21.381 Y25.599 Z0.825 I-0.773 J0.38
X20.588 Y24.379 Z0.763 I-0.011 J-0.861
X22.029 Y24.187 Z0.702 I0.781 J0.359
X21.583 Y25.569 Z0.64 I-0.659 J0.55
X20.528 Y24.574 Z0.579 I-0.213 J-0.831
X21.879 Y24.05 Z0.518 I0.841 J0.164
X21.772 Y25.493 Z0.456 I-0.509 J0.688
X20.516 Y24.777 Z0.395 I-0.402 J-0.754
X21.701 Y23.952 Z0.333 I0.852 J-0.039
X21.936 Y25.374 Z0.272 I-0.331 J0.785
X20.553 Y24.976 Z0.211 I-0.566 J-0.636
X21.505 Y23.899 Z0.149 I0.816 J-0.238
X22.068 Y25.22 Z0.088 I-0.136 J0.838
X20.635 Y25.161 Z0.026 I-0.697 J-0.482
X21.304 Y23.894 Z-0.035 I0.734 J-0.422
X22.159 Y25.041 Z-0.096 I0.065 J0.843
X20.758 Y25.32 Z-0.158 I-0.789 J-0.303
X21.108 Y23.937 Z-0.219 I0.612 J-0.581
X22.205 Y24.846 Z-0.281 I0.261 J0.801
X20.914 Y25.445 Z-0.342 I-0.835 J-0.108
X20.928 Y24.024 Z-0.404 I0.456 J-0.706
X22.203 Y24.646 Z-0.465 I0.441 J0.714
X21.095 Y25.529 Z-0.526 I-0.833 J0.092
X20.774 Y24.15 Z-0.588 I0.275 J-0.791
X22.155 Y24.453 Z-0.649 I0.595 J0.587
X21.289 Y25.569 Z-0.711 I-0.785 J0.285
X20.655 Y24.309 Z-0.772 I0.08 J-0.83
X22.063 Y24.277 Z-0.833 I0.714 J0.429
X21.487 Y25.561 Z-0.895 I-0.693 J0.46
X20.577 Y24.491 Z-0.956 I-0.117 J-0.823
X21.933 Y24.129 Z-1.018 I0.792 J0.247
X21.677 Y25.507 Z-1.079 I-0.563 J0.608
X20.544 Y24.685 Z-1.14 I-0.307 J-0.769
X21.771 Y24.016 Z-1.202 I0.825 J0.053
X21.848 Y25.41 Z-1.263 I-0.402 J0.721
X20.558 Y24.881 Z-1.325 I-0.478 J-0.672
X21.589 Y23.945 Z-1.386 I0.811 J-0.142
X21.99 Y25.276 Z-1.447 I-0.22 J0.792
X20.618 Y25.067 Z-1.509 I-0.62 J-0.538
X21.396 Y23.919 Z-1.57 I0.751 J-0.328
X22.097 Y25.113 Z-1.632 I-0.026 J0.819
X20.719 Y25.233 Z-1.693 I-0.727 J-0.375
X21.202 Y23.939 Z-1.754 I0.65 J-0.495
X22.162 Y24.93 Z-1.816 I0.167 J0.799
X20.856 Y25.37 Z-1.877 I-0.792 J-0.192
X21.02 Y24.004 Z-1.939 I0.513 J-0.631
X22.182 Y24.738 Z-2. I0.349 J0.734
X20.556 I-0.813 J0.
X22.182 I0.813 J0.
G1 X22.2 Y24.967 F400.
X22.182 Y25.188
X22.096 Y25.392
X21.951 Y25.559
X21.927 Y25.579
X21.894 Y25.604
X21.861 Y25.623
X21.796 Y25.65
X21.591 Y25.724
X21.55 Y25.734
X21.468 Y25.741
X21.304
X21.222 Y25.74
X21.181 Y25.734
X21.14 Y25.722
X20.976 Y25.662
X20.894 Y25.631
X20.853 Y25.609
X20.811 Y25.579
X20.648 Y25.442
X20.618 Y25.415
X20.583 Y25.374
X20.554 Y25.333
X20.448 Y25.149
X20.431 Y25.118
X20.418 Y25.087
X20.383 Y24.923
X20.357 Y24.759
X20.356 Y24.718
X20.361 Y24.677
X20.404 Y24.431
X20.416 Y24.39
X20.434 Y24.349
X20.484 Y24.263
X20.579 Y24.103
X20.61 Y24.068
X20.648 Y24.032
X20.812 Y23.895
X20.853 Y23.866
X20.894 Y23.844
X20.976 Y23.812
X21.14 Y23.753
X21.181 Y23.741
X21.222 Y23.735
X21.304 Y23.733
X21.468
X21.55 Y23.74
X21.591 Y23.75
X21.837 Y23.839
X21.878 Y23.86
X21.96 Y23.922
X22.123 Y24.061
X22.143 Y24.082
X22.159 Y24.103
X22.257 Y24.267
X22.287 Y24.32
X22.316 Y24.376
X22.334 Y24.431
X22.378 Y24.677
X22.382 Y24.718
Y24.759
X22.355 Y24.923
X22.32 Y25.087
X22.306 Y25.121
X22.185 Y25.332
X22.158 Y25.372
X22.142 Y25.393
X22.121 Y25.415
X21.951 Y25.559
G3 X21.521 Y25.495 I-0.184 J-0.237 F200.
G1 X21.503 Y25.446 Z-1.995
X21.485 Y25.398 Z-1.981
X21.468 Y25.353 Z-1.958
X21.466 Y25.323 Z-1.937
X21.476 Y25.275 Z-1.889
X21.483 Y25.239 Z-1.832
X21.487 Y25.217 Z-1.768
X21.488 Y25.21 Z-1.7
Z5. F400.
X21.211 Y23.879
Z0.5
G3 X22.212 Y24.963 Z0.439 I0.158 J0.858 F333.
X20.805 Y25.401 Z0.377 I-0.842 J-0.226
X21.014 Y23.944 Z0.316 I0.565 J-0.662
X22.238 Y24.758 Z0.254 I0.355 J0.794
X20.979 Y25.513 Z0.193 I-0.868 J-0.02
X20.838 Y24.053 Z0.132 I0.391 J-0.774
X22.215 Y24.553 Z0.07 I0.531 J0.685
X21.173 Y25.58 Z0.009 I-0.845 J0.185
X20.694 Y24.2 Z-0.053 I0.196 J-0.842
X22.145 Y24.36 Z-0.114 I0.675 J0.538
X21.378 Y25.599 Z-0.175 I-0.775 J0.378
X20.589 Y24.376 Z-0.237 I-0.008 J-0.861
X22.031 Y24.19 Z-0.298 I0.78 J0.362
X21.58 Y25.57 Z-0.36 I-0.661 J0.548
X20.529 Y24.571 Z-0.421 I-0.21 J-0.831
X21.881 Y24.051 Z-0.482 I0.84 J0.167
X21.769 Y25.494 Z-0.544 I-0.511 J0.686
X20.516 Y24.774 Z-0.605 I-0.399 J-0.755
X21.703 Y23.953 Z-0.667 I0.853 J-0.036
X21.934 Y25.376 Z-0.728 I-0.333 J0.784
X20.552 Y24.974 Z-0.789 I-0.564 J-0.637
X21.507 Y23.9 Z-0.851 I0.817 J-0.235
X22.066 Y25.222 Z-0.912 I-0.138 J0.838
X20.634 Y25.159 Z-0.974 I-0.696 J-0.484
X21.306 Y23.894 Z-1.035 I0.735 J-0.42
X22.158 Y25.043 Z-1.096 I0.063 J0.844
X20.756 Y25.318 Z-1.158 I-0.788 J-0.305
X21.109 Y23.936 Z-1.219 I0.613 J-0.58
X22.204 Y24.848 Z-1.281 I0.26 J0.802
X20.912 Y25.444 Z-1.342 I-0.834 J-0.11
X20.929 Y24.023 Z-1.404 I0.457 J-0.705
X22.203 Y24.648 Z-1.465 I0.44 J0.715
X21.093 Y25.529 Z-1.526 I-0.834 J0.09
X20.775 Y24.149 Z-1.588 I0.277 J-0.79
X22.155 Y24.454 Z-1.649 I0.594 J0.589
X21.288 Y25.569 Z-1.711 I-0.786 J0.283
X20.655 Y24.308 Z-1.772 I0.082 J-0.83
X22.064 Y24.279 Z-1.833 I0.714 J0.43
X21.486 Y25.561 Z-1.895 I-0.694 J0.459
X20.577 Y24.49 Z-1.956 I-0.116 J-0.823
X21.933 Y24.13 Z-2.018 I0.792 J0.248
X21.676 Y25.508 Z-2.079 I-0.564 J0.608
X20.544 Y24.684 Z-2.14 I-0.306 J-0.769
X21.772 Y24.017 Z-2.202 I0.825 J0.054
X21.847 Y25.411 Z-2.263 I-0.403 J0.721
X20.558 Y24.88 Z-2.325 I-0.477 J-0.672
X21.589 Y23.945 Z-2.386 I0.811 J-0.142
X21.99 Y25.277 Z-2.447 I-0.22 J0.792
X20.617 Y25.067 Z-2.509 I-0.62 J-0.539
X21.396 Y23.919 Z-2.57 I0.752 J-0.328
X22.097 Y25.114 Z-2.632 I-0.027 J0.819
X20.719 Y25.233 Z-2.693 I-0.727 J-0.375
X21.202 Y23.939 Z-2.754 I0.65 J-0.494
X22.162 Y24.93 Z-2.816 I0.167 J0.799
X20.856 Y25.37 Z-2.877 I-0.792 J-0.192
X21.02 Y24.004 Z-2.939 I0.513 J-0.631
X22.182 Y24.738 Z-3. I0.349 J0.734
X20.556 I-0.813 J0.
X22.182 I0.813 J0.
G1 X22.2 Y24.967 F400.
X22.182 Y25.188
X22.096 Y25.392
X21.95 Y25.559
X21.927 Y25.579
X21.894 Y25.604
X21.861 Y25.623
X21.796 Y25.65
X21.591 Y25.724
X21.55 Y25.734
X21.468 Y25.741
X21.304
X21.222 Y25.74
X21.181 Y25.734
X21.14 Y25.722
X20.976 Y25.662
X20.894 Y25.631
X20.853 Y25.609
X20.811 Y25.579
X20.648 Y25.442
X20.618 Y25.415
X20.583 Y25.374
X20.554 Y25.333
X20.448 Y25.149
X20.431 Y25.118
X20.418 Y25.087
X20.383 Y24.923
X20.357 Y24.759
X20.356 Y24.718
X20.361 Y24.677
X20.404 Y24.431
X20.416 Y24.39
X20.434 Y24.349
X20.484 Y24.263
X20.579 Y24.103
X20.61 Y24.068
X20.648 Y24.032
X20.812 Y23.895
X20.853 Y23.866
X20.894 Y23.844
X20.976 Y23.812
X21.14 Y23.753
X21.181 Y23.741
X21.222 Y23.735
X21.304 Y23.733
X21.468
X21.55 Y23.74
X21.591 Y23.75
X21.837 Y23.839
X21.878 Y23.86
X21.96 Y23.922
X22.123 Y24.061
X22.143 Y24.082
X22.159 Y24.103
X22.257 Y24.267
X22.287 Y24.32
X22.316 Y24.376
X22.334 Y24.431
X22.378 Y24.677
X22.382 Y24.718
Y24.759
X22.355 Y24.923
X22.32 Y25.087
X22.306 Y25.121
X22.185 Y25.332
X22.158 Y25.372
X22.142 Y25.393
X22.121 Y25.415
X21.95 Y25.559
G3 X21.521 Y25.495 I-0.184 J-0.237 F200.
G1 X21.503 Y25.446 Z-2.995
X21.485 Y25.398 Z-2.981
X21.468 Y25.353 Z-2.958
X21.466 Y25.323 Z-2.937
X21.476 Y25.275 Z-2.889
X21.483 Y25.239 Z-2.832
X21.487 Y25.217 Z-2.768
X21.488 Y25.21 Z-2.7
Z-0.5 F400.
X21.178 Y23.886
G3 X22.219 Y24.931 Z-0.561 I0.191 J0.851 F333.
X20.829 Y25.421 Z-0.623 I-0.849 J-0.194
X20.985 Y23.957 Z-0.684 I0.54 J-0.683
X22.238 Y24.727 Z-0.746 I0.383 J0.78
X21.006 Y25.525 Z-0.807 I-0.868 J0.01
X20.815 Y24.071 Z-0.868 I0.364 J-0.787
X22.208 Y24.524 Z-0.93 I0.553 J0.666
X21.201 Y25.585 Z-0.991 I-0.838 J0.213
X20.677 Y24.222 Z-1.053 I0.168 J-0.847
X22.132 Y24.335 Z-1.114 I0.691 J0.516
X21.404 Y25.598 Z-1.175 I-0.762 J0.402
X20.578 Y24.399 Z-1.237 I-0.034 J-0.86
X22.014 Y24.17 Z-1.298 I0.79 J0.338
X21.604 Y25.563 Z-1.36 I-0.645 J0.567
X20.524 Y24.594 Z-1.421 I-0.234 J-0.825
X21.861 Y24.037 Z-1.482 I0.844 J0.143
X21.789 Y25.482 Z-1.544 I-0.492 J0.699
X20.518 Y24.796 Z-1.605 I-0.419 J-0.744
X21.682 Y23.945 Z-1.667 I0.851 J-0.058
X21.949 Y25.361 Z-1.728 I-0.313 J0.792
X20.558 Y24.993 Z-1.789 I-0.58 J-0.623
X21.488 Y23.897 Z-1.851 I0.811 J-0.255
X22.077 Y25.206 Z-1.912 I-0.119 J0.84
X20.643 Y25.174 Z-1.974 I-0.707 J-0.468
X21.288 Y23.895 Z-2.035 I0.726 J-0.436
X22.163 Y25.026 Z-2.096 I0.081 J0.842
X20.768 Y25.33 Z-2.158 I-0.794 J-0.288
X21.094 Y23.941 Z-2.219 I0.601 J-0.592
X22.206 Y24.832 Z-2.281 I0.275 J0.796
X20.925 Y25.451 Z-2.342 I-0.836 J-0.094
X20.916 Y24.03 Z-2.404 I0.444 J-0.713
X22.201 Y24.633 Z-2.465 I0.452 J0.707
X21.106 Y25.533 Z-2.526 I-0.832 J0.104
X20.766 Y24.158 Z-2.588 I0.264 J-0.794
X22.151 Y24.442 Z-2.649 I0.603 J0.579
X21.299 Y25.569 Z-2.711 I-0.781 J0.295
X20.65 Y24.317 Z-2.772 I0.07 J-0.831
X22.057 Y24.269 Z-2.833 I0.719 J0.42
X21.496 Y25.559 Z-2.895 I-0.688 J0.468
X20.574 Y24.499 Z-2.956 I-0.126 J-0.821
X21.926 Y24.124 Z-3.018 I0.794 J0.239
X21.683 Y25.504 Z-3.079 I-0.557 J0.613
X20.544 Y24.692 Z-3.14 I-0.314 J-0.766
X21.765 Y24.013 Z-3.202 I0.825 J0.046
X21.852 Y25.406 Z-3.263 I-0.396 J0.724
X20.559 Y24.886 Z-3.325 I-0.482 J-0.668
X21.584 Y23.944 Z-3.386 I0.81 J-0.148
X21.993 Y25.272 Z-3.447 I-0.215 J0.793
X20.619 Y25.07 Z-3.509 I-0.623 J-0.535
X21.392 Y23.919 Z-3.57 I0.75 J-0.332
X22.098 Y25.11 Z-3.632 I-0.023 J0.818
X20.72 Y25.234 Z-3.693 I-0.728 J-0.372
X21.2 Y23.939 Z-3.754 I0.649 J-0.496
X22.162 Y24.928 Z-3.816 I0.169 J0.798
X20.857 Y25.37 Z-3.877 I-0.792 J-0.191
X21.019 Y24.004 Z-3.939 I0.512 J-0.632
X22.181 Y24.737 Z-4. I0.35 J0.733
X20.556 I-0.812 J0.
X22.181 I0.812 J0.
G1 X22.199 Y24.968 F400.
X22.181 Y25.188
X22.095 Y25.393
X21.95 Y25.56
X21.927 Y25.579
X21.894 Y25.604
X21.861 Y25.623
X21.796 Y25.65
X21.591 Y25.724
X21.55 Y25.734
X21.468 Y25.741
X21.304
X21.222 Y25.74
X21.181 Y25.734
X21.14 Y25.722
X20.976 Y25.662
X20.894 Y25.631
X20.853 Y25.609
X20.811 Y25.579
X20.648 Y25.442
X20.618 Y25.415
X20.583 Y25.374
X20.554 Y25.333
X20.448 Y25.149
X20.431 Y25.118
X20.418 Y25.087
X20.383 Y24.923
X20.357 Y24.759
X20.356 Y24.718
X20.361 Y24.677
X20.404 Y24.431
X20.416 Y24.39
X20.434 Y24.349
X20.484 Y24.263
X20.579 Y24.103
X20.61 Y24.068
X20.648 Y24.032
X20.812 Y23.895
X20.853 Y23.866
X20.894 Y23.844
X20.976 Y23.812
X21.14 Y23.753
X21.181 Y23.741
X21.222 Y23.735
X21.304 Y23.733
X21.468
X21.55 Y23.74
X21.591 Y23.75
X21.837 Y23.839
X21.878 Y23.86
X21.96 Y23.922
X22.123 Y24.061
X22.143 Y24.082
X22.159 Y24.103
X22.257 Y24.267
X22.287 Y24.32
X22.316 Y24.376
X22.334 Y24.431
X22.378 Y24.677
X22.382 Y24.718
Y24.759
X22.355 Y24.923
X22.32 Y25.087
X22.306 Y25.121
X22.185 Y25.332
X22.158 Y25.372
X22.142 Y25.393
X22.121 Y25.415
X21.95 Y25.56
G3 X21.521 Y25.496 I-0.184 J-0.237 F200.
G1 X21.502 Y25.446 Z-3.995
X21.484 Y25.398 Z-3.981
X21.467 Y25.353 Z-3.958
X21.466 Y25.323 Z-3.937
X21.475 Y25.275 Z-3.889
X21.482 Y25.24 Z-3.832
X21.486 Y25.218 Z-3.768
X21.488 Y25.21 Z-3.7
Z-1.5 F400.
X21.199 Y23.881
G3 X22.215 Y24.951 Z-1.561 I0.17 J0.856 F333.
X20.814 Y25.408 Z-1.623 I-0.845 J-0.214
X21.003 Y23.949 Z-1.684 I0.556 J-0.67
X22.238 Y24.746 Z-1.746 I0.366 J0.789
X20.989 Y25.517 Z-1.807 I-0.868 J-0.009
X20.83 Y24.059 Z-1.868 I0.381 J-0.779
X22.213 Y24.542 Z-1.93 I0.539 J0.678
X21.184 Y25.582 Z-1.991 I-0.843 J0.195
X20.688 Y24.208 Z-2.053 I0.186 J-0.844
X22.14 Y24.35 Z-2.114 I0.681 J0.53
X21.388 Y25.599 Z-2.175 I-0.77 J0.387
X20.585 Y24.384 Z-2.237 I-0.018 J-0.861
X22.025 Y24.182 Z-2.298 I0.784 J0.353
X21.589 Y25.567 Z-2.36 I-0.655 J0.555
X20.527 Y24.579 Z-2.421 I-0.219 J-0.829
X21.874 Y24.046 Z-2.482 I0.842 J0.158
X21.777 Y25.489 Z-2.544 I-0.504 J0.691
X20.517 Y24.782 Z-2.605 I-0.407 J-0.751
X21.695 Y23.95 Z-2.667 I0.852 J-0.044
X21.94 Y25.37 Z-2.728 I-0.326 J0.787
X20.554 Y24.981 Z-2.789 I-0.57 J-0.632
X21.5 Y23.898 Z-2.851 I0.815 J-0.243
X22.07 Y25.216 Z-2.912 I-0.131 J0.839
X20.637 Y25.164 Z-2.974 I-0.7 J-0.478
X21.299 Y23.894 Z-3.035 I0.732 J-0.426
X22.16 Y25.036 Z-3.096 I0.07 J0.843
X20.761 Y25.322 Z-3.158 I-0.79 J-0.299
X21.104 Y23.937 Z-3.219 I0.609 J-0.584
X22.205 Y24.841 Z-3.281 I0.265 J0.8
X20.917 Y25.446 Z-3.342 I-0.835 J-0.104
X20.924 Y24.025 Z-3.404 I0.452 J-0.708
X22.203 Y24.642 Z-3.465 I0.445 J0.712
X21.098 Y25.53 Z-3.526 I-0.833 J0.095
X20.772 Y24.152 Z-3.588 I0.272 J-0.792
X22.154 Y24.45 Z-3.649 I0.597 J0.585
X21.292 Y25.568 Z-3.711 I-0.784 J0.287
X20.653 Y24.311 Z-3.772 I0.077 J-0.83
X22.061 Y24.275 Z-3.833 I0.716 J0.426
X21.49 Y25.56 Z-3.895 I-0.692 J0.462
X20.576 Y24.493 Z-3.956 I-0.12 J-0.822
X21.931 Y24.127 Z-4.018 I0.793 J0.245
X21.679 Y25.506 Z-4.079 I-0.561 J0.61
X20.544 Y24.687 Z-4.14 I-0.309 J-0.768
X21.77 Y24.015 Z-4.202 I0.825 J0.051
X21.849 Y25.409 Z-4.263 I-0.4 J0.722
X20.558 Y24.882 Z-4.325 I-0.479 J-0.671
X21.588 Y23.944 Z-4.386 I0.811 J-0.144
X21.991 Y25.275 Z-4.447 I-0.218 J0.793
X20.618 Y25.067 Z-4.509 I-0.621 J-0.537
X21.395 Y23.918 Z-4.57 I0.751 J-0.329
X22.097 Y25.112 Z-4.632 I-0.025 J0.819
X20.72 Y25.233 Z-4.693 I-0.727 J-0.374
X21.202 Y23.939 Z-4.754 I0.65 J-0.495
X22.162 Y24.929 Z-4.816 I0.167 J0.798
X20.857 Y25.37 Z-4.877 I-0.792 J-0.192
X21.02 Y24.004 Z-4.939 I0.513 J-0.632
X22.182 Y24.737 Z-5. I0.349 J0.734
X20.556 I-0.813 J0.
X22.182 I0.813 J0.
G1 X22.2 Y24.967 F400.
X22.182 Y25.188
X22.096 Y25.392
X21.951 Y25.559
X21.927 Y25.579
X21.894 Y25.604
X21.861 Y25.623
X21.796 Y25.65
X21.591 Y25.724
X21.55 Y25.734
X21.468 Y25.741
X21.304
X21.222 Y25.74
X21.181 Y25.734
X21.14 Y25.722
X20.976 Y25.662
X20.894 Y25.631
X20.853 Y25.609
X20.811 Y25.579
X20.648 Y25.442
X20.618 Y25.415
X20.583 Y25.374
X20.554 Y25.333
X20.448 Y25.149
X20.431 Y25.118
X20.418 Y25.087
X20.383 Y24.923
X20.357 Y24.759
X20.356 Y24.718
X20.361 Y24.677
X20.404 Y24.431
X20.416 Y24.39
X20.434 Y24.349
X20.484 Y24.263
X20.579 Y24.103
X20.61 Y24.068
X20.648 Y24.032
X20.812 Y23.895
X20.853 Y23.866
X20.894 Y23.844
X20.976 Y23.812
X21.14 Y23.753
X21.181 Y23.741
X21.222 Y23.735
X21.304 Y23.733
X21.468
X21.55 Y23.74
X21.591 Y23.75
X21.837 Y23.839
X21.878 Y23.86
X21.96 Y23.922
X22.123 Y24.061
X22.143 Y24.082
X22.159 Y24.103
X22.257 Y24.267
X22.287 Y24.32
X22.316 Y24.376
X22.334 Y24.431
X22.378 Y24.677
X22.382 Y24.718
Y24.759
X22.355 Y24.923
X22.32 Y25.087
X22.306 Y25.121
X22.185 Y25.332
X22.158 Y25.372
X22.142 Y25.393
X22.121 Y25.415
X21.951 Y25.559
G3 X21.521 Y25.495 I-0.184 J-0.237 F200.
G1 X21.503 Y25.446 Z-4.995
X21.485 Y25.398 Z-4.981
X21.468 Y25.353 Z-4.958
X21.466 Y25.323 Z-4.937
X21.476 Y25.275 Z-4.889
X21.483 Y25.239 Z-4.832
X21.487 Y25.217 Z-4.768
X21.488 Y25.21 Z-4.7
Z-2.5 F400.
X20.956 Y25.505
G3 X20.821 Y24.058 Z-2.56 I0.413 J-0.769 F333.
X22.206 Y24.495 Z-2.62 I0.547 J0.678
X21.267 Y25.6 Z-2.68 I-0.836 J0.241
X20.613 Y24.308 Z-2.74 I0.102 J-0.863
X22.056 Y24.207 Z-2.8 I0.755 J0.429
X21.59 Y25.574 Z-2.86 I-0.687 J0.529
X20.512 Y24.615 Z-2.92 I-0.22 J-0.838
X21.813 Y23.994 Z-2.98 I0.857 J0.122
X21.88 Y25.433 Z-3.04 I-0.444 J0.741
X20.53 Y24.937 Z-3.1 I-0.51 J-0.696
X21.51 Y23.886 Z-3.16 I0.839 J-0.2
X22.097 Y25.195 Z-3.22 I-0.141 J0.849
X20.664 Y25.228 Z-3.28 I-0.727 J-0.459
X21.189 Y23.897 Z-3.34 I0.704 J-0.491
X22.211 Y24.896 Z-3.4 I0.179 J0.839
X20.895 Y25.45 Z-3.46 I-0.842 J-0.16
X20.896 Y24.024 Z-3.52 I0.474 J-0.713
X22.208 Y24.577 Z-3.58 I0.472 J0.712
X21.19 Y25.57 Z-3.64 I-0.839 J0.159
X20.67 Y24.249 Z-3.7 I0.179 J-0.834
X22.089 Y24.282 Z-3.76 I0.698 J0.488
X21.508 Y25.575 Z-3.82 I-0.72 J0.453
X20.543 Y24.539 Z-3.88 I-0.138 J-0.838
X21.87 Y24.053 Z-3.94 I0.825 J0.197
X21.804 Y25.463 Z-4. I-0.501 J0.683
X20.531 Y24.855 Z-4.06 I-0.434 J-0.726
X21.584 Y23.919 Z-4.12 I0.837 J-0.118
X22.037 Y25.251 Z-4.18 I-0.216 J0.816
X20.636 Y25.152 Z-4.24 I-0.668 J-0.515
X21.27 Y23.901 Z-4.3 I0.733 J-0.415
X22.176 Y24.97 Z-4.36 I0.098 J0.835
X20.841 Y25.389 Z-4.42 I-0.807 J-0.233
X20.972 Y23.998 Z-4.48 I0.528 J-0.652
X22.203 Y24.658 Z-4.54 I0.396 J0.738
X21.118 Y25.534 Z-4.6 I-0.833 J0.078
X20.732 Y24.196 Z-4.66 I0.251 J-0.797
X22.113 Y24.359 Z-4.72 I0.637 J0.54
X21.428 Y25.567 Z-4.78 I-0.744 J0.377
X20.581 Y24.468 Z-4.84 I-0.058 J-0.831
X21.921 Y24.115 Z-4.9 I0.787 J0.268
X21.727 Y25.485 Z-4.96 I-0.552 J0.621
X20.541 Y24.775 Z-5.02 I-0.357 J-0.749
X21.654 Y23.959 Z-5.08 I0.828 J-0.039
X21.974 Y25.3 Z-5.14 I-0.285 J0.777
X20.616 Y25.075 Z-5.2 I-0.604 J-0.563
X21.349 Y23.912 Z-5.26 I0.753 J-0.338
X22.135 Y25.038 Z-5.32 I0.019 J0.824
X20.794 Y25.325 Z-5.38 I-0.766 J-0.302
X21.05 Y23.979 Z-5.44 I0.575 J-0.588
X22.19 Y24.736 Z-5.5 I0.319 J0.757
X20.547 I-0.821 J0.
X22.19 I0.821 J0.
G1 X22.207 Y24.959 F400.
X22.19 Y25.179
X22.106 Y25.383
X21.962 Y25.55
X21.927 Y25.579
X21.894 Y25.604
X21.861 Y25.623
X21.796 Y25.65
X21.591 Y25.724
X21.55 Y25.734
X21.468 Y25.741
X21.304
X21.222 Y25.74
X21.181 Y25.734
X21.14 Y25.722
X20.976 Y25.662
X20.894 Y25.631
X20.853 Y25.609
X20.811 Y25.579
X20.648 Y25.442
X20.618 Y25.415
X20.583 Y25.374
X20.554 Y25.333
X20.448 Y25.149
X20.431 Y25.118
X20.418 Y25.087
X20.383 Y24.923
X20.357 Y24.759
X20.356 Y24.718
X20.361 Y24.677
X20.404 Y24.431
X20.416 Y24.39
X20.434 Y24.349
X20.484 Y24.263
X20.579 Y24.103
X20.61 Y24.068
X20.648 Y24.032
X20.812 Y23.895
X20.853 Y23.866
X20.894 Y23.844
X20.976 Y23.812
X21.14 Y23.753
X21.181 Y23.741
X21.222 Y23.735
X21.304 Y23.733
X21.468
X21.55 Y23.74
X21.591 Y23.75
X21.837 Y23.839
X21.878 Y23.86
X21.96 Y23.922
X22.123 Y24.061
X22.143 Y24.082
X22.159 Y24.103
X22.257 Y24.267
X22.287 Y24.32
X22.316 Y24.376
X22.334 Y24.431
X22.378 Y24.677
X22.382 Y24.718
Y24.759
X22.355 Y24.923
X22.32 Y25.087
X22.306 Y25.121
X22.185 Y25.332
X22.158 Y25.372
X22.142 Y25.393
X22.121 Y25.415
X21.962 Y25.55
X21.905 Y25.585 F200.
X21.842 Y25.607
X21.776 Y25.614
G3 X21.498 Y25.203 I0. J-0.3
G1 X21.522 Y25.141 Z-5.492
X21.546 Y25.082 Z-5.47
X21.567 Y25.029 Z-5.435
X21.585 Y24.985 Z-5.387
X21.598 Y24.952 Z-5.33
X21.606 Y24.931 Z-5.267
X21.609 Y24.924 Z-5.2
Z15. F400.

G28 G91 Z0.
G90
G28 G91 X0. Y0.
G90
M30
