(2001-FIRSTHOLEROUGHING)
(MACHINE)
(  VENDOR HOMEMADE)
(  DESCRIPTION GENERIC 3-AXIS)
(T10  D=3. CR=0. - ZMIN=-5.5 - FLAT END MILL)
G90 G94 G91.1 G40 G49 G17
G21
(WHEN USING FUSION 360 FOR PERSONAL USE, THE FEEDRATE OF)
(RAPID MOVES IS REDUCED TO MATCH THE FEEDRATE OF CUTTING)
(MOVES, WHICH CAN INCREASE MACHINING TIME. UNRESTRICTED RAPID)
(MOVES ARE AVAILABLE WITH A FUSION 360 SUBSCRIPTION.)
G28 G91 Z0.
G90

(MAKE FIRST HOLE)
M5
T10 M6
S9000 M3
G54
G0 X99.798 Y9.152
G43 Z15. H10
G1 Z5. F400.
Z2.5
G3 X100.854 Y10.182 Z2.439 I0.203 J0.848 F333.
X99.471 Y10.691 Z2.377 I-0.852 J-0.182
X99.607 Y9.226 Z2.316 I0.53 J-0.69
X100.869 Y9.978 Z2.254 I0.394 J0.775
X99.648 Y10.793 Z2.193 I-0.868 J0.022
X99.439 Y9.342 Z2.132 I0.353 J-0.792
X100.837 Y9.777 Z2.07 I0.562 J0.659
X99.843 Y10.85 Z2.009 I-0.835 J0.223
X99.303 Y9.493 Z1.947 I0.158 J-0.849
X100.759 Y9.59 Z1.886 I0.698 J0.508
X100.046 Y10.861 Z1.825 I-0.757 J0.411
X99.207 Y9.671 Z1.763 I-0.044 J-0.859
X100.64 Y9.426 Z1.702 I0.794 J0.329
X100.245 Y10.823 Z1.64 I-0.638 J0.574
X99.155 Y9.867 Z1.579 I-0.243 J-0.822
X100.486 Y9.296 Z1.518 I0.846 J0.134
X100.428 Y10.741 Z1.456 I-0.485 J0.704
X99.15 Y10.068 Z1.395 I-0.427 J-0.74
X100.307 Y9.205 Z1.333 I0.85 J-0.066
X100.587 Y10.618 Z1.272 I-0.306 J0.795
X99.192 Y10.263 Z1.211 I-0.585 J-0.618
X100.112 Y9.159 Z1.149 I0.808 J-0.262
X100.712 Y10.463 Z1.088 I-0.111 J0.841
X99.279 Y10.443 Z1.026 I-0.711 J-0.462
X99.913 Y9.159 Z0.965 I0.722 J-0.442
X100.798 Y10.283 Z0.904 I0.088 J0.841
X99.404 Y10.597 Z0.842 I-0.796 J-0.282
X99.72 Y9.206 Z0.781 I0.597 J-0.596
X100.838 Y10.089 Z0.719 I0.281 J0.794
X99.562 Y10.718 Z0.658 I-0.837 J-0.088
X99.544 Y9.297 Z0.596 I0.439 J-0.716
X100.832 Y9.891 Z0.535 I0.457 J0.704
X99.742 Y10.797 Z0.474 I-0.831 J0.109
X99.394 Y9.425 Z0.412 I0.259 J-0.796
X100.781 Y9.701 Z0.351 I0.606 J0.576
X99.936 Y10.832 Z0.289 I-0.779 J0.299
X99.28 Y9.584 Z0.228 I0.066 J-0.831
X100.687 Y9.529 Z0.167 I0.721 J0.417
X100.131 Y10.822 Z0.105 I-0.685 J0.471
X99.205 Y9.765 Z0.044 I-0.13 J-0.82
X100.556 Y9.385 Z-0.018 I0.795 J0.236
X100.318 Y10.765 Z-0.079 I-0.554 J0.615
X99.175 Y9.958 Z-0.14 I-0.316 J-0.764
X100.395 Y9.275 Z-0.202 I0.825 J0.043
X100.486 Y10.668 Z-0.263 I-0.394 J0.725
X99.191 Y10.151 Z-0.325 I-0.484 J-0.667
X100.214 Y9.206 Z-0.386 I0.809 J-0.15
X100.626 Y10.534 Z-0.447 I-0.213 J0.794
X99.252 Y10.335 Z-0.509 I-0.624 J-0.533
X100.022 Y9.182 Z-0.57 I0.749 J-0.333
X100.73 Y10.372 Z-0.632 I-0.022 J0.818
X99.353 Y10.498 Z-0.693 I-0.728 J-0.371
X99.831 Y9.203 Z-0.754 I0.648 J-0.497
X100.794 Y10.191 Z-0.816 I0.17 J0.798
X99.489 Y10.633 Z-0.877 I-0.792 J-0.19
X99.651 Y9.267 Z-0.939 I0.512 J-0.632
X100.813 Y10. Z-1. I0.35 J0.733
X99.188 I-0.812 J0.
X100.813 I0.812 J0.
G1 X100.831 Y10.23 F400.
X100.812 Y10.453
X100.724 Y10.659
X100.575 Y10.827
X100.545 Y10.852
X100.502 Y10.881
X100.338 Y10.945
X100.238 Y10.982
X100.206 Y10.992
X100.174 Y10.999
X100.01 Y11.004
X99.847 Y11.001
X99.804 Y10.994
X99.762 Y10.982
X99.519 Y10.891
X99.466 Y10.859
X99.413 Y10.817
X99.355 Y10.769
X99.224 Y10.653
X99.191 Y10.605
X99.076 Y10.407
X99.056 Y10.366
X99.041 Y10.325
X99.027 Y10.26
X98.995 Y10.079
X98.989 Y10.038
X98.986 Y9.997
X99.01 Y9.833
X99.027 Y9.74
X99.042 Y9.669
X99.057 Y9.628
X99.079 Y9.587
X99.191 Y9.395
X99.229 Y9.341
X99.355 Y9.231
X99.419 Y9.177
X99.469 Y9.139
X99.519 Y9.109
X99.683 Y9.047
X99.777 Y9.013
X99.812 Y9.004
X99.847 Y8.999
X100.01 Y8.996
X100.174 Y9.001
X100.224 Y9.013
X100.338 Y9.055
X100.502 Y9.12
X100.542 Y9.145
X100.666 Y9.249
X100.771 Y9.341
X100.789 Y9.364
X100.804 Y9.386
X100.92 Y9.587
X100.942 Y9.628
X100.957 Y9.669
X100.99 Y9.833
X100.994 Y9.859
X101.014 Y9.997
X101.013 Y10.033
X100.991 Y10.161
X100.959 Y10.325
X100.944 Y10.366
X100.923 Y10.407
X100.83 Y10.569
X100.775 Y10.653
X100.748 Y10.682
X100.575 Y10.827
G3 X100.147 Y10.758 I-0.181 J-0.239 F200.
G1 X100.129 Y10.708 Z-0.995
X100.111 Y10.66 Z-0.981
X100.095 Y10.615 Z-0.958
X100.094 Y10.588 Z-0.94
X100.104 Y10.539 Z-0.892
X100.111 Y10.502 Z-0.834
X100.116 Y10.479 Z-0.769
X100.117 Y10.472 Z-0.7
Z5. F400.
X99.821 Y9.146
Z1.5
G3 X100.848 Y10.205 Z1.439 I0.179 J0.854 F333.
X99.452 Y10.677 Z1.377 I-0.847 J-0.205
X99.627 Y9.215 Z1.316 I0.549 J-0.676
X100.869 Y10. Z1.254 I0.374 J0.785
X99.628 Y10.784 Z1.193 I-0.868 J0.
X99.455 Y9.327 Z1.132 I0.373 J-0.783
X100.842 Y9.797 Z1.07 I0.545 J0.673
X99.823 Y10.846 Z1.009 I-0.841 J0.203
X99.314 Y9.476 Z0.947 I0.178 J-0.845
X100.768 Y9.606 Z0.886 I0.686 J0.524
X100.026 Y10.861 Z0.825 I-0.767 J0.393
X99.214 Y9.654 Z0.763 I-0.025 J-0.86
X100.651 Y9.439 Z0.702 I0.787 J0.347
X100.227 Y10.828 Z0.64 I-0.651 J0.56
X99.157 Y9.849 Z0.579 I-0.226 J-0.827
X100.5 Y9.305 Z0.518 I0.843 J0.152
X100.414 Y10.749 Z0.456 I-0.499 J0.695
X99.149 Y10.051 Z0.395 I-0.412 J-0.748
X100.321 Y9.21 Z0.333 I0.852 J-0.05
X100.576 Y10.628 Z0.272 I-0.32 J0.79
X99.187 Y10.249 Z0.211 I-0.574 J-0.628
X100.126 Y9.16 Z0.149 I0.813 J-0.248
X100.704 Y10.474 Z0.088 I-0.126 J0.84
X99.271 Y10.431 Z0.026 I-0.703 J-0.474
X99.925 Y9.157 Z-0.035 I0.729 J-0.43
X100.793 Y10.294 Z-0.096 I0.075 J0.842
X99.395 Y10.588 Z-0.158 I-0.792 J-0.294
X99.731 Y9.202 Z-0.219 I0.605 J-0.587
X100.837 Y10.1 Z-0.281 I0.27 J0.798
X99.552 Y10.711 Z-0.342 I-0.835 J-0.1
Y9.29 Z-0.404 I0.449 J-0.711
X100.834 Y9.901 Z-0.465 I0.448 J0.71
X99.733 Y10.794 Z-0.526 I-0.832 J0.099
X99.4 Y9.418 Z-0.588 I0.268 J-0.793
X100.784 Y9.709 Z-0.649 I0.6 J0.582
X99.927 Y10.831 Z-0.711 I-0.783 J0.291
X99.283 Y9.577 Z-0.772 I0.074 J-0.831
X100.691 Y9.535 Z-0.833 I0.717 J0.424
X100.124 Y10.822 Z-0.895 I-0.69 J0.465
X99.207 Y9.758 Z-0.956 I-0.123 J-0.822
X100.56 Y9.388 Z-1.018 I0.793 J0.242
X100.312 Y10.767 Z-1.079 I-0.559 J0.611
X99.175 Y9.952 Z-1.14 I-0.311 J-0.767
X100.399 Y9.277 Z-1.202 I0.825 J0.049
X100.482 Y10.67 Z-1.263 I-0.399 J0.723
X99.19 Y10.146 Z-1.325 I-0.48 J-0.67
X100.217 Y9.207 Z-1.386 I0.81 J-0.146
X100.623 Y10.536 Z-1.447 I-0.217 J0.793
X99.25 Y10.331 Z-1.509 I-0.622 J-0.536
X100.025 Y9.181 Z-1.57 I0.75 J-0.331
X100.729 Y10.374 Z-1.632 I-0.024 J0.819
X99.351 Y10.496 Z-1.693 I-0.728 J-0.373
X99.832 Y9.202 Z-1.754 I0.649 J-0.496
X100.793 Y10.191 Z-1.816 I0.168 J0.798
X99.488 Y10.633 Z-1.877 I-0.792 J-0.191
X99.651 Y9.266 Z-1.939 I0.513 J-0.632
X100.813 Y10. Z-2. I0.349 J0.734
X99.188 I-0.812 J0.
X100.813 I0.812 J0.
G1 X100.831 Y10.23 F400.
X100.812 Y10.453
X100.724 Y10.659
X100.575 Y10.827
X100.545 Y10.852
X100.502 Y10.881
X100.338 Y10.945
X100.238 Y10.982
X100.206 Y10.992
X100.174 Y10.999
X100.01 Y11.004
X99.847 Y11.001
X99.804 Y10.994
X99.762 Y10.982
X99.519 Y10.891
X99.466 Y10.859
X99.413 Y10.817
X99.355 Y10.769
X99.224 Y10.653
X99.191 Y10.605
X99.076 Y10.407
X99.056 Y10.366
X99.041 Y10.325
X99.027 Y10.26
X98.995 Y10.079
X98.989 Y10.038
X98.986 Y9.997
X99.01 Y9.833
X99.027 Y9.74
X99.042 Y9.669
X99.057 Y9.628
X99.079 Y9.587
X99.191 Y9.395
X99.229 Y9.341
X99.355 Y9.231
X99.419 Y9.177
X99.469 Y9.139
X99.519 Y9.109
X99.683 Y9.047
X99.777 Y9.013
X99.812 Y9.004
X99.847 Y8.999
X100.01 Y8.996
X100.174 Y9.001
X100.224 Y9.013
X100.338 Y9.055
X100.502 Y9.12
X100.542 Y9.145
X100.666 Y9.249
X100.771 Y9.341
X100.789 Y9.364
X100.804 Y9.386
X100.92 Y9.587
X100.942 Y9.628
X100.957 Y9.669
X100.99 Y9.833
X100.994 Y9.859
X101.014 Y9.997
X101.013 Y10.033
X100.991 Y10.161
X100.959 Y10.325
X100.944 Y10.366
X100.923 Y10.407
X100.83 Y10.569
X100.775 Y10.653
X100.748 Y10.682
X100.575 Y10.827
G3 X100.147 Y10.758 I-0.181 J-0.239 F200.
G1 X100.129 Y10.708 Z-1.995
X100.111 Y10.66 Z-1.981
X100.095 Y10.615 Z-1.958
X100.094 Y10.588 Z-1.94
X100.104 Y10.539 Z-1.892
X100.111 Y10.502 Z-1.834
X100.116 Y10.48 Z-1.769
X100.117 Y10.472 Z-1.7
Z5. F400.
X99.786 Y9.155
Z0.5
G3 X100.856 Y10.17 Z0.439 I0.215 J0.845 F333.
X99.48 Y10.698 Z0.377 I-0.854 J-0.17
X99.596 Y9.231 Z0.316 I0.521 J-0.697
X100.869 Y9.966 Z0.254 I0.404 J0.769
X99.658 Y10.797 Z0.193 I-0.867 J0.034
X99.43 Y9.349 Z0.132 I0.343 J-0.796
X100.834 Y9.766 Z0.07 I0.57 J0.651
X99.854 Y10.852 Z0.009 I-0.832 J0.234
X99.297 Y9.501 Z-0.053 I0.147 J-0.851
X100.754 Y9.58 Z-0.114 I0.704 J0.499
X100.056 Y10.859 Z-0.175 I-0.752 J0.419
X99.203 Y9.68 Z-0.237 I-0.054 J-0.859
X100.633 Y9.419 Z-0.298 I0.797 J0.32
X100.253 Y10.82 Z-0.36 I-0.632 J0.581
X99.154 Y9.875 Z-0.421 I-0.252 J-0.819
X100.479 Y9.29 Z-0.482 I0.847 J0.125
X100.436 Y10.736 Z-0.544 I-0.477 J0.709
X99.151 Y10.075 Z-0.605 I-0.434 J-0.735
X100.299 Y9.202 Z-0.667 I0.85 J-0.075
X100.593 Y10.612 Z-0.728 I-0.298 J0.798
X99.195 Y10.27 Z-0.789 I-0.591 J-0.612
X100.105 Y9.157 Z-0.851 I0.806 J-0.269
X100.716 Y10.456 Z-0.912 I-0.104 J0.842
X99.283 Y10.449 Z-0.974 I-0.714 J-0.456
X99.906 Y9.16 Z-1.035 I0.718 J-0.448
X100.8 Y10.276 Z-1.096 I0.095 J0.84
X99.409 Y10.601 Z-1.158 I-0.798 J-0.276
X99.714 Y9.208 Z-1.219 I0.592 J-0.6
X100.839 Y10.082 Z-1.281 I0.287 J0.792
X99.567 Y10.72 Z-1.342 I-0.837 J-0.082
X99.539 Y9.299 Z-1.404 I0.434 J-0.719
X100.832 Y9.885 Z-1.465 I0.461 J0.701
X99.747 Y10.798 Z-1.526 I-0.83 J0.114
X99.391 Y9.428 Z-1.588 I0.254 J-0.797
X100.779 Y9.697 Z-1.649 I0.609 J0.572
X99.94 Y10.832 Z-1.711 I-0.778 J0.303
X99.278 Y9.587 Z-1.772 I0.061 J-0.831
X100.684 Y9.526 Z-1.833 I0.723 J0.413
X100.135 Y10.82 Z-1.895 I-0.683 J0.474
X99.204 Y9.768 Z-1.956 I-0.133 J-0.82
X100.553 Y9.382 Z-2.018 I0.796 J0.232
X100.321 Y10.764 Z-2.079 I-0.552 J0.618
X99.175 Y9.96 Z-2.14 I-0.319 J-0.763
X100.393 Y9.273 Z-2.202 I0.825 J0.04
X100.488 Y10.666 Z-2.263 I-0.391 J0.726
X99.192 Y10.153 Z-2.325 I-0.486 J-0.665
X100.212 Y9.205 Z-2.386 I0.809 J-0.152
X100.627 Y10.532 Z-2.447 I-0.211 J0.794
X99.253 Y10.336 Z-2.509 I-0.625 J-0.532
X100.021 Y9.181 Z-2.57 I0.748 J-0.335
X100.731 Y10.37 Z-2.632 I-0.02 J0.818
X99.354 Y10.499 Z-2.693 I-0.729 J-0.37
X99.83 Y9.202 Z-2.754 I0.647 J-0.498
X100.794 Y10.19 Z-2.816 I0.17 J0.797
X99.49 Y10.633 Z-2.877 I-0.792 J-0.19
X99.651 Y9.267 Z-2.939 I0.511 J-0.632
X100.813 Y10. Z-3. I0.35 J0.733
X99.188 I-0.812 J0.
X100.813 I0.812 J0.
G1 X100.831 Y10.23 F400.
X100.812 Y10.453
X100.724 Y10.659
X100.575 Y10.827
X100.545 Y10.852
X100.502 Y10.881
X100.338 Y10.945
X100.238 Y10.982
X100.206 Y10.992
X100.174 Y10.999
X100.01 Y11.004
X99.847 Y11.001
X99.804 Y10.994
X99.762 Y10.982
X99.519 Y10.891
X99.466 Y10.859
X99.413 Y10.817
X99.355 Y10.769
X99.224 Y10.653
X99.191 Y10.605
X99.076 Y10.407
X99.056 Y10.366
X99.041 Y10.325
X99.027 Y10.26
X98.995 Y10.079
X98.989 Y10.038
X98.986 Y9.997
X99.01 Y9.833
X99.027 Y9.74
X99.042 Y9.669
X99.057 Y9.628
X99.079 Y9.587
X99.191 Y9.395
X99.229 Y9.341
X99.355 Y9.231
X99.419 Y9.177
X99.469 Y9.139
X99.519 Y9.109
X99.683 Y9.047
X99.777 Y9.013
X99.812 Y9.004
X99.847 Y8.999
X100.01 Y8.996
X100.174 Y9.001
X100.224 Y9.013
X100.338 Y9.055
X100.502 Y9.12
X100.542 Y9.145
X100.666 Y9.249
X100.771 Y9.341
X100.789 Y9.364
X100.804 Y9.386
X100.92 Y9.587
X100.942 Y9.628
X100.957 Y9.669
X100.99 Y9.833
X100.994 Y9.859
X101.014 Y9.997
X101.013 Y10.033
X100.991 Y10.161
X100.959 Y10.325
X100.944 Y10.366
X100.923 Y10.407
X100.83 Y10.569
X100.775 Y10.653
X100.748 Y10.682
X100.575 Y10.827
G3 X100.147 Y10.758 I-0.181 J-0.239 F200.
G1 X100.129 Y10.708 Z-2.995
X100.111 Y10.66 Z-2.981
X100.095 Y10.615 Z-2.958
X100.094 Y10.588 Z-2.94
X100.104 Y10.539 Z-2.892
X100.111 Y10.502 Z-2.834
X100.116 Y10.48 Z-2.769
X100.117 Y10.472 Z-2.7
Z-0.5 F400.
X99.821 Y9.146
G3 X100.847 Y10.207 Z-0.561 I0.178 J0.854 F333.
X99.451 Y10.676 Z-0.623 I-0.847 J-0.206
X99.627 Y9.215 Z-0.684 I0.549 J-0.675
X100.869 Y10.002 Z-0.746 I0.373 J0.785
X99.626 Y10.784 Z-0.807 I-0.868 J-0.001
X99.455 Y9.327 Z-0.868 I0.374 J-0.782
X100.842 Y9.798 Z-0.93 I0.545 J0.673
X99.821 Y10.846 Z-0.991 I-0.841 J0.202
X99.314 Y9.476 Z-1.053 I0.179 J-0.845
X100.768 Y9.608 Z-1.114 I0.685 J0.524
X100.025 Y10.862 Z-1.175 I-0.767 J0.393
X99.213 Y9.653 Z-1.237 I-0.024 J-0.86
X100.651 Y9.44 Z-1.298 I0.786 J0.348
X100.226 Y10.829 Z-1.36 I-0.651 J0.56
X99.157 Y9.849 Z-1.421 I-0.225 J-0.827
X100.5 Y9.306 Z-1.482 I0.843 J0.152
X100.412 Y10.75 Z-1.544 I-0.499 J0.694
X99.148 Y10.051 Z-1.605 I-0.412 J-0.749
X100.321 Y9.211 Z-1.667 I0.852 J-0.05
X100.574 Y10.629 Z-1.728 I-0.321 J0.789
X99.186 Y10.249 Z-1.789 I-0.574 J-0.629
X100.126 Y9.161 Z-1.851 I0.813 J-0.247
X100.703 Y10.475 Z-1.912 I-0.126 J0.839
X99.27 Y10.431 Z-1.974 I-0.703 J-0.474
X99.925 Y9.158 Z-2.035 I0.73 J-0.43
X100.792 Y10.295 Z-2.096 I0.074 J0.842
X99.394 Y10.588 Z-2.158 I-0.792 J-0.295
X99.73 Y9.202 Z-2.219 I0.606 J-0.587
X100.836 Y10.101 Z-2.281 I0.269 J0.798
X99.551 Y10.712 Z-2.342 I-0.835 J-0.1
X99.552 Y9.29 Z-2.404 I0.449 J-0.71
X100.833 Y9.902 Z-2.465 I0.448 J0.71
X99.732 Y10.794 Z-2.526 I-0.832 J0.099
X99.4 Y9.418 Z-2.588 I0.269 J-0.793
X100.783 Y9.71 Z-2.649 I0.6 J0.583
X99.926 Y10.832 Z-2.711 I-0.783 J0.29
X99.283 Y9.577 Z-2.772 I0.075 J-0.831
X100.69 Y9.536 Z-2.833 I0.717 J0.424
X100.123 Y10.823 Z-2.895 I-0.69 J0.464
X99.206 Y9.758 Z-2.956 I-0.122 J-0.822
X100.56 Y9.389 Z-3.018 I0.793 J0.243
X100.311 Y10.768 Z-3.079 I-0.56 J0.611
X99.175 Y9.952 Z-3.14 I-0.311 J-0.767
X100.399 Y9.277 Z-3.202 I0.825 J0.049
X100.481 Y10.671 Z-3.263 I-0.399 J0.723
X99.189 Y10.147 Z-3.325 I-0.48 J-0.67
X100.217 Y9.207 Z-3.386 I0.81 J-0.145
X100.622 Y10.537 Z-3.447 I-0.217 J0.793
X99.249 Y10.332 Z-3.509 I-0.622 J-0.536
X100.024 Y9.182 Z-3.57 I0.75 J-0.33
X100.728 Y10.374 Z-3.632 I-0.024 J0.819
X99.351 Y10.497 Z-3.693 I-0.728 J-0.374
X99.832 Y9.202 Z-3.754 I0.649 J-0.496
X100.792 Y10.192 Z-3.816 I0.168 J0.798
X99.487 Y10.633 Z-3.877 I-0.792 J-0.191
X99.65 Y9.267 Z-3.939 I0.513 J-0.632
X100.812 Y10. Z-4. I0.349 J0.734
X99.187 I-0.812 J0.
X100.812 I0.812 J0.
G1 X100.83 Y10.23 F400.
X100.812 Y10.454
X100.723 Y10.66
X100.574 Y10.828
X100.545 Y10.852
X100.502 Y10.881
X100.338 Y10.945
X100.238 Y10.982
X100.206 Y10.992
X100.174 Y10.999
X100.01 Y11.004
X99.847 Y11.001
X99.804 Y10.994
X99.762 Y10.982
X99.519 Y10.891
X99.466 Y10.859
X99.413 Y10.817
X99.355 Y10.769
X99.224 Y10.653
X99.191 Y10.605
X99.076 Y10.407
X99.056 Y10.366
X99.041 Y10.325
X99.027 Y10.26
X98.995 Y10.079
X98.989 Y10.038
X98.986 Y9.997
X99.01 Y9.833
X99.027 Y9.74
X99.042 Y9.669
X99.057 Y9.628
X99.079 Y9.587
X99.191 Y9.395
X99.229 Y9.341
X99.355 Y9.231
X99.419 Y9.177
X99.469 Y9.139
X99.519 Y9.109
X99.683 Y9.047
X99.777 Y9.013
X99.812 Y9.004
X99.847 Y8.999
X100.01 Y8.996
X100.174 Y9.001
X100.224 Y9.013
X100.338 Y9.055
X100.502 Y9.12
X100.542 Y9.145
X100.666 Y9.249
X100.771 Y9.341
X100.789 Y9.364
X100.804 Y9.386
X100.92 Y9.587
X100.942 Y9.628
X100.957 Y9.669
X100.99 Y9.833
X100.994 Y9.859
X101.014 Y9.997
X101.013 Y10.033
X100.991 Y10.161
X100.959 Y10.325
X100.944 Y10.366
X100.923 Y10.407
X100.83 Y10.569
X100.775 Y10.653
X100.748 Y10.682
X100.574 Y10.828
G3 X100.146 Y10.759 I-0.181 J-0.239 F200.
G1 X100.128 Y10.709 Z-3.995
X100.111 Y10.661 Z-3.981
X100.094 Y10.616 Z-3.958
X100.093 Y10.589 Z-3.94
X100.103 Y10.54 Z-3.892
X100.11 Y10.503 Z-3.834
X100.115 Y10.48 Z-3.769
X100.117 Y10.472 Z-3.7
Z-1.5 F400.
X99.824 Y9.146
G3 X100.847 Y10.209 Z-1.561 I0.176 J0.855 F333.
X99.449 Y10.675 Z-1.623 I-0.846 J-0.208
X99.629 Y9.214 Z-1.684 I0.551 J-0.674
X100.869 Y10.004 Z-1.746 I0.371 J0.786
X99.624 Y10.783 Z-1.807 I-0.868 J-0.003
X99.457 Y9.326 Z-1.868 I0.376 J-0.781
X100.842 Y9.8 Z-1.93 I0.543 J0.675
X99.82 Y10.846 Z-1.991 I-0.842 J0.2
X99.316 Y9.475 Z-2.053 I0.181 J-0.845
X100.769 Y9.61 Z-2.114 I0.684 J0.526
X100.023 Y10.862 Z-2.175 I-0.768 J0.391
X99.214 Y9.652 Z-2.237 I-0.023 J-0.86
X100.653 Y9.442 Z-2.298 I0.786 J0.349
X100.224 Y10.829 Z-2.36 I-0.652 J0.558
X99.157 Y9.847 Z-2.421 I-0.223 J-0.828
X100.501 Y9.307 Z-2.482 I0.842 J0.154
X100.411 Y10.751 Z-2.544 I-0.501 J0.693
X99.148 Y10.049 Z-2.605 I-0.41 J-0.749
X100.323 Y9.212 Z-2.667 I0.852 J-0.048
X100.574 Y10.631 Z-2.728 I-0.322 J0.789
X99.186 Y10.248 Z-2.789 I-0.573 J-0.63
X100.128 Y9.161 Z-2.851 I0.814 J-0.246
X100.703 Y10.476 Z-2.912 I-0.128 J0.839
X99.27 Y10.43 Z-2.974 I-0.702 J-0.475
X99.927 Y9.158 Z-3.035 I0.73 J-0.429
X100.792 Y10.297 Z-3.096 I0.073 J0.843
X99.394 Y10.588 Z-3.158 I-0.791 J-0.296
X99.732 Y9.202 Z-3.219 I0.607 J-0.586
X100.836 Y10.102 Z-3.281 I0.268 J0.799
X99.55 Y10.711 Z-3.342 I-0.835 J-0.101
X99.553 Y9.29 Z-3.404 I0.45 J-0.71
X100.833 Y9.903 Z-3.465 I0.447 J0.711
X99.731 Y10.794 Z-3.526 I-0.833 J0.098
X99.401 Y9.417 Z-3.588 I0.27 J-0.793
X100.784 Y9.711 Z-3.649 I0.599 J0.583
X99.925 Y10.832 Z-3.711 I-0.783 J0.289
X99.283 Y9.576 Z-3.772 I0.075 J-0.831
X100.691 Y9.537 Z-3.833 I0.717 J0.425
X100.122 Y10.823 Z-3.895 I-0.691 J0.464
X99.207 Y9.758 Z-3.956 I-0.122 J-0.822
X100.56 Y9.39 Z-4.018 I0.793 J0.243
X100.311 Y10.769 Z-4.079 I-0.56 J0.611
X99.175 Y9.951 Z-4.14 I-0.31 J-0.767
X100.399 Y9.278 Z-4.202 I0.825 J0.05
X100.481 Y10.671 Z-4.263 I-0.399 J0.722
X99.189 Y10.146 Z-4.325 I-0.48 J-0.67
X100.217 Y9.207 Z-4.386 I0.81 J-0.145
X100.623 Y10.537 Z-4.447 I-0.217 J0.793
X99.249 Y10.332 Z-4.509 I-0.622 J-0.536
X100.025 Y9.182 Z-4.57 I0.751 J-0.33
X100.728 Y10.375 Z-4.632 I-0.025 J0.819
X99.351 Y10.497 Z-4.693 I-0.727 J-0.374
X99.832 Y9.202 Z-4.754 I0.649 J-0.495
X100.793 Y10.192 Z-4.816 I0.168 J0.798
X99.488 Y10.633 Z-4.877 I-0.792 J-0.192
X99.65 Y9.267 Z-4.939 I0.513 J-0.632
X100.812 Y10.001 Z-5. I0.349 J0.734
X99.187 I-0.813 J0.
X100.812 I0.813 J0.
G1 X100.83 Y10.23 F400.
X100.812 Y10.454
X100.724 Y10.66
X100.575 Y10.827
X100.545 Y10.852
X100.502 Y10.881
X100.338 Y10.945
X100.238 Y10.982
X100.206 Y10.992
X100.174 Y10.999
X100.01 Y11.004
X99.847 Y11.001
X99.804 Y10.994
X99.762 Y10.982
X99.519 Y10.891
X99.466 Y10.859
X99.413 Y10.817
X99.355 Y10.769
X99.224 Y10.653
X99.191 Y10.605
X99.076 Y10.407
X99.056 Y10.366
X99.041 Y10.325
X99.027 Y10.26
X98.995 Y10.079
X98.989 Y10.038
X98.986 Y9.997
X99.01 Y9.833
X99.027 Y9.74
X99.042 Y9.669
X99.057 Y9.628
X99.079 Y9.587
X99.191 Y9.395
X99.229 Y9.341
X99.355 Y9.231
X99.419 Y9.177
X99.469 Y9.139
X99.519 Y9.109
X99.683 Y9.047
X99.777 Y9.013
X99.812 Y9.004
X99.847 Y8.999
X100.01 Y8.996
X100.174 Y9.001
X100.224 Y9.013
X100.338 Y9.055
X100.502 Y9.12
X100.542 Y9.145
X100.666 Y9.249
X100.771 Y9.341
X100.789 Y9.364
X100.804 Y9.386
X100.92 Y9.587
X100.942 Y9.628
X100.957 Y9.669
X100.99 Y9.833
X100.994 Y9.859
X101.014 Y9.997
X101.013 Y10.033
X100.991 Y10.161
X100.959 Y10.325
X100.944 Y10.366
X100.923 Y10.407
X100.83 Y10.569
X100.775 Y10.653
X100.748 Y10.682
X100.575 Y10.827
G3 X100.146 Y10.758 I-0.181 J-0.239 F200.
G1 X100.128 Y10.709 Z-4.995
X100.111 Y10.66 Z-4.981
X100.095 Y10.615 Z-4.958
X100.093 Y10.588 Z-4.94
X100.103 Y10.54 Z-4.892
X100.111 Y10.503 Z-4.834
X100.115 Y10.48 Z-4.769
X100.117 Y10.472 Z-4.7
Z-2.5 F400.
X99.559 Y10.753
G3 X99.505 Y9.281 Z-2.561 I0.441 J-0.753 F333.
X100.859 Y9.856 Z-2.622 I0.495 J0.718
X99.766 Y10.837 Z-2.684 I-0.859 J0.143
X99.341 Y9.433 Z-2.745 I0.234 J-0.837
X100.791 Y9.643 Z-2.806 I0.658 J0.567
X99.986 Y10.866 Z-2.867 I-0.791 J0.355
X99.221 Y9.62 Z-2.929 I0.014 J-0.866
X100.673 Y9.456 Z-2.99 I0.778 J0.379
X100.206 Y10.838 Z-3.051 I-0.673 J0.543
X99.154 Y9.831 Z-3.112 I-0.206 J-0.838
X100.511 Y9.305 Z-3.173 I0.845 J0.169
X100.411 Y10.755 Z-3.235 I-0.511 J0.693
X99.142 Y10.051 Z-3.296 I-0.411 J-0.756
X100.316 Y9.201 Z-3.357 I0.857 J-0.051
X100.587 Y10.624 Z-3.418 I-0.317 J0.797
X99.186 Y10.266 Z-3.48 I-0.587 J-0.624
X100.103 Y9.15 Z-3.541 I0.813 J-0.266
X100.724 Y10.452 Z-3.602 I-0.104 J0.848
X99.283 Y10.462 Z-3.663 I-0.723 J-0.453
X99.884 Y9.155 Z-3.724 I0.716 J-0.462
X100.812 Y10.253 Z-3.786 I0.115 J0.844
X99.427 Y10.627 Z-3.847 I-0.812 J-0.253
X99.675 Y9.215 Z-3.908 I0.573 J-0.627
X100.847 Y10.038 Z-3.969 I0.324 J0.784
X99.606 Y10.749 Z-4.031 I-0.846 J-0.039
X99.488 Y9.326 Z-4.092 I0.394 J-0.749
X100.825 Y9.822 Z-4.153 I0.511 J0.673
X99.81 Y10.821 Z-4.214 I-0.825 J0.177
X99.337 Y9.48 Z-4.276 I0.19 J-0.821
X100.75 Y9.62 Z-4.337 I0.662 J0.519
X100.025 Y10.839 Z-4.398 I-0.75 J0.379
X99.229 Y9.667 Z-4.459 I-0.025 J-0.839
X100.627 Y9.443 Z-4.52 I0.77 J0.333
X100.237 Y10.802 Z-4.582 I-0.627 J0.555
X99.173 Y9.874 Z-4.643 I-0.237 J-0.802
X100.463 Y9.305 Z-4.704 I0.826 J0.126
X100.431 Y10.713 Z-4.765 I-0.464 J0.694
X99.172 Y10.087 Z-4.827 I-0.431 J-0.713
X100.271 Y9.213 Z-4.888 I0.828 J-0.088
X100.596 Y10.577 Z-4.949 I-0.271 J0.786
X99.224 Y10.294 Z-5.01 I-0.596 J-0.578
X100.062 Y9.173 Z-5.071 I0.775 J-0.294
X100.721 Y10.405 Z-5.133 I-0.063 J0.826
X99.327 Y10.479 Z-5.194 I-0.72 J-0.406
X99.851 Y9.188 Z-5.255 I0.672 J-0.479
X100.797 Y10.208 Z-5.316 I0.149 J0.811
X99.473 Y10.632 Z-5.378 I-0.797 J-0.209
X99.651 Y9.255 Z-5.439 I0.527 J-0.632
X100.821 Y9.999 Z-5.5 I0.348 J0.744
X99.178 I-0.822 J0.
X100.821 I0.822 J0.
G1 X100.839 Y10.222 F400.
X100.821 Y10.443
X100.736 Y10.647
X100.591 Y10.814
X100.545 Y10.852
X100.502 Y10.881
X100.338 Y10.945
X100.238 Y10.982
X100.206 Y10.992
X100.174 Y10.999
X100.01 Y11.004
X99.847 Y11.001
X99.804 Y10.994
X99.762 Y10.982
X99.519 Y10.891
X99.466 Y10.859
X99.413 Y10.817
X99.355 Y10.769
X99.224 Y10.653
X99.191 Y10.605
X99.076 Y10.407
X99.056 Y10.366
X99.041 Y10.325
X99.027 Y10.26
X98.995 Y10.079
X98.989 Y10.038
X98.986 Y9.997
X99.01 Y9.833
X99.027 Y9.74
X99.042 Y9.669
X99.057 Y9.628
X99.079 Y9.587
X99.191 Y9.395
X99.229 Y9.341
X99.355 Y9.231
X99.419 Y9.177
X99.469 Y9.139
X99.519 Y9.109
X99.683 Y9.047
X99.777 Y9.013
X99.812 Y9.004
X99.847 Y8.999
X100.01 Y8.996
X100.174 Y9.001
X100.224 Y9.013
X100.338 Y9.055
X100.502 Y9.12
X100.542 Y9.145
X100.666 Y9.249
X100.771 Y9.341
X100.789 Y9.364
X100.804 Y9.386
X100.92 Y9.587
X100.942 Y9.628
X100.957 Y9.669
X100.99 Y9.833
X100.994 Y9.859
X101.014 Y9.997
X101.013 Y10.033
X100.991 Y10.161
X100.959 Y10.325
X100.944 Y10.366
X100.923 Y10.407
X100.83 Y10.569
X100.775 Y10.653
X100.748 Y10.682
X100.591 Y10.814
G3 X100.106 Y10.578 I-0.185 J-0.236 F200.
G1 X100.112 Y10.521
X100.128 Y10.465
X100.153 Y10.404 Z-5.492
X100.177 Y10.345 Z-5.47
X100.198 Y10.292 Z-5.435
X100.216 Y10.248 Z-5.387
X100.229 Y10.215 Z-5.33
X100.238 Y10.194 Z-5.267
X100.24 Y10.187 Z-5.2
Z15. F400.

G28 G91 Z0.
G90
G28 G91 X0. Y0.
G90
M30
