(2002-FIRSTHOLEFINAL)
(MACHINE)
(  VENDOR HOMEMADE)
(  DESCRIPTION GENERIC 3-AXIS)
(T10  D=3. CR=0. - ZMIN=-6. - FLAT END MILL)
G90 G94 G91.1 G40 G49 G17
G21
(WHEN USING FUSION 360 FOR PERSONAL USE, THE FEEDRATE OF)
(RAPID MOVES IS REDUCED TO MATCH THE FEEDRATE OF CUTTING)
(MOVES, WHICH CAN INCREASE MACHINING TIME. UNRESTRICTED RAPID)
(MOVES ARE AVAILABLE WITH A FUSION 360 SUBSCRIPTION.)
G28 G91 Z0.
G90

(CLEANFIRSTHOLE)
M5
T10 M6
S9000 M3
G54
G0 X99.433 Y11.179
G43 Z15. H10
G1 Z5. F400.
Z2.5
G3 X99.134 Y9.019 Z2.41 I0.567 J-1.179 F333.
X101.237 Y9.583 Z2.32 I0.865 J0.979
X99.902 Y11.3 Z2.23 I-1.237 J0.415
X98.841 Y9.404 Z2.14 I0.099 J-1.3
X100.998 Y9.164 Z2.05 I1.158 J0.595
X100.38 Y11.242 Z1.96 I-0.998 J0.834
X98.709 Y9.867 Z1.87 I-0.38 J-1.242
X100.623 Y8.862 Z1.78 I1.29 J0.133
X100.803 Y11.014 Z1.69 I-0.623 J1.136
X98.754 Y10.344 Z1.6 I-0.803 J-1.015
X100.166 Y8.718 Z1.51 I1.246 J-0.345
X101.114 Y10.65 Z1.42 I-0.167 J1.28
X98.968 Y10.771 Z1.33 I-1.113 J-0.651
X99.69 Y8.75 Z1.24 I1.031 J-0.771
X101.269 Y10.199 Z1.15 I0.309 J1.248
X99.323 Y11.09 Z1.06 I-1.269 J-0.2
X99.259 Y8.952 Z0.97 I0.677 J-1.09
X101.251 Y9.724 Z0.88 I0.74 J1.046
X99.767 Y11.257 Z0.79 I-1.25 J0.274
X98.933 Y9.296 Z0.7 I0.233 J-1.257
X101.061 Y9.291 Z0.61 I1.066 J0.703
X100.24 Y11.251 Z0.52 I-1.061 J0.708
X98.755 Y9.734 Z0.43 I-0.239 J-1.251
X100.728 Y8.957 Z0.34 I1.244 J0.266
X100.676 Y11.074 Z0.25 I-0.728 J1.041
X98.748 Y10.204 Z0.16 I-0.675 J-1.074
X100.297 Y8.768 Z0.07 I1.251 J-0.204
X101.017 Y10.751 Z-0.02 I-0.298 J1.23
X98.913 Y10.643 Z-0.11 I-1.016 J-0.752
X99.83 Y8.749 Z-0.2 I1.087 J-0.643
X101.216 Y10.328 Z-0.29 I0.17 J1.25
X99.225 Y10.991 Z-0.38 I-1.216 J-0.329
X99.389 Y8.901 Z-0.47 I0.775 J-0.991
X101.248 Y9.863 Z-0.56 I0.61 J1.098
X99.64 Y11.2 Z-0.65 I-1.247 J0.135
X99.034 Y9.201 Z-0.74 I0.36 J-1.2
X101.109 Y9.421 Z-0.83 I0.964 J0.798
X100.101 Y11.244 Z-0.92 I-1.109 J0.578
X98.815 Y9.609 Z-1.01 I-0.101 J-1.244
X100.819 Y9.06 Z-1.1 I1.184 J0.39
X100.545 Y11.118 Z-1.19 I-0.819 J0.938
X98.759 Y10.067 Z-1.28 I-0.545 J-1.118
X100.42 Y8.831 Z-1.37 I1.24 J-0.067
X100.912 Y10.839 Z-1.46 I-0.42 J1.167
X98.873 Y10.512 Z-1.55 I-0.911 J-0.84
X99.966 Y8.763 Z-1.64 I1.127 J-0.512
X101.15 Y10.448 Z-1.73 I0.033 J1.235
X99.14 Y10.883 Z-1.82 I-1.15 J-0.449
X99.52 Y8.864 Z-1.91 I0.86 J-0.883
X101.23 Y9.999 Z-2. I0.479 J1.134
X98.768 I-1.231 J0.
X101.23 I1.231 J0.
G1 X101.253 Y10.622 F400.
X101.259 Y10.766
X101.124 Y11.016
X101.013 Y11.113
X100.793 Y11.296
X100.761 Y11.317
X100.729 Y11.334
X100.446 Y11.438
X100.304 Y11.489
X100.269 Y11.498
X100.233 Y11.503
X100.02 Y11.504
X99.879
X99.737 Y11.499
X99.701 Y11.491
X99.595 Y11.453
X99.311 Y11.35
X99.241 Y11.318
X99.205 Y11.295
X98.886 Y11.028
X98.85 Y10.994
X98.821 Y10.96
X98.736 Y10.819
X98.602 Y10.587
X98.576 Y10.535
X98.564 Y10.5
X98.555 Y10.464
X98.493 Y10.11
X98.481 Y10.039
X98.478 Y10.004
X98.48 Y9.968
X98.529 Y9.685
X98.554 Y9.543
X98.56 Y9.511
X98.571 Y9.478
X98.602 Y9.413
X98.773 Y9.118
X98.815 Y9.047
X98.843 Y9.012
X98.886 Y8.972
X99.17 Y8.734
X99.222 Y8.693
X99.267 Y8.669
X99.311 Y8.65
X99.666 Y8.521
X99.701 Y8.509
X99.737 Y8.501
X99.879 Y8.496
X100.162
X100.233 Y8.497
X100.269 Y8.502
X100.304 Y8.511
X100.729 Y8.666
X100.754 Y8.678
X100.779 Y8.693
X100.871 Y8.768
X101.119 Y8.976
X101.155 Y9.009
X101.177 Y9.037
X101.195 Y9.064
X101.39 Y9.401
X101.418 Y9.454
X101.438 Y9.506
X101.446 Y9.543
X101.496 Y9.827
X101.52 Y9.968
X101.522 Y10.004
X101.519 Y10.039
X101.507 Y10.11
X101.457 Y10.394
X101.438 Y10.492
X101.423 Y10.535
X101.345 Y10.677
X101.263 Y10.819
X101.179 Y10.96
X101.155 Y10.989
X101.124 Y11.016
G3 X100.693 Y10.961 I-0.189 J-0.233 F200.
G1 X100.674 Y10.912 Z-1.995
X100.655 Y10.865 Z-1.981
X100.637 Y10.82 Z-1.958
X100.635 Y10.783 Z-1.932
X100.643 Y10.738 Z-1.884
X100.649 Y10.704 Z-1.828
X100.653 Y10.683 Z-1.766
X100.655 Y10.676 Z-1.7
Z5. F400.
X99.457 Y11.19
Z0.5
G3 X99.115 Y9.037 Z0.41 I0.542 J-1.19 F333.
X101.228 Y9.559 Z0.32 I0.884 J0.962
X99.926 Y11.301 Z0.23 I-1.228 J0.439
X98.83 Y9.426 Z0.14 I0.073 J-1.301
X100.982 Y9.146 Z0.05 I1.168 J0.573
X100.402 Y11.234 Z-0.04 I-0.982 J0.852
X98.706 Y9.89 Z-0.13 I-0.402 J-1.235
X100.603 Y8.852 Z-0.22 I1.292 J0.11
X100.82 Y11. Z-0.31 I-0.604 J1.146
X98.759 Y10.365 Z-0.4 I-0.82 J-1.001
X100.145 Y8.716 Z-0.49 I1.24 J-0.365
X101.123 Y10.632 Z-0.58 I-0.146 J1.282
X98.98 Y10.787 Z-0.67 I-1.123 J-0.633
X99.671 Y8.755 Z-0.76 I1.019 J-0.787
X101.272 Y10.181 Z-0.85 I0.328 J1.243
X99.338 Y11.099 Z-0.94 I-1.271 J-0.182
X99.245 Y8.963 Z-1.03 I0.662 J-1.099
X101.246 Y9.708 Z-1.12 I0.754 J1.036
X99.783 Y11.259 Z-1.21 I-1.246 J0.29
X98.924 Y9.31 Z-1.3 I0.217 J-1.259
X101.052 Y9.278 Z-1.39 I1.074 J0.69
X100.254 Y11.248 Z-1.48 I-1.052 J0.72
X98.752 Y9.748 Z-1.57 I-0.253 J-1.248
X100.716 Y8.95 Z-1.66 I1.246 J0.252
X100.687 Y11.067 Z-1.75 I-0.716 J1.049
X98.75 Y10.216 Z-1.84 I-0.686 J-1.067
X100.285 Y8.766 Z-1.93 I1.248 J-0.217
X101.023 Y10.742 Z-2.02 I-0.286 J1.233
X98.918 Y10.652 Z-2.11 I-1.023 J-0.743
X99.819 Y8.751 Z-2.2 I1.081 J-0.652
X101.218 Y10.319 Z-2.29 I0.18 J1.248
X99.232 Y10.996 Z-2.38 I-1.218 J-0.32
X99.381 Y8.905 Z-2.47 I0.768 J-0.996
X101.246 Y9.855 Z-2.56 I0.618 J1.093
X99.647 Y11.202 Z-2.65 I-1.246 J0.143
X99.03 Y9.207 Z-2.74 I0.353 J-1.202
X101.105 Y9.415 Z-2.83 I0.969 J0.792
X100.107 Y11.243 Z-2.92 I-1.105 J0.583
X98.813 Y9.614 Z-3.01 I-0.107 J-1.244
X100.815 Y9.057 Z-3.1 I1.186 J0.385
X100.549 Y11.115 Z-3.19 I-0.815 J0.941
X98.759 Y10.071 Z-3.28 I-0.549 J-1.116
X100.416 Y8.83 Z-3.37 I1.24 J-0.071
X100.913 Y10.837 Z-3.46 I-0.417 J1.168
X98.874 Y10.514 Z-3.55 I-0.913 J-0.838
X99.964 Y8.763 Z-3.64 I1.125 J-0.514
X101.15 Y10.447 Z-3.73 I0.035 J1.235
X99.14 Y10.884 Z-3.82 I-1.15 J-0.448
X99.52 Y8.865 Z-3.91 I0.859 J-0.884
X101.23 Y9.999 Z-4. I0.479 J1.134
X98.768 I-1.231 J0.
X101.23 I1.231 J0.
G1 X101.253 Y10.622 F400.
X101.259 Y10.767
X101.123 Y11.017
X101.013 Y11.113
X100.793 Y11.296
X100.761 Y11.317
X100.729 Y11.334
X100.446 Y11.438
X100.304 Y11.489
X100.269 Y11.498
X100.233 Y11.503
X100.02 Y11.504
X99.879
X99.737 Y11.499
X99.701 Y11.491
X99.595 Y11.453
X99.311 Y11.35
X99.241 Y11.318
X99.205 Y11.295
X98.886 Y11.028
X98.85 Y10.994
X98.821 Y10.96
X98.736 Y10.819
X98.602 Y10.587
X98.576 Y10.535
X98.564 Y10.5
X98.555 Y10.464
X98.493 Y10.11
X98.481 Y10.039
X98.478 Y10.004
X98.48 Y9.968
X98.529 Y9.685
X98.554 Y9.543
X98.56 Y9.511
X98.571 Y9.478
X98.602 Y9.413
X98.773 Y9.118
X98.815 Y9.047
X98.843 Y9.012
X98.886 Y8.972
X99.17 Y8.734
X99.222 Y8.693
X99.267 Y8.669
X99.311 Y8.65
X99.666 Y8.521
X99.701 Y8.509
X99.737 Y8.501
X99.879 Y8.496
X100.162
X100.233 Y8.497
X100.269 Y8.502
X100.304 Y8.511
X100.729 Y8.666
X100.754 Y8.678
X100.779 Y8.693
X100.871 Y8.768
X101.119 Y8.976
X101.155 Y9.009
X101.177 Y9.037
X101.195 Y9.064
X101.39 Y9.401
X101.418 Y9.454
X101.438 Y9.506
X101.446 Y9.543
X101.496 Y9.827
X101.52 Y9.968
X101.522 Y10.004
X101.519 Y10.039
X101.507 Y10.11
X101.457 Y10.394
X101.438 Y10.492
X101.423 Y10.535
X101.345 Y10.677
X101.263 Y10.819
X101.179 Y10.96
X101.155 Y10.989
X101.123 Y11.017
G3 X100.692 Y10.962 I-0.189 J-0.233 F200.
G1 X100.673 Y10.913 Z-3.995
X100.654 Y10.865 Z-3.981
X100.636 Y10.821 Z-3.958
X100.634 Y10.784 Z-3.932
X100.642 Y10.739 Z-3.884
X100.649 Y10.705 Z-3.828
X100.652 Y10.684 Z-3.766
X100.654 Y10.677 Z-3.7
Z5. F400.
X99.454 Y11.188
Z-1.5
G3 X99.118 Y9.034 Z-1.59 I0.546 J-1.188 F333.
X101.23 Y9.563 Z-1.68 I0.881 J0.964
X99.923 Y11.301 Z-1.77 I-1.23 J0.436
X98.832 Y9.422 Z-1.86 I0.077 J-1.301
X100.985 Y9.149 Z-1.95 I1.167 J0.577
X100.399 Y11.235 Z-2.04 I-0.984 J0.849
X98.707 Y9.886 Z-2.13 I-0.399 J-1.236
X100.607 Y8.854 Z-2.22 I1.292 J0.114
X100.818 Y11.002 Z-2.31 I-0.607 J1.144
X98.759 Y10.361 Z-2.4 I-0.817 J-1.003
X100.149 Y8.716 Z-2.49 I1.241 J-0.362
X101.122 Y10.635 Z-2.58 I-0.15 J1.282
X98.979 Y10.784 Z-2.67 I-1.121 J-0.636
X99.674 Y8.754 Z-2.76 I1.021 J-0.784
X101.272 Y10.183 Z-2.85 I0.325 J1.244
X99.336 Y11.097 Z-2.94 I-1.271 J-0.185
X99.248 Y8.961 Z-3.03 I0.664 J-1.097
X101.247 Y9.71 Z-3.12 I0.751 J1.038
X99.781 Y11.259 Z-3.21 I-1.247 J0.288
X98.926 Y9.307 Z-3.3 I0.22 J-1.259
X101.054 Y9.28 Z-3.39 I1.073 J0.692
X100.252 Y11.248 Z-3.48 I-1.053 J0.718
X98.753 Y9.745 Z-3.57 I-0.251 J-1.248
X100.718 Y8.95 Z-3.66 I1.246 J0.254
X100.685 Y11.067 Z-3.75 I-0.718 J1.048
X98.751 Y10.214 Z-3.84 I-0.685 J-1.068
X100.288 Y8.766 Z-3.93 I1.249 J-0.215
X101.023 Y10.743 Z-4.02 I-0.288 J1.232
X98.918 Y10.651 Z-4.11 I-1.022 J-0.744
X99.821 Y8.75 Z-4.2 I1.082 J-0.651
X101.218 Y10.32 Z-4.29 I0.178 J1.248
X99.231 Y10.995 Z-4.38 I-1.218 J-0.321
X99.382 Y8.904 Z-4.47 I0.769 J-0.995
X101.247 Y9.856 Z-4.56 I0.617 J1.094
X99.646 Y11.202 Z-4.65 I-1.246 J0.142
X99.031 Y9.206 Z-4.74 I0.354 J-1.202
X101.106 Y9.416 Z-4.83 I0.968 J0.793
X100.107 Y11.243 Z-4.92 I-1.106 J0.583
X98.814 Y9.613 Z-5.01 I-0.106 J-1.244
X100.816 Y9.057 Z-5.1 I1.185 J0.386
X100.549 Y11.115 Z-5.19 I-0.816 J0.941
X98.759 Y10.07 Z-5.28 I-0.548 J-1.116
X100.417 Y8.83 Z-5.37 I1.24 J-0.07
X100.913 Y10.837 Z-5.46 I-0.417 J1.168
X98.874 Y10.513 Z-5.55 I-0.912 J-0.838
X99.964 Y8.763 Z-5.64 I1.126 J-0.514
X101.151 Y10.447 Z-5.73 I0.035 J1.235
X99.141 Y10.884 Z-5.82 I-1.15 J-0.448
X99.52 Y8.865 Z-5.91 I0.859 J-0.884
X101.23 Y9.998 Z-6. I0.479 J1.134
X98.768 I-1.231 J0.
X101.23 I1.231 J0.
G1 X101.253 Y10.622 F400.
X101.259 Y10.766
X101.124 Y11.017
X101.013 Y11.113
X100.793 Y11.296
X100.761 Y11.317
X100.729 Y11.334
X100.446 Y11.438
X100.304 Y11.489
X100.269 Y11.498
X100.233 Y11.503
X100.02 Y11.504
X99.879
X99.737 Y11.499
X99.701 Y11.491
X99.595 Y11.453
X99.311 Y11.35
X99.241 Y11.318
X99.205 Y11.295
X98.886 Y11.028
X98.85 Y10.994
X98.821 Y10.96
X98.736 Y10.819
X98.602 Y10.587
X98.576 Y10.535
X98.564 Y10.5
X98.555 Y10.464
X98.493 Y10.11
X98.481 Y10.039
X98.478 Y10.004
X98.48 Y9.968
X98.529 Y9.685
X98.554 Y9.543
X98.56 Y9.511
X98.571 Y9.478
X98.602 Y9.413
X98.773 Y9.118
X98.815 Y9.047
X98.843 Y9.012
X98.886 Y8.972
X99.17 Y8.734
X99.222 Y8.693
X99.267 Y8.669
X99.311 Y8.65
X99.666 Y8.521
X99.701 Y8.509
X99.737 Y8.501
X99.879 Y8.496
X100.162
X100.233 Y8.497
X100.269 Y8.502
X100.304 Y8.511
X100.729 Y8.666
X100.754 Y8.678
X100.779 Y8.693
X100.871 Y8.768
X101.119 Y8.976
X101.155 Y9.009
X101.177 Y9.037
X101.195 Y9.064
X101.39 Y9.401
X101.418 Y9.454
X101.438 Y9.506
X101.446 Y9.543
X101.496 Y9.827
X101.52 Y9.968
X101.522 Y10.004
X101.519 Y10.039
X101.507 Y10.11
X101.457 Y10.394
X101.438 Y10.492
X101.423 Y10.535
X101.345 Y10.677
X101.263 Y10.819
X101.179 Y10.96
X101.155 Y10.989
X101.124 Y11.017
G3 X100.654 Y10.677 I-0.189 J-0.233 F200.
G1 X100.678 Y10.614 Z-5.992
X100.701 Y10.555 Z-5.97
X100.721 Y10.502 Z-5.935
X100.738 Y10.457 Z-5.887
X100.751 Y10.424 Z-5.83
X100.759 Y10.403 Z-5.767
X100.762 Y10.396 Z-5.7
Z15. F400.

G28 G91 Z0.
G90
G28 G91 X0. Y0.
G90
M30
