(2003-SLOTROUGHINGHOLE)
(MACHINE)
(  VENDOR HOMEMADE)
(  DESCRIPTION GENERIC 3-AXIS)
(T10  D=3. CR=0. - ZMIN=-5. - FLAT END MILL)
G90 G94 G91.1 G40 G49 G17
G21
(WHEN USING FUSION 360 FOR PERSONAL USE, THE FEEDRATE OF)
(RAPID MOVES IS REDUCED TO MATCH THE FEEDRATE OF CUTTING)
(MOVES, WHICH CAN INCREASE MACHINING TIME. UNRESTRICTED RAPID)
(MOVES ARE AVAILABLE WITH A FUSION 360 SUBSCRIPTION.)
G28 G91 Z0.
G90

(CUT SLOT)
M5
T10 M6
S9000 M3
G54
G0 X-8.495 Y-8.447
G43 Z15. H10
G1 Z5. F400.
Z-0.4
Z-0.7 F200.
X-8.489 Y-8.443 Z-0.767
X-8.47 Y-8.431 Z-0.83
X-8.44 Y-8.411 Z-0.887
X-8.4 Y-8.386 Z-0.935
X-8.352 Y-8.355 Z-0.97
X-8.299 Y-8.321 Z-0.992
X-8.243 Y-8.285 Z-1.
G3 X-6.958 Y-7.25 I-4.134 J6.447
G1 X-6.892 Y-7.179 F400.
X-6.792 Y-6.965
X-6.687 Y-6.682
X-6.578 Y-6.294
X-6.465 Y-5.72
X-6.383 Y-5.003
X-6.342 Y-4.282
X-6.321 Y-3.56
X-6.314 Y-3.085
X-6.319 Y-2.991
X-6.337 Y-2.897
X-6.368 Y-2.807
X-6.608 Y-2.226
X-6.662 Y-2.093
X-6.734 Y-1.898
X-6.776 Y-1.734
X-6.809 Y-1.57
X-6.897 Y-0.914
X-6.94 Y-0.585
X-6.975 Y-0.257
X-6.992 Y-0.093
X-7. Y0.071
Y29.929
X-6.992 Y30.093
X-6.958 Y30.421
X-6.94 Y30.585
X-6.853 Y31.242
X-6.809 Y31.57
X-6.776 Y31.734
X-6.734 Y31.898
X-6.701 Y31.988
X-6.615 Y32.265
X-6.503 Y32.762
X-6.402 Y33.477
X-6.351 Y34.197
X-6.339 Y34.558
X-6.325 Y34.738
X-6.265 Y34.908
X-6.075 Y35.215
X-5.811 Y35.462
X-5.203 Y35.85
X-4.513 Y36.065
X-3.8 Y36.178
X-3.24 Y36.225
X-3.168 Y36.234
X-3.098 Y36.251
X-3.03 Y36.275
G3 X-3.125 Y36.847 I-0.124 J0.273 F200.
G1 X-3.192 Y36.853 Z-0.992
X-3.255 Y36.86 Z-0.97
X-3.312 Y36.865 Z-0.935
X-3.359 Y36.87 Z-0.887
X-3.394 Y36.873 Z-0.83
X-3.417 Y36.875 Z-0.767
X-3.424 Y36.876 Z-0.7
Z5. F400.
X-7.401 Y31.167
Z-0.4
Z-0.7 F200.
X-7.395 Y31.172 Z-0.767
X-7.378 Y31.186 Z-0.83
X-7.35 Y31.209 Z-0.887
X-7.313 Y31.239 Z-0.935
X-7.269 Y31.275 Z-0.97
X-7.22 Y31.315 Z-0.992
X-7.168 Y31.357 Z-1.
G3 X-6.701 Y31.988 I-0.999 J1.228
G1 X-6.662 Y32.093 F400.
X-6.608 Y32.226
X-6.2 Y33.21
X-6.124 Y33.374
X-6.033 Y33.538
X-5.928 Y33.702
X-5.173 Y34.687
X-5.038 Y34.851
X-5.022 Y34.869
X-4.877 Y35.015
X-4.858 Y35.032
X-4.678 Y35.179
X-4.366 Y35.419
X-3.824 Y35.835
X-3.71 Y35.919
X-3.546 Y36.03
X-3.382 Y36.119
X-3.293 Y36.163
X-3.218 Y36.197
X-2.235 Y36.605
X-2.071 Y36.67
X-1.907 Y36.732
X-1.743 Y36.775
X-1.579 Y36.806
X-1.251 Y36.853
X-0.595 Y36.939
X-0.103 Y36.995
X0.061 Y36.998
X0.553 Y37.
X109.611
X109.939 Y36.998
X110.103 Y36.995
X110.595 Y36.939
X111.251 Y36.853
X111.579 Y36.806
X111.743 Y36.775
X111.907 Y36.732
X111.997 Y36.698
X112.205 Y36.631
X112.675 Y36.519
X113.389 Y36.41
X114.109 Y36.355
X114.469 Y36.342
X114.65 Y36.337
X114.825 Y36.292
X115.147 Y36.129
X115.407 Y35.879
X115.82 Y35.286
X116.048 Y34.601
X116.17 Y33.89
X116.228 Y33.229
X116.238 Y33.158
X116.255 Y33.089
X116.279 Y33.022
G3 X116.85 Y33.118 I0.273 J0.125 F200.
G1 X116.857 Y33.184 Z-0.992
X116.863 Y33.247 Z-0.97
X116.868 Y33.304 Z-0.935
X116.873 Y33.351 Z-0.887
X116.876 Y33.387 Z-0.83
X116.878 Y33.409 Z-0.767
X116.879 Y33.416 Z-0.7
Z5. F400.
X111.184 Y37.407
Z-0.4
Z-0.7 F200.
X111.189 Y37.401 Z-0.767
X111.203 Y37.384 Z-0.83
X111.225 Y37.356 Z-0.887
X111.254 Y37.319 Z-0.935
X111.29 Y37.274 Z-0.97
X111.329 Y37.225 Z-0.992
X111.371 Y37.173 Z-1.
G3 X111.997 Y36.698 I1.239 J0.985
G1 X112.108 Y36.656 F400.
X112.235 Y36.605
X113.218 Y36.197
X113.293 Y36.163
X113.382 Y36.119
X113.546 Y36.03
X113.71 Y35.919
X113.824 Y35.835
X114.53 Y35.293
X114.694 Y35.166
X114.858 Y35.032
X114.877 Y35.015
X115.022 Y34.87
X115.039 Y34.851
X115.173 Y34.687
X115.928 Y33.702
X116.033 Y33.538
X116.124 Y33.374
X116.2 Y33.21
X116.609 Y32.226
X116.662 Y32.094
X116.734 Y31.898
X116.777 Y31.734
X116.81 Y31.57
X116.897 Y30.914
X116.94 Y30.585
X116.975 Y30.257
X116.992 Y30.093
X117. Y29.929
Y0.071
X116.992 Y-0.093
X116.958 Y-0.421
X116.94 Y-0.585
X116.854 Y-1.242
X116.81 Y-1.57
X116.777 Y-1.734
X116.734 Y-1.898
X116.701 Y-1.988
X116.615 Y-2.265
X116.503 Y-2.763
X116.402 Y-3.478
X116.351 Y-4.198
X116.339 Y-4.559
X116.324 Y-4.739
X116.265 Y-4.909
X116.074 Y-5.216
X115.811 Y-5.462
X115.202 Y-5.851
X114.512 Y-6.065
X113.799 Y-6.178
X113.24 Y-6.224
X113.169 Y-6.234
X113.098 Y-6.251
X113.03 Y-6.275
G3 X113.126 Y-6.847 I0.124 J-0.273 F200.
G1 X113.192 Y-6.853 Z-0.992
X113.255 Y-6.859 Z-0.97
X113.312 Y-6.865 Z-0.935
X113.359 Y-6.87 Z-0.887
X113.395 Y-6.873 Z-0.83
X113.417 Y-6.875 Z-0.767
X113.424 Y-6.876 Z-0.7
Z5. F400.
X117.401 Y-1.167
Z-0.4
Z-0.7 F200.
X117.395 Y-1.172 Z-0.767
X117.378 Y-1.186 Z-0.83
X117.35 Y-1.209 Z-0.887
X117.313 Y-1.239 Z-0.935
X117.269 Y-1.275 Z-0.97
X117.22 Y-1.315 Z-0.992
X117.168 Y-1.357 Z-1.
G3 X116.701 Y-1.988 I0.999 J-1.228
G1 X116.662 Y-2.094 F400.
X116.609 Y-2.226
X116.2 Y-3.21
X116.124 Y-3.374
X116.033 Y-3.538
X115.928 Y-3.702
X115.173 Y-4.687
X115.039 Y-4.851
X115.022 Y-4.87
X114.877 Y-5.015
X114.858 Y-5.032
X114.678 Y-5.179
X114.366 Y-5.419
X113.824 Y-5.835
X113.71 Y-5.919
X113.546 Y-6.03
X113.382 Y-6.119
X113.293 Y-6.163
X113.218 Y-6.197
X112.235 Y-6.605
X112.071 Y-6.67
X111.907 Y-6.732
X111.743 Y-6.775
X111.579 Y-6.806
X111.251 Y-6.853
X110.595 Y-6.939
X110.103 Y-6.995
X109.939 Y-6.998
X109.447 Y-7.
X24.825
X24.497 Y-6.999
X24.301 Y-6.984
X24.169 Y-6.965
X24.005 Y-6.929
X23.841 Y-6.877
X23.713 Y-6.82
X23.538 Y-6.745
X23.214 Y-6.639
X22.757 Y-6.528
X22.044 Y-6.414
X21.324 Y-6.358
X20.603 Y-6.329
X20.116 Y-6.319
X19.94 Y-6.338
X19.775 Y-6.4
X19.631 Y-6.502
X19.577 Y-6.55
X19.413 Y-6.669
X19.249 Y-6.766
X19.14 Y-6.82
X19.085 Y-6.844
X18.921 Y-6.906
X18.757 Y-6.947
X18.593 Y-6.977
X18.429 Y-6.996
X17.937 Y-7.
X0.389
X0.061 Y-6.998
X-0.103 Y-6.995
X-0.595 Y-6.939
X-1.251 Y-6.853
X-1.579 Y-6.806
X-1.743 Y-6.775
X-1.907 Y-6.732
X-1.997 Y-6.698
X-2.206 Y-6.631
X-2.676 Y-6.519
X-3.389 Y-6.41
X-3.569 Y-6.396
X-3.747 Y-6.367
X-3.912 Y-6.294
X-4.198 Y-6.073
X-4.642 Y-5.504
X-4.721 Y-5.271
X-4.763 Y-5.174
X-4.82 Y-5.083
X-4.889 Y-5.003
G3 X-5.313 Y-5.017 Z-0.8 I-0.205 J-0.219 F200.
X-5.389 Y-5.27 I0.219 J-0.205
X-5.245 Y-5.481 I0.296 J0.048 F400.
G1 X-2.265 Y-7.233
X-2.211 Y-7.258
X-2.153 Y-7.272
X-2.094 Y-7.274
X-2.035 Y-7.265
G3 X-1.836 Y-7.091 I-0.078 J0.29 F200.
X-1.997 Y-6.698 Z-1. I-0.277 J0.116
G1 X-2.108 Y-6.656 F400.
X-2.235 Y-6.605
X-3.218 Y-6.197
X-3.293 Y-6.163
X-3.382 Y-6.119
X-3.546 Y-6.03
X-3.71 Y-5.919
X-3.824 Y-5.835
X-4.53 Y-5.293
X-4.694 Y-5.166
X-4.858 Y-5.032
X-4.877 Y-5.015
X-5.022 Y-4.869
X-5.038 Y-4.851
X-5.173 Y-4.687
X-5.928 Y-3.702
X-6.033 Y-3.538
X-6.124 Y-3.374
X-6.2 Y-3.21
X-6.368 Y-2.807
G3 X-6.939 Y-2.903 I-0.273 J-0.124 F200.
G1 X-6.946 Y-2.969 Z-0.992
X-6.952 Y-3.033 Z-0.97
X-6.957 Y-3.089 Z-0.935
X-6.962 Y-3.136 Z-0.887
X-6.965 Y-3.172 Z-0.83
X-6.967 Y-3.194 Z-0.767
X-6.968 Y-3.202 Z-0.7
Z5. F400.
X24.462 Y-7.596
Z-0.4
Z-0.7 F200.
X24.458 Y-7.59 Z-0.767
X24.445 Y-7.571 Z-0.83
X24.426 Y-7.542 Z-0.887
X24.399 Y-7.502 Z-0.935
X24.368 Y-7.455 Z-0.97
X24.333 Y-7.402 Z-0.992
X24.296 Y-7.346 Z-1.
G3 X23.713 Y-6.82 I-1.319 J-0.874
G1 X23.513 Y-6.723 F400.
X23.349 Y-6.613
X23.202 Y-6.491
X23.108 Y-6.407
X23.067 Y-6.367
X23.032 Y-6.327
X22.956 Y-6.231
X22.858 Y-6.118
X22.747 Y-6.016
X22.616 Y-5.916
X22.454 Y-5.812
X22.254 Y-5.705
X21.991 Y-5.591
X21.655 Y-5.476
X21.274 Y-5.379
X20.961 Y-5.326
X20.875 Y-5.318
X20.657 Y-5.333
X20.454 Y-5.414
X20.286 Y-5.554
X20.17 Y-5.739
X20.128 Y-5.835
X20.069 Y-5.958
X20.045 Y-5.999
X19.938 Y-6.163
X19.905 Y-6.209
X19.81 Y-6.327
X19.741 Y-6.401
X19.631 Y-6.502
G3 X19.625 Y-6.926 Z-0.8 I0.209 J-0.215 F200.
X19.872 Y-7.015 I0.215 J0.209
G1 X19.874 Y-7.014
X22.63 Y-6.718 F400.
X22.746 Y-6.706 F200.
X22.797 Y-6.696
X22.846 Y-6.677
X22.89 Y-6.65
G3 X22.956 Y-6.231 Z-1. I-0.177 J0.242
G1 X22.903 Y-6.163 F400.
X22.857 Y-6.097
X22.798 Y-5.999
X22.714 Y-5.835
X22.643 Y-5.671
X22.629 Y-5.622
X22.579 Y-5.48
X22.506 Y-5.349
X22.418 Y-5.228
X22.318 Y-5.116
X22.202 Y-5.007
X22.068 Y-4.899
X21.931 Y-4.806
X21.791 Y-4.727
X21.636 Y-4.655
X21.496 Y-4.602
X21.351 Y-4.562
X21.199 Y-4.533
X21.071 Y-4.52
X20.846 Y-4.533
X20.637 Y-4.617
X20.466 Y-4.764
X20.352 Y-4.958
X20.306 Y-5.179
X20.282 Y-5.343
X20.247 Y-5.507
X20.199 Y-5.671
X20.17 Y-5.739
G3 X20.34 Y-6.127 Z-0.8 I0.28 J-0.109 F200.
G1 X20.406 Y-6.145
X20.473 Y-6.147
X20.611 Y-6.136
X22.14 Y-6.013 F400.
X22.362 Y-5.995 F200.
X22.412 Y-5.986
G3 X22.629 Y-5.622 Z-1. I-0.074 J0.291
G1 X22.595 Y-5.507 F400.
X22.556 Y-5.343
X22.487 Y-4.925
X22.455 Y-4.778
X22.406 Y-4.636
X22.338 Y-4.503
X22.253 Y-4.379
X22.156 Y-4.265
X22.047 Y-4.162
X21.929 Y-4.069
X21.802 Y-3.989
X21.669 Y-3.92
X21.529 Y-3.864
X21.385 Y-3.824
X21.237 Y-3.797
X21.088 Y-3.784
X20.938 Y-3.788
X20.879 Y-3.795
X20.67 Y-3.855
X20.489 Y-3.976
X20.354 Y-4.147
X20.278 Y-4.352
X20.269 Y-4.569
X20.301 Y-4.851
X20.313 Y-5.015
X20.306 Y-5.179
G3 X20.603 Y-5.481 Z-0.8 I0.3 J-0.002 F200.
G1 X20.647 Y-5.478
X20.875 Y-5.447
X21.957 Y-5.298 F400.
X22.228 Y-5.261 F200.
X22.23 Z-0.801
G3 X22.487 Y-4.925 Z-1. I-0.041 J0.297
G1 X22.35 Y-4.102 F400.
X22.319 Y-3.955
X22.266 Y-3.815
X22.193 Y-3.684
X22.103 Y-3.564
X21.999 Y-3.456
X21.884 Y-3.36
X21.759 Y-3.276
X21.627 Y-3.206
X21.488 Y-3.15
X21.344 Y-3.107
X21.197 Y-3.078
X21.047 Y-3.066
X20.897 Y-3.069
X20.748 Y-3.086
X20.702 Y-3.097
X20.508 Y-3.173
X20.346 Y-3.304
X20.229 Y-3.477
X20.168 Y-3.676
Y-3.884
X20.241 Y-4.359
X20.263 Y-4.523
X20.269 Y-4.569
G3 X20.61 Y-4.822 Z-0.8 I0.297 J0.045 F200.
G1 X20.64 Y-4.815
X20.875 Y-4.755
X21.827 Y-4.509 F400.
X22.092 Y-4.44 F200.
X22.128 Y-4.431 Z-0.816
G3 X22.35 Y-4.102 Z-1. I-0.075 J0.29
G1 X22.222 Y-3.325 F400.
X22.19 Y-3.178
X22.132 Y-3.04
X22.053 Y-2.912
X21.958 Y-2.796
X21.849 Y-2.693
X21.729 Y-2.603
X21.601 Y-2.526
X21.465 Y-2.462
X21.324 Y-2.412
X21.178 Y-2.377
X21.029 Y-2.355
X20.879 Y-2.35
X20.73 Y-2.36
X20.582 Y-2.384
X20.563 Y-2.389
X20.378 Y-2.471
X20.224 Y-2.602
X20.114 Y-2.772
X20.058 Y-2.967
X20.059 Y-3.169
X20.168 Y-3.884
G3 X20.519 Y-4.123 Z-0.8 I0.295 J0.056 F200.
G1 X20.554 Y-4.115
X20.78 Y-4.043
X21.704 Y-3.748 F400.
X21.964 Y-3.665 F200.
X22.015 Y-3.649 Z-0.823
G3 X22.222 Y-3.325 Z-1. I-0.091 J0.286
G1 X22.107 Y-2.628 F400.
X22.075 Y-2.481
X22.022 Y-2.341
X21.946 Y-2.212
X21.853 Y-2.094
X21.745 Y-1.989
X21.626 Y-1.898
X21.499 Y-1.819
X21.364 Y-1.754
X21.223 Y-1.702
X21.077 Y-1.666
X20.929 Y-1.644
X20.779 Y-1.636
X20.629 Y-1.645
X20.481 Y-1.668
X20.461 Y-1.674
X20.274 Y-1.755
X20.118 Y-1.886
X20.006 Y-2.056
X19.949 Y-2.252
X19.95 Y-2.456
X20.059 Y-3.169
G3 X20.409 Y-3.408 Z-0.8 I0.295 J0.056 F200.
G1 X20.442 Y-3.4
X20.671 Y-3.33
X21.587 Y-3.048 F400.
X21.849 Y-2.968 F200.
X21.897 Y-2.953 Z-0.821
G3 X22.107 Y-2.628 Z-1. I-0.088 J0.287
G1 X21.986 Y-1.898 F400.
X21.954 Y-1.751
X21.898 Y-1.612
X21.821 Y-1.484
X21.726 Y-1.368
X21.617 Y-1.264
X21.497 Y-1.174
X21.368 Y-1.098
X21.232 Y-1.034
X21.09 Y-0.985
X20.944 Y-0.95
X20.796 Y-0.93
X20.646 Y-0.925
X20.496 Y-0.936
X20.349 Y-0.961
X20.339 Y-0.964
X20.156 Y-1.047
X20.004 Y-1.178
X19.895 Y-1.348
X19.839 Y-1.541
X19.841 Y-1.742
X19.95 Y-2.456
G3 X20.3 Y-2.695 Z-0.8 I0.295 J0.056 F200.
G1 X20.337 Y-2.686
X20.561 Y-2.613
X21.468 Y-2.322 F400.
X21.729 Y-2.239 F200.
X21.78 Y-2.222 Z-0.823
G3 X21.986 Y-1.898 Z-1. I-0.092 J0.286
G1 X21.866 Y-1.172 F400.
X21.834 Y-1.026
X21.776 Y-0.887
X21.697 Y-0.76
X21.6 Y-0.645
X21.49 Y-0.543
X21.369 Y-0.455
X21.24 Y-0.379
X21.103 Y-0.317
X20.961 Y-0.269
X20.815 Y-0.236
X20.666 Y-0.217
X20.516 Y-0.215
X20.366 Y-0.227
X20.297 Y-0.24
X20.095 Y-0.311
X19.923 Y-0.44
X19.799 Y-0.615
X19.733 Y-0.82
Y-1.034
X19.841 Y-1.742
G3 X20.191 Y-1.982 Z-0.8 I0.295 J0.056 F200.
G1 X20.23 Y-1.971
X20.452 Y-1.898
X21.349 Y-1.6 F400.
X21.609 Y-1.514 F200.
X21.663 Y-1.496 Z-0.824
G3 X21.866 Y-1.172 Z-1. I-0.095 J0.285
G1 X21.769 Y-0.585 F400.
X21.757 Y-0.495
X21.73 Y-0.348
X21.677 Y-0.207
X21.602 Y-0.077
X21.509 Y0.04
X21.402 Y0.145
X21.283 Y0.237
X21.155 Y0.316
X21.02 Y0.38
X20.879 Y0.43
X20.733 Y0.467
X20.585 Y0.488
X20.435 Y0.493
X20.285 Y0.484
X20.137 Y0.459
X20.125 Y0.456
X19.941 Y0.373
X19.788 Y0.241
X19.679 Y0.072
X19.623 Y-0.122
X19.624 Y-0.324
X19.733 Y-1.034
G3 X20.083 Y-1.273 Z-0.8 I0.295 J0.056 F200.
G1 X20.118 Y-1.265
X20.344 Y-1.193
X21.229 Y-0.912 F400.
X21.489 Y-0.829 F200.
X21.549 Y-0.81 Z-0.827
G3 X21.757 Y-0.495 Z-1. I-0.091 J0.286
G1 X21.747 Y-0.421 F400.
X21.707 Y-0.093
X21.689 Y0.071
X21.676 Y0.202
X21.653 Y0.35
X21.6 Y0.49
X21.526 Y0.62
X21.433 Y0.739
X21.327 Y0.845
X21.21 Y0.938
X21.083 Y1.018
X20.948 Y1.084
X20.808 Y1.138
X20.663 Y1.176
X20.515 Y1.2
X20.365 Y1.21
X20.216 Y1.203
X20.067 Y1.182
X20.054 Y1.179
X19.869 Y1.103
X19.713 Y0.979
X19.599 Y0.815
X19.536 Y0.626
X19.528 Y0.427
X19.589 Y-0.093
X19.624 Y-0.324
G3 X19.974 Y-0.563 Z-0.8 I0.295 J0.056 F200.
G1 X20.007 Y-0.555
X20.236 Y-0.484
X21.136 Y-0.206 F400.
X21.398 Y-0.125 F200.
X21.465 Y-0.104 Z-0.83
G3 X21.676 Y0.202 Z-1. I-0.089 J0.287
G1 X21.607 Y0.891 F400.
X21.585 Y1.039
X21.535 Y1.181
X21.463 Y1.313
X21.373 Y1.433
X21.269 Y1.541
X21.154 Y1.637
X21.029 Y1.719
X20.896 Y1.789
X20.757 Y1.846
X20.613 Y1.888
X20.466 Y1.916
X20.316 Y1.929
X20.166 Y1.926
X20.017 Y1.909
X20.004 Y1.906
X19.816 Y1.835
X19.655 Y1.713
X19.537 Y1.55
X19.469 Y1.36
X19.459 Y1.159
X19.514 Y0.563
X19.528 Y0.427
G3 X19.866 Y0.171 Z-0.8 I0.297 J0.041 F200.
G1 X19.904 Y0.179
X20.131 Y0.241
X21.064 Y0.495 F400.
X21.328 Y0.567 F200.
X21.386 Y0.582 Z-0.826
G3 X21.607 Y0.891 Z-1. I-0.079 J0.289
G1 X21.537 Y1.597 F400.
X21.514 Y1.745
X21.466 Y1.887
X21.396 Y2.02
X21.307 Y2.141
X21.205 Y2.25
X21.09 Y2.347
X20.966 Y2.431
X20.834 Y2.503
X20.696 Y2.561
X20.552 Y2.604
X20.405 Y2.634
X20.256 Y2.649
X20.106 Y2.647
X19.957 Y2.631
X19.942 Y2.628
X19.752 Y2.557
X19.591 Y2.435
X19.471 Y2.272
X19.403 Y2.082
X19.392 Y1.88
X19.459 Y1.159
G3 X19.794 Y0.899 Z-0.8 I0.298 J0.038 F200.
G1 X19.831 Y0.906
X20.06 Y0.965
X20.993 Y1.205 F400.
X21.258 Y1.273 F200.
X21.312 Y1.287 Z-0.824
G3 X21.537 Y1.597 Z-1. I-0.075 J0.291
G1 X21.467 Y2.294 F400.
X21.445 Y2.442
X21.401 Y2.585
X21.333 Y2.72
X21.248 Y2.843
X21.147 Y2.954
X21.034 Y3.053
X20.912 Y3.139
X20.781 Y3.213
X20.643 Y3.273
X20.5 Y3.318
X20.354 Y3.35
X20.205 Y3.366
X20.055
X19.905 Y3.352
X19.884 Y3.348
X19.692 Y3.279
X19.528 Y3.157
X19.406 Y2.993
X19.337 Y2.802
X19.326 Y2.598
X19.392 Y1.88
G3 X19.727 Y1.62 Z-0.8 I0.298 J0.038 F200.
G1 X19.76 Y1.626
X19.994 Y1.682
X20.922 Y1.907 F400.
X21.188 Y1.971 F200.
X21.238 Y1.983 Z-0.822
G3 X21.467 Y2.294 Z-1. I-0.07 J0.292
G1 X21.395 Y3.024 F400.
X21.372 Y3.172
X21.326 Y3.315
X21.257 Y3.448
X21.171 Y3.57
X21.069 Y3.681
X20.955 Y3.779
X20.832 Y3.864
X20.7 Y3.936
X20.562 Y3.995
X20.419 Y4.039
X20.272 Y4.069
X20.123 Y4.084
X19.973 Y4.083
X19.823 Y4.068
X19.809 Y4.065
X19.62 Y3.994
X19.458 Y3.872
X19.339 Y3.709
X19.27 Y3.518
X19.26 Y3.316
X19.326 Y2.598
G3 X19.661 Y2.338 Z-0.8 I0.298 J0.038 F200.
G1 X19.696 Y2.345
X19.927 Y2.403
X20.85 Y2.634 F400.
X21.116 Y2.7 F200.
X21.168 Y2.714 Z-0.823
G3 X21.395 Y3.024 Z-1. I-0.073 J0.291
G1 X21.32 Y3.77 F400.
X21.298 Y3.919
X21.247 Y4.06
X21.174 Y4.191
X21.084 Y4.311
X20.98 Y4.419
X20.864 Y4.514
X20.739 Y4.597
X20.606 Y4.666
X20.467 Y4.723
X20.323 Y4.764
X20.175 Y4.791
X20.026 Y4.803
X19.876 Y4.799
X19.804 Y4.79
X19.598 Y4.731
X19.419 Y4.612
X19.285 Y4.445
X19.207 Y4.245
X19.194 Y4.031
X19.26 Y3.316
G3 X19.595 Y3.056 Z-0.8 I0.298 J0.038 F200.
G1 X19.636 Y3.064
X19.86 Y3.125
X20.777 Y3.374 F400.
X21.042 Y3.446 F200.
X21.099 Y3.461 Z-0.825
G3 X21.32 Y3.77 Z-1. I-0.079 J0.29
G1 X21.264 Y4.336 F400.
X21.253 Y4.467
X21.234 Y4.616
X21.186 Y4.758
X21.116 Y4.891
X21.028 Y5.012
X20.925 Y5.122
X20.811 Y5.219
X20.687 Y5.303
X20.555 Y5.375
X20.416 Y5.431
X20.273 Y5.475
X20.126 Y5.504
X19.976 Y5.516
X19.826 Y5.515
X19.677 Y5.498
X19.668 Y5.496
X19.481 Y5.423
X19.322 Y5.301
X19.205 Y5.139
X19.138 Y4.949
X19.128 Y4.749
X19.194 Y4.031
G3 X19.529 Y3.771 Z-0.8 I0.298 J0.038 F200.
G1 X19.568 Y3.779
X19.794 Y3.838
X20.704 Y4.078 F400.
X20.969 Y4.147 F200.
X21.03 Y4.163 Z-0.827
G3 X21.253 Y4.467 Z-1. I-0.076 J0.29
G1 X21.225 Y4.828 F400.
X21.216 Y4.993
X21.211 Y5.157
X21.198 Y5.306
X21.152 Y5.449
X21.085 Y5.583
X20.999 Y5.706
X20.899 Y5.818
X20.786 Y5.917
X20.664 Y6.004
X20.534 Y6.078
X20.397 Y6.14
X20.254 Y6.186
X20.108 Y6.219
X19.959 Y6.237
X19.809 Y6.239
X19.659 Y6.227
X19.472 Y6.163
X19.31 Y6.049
X19.187 Y5.895
X19.111 Y5.713
X19.089 Y5.516
X19.097 Y5.321
X19.111 Y4.993
X19.12 Y4.828
X19.128 Y4.749
G3 X19.463 Y4.49 Z-0.8 I0.298 J0.038 F200.
G1 X19.498 Y4.496
X19.729 Y4.554
X20.647 Y4.782 F400.
X20.912 Y4.848 F200.
X20.983 Y4.866 Z-0.831
G3 X21.211 Y5.157 Z-1. I-0.072 J0.291
G1 X21.188 Y5.813 F400.
X21.175 Y5.962
X21.139 Y6.108
X21.08 Y6.246
X21.001 Y6.373
X20.907 Y6.49
X20.8 Y6.595
X20.682 Y6.688
X20.555 Y6.768
X20.421 Y6.836
X20.281 Y6.889
X20.136 Y6.929
X19.989 Y6.954
X19.839 Y6.963
X19.689 Y6.957
X19.668 Y6.954
X19.472 Y6.897
X19.301 Y6.785
X19.17 Y6.629
X19.089 Y6.441
X19.066 Y6.239
X19.089 Y5.516
G3 X19.409 Y5.237 Z-0.8 I0.299 J0.02 F200.
G1 X19.443 Y5.241
X19.678 Y5.285
X20.619 Y5.458 F400.
X20.889 Y5.508 F200.
X20.942 Y5.518 Z-0.823
G3 X21.188 Y5.813 Z-1. I-0.054 J0.295
G1 X21.162 Y6.559 F400.
X21.149 Y6.709
X21.108 Y6.853
X21.045 Y6.989
X20.963 Y7.115
X20.866 Y7.229
X20.757 Y7.332
X20.638 Y7.423
X20.51 Y7.502
X20.375 Y7.567
X20.234 Y7.618
X20.089 Y7.656
X19.941 Y7.678
X19.791 Y7.685
X19.641 Y7.677
X19.63 Y7.675
X19.438 Y7.615
X19.272 Y7.502
X19.144 Y7.347
X19.065 Y7.162
X19.043 Y6.962
X19.066 Y6.239
G3 X19.385 Y5.96 Z-0.8 I0.299 J0.02 F200.
G1 X19.425 Y5.965
X19.654 Y6.011
X20.595 Y6.2 F400.
X20.863 Y6.254 F200.
X20.921 Y6.265 Z-0.825
G3 X21.162 Y6.559 Z-1. I-0.059 J0.294
G1 X21.137 Y7.289 F400.
X21.124 Y7.439
X21.082 Y7.583
X21.017 Y7.718
X20.934 Y7.843
X20.837 Y7.957
X20.727 Y8.059
X20.607 Y8.15
X20.479 Y8.228
X20.344 Y8.293
X20.203 Y8.343
X20.057 Y8.38
X19.909 Y8.402
X19.759 Y8.408
X19.609 Y8.399
X19.603 Y8.398
X19.413 Y8.337
X19.247 Y8.224
X19.12 Y8.069
X19.042 Y7.884
X19.02 Y7.685
X19.043 Y6.962
G3 X19.362 Y6.683 Z-0.8 I0.299 J0.02 F200.
G1 X19.403 Y6.688
X19.631 Y6.735
X20.57 Y6.928 F400.
X20.838 Y6.983 F200.
X20.897 Y6.996 Z-0.826
G3 X21.137 Y7.289 Z-1. I-0.06 J0.294
G1 X21.112 Y7.995 F400.
X21.1 Y8.145
X21.06 Y8.289
X20.998 Y8.426
X20.917 Y8.552
X20.821 Y8.667
X20.713 Y8.771
X20.594 Y8.863
X20.467 Y8.942
X20.332 Y9.009
X20.192 Y9.061
X20.046 Y9.099
X19.898 Y9.122
X19.748 Y9.13
X19.599 Y9.122
X19.588 Y9.121
X19.395 Y9.061
X19.227 Y8.949
X19.098 Y8.793
X19.019 Y8.607
X18.996 Y8.407
X19.02 Y7.685
G3 X19.339 Y7.406 Z-0.8 I0.299 J0.02 F200.
G1 X19.376 Y7.411
X19.608 Y7.456
X20.544 Y7.638 F400.
X20.813 Y7.69 F200.
X20.869 Y7.701 Z-0.824
G3 X21.112 Y7.995 Z-1. I-0.057 J0.294
G1 X21.088 Y8.692 F400.
X21.075 Y8.841
X21.04 Y8.987
X20.982 Y9.125
X20.904 Y9.254
X20.81 Y9.371
X20.704 Y9.477
X20.587 Y9.57
X20.461 Y9.652
X20.327 Y9.72
X20.188 Y9.774
X20.043 Y9.815
X19.895 Y9.84
X19.746 Y9.85
X19.596 Y9.845
X19.575 Y9.842
X19.379 Y9.784
X19.209 Y9.673
X19.077 Y9.517
X18.996 Y9.329
X18.973 Y9.126
X18.996 Y8.407
G3 X19.316 Y8.127 Z-0.8 I0.299 J0.02 F200.
G1 X19.348 Y8.131
X19.585 Y8.174
X20.519 Y8.34 F400.
X20.789 Y8.388 F200.
X20.841 Y8.397 Z-0.822
G3 X21.088 Y8.692 Z-1. I-0.053 J0.295
G1 X21.069 Y9.258 F400.
X21.049 Y9.482
X21.027 Y9.63
X20.981 Y9.773
X20.914 Y9.907
X20.829 Y10.03
X20.729 Y10.143
X20.617 Y10.243
X20.496 Y10.331
X20.366 Y10.406
X20.229 Y10.467
X20.087 Y10.514
X19.941 Y10.548
X19.791 Y10.564
X19.641 Y10.567
X19.619 Y10.565
X19.401 Y10.509
X19.212 Y10.387
X19.071 Y10.212
G3 X19.198 Y9.808 Z-0.8 I0.266 J-0.139 F200.
G1 X19.218 Y9.798
X19.449 Y9.698
X20.508 Y9.242 F400.
X20.63 Y9.189 F200.
X20.674 Y9.173
X20.72 Y9.165
X20.767
G3 X21.049 Y9.482 Z-1. I-0.018 J0.299
G1 X21.023 Y9.75 F400.
X21.002 Y9.914
X20.973 Y10.078
X20.954 Y10.16
X20.936 Y10.201
X20.889 Y10.283
X20.817 Y10.406
X20.781 Y10.462
X20.753 Y10.492
X20.725 Y10.517
X20.561 Y10.654
X20.523 Y10.683
X20.485 Y10.705
X20.397 Y10.739
X20.233 Y10.798
X20.192 Y10.81
X20.151 Y10.817
X20.069 Y10.819
X19.864 Y10.818
X19.823 Y10.812
X19.741 Y10.789
X19.536 Y10.714
X19.495 Y10.694
X19.413 Y10.633
X19.249 Y10.493
X19.211 Y10.45
X19.182 Y10.406
X19.063 Y10.197
X19.046 Y10.157
X19.027 Y10.078
X18.97 Y9.75
X18.958 Y9.668
Y9.586
X18.973 Y9.126
G3 X19.307 Y8.848 I0.299 J0.02 F200.
G1 X19.356 Y8.867 Z-0.995
X19.404 Y8.886 Z-0.981
X19.448 Y8.903 Z-0.958
X19.48 Y8.941 Z-0.921
X19.506 Y8.972 Z-0.874
X19.526 Y8.995 Z-0.82
X19.538 Y9.009 Z-0.762
X19.542 Y9.014 Z-0.7
Z5. F400.
X-8.495 Y-8.447
Z-1.4
Z-1.7 F200.
X-8.489 Y-8.443 Z-1.767
X-8.47 Y-8.431 Z-1.83
X-8.44 Y-8.411 Z-1.887
X-8.4 Y-8.386 Z-1.935
X-8.352 Y-8.355 Z-1.97
X-8.299 Y-8.321 Z-1.992
X-8.243 Y-8.285 Z-2.
G3 X-6.958 Y-7.25 I-4.134 J6.447
G1 X-6.892 Y-7.179 F400.
X-6.792 Y-6.965
X-6.687 Y-6.682
X-6.578 Y-6.294
X-6.465 Y-5.72
X-6.383 Y-5.003
X-6.342 Y-4.282
X-6.321 Y-3.56
X-6.314 Y-3.085
X-6.319 Y-2.991
X-6.337 Y-2.897
X-6.368 Y-2.807
X-6.608 Y-2.226
X-6.662 Y-2.093
X-6.734 Y-1.898
X-6.776 Y-1.734
X-6.809 Y-1.57
X-6.897 Y-0.914
X-6.94 Y-0.585
X-6.975 Y-0.257
X-6.992 Y-0.093
X-7. Y0.071
Y29.929
X-6.992 Y30.093
X-6.958 Y30.421
X-6.94 Y30.585
X-6.853 Y31.242
X-6.809 Y31.57
X-6.776 Y31.734
X-6.734 Y31.898
X-6.701 Y31.988
X-6.615 Y32.265
X-6.503 Y32.762
X-6.402 Y33.477
X-6.351 Y34.197
X-6.339 Y34.558
X-6.325 Y34.738
X-6.265 Y34.908
X-6.075 Y35.215
X-5.811 Y35.462
X-5.203 Y35.85
X-4.513 Y36.065
X-3.8 Y36.178
X-3.24 Y36.225
X-3.168 Y36.234
X-3.098 Y36.251
X-3.03 Y36.275
G3 X-3.125 Y36.847 I-0.124 J0.273 F200.
G1 X-3.192 Y36.853 Z-1.992
X-3.255 Y36.86 Z-1.97
X-3.312 Y36.865 Z-1.935
X-3.359 Y36.87 Z-1.887
X-3.394 Y36.873 Z-1.83
X-3.417 Y36.875 Z-1.767
X-3.424 Y36.876 Z-1.7
Z5. F400.
X-7.401 Y31.167
Z-1.4
Z-1.7 F200.
X-7.395 Y31.172 Z-1.767
X-7.378 Y31.186 Z-1.83
X-7.35 Y31.209 Z-1.887
X-7.313 Y31.239 Z-1.935
X-7.269 Y31.275 Z-1.97
X-7.22 Y31.315 Z-1.992
X-7.168 Y31.357 Z-2.
G3 X-6.701 Y31.988 I-0.999 J1.228
G1 X-6.662 Y32.093 F400.
X-6.608 Y32.226
X-6.2 Y33.21
X-6.124 Y33.374
X-6.033 Y33.538
X-5.928 Y33.702
X-5.173 Y34.687
X-5.038 Y34.851
X-5.022 Y34.869
X-4.877 Y35.015
X-4.858 Y35.032
X-4.678 Y35.179
X-4.366 Y35.419
X-3.824 Y35.835
X-3.71 Y35.919
X-3.546 Y36.03
X-3.382 Y36.119
X-3.293 Y36.163
X-3.218 Y36.197
X-2.235 Y36.605
X-2.071 Y36.67
X-1.907 Y36.732
X-1.743 Y36.775
X-1.579 Y36.806
X-1.251 Y36.853
X-0.595 Y36.939
X-0.103 Y36.995
X0.061 Y36.998
X0.553 Y37.
X109.611
X109.939 Y36.998
X110.103 Y36.995
X110.595 Y36.939
X111.251 Y36.853
X111.579 Y36.806
X111.743 Y36.775
X111.907 Y36.732
X111.997 Y36.698
X112.205 Y36.631
X112.675 Y36.519
X113.389 Y36.41
X114.109 Y36.355
X114.469 Y36.342
X114.65 Y36.337
X114.825 Y36.292
X115.147 Y36.129
X115.407 Y35.879
X115.82 Y35.286
X116.048 Y34.601
X116.17 Y33.89
X116.228 Y33.229
X116.238 Y33.158
X116.255 Y33.089
X116.279 Y33.022
G3 X116.85 Y33.118 I0.273 J0.125 F200.
G1 X116.857 Y33.184 Z-1.992
X116.863 Y33.247 Z-1.97
X116.868 Y33.304 Z-1.935
X116.873 Y33.351 Z-1.887
X116.876 Y33.387 Z-1.83
X116.878 Y33.409 Z-1.767
X116.879 Y33.416 Z-1.7
Z5. F400.
X111.184 Y37.407
Z-1.4
Z-1.7 F200.
X111.189 Y37.401 Z-1.767
X111.203 Y37.384 Z-1.83
X111.225 Y37.356 Z-1.887
X111.254 Y37.319 Z-1.935
X111.29 Y37.274 Z-1.97
X111.329 Y37.225 Z-1.992
X111.371 Y37.173 Z-2.
G3 X111.997 Y36.698 I1.239 J0.985
G1 X112.108 Y36.656 F400.
X112.235 Y36.605
X113.218 Y36.197
X113.293 Y36.163
X113.382 Y36.119
X113.546 Y36.03
X113.71 Y35.919
X113.824 Y35.835
X114.53 Y35.293
X114.694 Y35.166
X114.858 Y35.032
X114.877 Y35.015
X115.022 Y34.87
X115.039 Y34.851
X115.173 Y34.687
X115.928 Y33.702
X116.033 Y33.538
X116.124 Y33.374
X116.2 Y33.21
X116.609 Y32.226
X116.662 Y32.094
X116.734 Y31.898
X116.777 Y31.734
X116.81 Y31.57
X116.897 Y30.914
X116.94 Y30.585
X116.975 Y30.257
X116.992 Y30.093
X117. Y29.929
Y0.071
X116.992 Y-0.093
X116.958 Y-0.421
X116.94 Y-0.585
X116.854 Y-1.242
X116.81 Y-1.57
X116.777 Y-1.734
X116.734 Y-1.898
X116.701 Y-1.988
X116.615 Y-2.265
X116.503 Y-2.763
X116.402 Y-3.478
X116.351 Y-4.198
X116.339 Y-4.559
X116.324 Y-4.739
X116.265 Y-4.909
X116.074 Y-5.216
X115.811 Y-5.462
X115.202 Y-5.851
X114.512 Y-6.065
X113.799 Y-6.178
X113.24 Y-6.224
X113.169 Y-6.234
X113.098 Y-6.251
X113.03 Y-6.275
G3 X113.126 Y-6.847 I0.124 J-0.273 F200.
G1 X113.192 Y-6.853 Z-1.992
X113.255 Y-6.859 Z-1.97
X113.312 Y-6.865 Z-1.935
X113.359 Y-6.87 Z-1.887
X113.395 Y-6.873 Z-1.83
X113.417 Y-6.875 Z-1.767
X113.424 Y-6.876 Z-1.7
Z5. F400.
X117.401 Y-1.167
Z-1.4
Z-1.7 F200.
X117.395 Y-1.172 Z-1.767
X117.378 Y-1.186 Z-1.83
X117.35 Y-1.209 Z-1.887
X117.313 Y-1.239 Z-1.935
X117.269 Y-1.275 Z-1.97
X117.22 Y-1.315 Z-1.992
X117.168 Y-1.357 Z-2.
G3 X116.701 Y-1.988 I0.999 J-1.228
G1 X116.662 Y-2.094 F400.
X116.609 Y-2.226
X116.2 Y-3.21
X116.124 Y-3.374
X116.033 Y-3.538
X115.928 Y-3.702
X115.173 Y-4.687
X115.039 Y-4.851
X115.022 Y-4.87
X114.877 Y-5.015
X114.858 Y-5.032
X114.678 Y-5.179
X114.366 Y-5.419
X113.824 Y-5.835
X113.71 Y-5.919
X113.546 Y-6.03
X113.382 Y-6.119
X113.293 Y-6.163
X113.218 Y-6.197
X112.235 Y-6.605
X112.071 Y-6.67
X111.907 Y-6.732
X111.743 Y-6.775
X111.579 Y-6.806
X111.251 Y-6.853
X110.595 Y-6.939
X110.103 Y-6.995
X109.939 Y-6.998
X109.447 Y-7.
X24.825
X24.497 Y-6.999
X24.301 Y-6.984
X24.169 Y-6.965
X24.005 Y-6.929
X23.841 Y-6.877
X23.713 Y-6.82
X23.538 Y-6.745
X23.214 Y-6.639
X22.757 Y-6.528
X22.044 Y-6.414
X21.324 Y-6.358
X20.603 Y-6.329
X20.116 Y-6.319
X19.94 Y-6.338
X19.775 Y-6.4
X19.631 Y-6.502
X19.577 Y-6.55
X19.413 Y-6.669
X19.249 Y-6.766
X19.14 Y-6.82
X19.085 Y-6.844
X18.921 Y-6.906
X18.757 Y-6.947
X18.593 Y-6.977
X18.429 Y-6.996
X17.937 Y-7.
X0.389
X0.061 Y-6.998
X-0.103 Y-6.995
X-0.595 Y-6.939
X-1.251 Y-6.853
X-1.579 Y-6.806
X-1.743 Y-6.775
X-1.907 Y-6.732
X-1.997 Y-6.698
X-2.206 Y-6.631
X-2.676 Y-6.519
X-3.389 Y-6.41
X-3.569 Y-6.396
X-3.747 Y-6.367
X-3.912 Y-6.294
X-4.198 Y-6.073
X-4.642 Y-5.504
X-4.721 Y-5.271
X-4.763 Y-5.174
X-4.82 Y-5.083
X-4.889 Y-5.003
G3 X-5.313 Y-5.017 Z-1.8 I-0.205 J-0.219 F200.
X-5.389 Y-5.27 I0.219 J-0.205
X-5.245 Y-5.481 I0.296 J0.048 F400.
G1 X-2.265 Y-7.233
X-2.211 Y-7.258
X-2.153 Y-7.272
X-2.094 Y-7.274
X-2.035 Y-7.265
G3 X-1.836 Y-7.091 I-0.078 J0.29 F200.
X-1.997 Y-6.698 Z-2. I-0.277 J0.116
G1 X-2.108 Y-6.656 F400.
X-2.235 Y-6.605
X-3.218 Y-6.197
X-3.293 Y-6.163
X-3.382 Y-6.119
X-3.546 Y-6.03
X-3.71 Y-5.919
X-3.824 Y-5.835
X-4.53 Y-5.293
X-4.694 Y-5.166
X-4.858 Y-5.032
X-4.877 Y-5.015
X-5.022 Y-4.869
X-5.038 Y-4.851
X-5.173 Y-4.687
X-5.928 Y-3.702
X-6.033 Y-3.538
X-6.124 Y-3.374
X-6.2 Y-3.21
X-6.368 Y-2.807
G3 X-6.939 Y-2.903 I-0.273 J-0.124 F200.
G1 X-6.946 Y-2.969 Z-1.992
X-6.952 Y-3.033 Z-1.97
X-6.957 Y-3.089 Z-1.935
X-6.962 Y-3.136 Z-1.887
X-6.965 Y-3.172 Z-1.83
X-6.967 Y-3.194 Z-1.767
X-6.968 Y-3.202 Z-1.7
Z5. F400.
X24.462 Y-7.596
Z-1.4
Z-1.7 F200.
X24.458 Y-7.59 Z-1.767
X24.445 Y-7.571 Z-1.83
X24.426 Y-7.542 Z-1.887
X24.399 Y-7.502 Z-1.935
X24.368 Y-7.455 Z-1.97
X24.333 Y-7.402 Z-1.992
X24.296 Y-7.346 Z-2.
G3 X23.713 Y-6.82 I-1.319 J-0.874
G1 X23.513 Y-6.723 F400.
X23.349 Y-6.613
X23.202 Y-6.491
X23.108 Y-6.407
X23.067 Y-6.367
X23.032 Y-6.327
X22.956 Y-6.231
X22.858 Y-6.118
X22.747 Y-6.016
X22.616 Y-5.916
X22.454 Y-5.812
X22.254 Y-5.705
X21.991 Y-5.591
X21.655 Y-5.476
X21.274 Y-5.379
X20.961 Y-5.326
X20.875 Y-5.318
X20.657 Y-5.333
X20.454 Y-5.414
X20.286 Y-5.554
X20.17 Y-5.739
X20.128 Y-5.835
X20.069 Y-5.958
X20.045 Y-5.999
X19.938 Y-6.163
X19.905 Y-6.209
X19.81 Y-6.327
X19.741 Y-6.401
X19.631 Y-6.502
G3 X19.625 Y-6.926 Z-1.8 I0.209 J-0.215 F200.
X19.872 Y-7.015 I0.215 J0.209
G1 X19.874 Y-7.014
X22.63 Y-6.718 F400.
X22.746 Y-6.706 F200.
X22.797 Y-6.696
X22.846 Y-6.677
X22.89 Y-6.65
G3 X22.956 Y-6.231 Z-2. I-0.177 J0.242
G1 X22.903 Y-6.163 F400.
X22.857 Y-6.097
X22.798 Y-5.999
X22.714 Y-5.835
X22.643 Y-5.671
X22.629 Y-5.622
X22.579 Y-5.48
X22.506 Y-5.349
X22.418 Y-5.228
X22.318 Y-5.116
X22.202 Y-5.007
X22.068 Y-4.899
X21.931 Y-4.806
X21.791 Y-4.727
X21.636 Y-4.655
X21.496 Y-4.602
X21.351 Y-4.562
X21.199 Y-4.533
X21.071 Y-4.52
X20.846 Y-4.533
X20.637 Y-4.617
X20.466 Y-4.764
X20.352 Y-4.958
X20.306 Y-5.179
X20.282 Y-5.343
X20.247 Y-5.507
X20.199 Y-5.671
X20.17 Y-5.739
G3 X20.34 Y-6.127 Z-1.8 I0.28 J-0.109 F200.
G1 X20.406 Y-6.145
X20.473 Y-6.147
X20.611 Y-6.136
X22.14 Y-6.013 F400.
X22.362 Y-5.995 F200.
X22.412 Y-5.986
G3 X22.629 Y-5.622 Z-2. I-0.074 J0.291
G1 X22.595 Y-5.507 F400.
X22.556 Y-5.343
X22.487 Y-4.925
X22.455 Y-4.778
X22.406 Y-4.636
X22.338 Y-4.503
X22.253 Y-4.379
X22.156 Y-4.265
X22.047 Y-4.162
X21.929 Y-4.069
X21.802 Y-3.989
X21.669 Y-3.92
X21.529 Y-3.864
X21.385 Y-3.824
X21.237 Y-3.797
X21.088 Y-3.784
X20.938 Y-3.788
X20.879 Y-3.795
X20.67 Y-3.855
X20.489 Y-3.976
X20.354 Y-4.147
X20.278 Y-4.352
X20.269 Y-4.569
X20.301 Y-4.851
X20.313 Y-5.015
X20.306 Y-5.179
G3 X20.603 Y-5.481 Z-1.8 I0.3 J-0.002 F200.
G1 X20.647 Y-5.478
X20.875 Y-5.447
X21.957 Y-5.298 F400.
X22.228 Y-5.261 F200.
X22.23 Z-1.801
G3 X22.487 Y-4.925 Z-2. I-0.041 J0.297
G1 X22.35 Y-4.102 F400.
X22.319 Y-3.955
X22.266 Y-3.815
X22.193 Y-3.684
X22.103 Y-3.564
X21.999 Y-3.456
X21.884 Y-3.36
X21.759 Y-3.276
X21.627 Y-3.206
X21.488 Y-3.15
X21.344 Y-3.107
X21.197 Y-3.078
X21.047 Y-3.066
X20.897 Y-3.069
X20.748 Y-3.086
X20.702 Y-3.097
X20.508 Y-3.173
X20.346 Y-3.304
X20.229 Y-3.477
X20.168 Y-3.676
Y-3.884
X20.241 Y-4.359
X20.263 Y-4.523
X20.269 Y-4.569
G3 X20.61 Y-4.822 Z-1.8 I0.297 J0.045 F200.
G1 X20.64 Y-4.815
X20.875 Y-4.755
X21.827 Y-4.509 F400.
X22.092 Y-4.44 F200.
X22.128 Y-4.431 Z-1.816
G3 X22.35 Y-4.102 Z-2. I-0.075 J0.29
G1 X22.222 Y-3.325 F400.
X22.19 Y-3.178
X22.132 Y-3.04
X22.053 Y-2.912
X21.958 Y-2.796
X21.849 Y-2.693
X21.729 Y-2.603
X21.601 Y-2.526
X21.465 Y-2.462
X21.324 Y-2.412
X21.178 Y-2.377
X21.029 Y-2.355
X20.879 Y-2.35
X20.73 Y-2.36
X20.582 Y-2.384
X20.563 Y-2.389
X20.378 Y-2.471
X20.224 Y-2.602
X20.114 Y-2.772
X20.058 Y-2.967
X20.059 Y-3.169
X20.168 Y-3.884
G3 X20.519 Y-4.123 Z-1.8 I0.295 J0.056 F200.
G1 X20.554 Y-4.115
X20.78 Y-4.043
X21.704 Y-3.748 F400.
X21.964 Y-3.665 F200.
X22.015 Y-3.649 Z-1.823
G3 X22.222 Y-3.325 Z-2. I-0.091 J0.286
G1 X22.107 Y-2.628 F400.
X22.075 Y-2.481
X22.022 Y-2.341
X21.946 Y-2.212
X21.853 Y-2.094
X21.745 Y-1.989
X21.626 Y-1.898
X21.499 Y-1.819
X21.364 Y-1.754
X21.223 Y-1.702
X21.077 Y-1.666
X20.929 Y-1.644
X20.779 Y-1.636
X20.629 Y-1.645
X20.481 Y-1.668
X20.461 Y-1.674
X20.274 Y-1.755
X20.118 Y-1.886
X20.006 Y-2.056
X19.949 Y-2.252
X19.95 Y-2.456
X20.059 Y-3.169
G3 X20.409 Y-3.408 Z-1.8 I0.295 J0.056 F200.
G1 X20.442 Y-3.4
X20.671 Y-3.33
X21.587 Y-3.048 F400.
X21.849 Y-2.968 F200.
X21.897 Y-2.953 Z-1.821
G3 X22.107 Y-2.628 Z-2. I-0.088 J0.287
G1 X21.986 Y-1.898 F400.
X21.954 Y-1.751
X21.898 Y-1.612
X21.821 Y-1.484
X21.726 Y-1.368
X21.617 Y-1.264
X21.497 Y-1.174
X21.368 Y-1.098
X21.232 Y-1.034
X21.09 Y-0.985
X20.944 Y-0.95
X20.796 Y-0.93
X20.646 Y-0.925
X20.496 Y-0.936
X20.349 Y-0.961
X20.339 Y-0.964
X20.156 Y-1.047
X20.004 Y-1.178
X19.895 Y-1.348
X19.839 Y-1.541
X19.841 Y-1.742
X19.95 Y-2.456
G3 X20.3 Y-2.695 Z-1.8 I0.295 J0.056 F200.
G1 X20.337 Y-2.686
X20.561 Y-2.613
X21.468 Y-2.322 F400.
X21.729 Y-2.239 F200.
X21.78 Y-2.222 Z-1.823
G3 X21.986 Y-1.898 Z-2. I-0.092 J0.286
G1 X21.866 Y-1.172 F400.
X21.834 Y-1.026
X21.776 Y-0.887
X21.697 Y-0.76
X21.6 Y-0.645
X21.49 Y-0.543
X21.369 Y-0.455
X21.24 Y-0.379
X21.103 Y-0.317
X20.961 Y-0.269
X20.815 Y-0.236
X20.666 Y-0.217
X20.516 Y-0.215
X20.366 Y-0.227
X20.297 Y-0.24
X20.095 Y-0.311
X19.923 Y-0.44
X19.799 Y-0.615
X19.733 Y-0.82
Y-1.034
X19.841 Y-1.742
G3 X20.191 Y-1.982 Z-1.8 I0.295 J0.056 F200.
G1 X20.23 Y-1.971
X20.452 Y-1.898
X21.349 Y-1.6 F400.
X21.609 Y-1.514 F200.
X21.663 Y-1.496 Z-1.824
G3 X21.866 Y-1.172 Z-2. I-0.095 J0.285
G1 X21.769 Y-0.585 F400.
X21.757 Y-0.495
X21.73 Y-0.348
X21.677 Y-0.207
X21.602 Y-0.077
X21.509 Y0.04
X21.402 Y0.145
X21.283 Y0.237
X21.155 Y0.316
X21.02 Y0.38
X20.879 Y0.43
X20.733 Y0.467
X20.585 Y0.488
X20.435 Y0.493
X20.285 Y0.484
X20.137 Y0.459
X20.125 Y0.456
X19.941 Y0.373
X19.788 Y0.241
X19.679 Y0.072
X19.623 Y-0.122
X19.624 Y-0.324
X19.733 Y-1.034
G3 X20.083 Y-1.273 Z-1.8 I0.295 J0.056 F200.
G1 X20.118 Y-1.265
X20.344 Y-1.193
X21.229 Y-0.912 F400.
X21.489 Y-0.829 F200.
X21.549 Y-0.81 Z-1.827
G3 X21.757 Y-0.495 Z-2. I-0.091 J0.286
G1 X21.747 Y-0.421 F400.
X21.707 Y-0.093
X21.689 Y0.071
X21.676 Y0.202
X21.653 Y0.35
X21.6 Y0.49
X21.526 Y0.62
X21.433 Y0.739
X21.327 Y0.845
X21.21 Y0.938
X21.083 Y1.018
X20.948 Y1.084
X20.808 Y1.138
X20.663 Y1.176
X20.515 Y1.2
X20.365 Y1.21
X20.216 Y1.203
X20.067 Y1.182
X20.054 Y1.179
X19.869 Y1.103
X19.713 Y0.979
X19.599 Y0.815
X19.536 Y0.626
X19.528 Y0.427
X19.589 Y-0.093
X19.624 Y-0.324
G3 X19.974 Y-0.563 Z-1.8 I0.295 J0.056 F200.
G1 X20.007 Y-0.555
X20.236 Y-0.484
X21.136 Y-0.206 F400.
X21.398 Y-0.125 F200.
X21.465 Y-0.104 Z-1.83
G3 X21.676 Y0.202 Z-2. I-0.089 J0.287
G1 X21.607 Y0.891 F400.
X21.585 Y1.039
X21.535 Y1.181
X21.463 Y1.313
X21.373 Y1.433
X21.269 Y1.541
X21.154 Y1.637
X21.029 Y1.719
X20.896 Y1.789
X20.757 Y1.846
X20.613 Y1.888
X20.466 Y1.916
X20.316 Y1.929
X20.166 Y1.926
X20.017 Y1.909
X20.004 Y1.906
X19.816 Y1.835
X19.655 Y1.713
X19.537 Y1.55
X19.469 Y1.36
X19.459 Y1.159
X19.514 Y0.563
X19.528 Y0.427
G3 X19.866 Y0.171 Z-1.8 I0.297 J0.041 F200.
G1 X19.904 Y0.179
X20.131 Y0.241
X21.064 Y0.495 F400.
X21.328 Y0.567 F200.
X21.386 Y0.582 Z-1.826
G3 X21.607 Y0.891 Z-2. I-0.079 J0.289
G1 X21.537 Y1.597 F400.
X21.514 Y1.745
X21.466 Y1.887
X21.396 Y2.02
X21.307 Y2.141
X21.205 Y2.25
X21.09 Y2.347
X20.966 Y2.431
X20.834 Y2.503
X20.696 Y2.561
X20.552 Y2.604
X20.405 Y2.634
X20.256 Y2.649
X20.106 Y2.647
X19.957 Y2.631
X19.942 Y2.628
X19.752 Y2.557
X19.591 Y2.435
X19.471 Y2.272
X19.403 Y2.082
X19.392 Y1.88
X19.459 Y1.159
G3 X19.794 Y0.899 Z-1.8 I0.298 J0.038 F200.
G1 X19.831 Y0.906
X20.06 Y0.965
X20.993 Y1.205 F400.
X21.258 Y1.273 F200.
X21.312 Y1.287 Z-1.824
G3 X21.537 Y1.597 Z-2. I-0.075 J0.291
G1 X21.467 Y2.294 F400.
X21.445 Y2.442
X21.401 Y2.585
X21.333 Y2.72
X21.248 Y2.843
X21.147 Y2.954
X21.034 Y3.053
X20.912 Y3.139
X20.781 Y3.213
X20.643 Y3.273
X20.5 Y3.318
X20.354 Y3.35
X20.205 Y3.366
X20.055
X19.905 Y3.352
X19.884 Y3.348
X19.692 Y3.279
X19.528 Y3.157
X19.406 Y2.993
X19.337 Y2.802
X19.326 Y2.598
X19.392 Y1.88
G3 X19.727 Y1.62 Z-1.8 I0.298 J0.038 F200.
G1 X19.76 Y1.626
X19.994 Y1.682
X20.922 Y1.907 F400.
X21.188 Y1.971 F200.
X21.238 Y1.983 Z-1.822
G3 X21.467 Y2.294 Z-2. I-0.07 J0.292
G1 X21.395 Y3.024 F400.
X21.372 Y3.172
X21.326 Y3.315
X21.257 Y3.448
X21.171 Y3.57
X21.069 Y3.681
X20.955 Y3.779
X20.832 Y3.864
X20.7 Y3.936
X20.562 Y3.995
X20.419 Y4.039
X20.272 Y4.069
X20.123 Y4.084
X19.973 Y4.083
X19.823 Y4.068
X19.809 Y4.065
X19.62 Y3.994
X19.458 Y3.872
X19.339 Y3.709
X19.27 Y3.518
X19.26 Y3.316
X19.326 Y2.598
G3 X19.661 Y2.338 Z-1.8 I0.298 J0.038 F200.
G1 X19.696 Y2.345
X19.927 Y2.403
X20.85 Y2.634 F400.
X21.116 Y2.7 F200.
X21.168 Y2.714 Z-1.823
G3 X21.395 Y3.024 Z-2. I-0.073 J0.291
G1 X21.32 Y3.77 F400.
X21.298 Y3.919
X21.247 Y4.06
X21.174 Y4.191
X21.084 Y4.311
X20.98 Y4.419
X20.864 Y4.514
X20.739 Y4.597
X20.606 Y4.666
X20.467 Y4.723
X20.323 Y4.764
X20.175 Y4.791
X20.026 Y4.803
X19.876 Y4.799
X19.804 Y4.79
X19.598 Y4.731
X19.419 Y4.612
X19.285 Y4.445
X19.207 Y4.245
X19.194 Y4.031
X19.26 Y3.316
G3 X19.595 Y3.056 Z-1.8 I0.298 J0.038 F200.
G1 X19.636 Y3.064
X19.86 Y3.125
X20.777 Y3.374 F400.
X21.042 Y3.446 F200.
X21.099 Y3.461 Z-1.825
G3 X21.32 Y3.77 Z-2. I-0.079 J0.29
G1 X21.264 Y4.336 F400.
X21.253 Y4.467
X21.234 Y4.616
X21.186 Y4.758
X21.116 Y4.891
X21.028 Y5.012
X20.925 Y5.122
X20.811 Y5.219
X20.687 Y5.303
X20.555 Y5.375
X20.416 Y5.431
X20.273 Y5.475
X20.126 Y5.504
X19.976 Y5.516
X19.826 Y5.515
X19.677 Y5.498
X19.668 Y5.496
X19.481 Y5.423
X19.322 Y5.301
X19.205 Y5.139
X19.138 Y4.949
X19.128 Y4.749
X19.194 Y4.031
G3 X19.529 Y3.771 Z-1.8 I0.298 J0.038 F200.
G1 X19.568 Y3.779
X19.794 Y3.838
X20.704 Y4.078 F400.
X20.969 Y4.147 F200.
X21.03 Y4.163 Z-1.827
G3 X21.253 Y4.467 Z-2. I-0.076 J0.29
G1 X21.225 Y4.828 F400.
X21.216 Y4.993
X21.211 Y5.157
X21.198 Y5.306
X21.152 Y5.449
X21.085 Y5.583
X20.999 Y5.706
X20.899 Y5.818
X20.786 Y5.917
X20.664 Y6.004
X20.534 Y6.078
X20.397 Y6.14
X20.254 Y6.186
X20.108 Y6.219
X19.959 Y6.237
X19.809 Y6.239
X19.659 Y6.227
X19.472 Y6.163
X19.31 Y6.049
X19.187 Y5.895
X19.111 Y5.713
X19.089 Y5.516
X19.097 Y5.321
X19.111 Y4.993
X19.12 Y4.828
X19.128 Y4.749
G3 X19.463 Y4.49 Z-1.8 I0.298 J0.038 F200.
G1 X19.498 Y4.496
X19.729 Y4.554
X20.647 Y4.782 F400.
X20.912 Y4.848 F200.
X20.983 Y4.866 Z-1.831
G3 X21.211 Y5.157 Z-2. I-0.072 J0.291
G1 X21.188 Y5.813 F400.
X21.175 Y5.962
X21.139 Y6.108
X21.08 Y6.246
X21.001 Y6.373
X20.907 Y6.49
X20.8 Y6.595
X20.682 Y6.688
X20.555 Y6.768
X20.421 Y6.836
X20.281 Y6.889
X20.136 Y6.929
X19.989 Y6.954
X19.839 Y6.963
X19.689 Y6.957
X19.668 Y6.954
X19.472 Y6.897
X19.301 Y6.785
X19.17 Y6.629
X19.089 Y6.441
X19.066 Y6.239
X19.089 Y5.516
G3 X19.409 Y5.237 Z-1.8 I0.299 J0.02 F200.
G1 X19.443 Y5.241
X19.678 Y5.285
X20.619 Y5.458 F400.
X20.889 Y5.508 F200.
X20.942 Y5.518 Z-1.823
G3 X21.188 Y5.813 Z-2. I-0.054 J0.295
G1 X21.162 Y6.559 F400.
X21.149 Y6.709
X21.108 Y6.853
X21.045 Y6.989
X20.963 Y7.115
X20.866 Y7.229
X20.757 Y7.332
X20.638 Y7.423
X20.51 Y7.502
X20.375 Y7.567
X20.234 Y7.618
X20.089 Y7.656
X19.941 Y7.678
X19.791 Y7.685
X19.641 Y7.677
X19.63 Y7.675
X19.438 Y7.615
X19.272 Y7.502
X19.144 Y7.347
X19.065 Y7.162
X19.043 Y6.962
X19.066 Y6.239
G3 X19.385 Y5.96 Z-1.8 I0.299 J0.02 F200.
G1 X19.425 Y5.965
X19.654 Y6.011
X20.595 Y6.2 F400.
X20.863 Y6.254 F200.
X20.921 Y6.265 Z-1.825
G3 X21.162 Y6.559 Z-2. I-0.059 J0.294
G1 X21.137 Y7.289 F400.
X21.124 Y7.439
X21.082 Y7.583
X21.017 Y7.718
X20.934 Y7.843
X20.837 Y7.957
X20.727 Y8.059
X20.607 Y8.15
X20.479 Y8.228
X20.344 Y8.293
X20.203 Y8.343
X20.057 Y8.38
X19.909 Y8.402
X19.759 Y8.408
X19.609 Y8.399
X19.603 Y8.398
X19.413 Y8.337
X19.247 Y8.224
X19.12 Y8.069
X19.042 Y7.884
X19.02 Y7.685
X19.043 Y6.962
G3 X19.362 Y6.683 Z-1.8 I0.299 J0.02 F200.
G1 X19.403 Y6.688
X19.631 Y6.735
X20.57 Y6.928 F400.
X20.838 Y6.983 F200.
X20.897 Y6.996 Z-1.826
G3 X21.137 Y7.289 Z-2. I-0.06 J0.294
G1 X21.112 Y7.995 F400.
X21.1 Y8.145
X21.06 Y8.289
X20.998 Y8.426
X20.917 Y8.552
X20.821 Y8.667
X20.713 Y8.771
X20.594 Y8.863
X20.467 Y8.942
X20.332 Y9.009
X20.192 Y9.061
X20.046 Y9.099
X19.898 Y9.122
X19.748 Y9.13
X19.599 Y9.122
X19.588 Y9.121
X19.395 Y9.061
X19.227 Y8.949
X19.098 Y8.793
X19.019 Y8.607
X18.996 Y8.407
X19.02 Y7.685
G3 X19.339 Y7.406 Z-1.8 I0.299 J0.02 F200.
G1 X19.376 Y7.411
X19.608 Y7.456
X20.544 Y7.638 F400.
X20.813 Y7.69 F200.
X20.869 Y7.701 Z-1.824
G3 X21.112 Y7.995 Z-2. I-0.057 J0.294
G1 X21.088 Y8.692 F400.
X21.075 Y8.841
X21.04 Y8.987
X20.982 Y9.125
X20.904 Y9.254
X20.81 Y9.371
X20.704 Y9.477
X20.587 Y9.57
X20.461 Y9.652
X20.327 Y9.72
X20.188 Y9.774
X20.043 Y9.815
X19.895 Y9.84
X19.746 Y9.85
X19.596 Y9.845
X19.575 Y9.842
X19.379 Y9.784
X19.209 Y9.673
X19.077 Y9.517
X18.996 Y9.329
X18.973 Y9.126
X18.996 Y8.407
G3 X19.316 Y8.127 Z-1.8 I0.299 J0.02 F200.
G1 X19.348 Y8.131
X19.585 Y8.174
X20.519 Y8.34 F400.
X20.789 Y8.388 F200.
X20.841 Y8.397 Z-1.822
G3 X21.088 Y8.692 Z-2. I-0.053 J0.295
G1 X21.069 Y9.258 F400.
X21.049 Y9.482
X21.027 Y9.63
X20.981 Y9.773
X20.914 Y9.907
X20.829 Y10.03
X20.729 Y10.143
X20.617 Y10.243
X20.496 Y10.331
X20.366 Y10.406
X20.229 Y10.467
X20.087 Y10.514
X19.941 Y10.548
X19.791 Y10.564
X19.641 Y10.567
X19.619 Y10.565
X19.401 Y10.509
X19.212 Y10.387
X19.071 Y10.212
G3 X19.198 Y9.808 Z-1.8 I0.266 J-0.139 F200.
G1 X19.218 Y9.798
X19.449 Y9.698
X20.508 Y9.242 F400.
X20.63 Y9.189 F200.
X20.674 Y9.173
X20.72 Y9.165
X20.767
G3 X21.049 Y9.482 Z-2. I-0.018 J0.299
G1 X21.023 Y9.75 F400.
X21.002 Y9.914
X20.973 Y10.078
X20.954 Y10.16
X20.936 Y10.201
X20.889 Y10.283
X20.817 Y10.406
X20.781 Y10.462
X20.753 Y10.492
X20.725 Y10.517
X20.561 Y10.654
X20.523 Y10.683
X20.485 Y10.705
X20.397 Y10.739
X20.233 Y10.798
X20.192 Y10.81
X20.151 Y10.817
X20.069 Y10.819
X19.864 Y10.818
X19.823 Y10.812
X19.741 Y10.789
X19.536 Y10.714
X19.495 Y10.694
X19.413 Y10.633
X19.249 Y10.493
X19.211 Y10.45
X19.182 Y10.406
X19.063 Y10.197
X19.046 Y10.157
X19.027 Y10.078
X18.97 Y9.75
X18.958 Y9.668
Y9.586
X18.973 Y9.126
G3 X19.307 Y8.848 I0.299 J0.02 F200.
G1 X19.356 Y8.867 Z-1.995
X19.404 Y8.886 Z-1.981
X19.448 Y8.903 Z-1.958
X19.48 Y8.941 Z-1.921
X19.506 Y8.972 Z-1.874
X19.526 Y8.995 Z-1.82
X19.538 Y9.009 Z-1.762
X19.542 Y9.014 Z-1.7
Z5. F400.
X-8.495 Y-8.447
Z-2.4
Z-2.7 F200.
X-8.489 Y-8.443 Z-2.767
X-8.47 Y-8.431 Z-2.83
X-8.44 Y-8.411 Z-2.887
X-8.4 Y-8.386 Z-2.935
X-8.352 Y-8.355 Z-2.97
X-8.299 Y-8.321 Z-2.992
X-8.243 Y-8.285 Z-3.
G3 X-6.958 Y-7.25 I-4.134 J6.447
G1 X-6.892 Y-7.179 F400.
X-6.792 Y-6.965
X-6.687 Y-6.682
X-6.578 Y-6.294
X-6.465 Y-5.72
X-6.383 Y-5.003
X-6.342 Y-4.282
X-6.321 Y-3.56
X-6.314 Y-3.085
X-6.319 Y-2.991
X-6.337 Y-2.897
X-6.368 Y-2.807
X-6.608 Y-2.226
X-6.662 Y-2.093
X-6.734 Y-1.898
X-6.776 Y-1.734
X-6.809 Y-1.57
X-6.897 Y-0.914
X-6.94 Y-0.585
X-6.975 Y-0.257
X-6.992 Y-0.093
X-7. Y0.071
Y29.929
X-6.992 Y30.093
X-6.958 Y30.421
X-6.94 Y30.585
X-6.853 Y31.242
X-6.809 Y31.57
X-6.776 Y31.734
X-6.734 Y31.898
X-6.701 Y31.988
X-6.615 Y32.265
X-6.503 Y32.762
X-6.402 Y33.477
X-6.351 Y34.197
X-6.339 Y34.558
X-6.325 Y34.738
X-6.265 Y34.908
X-6.075 Y35.215
X-5.811 Y35.462
X-5.203 Y35.85
X-4.513 Y36.065
X-3.8 Y36.178
X-3.24 Y36.225
X-3.168 Y36.234
X-3.098 Y36.251
X-3.03 Y36.275
G3 X-3.125 Y36.847 I-0.124 J0.273 F200.
G1 X-3.192 Y36.853 Z-2.992
X-3.255 Y36.86 Z-2.97
X-3.312 Y36.865 Z-2.935
X-3.359 Y36.87 Z-2.887
X-3.394 Y36.873 Z-2.83
X-3.417 Y36.875 Z-2.767
X-3.424 Y36.876 Z-2.7
Z5. F400.
X-7.401 Y31.167
Z-2.4
Z-2.7 F200.
X-7.395 Y31.172 Z-2.767
X-7.378 Y31.186 Z-2.83
X-7.35 Y31.209 Z-2.887
X-7.313 Y31.239 Z-2.935
X-7.269 Y31.275 Z-2.97
X-7.22 Y31.315 Z-2.992
X-7.168 Y31.357 Z-3.
G3 X-6.701 Y31.988 I-0.999 J1.228
G1 X-6.662 Y32.093 F400.
X-6.608 Y32.226
X-6.2 Y33.21
X-6.124 Y33.374
X-6.033 Y33.538
X-5.928 Y33.702
X-5.173 Y34.687
X-5.038 Y34.851
X-5.022 Y34.869
X-4.877 Y35.015
X-4.858 Y35.032
X-4.678 Y35.179
X-4.366 Y35.419
X-3.824 Y35.835
X-3.71 Y35.919
X-3.546 Y36.03
X-3.382 Y36.119
X-3.293 Y36.163
X-3.218 Y36.197
X-2.235 Y36.605
X-2.071 Y36.67
X-1.907 Y36.732
X-1.743 Y36.775
X-1.579 Y36.806
X-1.251 Y36.853
X-0.595 Y36.939
X-0.103 Y36.995
X0.061 Y36.998
X0.553 Y37.
X109.611
X109.939 Y36.998
X110.103 Y36.995
X110.595 Y36.939
X111.251 Y36.853
X111.579 Y36.806
X111.743 Y36.775
X111.907 Y36.732
X111.997 Y36.698
X112.205 Y36.631
X112.675 Y36.519
X113.389 Y36.41
X114.109 Y36.355
X114.469 Y36.342
X114.65 Y36.337
X114.825 Y36.292
X115.147 Y36.129
X115.407 Y35.879
X115.82 Y35.286
X116.048 Y34.601
X116.17 Y33.89
X116.228 Y33.229
X116.238 Y33.158
X116.255 Y33.089
X116.279 Y33.022
G3 X116.85 Y33.118 I0.273 J0.125 F200.
G1 X116.857 Y33.184 Z-2.992
X116.863 Y33.247 Z-2.97
X116.868 Y33.304 Z-2.935
X116.873 Y33.351 Z-2.887
X116.876 Y33.387 Z-2.83
X116.878 Y33.409 Z-2.767
X116.879 Y33.416 Z-2.7
Z5. F400.
X111.184 Y37.407
Z-2.4
Z-2.7 F200.
X111.189 Y37.401 Z-2.767
X111.203 Y37.384 Z-2.83
X111.225 Y37.356 Z-2.887
X111.254 Y37.319 Z-2.935
X111.29 Y37.274 Z-2.97
X111.329 Y37.225 Z-2.992
X111.371 Y37.173 Z-3.
G3 X111.997 Y36.698 I1.239 J0.985
G1 X112.108 Y36.656 F400.
X112.235 Y36.605
X113.218 Y36.197
X113.293 Y36.163
X113.382 Y36.119
X113.546 Y36.03
X113.71 Y35.919
X113.824 Y35.835
X114.53 Y35.293
X114.694 Y35.166
X114.858 Y35.032
X114.877 Y35.015
X115.022 Y34.87
X115.039 Y34.851
X115.173 Y34.687
X115.928 Y33.702
X116.033 Y33.538
X116.124 Y33.374
X116.2 Y33.21
X116.609 Y32.226
X116.662 Y32.094
X116.734 Y31.898
X116.777 Y31.734
X116.81 Y31.57
X116.897 Y30.914
X116.94 Y30.585
X116.975 Y30.257
X116.992 Y30.093
X117. Y29.929
Y0.071
X116.992 Y-0.093
X116.958 Y-0.421
X116.94 Y-0.585
X116.854 Y-1.242
X116.81 Y-1.57
X116.777 Y-1.734
X116.734 Y-1.898
X116.701 Y-1.988
X116.615 Y-2.265
X116.503 Y-2.763
X116.402 Y-3.478
X116.351 Y-4.198
X116.339 Y-4.559
X116.324 Y-4.739
X116.265 Y-4.909
X116.074 Y-5.216
X115.811 Y-5.462
X115.202 Y-5.851
X114.512 Y-6.065
X113.799 Y-6.178
X113.24 Y-6.224
X113.169 Y-6.234
X113.098 Y-6.251
X113.03 Y-6.275
G3 X113.126 Y-6.847 I0.124 J-0.273 F200.
G1 X113.192 Y-6.853 Z-2.992
X113.255 Y-6.859 Z-2.97
X113.312 Y-6.865 Z-2.935
X113.359 Y-6.87 Z-2.887
X113.395 Y-6.873 Z-2.83
X113.417 Y-6.875 Z-2.767
X113.424 Y-6.876 Z-2.7
Z5. F400.
X117.401 Y-1.167
Z-2.4
Z-2.7 F200.
X117.395 Y-1.172 Z-2.767
X117.378 Y-1.186 Z-2.83
X117.35 Y-1.209 Z-2.887
X117.313 Y-1.239 Z-2.935
X117.269 Y-1.275 Z-2.97
X117.22 Y-1.315 Z-2.992
X117.168 Y-1.357 Z-3.
G3 X116.701 Y-1.988 I0.999 J-1.228
G1 X116.662 Y-2.094 F400.
X116.609 Y-2.226
X116.2 Y-3.21
X116.124 Y-3.374
X116.033 Y-3.538
X115.928 Y-3.702
X115.173 Y-4.687
X115.039 Y-4.851
X115.022 Y-4.87
X114.877 Y-5.015
X114.858 Y-5.032
X114.678 Y-5.179
X114.366 Y-5.419
X113.824 Y-5.835
X113.71 Y-5.919
X113.546 Y-6.03
X113.382 Y-6.119
X113.293 Y-6.163
X113.218 Y-6.197
X112.235 Y-6.605
X112.071 Y-6.67
X111.907 Y-6.732
X111.743 Y-6.775
X111.579 Y-6.806
X111.251 Y-6.853
X110.595 Y-6.939
X110.103 Y-6.995
X109.939 Y-6.998
X109.447 Y-7.
X24.825
X24.497 Y-6.999
X24.301 Y-6.984
X24.169 Y-6.965
X24.005 Y-6.929
X23.841 Y-6.877
X23.713 Y-6.82
X23.538 Y-6.745
X23.214 Y-6.639
X22.757 Y-6.528
X22.044 Y-6.414
X21.324 Y-6.358
X20.603 Y-6.329
X20.116 Y-6.319
X19.94 Y-6.338
X19.775 Y-6.4
X19.631 Y-6.502
X19.577 Y-6.55
X19.413 Y-6.669
X19.249 Y-6.766
X19.14 Y-6.82
X19.085 Y-6.844
X18.921 Y-6.906
X18.757 Y-6.947
X18.593 Y-6.977
X18.429 Y-6.996
X17.937 Y-7.
X0.389
X0.061 Y-6.998
X-0.103 Y-6.995
X-0.595 Y-6.939
X-1.251 Y-6.853
X-1.579 Y-6.806
X-1.743 Y-6.775
X-1.907 Y-6.732
X-1.997 Y-6.698
X-2.206 Y-6.631
X-2.676 Y-6.519
X-3.389 Y-6.41
X-3.569 Y-6.396
X-3.747 Y-6.367
X-3.912 Y-6.294
X-4.198 Y-6.073
X-4.642 Y-5.504
X-4.721 Y-5.271
X-4.763 Y-5.174
X-4.82 Y-5.083
X-4.889 Y-5.003
G3 X-5.313 Y-5.017 Z-2.8 I-0.205 J-0.219 F200.
X-5.389 Y-5.27 I0.219 J-0.205
X-5.245 Y-5.481 I0.296 J0.048 F400.
G1 X-2.265 Y-7.233
X-2.211 Y-7.258
X-2.153 Y-7.272
X-2.094 Y-7.274
X-2.035 Y-7.265
G3 X-1.836 Y-7.091 I-0.078 J0.29 F200.
X-1.997 Y-6.698 Z-3. I-0.277 J0.116
G1 X-2.108 Y-6.656 F400.
X-2.235 Y-6.605
X-3.218 Y-6.197
X-3.293 Y-6.163
X-3.382 Y-6.119
X-3.546 Y-6.03
X-3.71 Y-5.919
X-3.824 Y-5.835
X-4.53 Y-5.293
X-4.694 Y-5.166
X-4.858 Y-5.032
X-4.877 Y-5.015
X-5.022 Y-4.869
X-5.038 Y-4.851
X-5.173 Y-4.687
X-5.928 Y-3.702
X-6.033 Y-3.538
X-6.124 Y-3.374
X-6.2 Y-3.21
X-6.368 Y-2.807
G3 X-6.939 Y-2.903 I-0.273 J-0.124 F200.
G1 X-6.946 Y-2.969 Z-2.992
X-6.952 Y-3.033 Z-2.97
X-6.957 Y-3.089 Z-2.935
X-6.962 Y-3.136 Z-2.887
X-6.965 Y-3.172 Z-2.83
X-6.967 Y-3.194 Z-2.767
X-6.968 Y-3.202 Z-2.7
Z5. F400.
X24.462 Y-7.596
Z-2.4
Z-2.7 F200.
X24.458 Y-7.59 Z-2.767
X24.445 Y-7.571 Z-2.83
X24.426 Y-7.542 Z-2.887
X24.399 Y-7.502 Z-2.935
X24.368 Y-7.455 Z-2.97
X24.333 Y-7.402 Z-2.992
X24.296 Y-7.346 Z-3.
G3 X23.713 Y-6.82 I-1.319 J-0.874
G1 X23.513 Y-6.723 F400.
X23.349 Y-6.613
X23.202 Y-6.491
X23.108 Y-6.407
X23.067 Y-6.367
X23.032 Y-6.327
X22.956 Y-6.231
X22.858 Y-6.118
X22.747 Y-6.016
X22.616 Y-5.916
X22.454 Y-5.812
X22.254 Y-5.705
X21.991 Y-5.591
X21.655 Y-5.476
X21.274 Y-5.379
X20.961 Y-5.326
X20.875 Y-5.318
X20.657 Y-5.333
X20.454 Y-5.414
X20.286 Y-5.554
X20.17 Y-5.739
X20.128 Y-5.835
X20.069 Y-5.958
X20.045 Y-5.999
X19.938 Y-6.163
X19.905 Y-6.209
X19.81 Y-6.327
X19.741 Y-6.401
X19.631 Y-6.502
G3 X19.625 Y-6.926 Z-2.8 I0.209 J-0.215 F200.
X19.872 Y-7.015 I0.215 J0.209
G1 X19.874 Y-7.014
X22.63 Y-6.718 F400.
X22.746 Y-6.706 F200.
X22.797 Y-6.696
X22.846 Y-6.677
X22.89 Y-6.65
G3 X22.956 Y-6.231 Z-3. I-0.177 J0.242
G1 X22.903 Y-6.163 F400.
X22.857 Y-6.097
X22.798 Y-5.999
X22.714 Y-5.835
X22.643 Y-5.671
X22.629 Y-5.622
X22.579 Y-5.48
X22.506 Y-5.349
X22.418 Y-5.228
X22.318 Y-5.116
X22.202 Y-5.007
X22.068 Y-4.899
X21.931 Y-4.806
X21.791 Y-4.727
X21.636 Y-4.655
X21.496 Y-4.602
X21.351 Y-4.562
X21.199 Y-4.533
X21.071 Y-4.52
X20.846 Y-4.533
X20.637 Y-4.617
X20.466 Y-4.764
X20.352 Y-4.958
X20.306 Y-5.179
X20.282 Y-5.343
X20.247 Y-5.507
X20.199 Y-5.671
X20.17 Y-5.739
G3 X20.34 Y-6.127 Z-2.8 I0.28 J-0.109 F200.
G1 X20.406 Y-6.145
X20.473 Y-6.147
X20.611 Y-6.136
X22.14 Y-6.013 F400.
X22.362 Y-5.995 F200.
X22.412 Y-5.986
G3 X22.629 Y-5.622 Z-3. I-0.074 J0.291
G1 X22.595 Y-5.507 F400.
X22.556 Y-5.343
X22.487 Y-4.925
X22.455 Y-4.778
X22.406 Y-4.636
X22.338 Y-4.503
X22.253 Y-4.379
X22.156 Y-4.265
X22.047 Y-4.162
X21.929 Y-4.069
X21.802 Y-3.989
X21.669 Y-3.92
X21.529 Y-3.864
X21.385 Y-3.824
X21.237 Y-3.797
X21.088 Y-3.784
X20.938 Y-3.788
X20.879 Y-3.795
X20.67 Y-3.855
X20.489 Y-3.976
X20.354 Y-4.147
X20.278 Y-4.352
X20.269 Y-4.569
X20.301 Y-4.851
X20.313 Y-5.015
X20.306 Y-5.179
G3 X20.603 Y-5.481 Z-2.8 I0.3 J-0.002 F200.
G1 X20.647 Y-5.478
X20.875 Y-5.447
X21.957 Y-5.298 F400.
X22.228 Y-5.261 F200.
X22.23 Z-2.801
G3 X22.487 Y-4.925 Z-3. I-0.041 J0.297
G1 X22.35 Y-4.102 F400.
X22.319 Y-3.955
X22.266 Y-3.815
X22.193 Y-3.684
X22.103 Y-3.564
X21.999 Y-3.456
X21.884 Y-3.36
X21.759 Y-3.276
X21.627 Y-3.206
X21.488 Y-3.15
X21.344 Y-3.107
X21.197 Y-3.078
X21.047 Y-3.066
X20.897 Y-3.069
X20.748 Y-3.086
X20.702 Y-3.097
X20.508 Y-3.173
X20.346 Y-3.304
X20.229 Y-3.477
X20.168 Y-3.676
Y-3.884
X20.241 Y-4.359
X20.263 Y-4.523
X20.269 Y-4.569
G3 X20.61 Y-4.822 Z-2.8 I0.297 J0.045 F200.
G1 X20.64 Y-4.815
X20.875 Y-4.755
X21.827 Y-4.509 F400.
X22.092 Y-4.44 F200.
X22.128 Y-4.431 Z-2.816
G3 X22.35 Y-4.102 Z-3. I-0.075 J0.29
G1 X22.222 Y-3.325 F400.
X22.19 Y-3.178
X22.132 Y-3.04
X22.053 Y-2.912
X21.958 Y-2.796
X21.849 Y-2.693
X21.729 Y-2.603
X21.601 Y-2.526
X21.465 Y-2.462
X21.324 Y-2.412
X21.178 Y-2.377
X21.029 Y-2.355
X20.879 Y-2.35
X20.73 Y-2.36
X20.582 Y-2.384
X20.563 Y-2.389
X20.378 Y-2.471
X20.224 Y-2.602
X20.114 Y-2.772
X20.058 Y-2.967
X20.059 Y-3.169
X20.168 Y-3.884
G3 X20.519 Y-4.123 Z-2.8 I0.295 J0.056 F200.
G1 X20.554 Y-4.115
X20.78 Y-4.043
X21.704 Y-3.748 F400.
X21.964 Y-3.665 F200.
X22.015 Y-3.649 Z-2.823
G3 X22.222 Y-3.325 Z-3. I-0.091 J0.286
G1 X22.107 Y-2.628 F400.
X22.075 Y-2.481
X22.022 Y-2.341
X21.946 Y-2.212
X21.853 Y-2.094
X21.745 Y-1.989
X21.626 Y-1.898
X21.499 Y-1.819
X21.364 Y-1.754
X21.223 Y-1.702
X21.077 Y-1.666
X20.929 Y-1.644
X20.779 Y-1.636
X20.629 Y-1.645
X20.481 Y-1.668
X20.461 Y-1.674
X20.274 Y-1.755
X20.118 Y-1.886
X20.006 Y-2.056
X19.949 Y-2.252
X19.95 Y-2.456
X20.059 Y-3.169
G3 X20.409 Y-3.408 Z-2.8 I0.295 J0.056 F200.
G1 X20.442 Y-3.4
X20.671 Y-3.33
X21.587 Y-3.048 F400.
X21.849 Y-2.968 F200.
X21.897 Y-2.953 Z-2.821
G3 X22.107 Y-2.628 Z-3. I-0.088 J0.287
G1 X21.986 Y-1.898 F400.
X21.954 Y-1.751
X21.898 Y-1.612
X21.821 Y-1.484
X21.726 Y-1.368
X21.617 Y-1.264
X21.497 Y-1.174
X21.368 Y-1.098
X21.232 Y-1.034
X21.09 Y-0.985
X20.944 Y-0.95
X20.796 Y-0.93
X20.646 Y-0.925
X20.496 Y-0.936
X20.349 Y-0.961
X20.339 Y-0.964
X20.156 Y-1.047
X20.004 Y-1.178
X19.895 Y-1.348
X19.839 Y-1.541
X19.841 Y-1.742
X19.95 Y-2.456
G3 X20.3 Y-2.695 Z-2.8 I0.295 J0.056 F200.
G1 X20.337 Y-2.686
X20.561 Y-2.613
X21.468 Y-2.322 F400.
X21.729 Y-2.239 F200.
X21.78 Y-2.222 Z-2.823
G3 X21.986 Y-1.898 Z-3. I-0.092 J0.286
G1 X21.866 Y-1.172 F400.
X21.834 Y-1.026
X21.776 Y-0.887
X21.697 Y-0.76
X21.6 Y-0.645
X21.49 Y-0.543
X21.369 Y-0.455
X21.24 Y-0.379
X21.103 Y-0.317
X20.961 Y-0.269
X20.815 Y-0.236
X20.666 Y-0.217
X20.516 Y-0.215
X20.366 Y-0.227
X20.297 Y-0.24
X20.095 Y-0.311
X19.923 Y-0.44
X19.799 Y-0.615
X19.733 Y-0.82
Y-1.034
X19.841 Y-1.742
G3 X20.191 Y-1.982 Z-2.8 I0.295 J0.056 F200.
G1 X20.23 Y-1.971
X20.452 Y-1.898
X21.349 Y-1.6 F400.
X21.609 Y-1.514 F200.
X21.663 Y-1.496 Z-2.824
G3 X21.866 Y-1.172 Z-3. I-0.095 J0.285
G1 X21.769 Y-0.585 F400.
X21.757 Y-0.495
X21.73 Y-0.348
X21.677 Y-0.207
X21.602 Y-0.077
X21.509 Y0.04
X21.402 Y0.145
X21.283 Y0.237
X21.155 Y0.316
X21.02 Y0.38
X20.879 Y0.43
X20.733 Y0.467
X20.585 Y0.488
X20.435 Y0.493
X20.285 Y0.484
X20.137 Y0.459
X20.125 Y0.456
X19.941 Y0.373
X19.788 Y0.241
X19.679 Y0.072
X19.623 Y-0.122
X19.624 Y-0.324
X19.733 Y-1.034
G3 X20.083 Y-1.273 Z-2.8 I0.295 J0.056 F200.
G1 X20.118 Y-1.265
X20.344 Y-1.193
X21.229 Y-0.912 F400.
X21.489 Y-0.829 F200.
X21.549 Y-0.81 Z-2.827
G3 X21.757 Y-0.495 Z-3. I-0.091 J0.286
G1 X21.747 Y-0.421 F400.
X21.707 Y-0.093
X21.689 Y0.071
X21.676 Y0.202
X21.653 Y0.35
X21.6 Y0.49
X21.526 Y0.62
X21.433 Y0.739
X21.327 Y0.845
X21.21 Y0.938
X21.083 Y1.018
X20.948 Y1.084
X20.808 Y1.138
X20.663 Y1.176
X20.515 Y1.2
X20.365 Y1.21
X20.216 Y1.203
X20.067 Y1.182
X20.054 Y1.179
X19.869 Y1.103
X19.713 Y0.979
X19.599 Y0.815
X19.536 Y0.626
X19.528 Y0.427
X19.589 Y-0.093
X19.624 Y-0.324
G3 X19.974 Y-0.563 Z-2.8 I0.295 J0.056 F200.
G1 X20.007 Y-0.555
X20.236 Y-0.484
X21.136 Y-0.206 F400.
X21.398 Y-0.125 F200.
X21.465 Y-0.104 Z-2.83
G3 X21.676 Y0.202 Z-3. I-0.089 J0.287
G1 X21.607 Y0.891 F400.
X21.585 Y1.039
X21.535 Y1.181
X21.463 Y1.313
X21.373 Y1.433
X21.269 Y1.541
X21.154 Y1.637
X21.029 Y1.719
X20.896 Y1.789
X20.757 Y1.846
X20.613 Y1.888
X20.466 Y1.916
X20.316 Y1.929
X20.166 Y1.926
X20.017 Y1.909
X20.004 Y1.906
X19.816 Y1.835
X19.655 Y1.713
X19.537 Y1.55
X19.469 Y1.36
X19.459 Y1.159
X19.514 Y0.563
X19.528 Y0.427
G3 X19.866 Y0.171 Z-2.8 I0.297 J0.041 F200.
G1 X19.904 Y0.179
X20.131 Y0.241
X21.064 Y0.495 F400.
X21.328 Y0.567 F200.
X21.386 Y0.582 Z-2.826
G3 X21.607 Y0.891 Z-3. I-0.079 J0.289
G1 X21.537 Y1.597 F400.
X21.514 Y1.745
X21.466 Y1.887
X21.396 Y2.02
X21.307 Y2.141
X21.205 Y2.25
X21.09 Y2.347
X20.966 Y2.431
X20.834 Y2.503
X20.696 Y2.561
X20.552 Y2.604
X20.405 Y2.634
X20.256 Y2.649
X20.106 Y2.647
X19.957 Y2.631
X19.942 Y2.628
X19.752 Y2.557
X19.591 Y2.435
X19.471 Y2.272
X19.403 Y2.082
X19.392 Y1.88
X19.459 Y1.159
G3 X19.794 Y0.899 Z-2.8 I0.298 J0.038 F200.
G1 X19.831 Y0.906
X20.06 Y0.965
X20.993 Y1.205 F400.
X21.258 Y1.273 F200.
X21.312 Y1.287 Z-2.824
G3 X21.537 Y1.597 Z-3. I-0.075 J0.291
G1 X21.467 Y2.294 F400.
X21.445 Y2.442
X21.401 Y2.585
X21.333 Y2.72
X21.248 Y2.843
X21.147 Y2.954
X21.034 Y3.053
X20.912 Y3.139
X20.781 Y3.213
X20.643 Y3.273
X20.5 Y3.318
X20.354 Y3.35
X20.205 Y3.366
X20.055
X19.905 Y3.352
X19.884 Y3.348
X19.692 Y3.279
X19.528 Y3.157
X19.406 Y2.993
X19.337 Y2.802
X19.326 Y2.598
X19.392 Y1.88
G3 X19.727 Y1.62 Z-2.8 I0.298 J0.038 F200.
G1 X19.76 Y1.626
X19.994 Y1.682
X20.922 Y1.907 F400.
X21.188 Y1.971 F200.
X21.238 Y1.983 Z-2.822
G3 X21.467 Y2.294 Z-3. I-0.07 J0.292
G1 X21.395 Y3.024 F400.
X21.372 Y3.172
X21.326 Y3.315
X21.257 Y3.448
X21.171 Y3.57
X21.069 Y3.681
X20.955 Y3.779
X20.832 Y3.864
X20.7 Y3.936
X20.562 Y3.995
X20.419 Y4.039
X20.272 Y4.069
X20.123 Y4.084
X19.973 Y4.083
X19.823 Y4.068
X19.809 Y4.065
X19.62 Y3.994
X19.458 Y3.872
X19.339 Y3.709
X19.27 Y3.518
X19.26 Y3.316
X19.326 Y2.598
G3 X19.661 Y2.338 Z-2.8 I0.298 J0.038 F200.
G1 X19.696 Y2.345
X19.927 Y2.403
X20.85 Y2.634 F400.
X21.116 Y2.7 F200.
X21.168 Y2.714 Z-2.823
G3 X21.395 Y3.024 Z-3. I-0.073 J0.291
G1 X21.32 Y3.77 F400.
X21.298 Y3.919
X21.247 Y4.06
X21.174 Y4.191
X21.084 Y4.311
X20.98 Y4.419
X20.864 Y4.514
X20.739 Y4.597
X20.606 Y4.666
X20.467 Y4.723
X20.323 Y4.764
X20.175 Y4.791
X20.026 Y4.803
X19.876 Y4.799
X19.804 Y4.79
X19.598 Y4.731
X19.419 Y4.612
X19.285 Y4.445
X19.207 Y4.245
X19.194 Y4.031
X19.26 Y3.316
G3 X19.595 Y3.056 Z-2.8 I0.298 J0.038 F200.
G1 X19.636 Y3.064
X19.86 Y3.125
X20.777 Y3.374 F400.
X21.042 Y3.446 F200.
X21.099 Y3.461 Z-2.825
G3 X21.32 Y3.77 Z-3. I-0.079 J0.29
G1 X21.264 Y4.336 F400.
X21.253 Y4.467
X21.234 Y4.616
X21.186 Y4.758
X21.116 Y4.891
X21.028 Y5.012
X20.925 Y5.122
X20.811 Y5.219
X20.687 Y5.303
X20.555 Y5.375
X20.416 Y5.431
X20.273 Y5.475
X20.126 Y5.504
X19.976 Y5.516
X19.826 Y5.515
X19.677 Y5.498
X19.668 Y5.496
X19.481 Y5.423
X19.322 Y5.301
X19.205 Y5.139
X19.138 Y4.949
X19.128 Y4.749
X19.194 Y4.031
G3 X19.529 Y3.771 Z-2.8 I0.298 J0.038 F200.
G1 X19.568 Y3.779
X19.794 Y3.838
X20.704 Y4.078 F400.
X20.969 Y4.147 F200.
X21.03 Y4.163 Z-2.827
G3 X21.253 Y4.467 Z-3. I-0.076 J0.29
G1 X21.225 Y4.828 F400.
X21.216 Y4.993
X21.211 Y5.157
X21.198 Y5.306
X21.152 Y5.449
X21.085 Y5.583
X20.999 Y5.706
X20.899 Y5.818
X20.786 Y5.917
X20.664 Y6.004
X20.534 Y6.078
X20.397 Y6.14
X20.254 Y6.186
X20.108 Y6.219
X19.959 Y6.237
X19.809 Y6.239
X19.659 Y6.227
X19.472 Y6.163
X19.31 Y6.049
X19.187 Y5.895
X19.111 Y5.713
X19.089 Y5.516
X19.097 Y5.321
X19.111 Y4.993
X19.12 Y4.828
X19.128 Y4.749
G3 X19.463 Y4.49 Z-2.8 I0.298 J0.038 F200.
G1 X19.498 Y4.496
X19.729 Y4.554
X20.647 Y4.782 F400.
X20.912 Y4.848 F200.
X20.983 Y4.866 Z-2.831
G3 X21.211 Y5.157 Z-3. I-0.072 J0.291
G1 X21.188 Y5.813 F400.
X21.175 Y5.962
X21.139 Y6.108
X21.08 Y6.246
X21.001 Y6.373
X20.907 Y6.49
X20.8 Y6.595
X20.682 Y6.688
X20.555 Y6.768
X20.421 Y6.836
X20.281 Y6.889
X20.136 Y6.929
X19.989 Y6.954
X19.839 Y6.963
X19.689 Y6.957
X19.668 Y6.954
X19.472 Y6.897
X19.301 Y6.785
X19.17 Y6.629
X19.089 Y6.441
X19.066 Y6.239
X19.089 Y5.516
G3 X19.409 Y5.237 Z-2.8 I0.299 J0.02 F200.
G1 X19.443 Y5.241
X19.678 Y5.285
X20.619 Y5.458 F400.
X20.889 Y5.508 F200.
X20.942 Y5.518 Z-2.823
G3 X21.188 Y5.813 Z-3. I-0.054 J0.295
G1 X21.162 Y6.559 F400.
X21.149 Y6.709
X21.108 Y6.853
X21.045 Y6.989
X20.963 Y7.115
X20.866 Y7.229
X20.757 Y7.332
X20.638 Y7.423
X20.51 Y7.502
X20.375 Y7.567
X20.234 Y7.618
X20.089 Y7.656
X19.941 Y7.678
X19.791 Y7.685
X19.641 Y7.677
X19.63 Y7.675
X19.438 Y7.615
X19.272 Y7.502
X19.144 Y7.347
X19.065 Y7.162
X19.043 Y6.962
X19.066 Y6.239
G3 X19.385 Y5.96 Z-2.8 I0.299 J0.02 F200.
G1 X19.425 Y5.965
X19.654 Y6.011
X20.595 Y6.2 F400.
X20.863 Y6.254 F200.
X20.921 Y6.265 Z-2.825
G3 X21.162 Y6.559 Z-3. I-0.059 J0.294
G1 X21.137 Y7.289 F400.
X21.124 Y7.439
X21.082 Y7.583
X21.017 Y7.718
X20.934 Y7.843
X20.837 Y7.957
X20.727 Y8.059
X20.607 Y8.15
X20.479 Y8.228
X20.344 Y8.293
X20.203 Y8.343
X20.057 Y8.38
X19.909 Y8.402
X19.759 Y8.408
X19.609 Y8.399
X19.603 Y8.398
X19.413 Y8.337
X19.247 Y8.224
X19.12 Y8.069
X19.042 Y7.884
X19.02 Y7.685
X19.043 Y6.962
G3 X19.362 Y6.683 Z-2.8 I0.299 J0.02 F200.
G1 X19.403 Y6.688
X19.631 Y6.735
X20.57 Y6.928 F400.
X20.838 Y6.983 F200.
X20.897 Y6.996 Z-2.826
G3 X21.137 Y7.289 Z-3. I-0.06 J0.294
G1 X21.112 Y7.995 F400.
X21.1 Y8.145
X21.06 Y8.289
X20.998 Y8.426
X20.917 Y8.552
X20.821 Y8.667
X20.713 Y8.771
X20.594 Y8.863
X20.467 Y8.942
X20.332 Y9.009
X20.192 Y9.061
X20.046 Y9.099
X19.898 Y9.122
X19.748 Y9.13
X19.599 Y9.122
X19.588 Y9.121
X19.395 Y9.061
X19.227 Y8.949
X19.098 Y8.793
X19.019 Y8.607
X18.996 Y8.407
X19.02 Y7.685
G3 X19.339 Y7.406 Z-2.8 I0.299 J0.02 F200.
G1 X19.376 Y7.411
X19.608 Y7.456
X20.544 Y7.638 F400.
X20.813 Y7.69 F200.
X20.869 Y7.701 Z-2.824
G3 X21.112 Y7.995 Z-3. I-0.057 J0.294
G1 X21.088 Y8.692 F400.
X21.075 Y8.841
X21.04 Y8.987
X20.982 Y9.125
X20.904 Y9.254
X20.81 Y9.371
X20.704 Y9.477
X20.587 Y9.57
X20.461 Y9.652
X20.327 Y9.72
X20.188 Y9.774
X20.043 Y9.815
X19.895 Y9.84
X19.746 Y9.85
X19.596 Y9.845
X19.575 Y9.842
X19.379 Y9.784
X19.209 Y9.673
X19.077 Y9.517
X18.996 Y9.329
X18.973 Y9.126
X18.996 Y8.407
G3 X19.316 Y8.127 Z-2.8 I0.299 J0.02 F200.
G1 X19.348 Y8.131
X19.585 Y8.174
X20.519 Y8.34 F400.
X20.789 Y8.388 F200.
X20.841 Y8.397 Z-2.822
G3 X21.088 Y8.692 Z-3. I-0.053 J0.295
G1 X21.069 Y9.258 F400.
X21.049 Y9.482
X21.027 Y9.63
X20.981 Y9.773
X20.914 Y9.907
X20.829 Y10.03
X20.729 Y10.143
X20.617 Y10.243
X20.496 Y10.331
X20.366 Y10.406
X20.229 Y10.467
X20.087 Y10.514
X19.941 Y10.548
X19.791 Y10.564
X19.641 Y10.567
X19.619 Y10.565
X19.401 Y10.509
X19.212 Y10.387
X19.071 Y10.212
G3 X19.198 Y9.808 Z-2.8 I0.266 J-0.139 F200.
G1 X19.218 Y9.798
X19.449 Y9.698
X20.508 Y9.242 F400.
X20.63 Y9.189 F200.
X20.674 Y9.173
X20.72 Y9.165
X20.767
G3 X21.049 Y9.482 Z-3. I-0.018 J0.299
G1 X21.023 Y9.75 F400.
X21.002 Y9.914
X20.973 Y10.078
X20.954 Y10.16
X20.936 Y10.201
X20.889 Y10.283
X20.817 Y10.406
X20.781 Y10.462
X20.753 Y10.492
X20.725 Y10.517
X20.561 Y10.654
X20.523 Y10.683
X20.485 Y10.705
X20.397 Y10.739
X20.233 Y10.798
X20.192 Y10.81
X20.151 Y10.817
X20.069 Y10.819
X19.864 Y10.818
X19.823 Y10.812
X19.741 Y10.789
X19.536 Y10.714
X19.495 Y10.694
X19.413 Y10.633
X19.249 Y10.493
X19.211 Y10.45
X19.182 Y10.406
X19.063 Y10.197
X19.046 Y10.157
X19.027 Y10.078
X18.97 Y9.75
X18.958 Y9.668
Y9.586
X18.973 Y9.126
G3 X19.307 Y8.848 I0.299 J0.02 F200.
G1 X19.356 Y8.867 Z-2.995
X19.404 Y8.886 Z-2.981
X19.448 Y8.903 Z-2.958
X19.48 Y8.941 Z-2.921
X19.506 Y8.972 Z-2.874
X19.526 Y8.995 Z-2.82
X19.538 Y9.009 Z-2.762
X19.542 Y9.014 Z-2.7
Z5. F400.
X-8.495 Y-8.447
Z-3.4
Z-3.7 F200.
X-8.489 Y-8.443 Z-3.767
X-8.47 Y-8.431 Z-3.83
X-8.44 Y-8.411 Z-3.887
X-8.4 Y-8.386 Z-3.935
X-8.352 Y-8.355 Z-3.97
X-8.299 Y-8.321 Z-3.992
X-8.243 Y-8.285 Z-4.
G3 X-6.958 Y-7.25 I-4.134 J6.447
G1 X-6.892 Y-7.179 F400.
X-6.792 Y-6.965
X-6.687 Y-6.682
X-6.578 Y-6.294
X-6.465 Y-5.72
X-6.383 Y-5.003
X-6.342 Y-4.282
X-6.321 Y-3.56
X-6.314 Y-3.085
X-6.319 Y-2.991
X-6.337 Y-2.897
X-6.368 Y-2.807
X-6.608 Y-2.226
X-6.662 Y-2.093
X-6.734 Y-1.898
X-6.776 Y-1.734
X-6.809 Y-1.57
X-6.897 Y-0.914
X-6.94 Y-0.585
X-6.975 Y-0.257
X-6.992 Y-0.093
X-7. Y0.071
Y29.929
X-6.992 Y30.093
X-6.958 Y30.421
X-6.94 Y30.585
X-6.853 Y31.242
X-6.809 Y31.57
X-6.776 Y31.734
X-6.734 Y31.898
X-6.701 Y31.988
X-6.615 Y32.265
X-6.503 Y32.762
X-6.402 Y33.477
X-6.351 Y34.197
X-6.339 Y34.558
X-6.325 Y34.738
X-6.265 Y34.908
X-6.075 Y35.215
X-5.811 Y35.462
X-5.203 Y35.85
X-4.513 Y36.065
X-3.8 Y36.178
X-3.24 Y36.225
X-3.168 Y36.234
X-3.098 Y36.251
X-3.03 Y36.275
G3 X-3.125 Y36.847 I-0.124 J0.273 F200.
G1 X-3.192 Y36.853 Z-3.992
X-3.255 Y36.86 Z-3.97
X-3.312 Y36.865 Z-3.935
X-3.359 Y36.87 Z-3.887
X-3.394 Y36.873 Z-3.83
X-3.417 Y36.875 Z-3.767
X-3.424 Y36.876 Z-3.7
Z5. F400.
X-7.401 Y31.167
Z-3.4
Z-3.7 F200.
X-7.395 Y31.172 Z-3.767
X-7.378 Y31.186 Z-3.83
X-7.35 Y31.209 Z-3.887
X-7.313 Y31.239 Z-3.935
X-7.269 Y31.275 Z-3.97
X-7.22 Y31.315 Z-3.992
X-7.168 Y31.357 Z-4.
G3 X-6.701 Y31.988 I-0.999 J1.228
G1 X-6.662 Y32.093 F400.
X-6.608 Y32.226
X-6.2 Y33.21
X-6.124 Y33.374
X-6.033 Y33.538
X-5.928 Y33.702
X-5.173 Y34.687
X-5.038 Y34.851
X-5.022 Y34.869
X-4.877 Y35.015
X-4.858 Y35.032
X-4.678 Y35.179
X-4.366 Y35.419
X-3.824 Y35.835
X-3.71 Y35.919
X-3.546 Y36.03
X-3.382 Y36.119
X-3.293 Y36.163
X-3.218 Y36.197
X-2.235 Y36.605
X-2.071 Y36.67
X-1.907 Y36.732
X-1.743 Y36.775
X-1.579 Y36.806
X-1.251 Y36.853
X-0.595 Y36.939
X-0.103 Y36.995
X0.061 Y36.998
X0.553 Y37.
X109.611
X109.939 Y36.998
X110.103 Y36.995
X110.595 Y36.939
X111.251 Y36.853
X111.579 Y36.806
X111.743 Y36.775
X111.907 Y36.732
X111.997 Y36.698
X112.205 Y36.631
X112.675 Y36.519
X113.389 Y36.41
X114.109 Y36.355
X114.469 Y36.342
X114.65 Y36.337
X114.825 Y36.292
X115.147 Y36.129
X115.407 Y35.879
X115.82 Y35.286
X116.048 Y34.601
X116.17 Y33.89
X116.228 Y33.229
X116.238 Y33.158
X116.255 Y33.089
X116.279 Y33.022
G3 X116.85 Y33.118 I0.273 J0.125 F200.
G1 X116.857 Y33.184 Z-3.992
X116.863 Y33.247 Z-3.97
X116.868 Y33.304 Z-3.935
X116.873 Y33.351 Z-3.887
X116.876 Y33.387 Z-3.83
X116.878 Y33.409 Z-3.767
X116.879 Y33.416 Z-3.7
Z5. F400.
X111.184 Y37.407
Z-3.4
Z-3.7 F200.
X111.189 Y37.401 Z-3.767
X111.203 Y37.384 Z-3.83
X111.225 Y37.356 Z-3.887
X111.254 Y37.319 Z-3.935
X111.29 Y37.274 Z-3.97
X111.329 Y37.225 Z-3.992
X111.371 Y37.173 Z-4.
G3 X111.997 Y36.698 I1.239 J0.985
G1 X112.108 Y36.656 F400.
X112.235 Y36.605
X113.218 Y36.197
X113.293 Y36.163
X113.382 Y36.119
X113.546 Y36.03
X113.71 Y35.919
X113.824 Y35.835
X114.53 Y35.293
X114.694 Y35.166
X114.858 Y35.032
X114.877 Y35.015
X115.022 Y34.87
X115.039 Y34.851
X115.173 Y34.687
X115.928 Y33.702
X116.033 Y33.538
X116.124 Y33.374
X116.2 Y33.21
X116.609 Y32.226
X116.662 Y32.094
X116.734 Y31.898
X116.777 Y31.734
X116.81 Y31.57
X116.897 Y30.914
X116.94 Y30.585
X116.975 Y30.257
X116.992 Y30.093
X117. Y29.929
Y0.071
X116.992 Y-0.093
X116.958 Y-0.421
X116.94 Y-0.585
X116.854 Y-1.242
X116.81 Y-1.57
X116.777 Y-1.734
X116.734 Y-1.898
X116.701 Y-1.988
X116.615 Y-2.265
X116.503 Y-2.763
X116.402 Y-3.478
X116.351 Y-4.198
X116.339 Y-4.559
X116.324 Y-4.739
X116.265 Y-4.909
X116.074 Y-5.216
X115.811 Y-5.462
X115.202 Y-5.851
X114.512 Y-6.065
X113.799 Y-6.178
X113.24 Y-6.224
X113.169 Y-6.234
X113.098 Y-6.251
X113.03 Y-6.275
G3 X113.126 Y-6.847 I0.124 J-0.273 F200.
G1 X113.192 Y-6.853 Z-3.992
X113.255 Y-6.859 Z-3.97
X113.312 Y-6.865 Z-3.935
X113.359 Y-6.87 Z-3.887
X113.395 Y-6.873 Z-3.83
X113.417 Y-6.875 Z-3.767
X113.424 Y-6.876 Z-3.7
Z5. F400.
X117.401 Y-1.167
Z-3.4
Z-3.7 F200.
X117.395 Y-1.172 Z-3.767
X117.378 Y-1.186 Z-3.83
X117.35 Y-1.209 Z-3.887
X117.313 Y-1.239 Z-3.935
X117.269 Y-1.275 Z-3.97
X117.22 Y-1.315 Z-3.992
X117.168 Y-1.357 Z-4.
G3 X116.701 Y-1.988 I0.999 J-1.228
G1 X116.662 Y-2.094 F400.
X116.609 Y-2.226
X116.2 Y-3.21
X116.124 Y-3.374
X116.033 Y-3.538
X115.928 Y-3.702
X115.173 Y-4.687
X115.039 Y-4.851
X115.022 Y-4.87
X114.877 Y-5.015
X114.858 Y-5.032
X114.678 Y-5.179
X114.366 Y-5.419
X113.824 Y-5.835
X113.71 Y-5.919
X113.546 Y-6.03
X113.382 Y-6.119
X113.293 Y-6.163
X113.218 Y-6.197
X112.235 Y-6.605
X112.071 Y-6.67
X111.907 Y-6.732
X111.743 Y-6.775
X111.579 Y-6.806
X111.251 Y-6.853
X110.595 Y-6.939
X110.103 Y-6.995
X109.939 Y-6.998
X109.447 Y-7.
X24.825
X24.497 Y-6.999
X24.301 Y-6.984
X24.169 Y-6.965
X24.005 Y-6.929
X23.841 Y-6.877
X23.713 Y-6.82
X23.538 Y-6.745
X23.214 Y-6.639
X22.757 Y-6.528
X22.044 Y-6.414
X21.324 Y-6.358
X20.603 Y-6.329
X20.116 Y-6.319
X19.94 Y-6.338
X19.775 Y-6.4
X19.631 Y-6.502
X19.577 Y-6.55
X19.413 Y-6.669
X19.249 Y-6.766
X19.14 Y-6.82
X19.085 Y-6.844
X18.921 Y-6.906
X18.757 Y-6.947
X18.593 Y-6.977
X18.429 Y-6.996
X17.937 Y-7.
X0.389
X0.061 Y-6.998
X-0.103 Y-6.995
X-0.595 Y-6.939
X-1.251 Y-6.853
X-1.579 Y-6.806
X-1.743 Y-6.775
X-1.907 Y-6.732
X-1.997 Y-6.698
X-2.206 Y-6.631
X-2.676 Y-6.519
X-3.389 Y-6.41
X-3.569 Y-6.396
X-3.747 Y-6.367
X-3.912 Y-6.294
X-4.198 Y-6.073
X-4.642 Y-5.504
X-4.721 Y-5.271
X-4.763 Y-5.174
X-4.82 Y-5.083
X-4.889 Y-5.003
G3 X-5.313 Y-5.017 Z-3.8 I-0.205 J-0.219 F200.
X-5.389 Y-5.27 I0.219 J-0.205
X-5.245 Y-5.481 I0.296 J0.048 F400.
G1 X-2.265 Y-7.233
X-2.211 Y-7.258
X-2.153 Y-7.272
X-2.094 Y-7.274
X-2.035 Y-7.265
G3 X-1.836 Y-7.091 I-0.078 J0.29 F200.
X-1.997 Y-6.698 Z-4. I-0.277 J0.116
G1 X-2.108 Y-6.656 F400.
X-2.235 Y-6.605
X-3.218 Y-6.197
X-3.293 Y-6.163
X-3.382 Y-6.119
X-3.546 Y-6.03
X-3.71 Y-5.919
X-3.824 Y-5.835
X-4.53 Y-5.293
X-4.694 Y-5.166
X-4.858 Y-5.032
X-4.877 Y-5.015
X-5.022 Y-4.869
X-5.038 Y-4.851
X-5.173 Y-4.687
X-5.928 Y-3.702
X-6.033 Y-3.538
X-6.124 Y-3.374
X-6.2 Y-3.21
X-6.368 Y-2.807
G3 X-6.939 Y-2.903 I-0.273 J-0.124 F200.
G1 X-6.946 Y-2.969 Z-3.992
X-6.952 Y-3.033 Z-3.97
X-6.957 Y-3.089 Z-3.935
X-6.962 Y-3.136 Z-3.887
X-6.965 Y-3.172 Z-3.83
X-6.967 Y-3.194 Z-3.767
X-6.968 Y-3.202 Z-3.7
Z5. F400.
X24.462 Y-7.596
Z-3.4
Z-3.7 F200.
X24.458 Y-7.59 Z-3.767
X24.445 Y-7.571 Z-3.83
X24.426 Y-7.542 Z-3.887
X24.399 Y-7.502 Z-3.935
X24.368 Y-7.455 Z-3.97
X24.333 Y-7.402 Z-3.992
X24.296 Y-7.346 Z-4.
G3 X23.713 Y-6.82 I-1.319 J-0.874
G1 X23.513 Y-6.723 F400.
X23.349 Y-6.613
X23.202 Y-6.491
X23.108 Y-6.407
X23.067 Y-6.367
X23.032 Y-6.327
X22.956 Y-6.231
X22.858 Y-6.118
X22.747 Y-6.016
X22.616 Y-5.916
X22.454 Y-5.812
X22.254 Y-5.705
X21.991 Y-5.591
X21.655 Y-5.476
X21.274 Y-5.379
X20.961 Y-5.326
X20.875 Y-5.318
X20.657 Y-5.333
X20.454 Y-5.414
X20.286 Y-5.554
X20.17 Y-5.739
X20.128 Y-5.835
X20.069 Y-5.958
X20.045 Y-5.999
X19.938 Y-6.163
X19.905 Y-6.209
X19.81 Y-6.327
X19.741 Y-6.401
X19.631 Y-6.502
G3 X19.625 Y-6.926 Z-3.8 I0.209 J-0.215 F200.
X19.872 Y-7.015 I0.215 J0.209
G1 X19.874 Y-7.014
X22.63 Y-6.718 F400.
X22.746 Y-6.706 F200.
X22.797 Y-6.696
X22.846 Y-6.677
X22.89 Y-6.65
G3 X22.956 Y-6.231 Z-4. I-0.177 J0.242
G1 X22.903 Y-6.163 F400.
X22.857 Y-6.097
X22.798 Y-5.999
X22.714 Y-5.835
X22.643 Y-5.671
X22.629 Y-5.622
X22.579 Y-5.48
X22.506 Y-5.349
X22.418 Y-5.228
X22.318 Y-5.116
X22.202 Y-5.007
X22.068 Y-4.899
X21.931 Y-4.806
X21.791 Y-4.727
X21.636 Y-4.655
X21.496 Y-4.602
X21.351 Y-4.562
X21.199 Y-4.533
X21.071 Y-4.52
X20.846 Y-4.533
X20.637 Y-4.617
X20.466 Y-4.764
X20.352 Y-4.958
X20.306 Y-5.179
X20.282 Y-5.343
X20.247 Y-5.507
X20.199 Y-5.671
X20.17 Y-5.739
G3 X20.34 Y-6.127 Z-3.8 I0.28 J-0.109 F200.
G1 X20.406 Y-6.145
X20.473 Y-6.147
X20.611 Y-6.136
X22.14 Y-6.013 F400.
X22.362 Y-5.995 F200.
X22.412 Y-5.986
G3 X22.629 Y-5.622 Z-4. I-0.074 J0.291
G1 X22.595 Y-5.507 F400.
X22.556 Y-5.343
X22.487 Y-4.925
X22.455 Y-4.778
X22.406 Y-4.636
X22.338 Y-4.503
X22.253 Y-4.379
X22.156 Y-4.265
X22.047 Y-4.162
X21.929 Y-4.069
X21.802 Y-3.989
X21.669 Y-3.92
X21.529 Y-3.864
X21.385 Y-3.824
X21.237 Y-3.797
X21.088 Y-3.784
X20.938 Y-3.788
X20.879 Y-3.795
X20.67 Y-3.855
X20.489 Y-3.976
X20.354 Y-4.147
X20.278 Y-4.352
X20.269 Y-4.569
X20.301 Y-4.851
X20.313 Y-5.015
X20.306 Y-5.179
G3 X20.603 Y-5.481 Z-3.8 I0.3 J-0.002 F200.
G1 X20.647 Y-5.478
X20.875 Y-5.447
X21.957 Y-5.298 F400.
X22.228 Y-5.261 F200.
X22.23 Z-3.801
G3 X22.487 Y-4.925 Z-4. I-0.041 J0.297
G1 X22.35 Y-4.102 F400.
X22.319 Y-3.955
X22.266 Y-3.815
X22.193 Y-3.684
X22.103 Y-3.564
X21.999 Y-3.456
X21.884 Y-3.36
X21.759 Y-3.276
X21.627 Y-3.206
X21.488 Y-3.15
X21.344 Y-3.107
X21.197 Y-3.078
X21.047 Y-3.066
X20.897 Y-3.069
X20.748 Y-3.086
X20.702 Y-3.097
X20.508 Y-3.173
X20.346 Y-3.304
X20.229 Y-3.477
X20.168 Y-3.676
Y-3.884
X20.241 Y-4.359
X20.263 Y-4.523
X20.269 Y-4.569
G3 X20.61 Y-4.822 Z-3.8 I0.297 J0.045 F200.
G1 X20.64 Y-4.815
X20.875 Y-4.755
X21.827 Y-4.509 F400.
X22.092 Y-4.44 F200.
X22.128 Y-4.431 Z-3.816
G3 X22.35 Y-4.102 Z-4. I-0.075 J0.29
G1 X22.222 Y-3.325 F400.
X22.19 Y-3.178
X22.132 Y-3.04
X22.053 Y-2.912
X21.958 Y-2.796
X21.849 Y-2.693
X21.729 Y-2.603
X21.601 Y-2.526
X21.465 Y-2.462
X21.324 Y-2.412
X21.178 Y-2.377
X21.029 Y-2.355
X20.879 Y-2.35
X20.73 Y-2.36
X20.582 Y-2.384
X20.563 Y-2.389
X20.378 Y-2.471
X20.224 Y-2.602
X20.114 Y-2.772
X20.058 Y-2.967
X20.059 Y-3.169
X20.168 Y-3.884
G3 X20.519 Y-4.123 Z-3.8 I0.295 J0.056 F200.
G1 X20.554 Y-4.115
X20.78 Y-4.043
X21.704 Y-3.748 F400.
X21.964 Y-3.665 F200.
X22.015 Y-3.649 Z-3.823
G3 X22.222 Y-3.325 Z-4. I-0.091 J0.286
G1 X22.107 Y-2.628 F400.
X22.075 Y-2.481
X22.022 Y-2.341
X21.946 Y-2.212
X21.853 Y-2.094
X21.745 Y-1.989
X21.626 Y-1.898
X21.499 Y-1.819
X21.364 Y-1.754
X21.223 Y-1.702
X21.077 Y-1.666
X20.929 Y-1.644
X20.779 Y-1.636
X20.629 Y-1.645
X20.481 Y-1.668
X20.461 Y-1.674
X20.274 Y-1.755
X20.118 Y-1.886
X20.006 Y-2.056
X19.949 Y-2.252
X19.95 Y-2.456
X20.059 Y-3.169
G3 X20.409 Y-3.408 Z-3.8 I0.295 J0.056 F200.
G1 X20.442 Y-3.4
X20.671 Y-3.33
X21.587 Y-3.048 F400.
X21.849 Y-2.968 F200.
X21.897 Y-2.953 Z-3.821
G3 X22.107 Y-2.628 Z-4. I-0.088 J0.287
G1 X21.986 Y-1.898 F400.
X21.954 Y-1.751
X21.898 Y-1.612
X21.821 Y-1.484
X21.726 Y-1.368
X21.617 Y-1.264
X21.497 Y-1.174
X21.368 Y-1.098
X21.232 Y-1.034
X21.09 Y-0.985
X20.944 Y-0.95
X20.796 Y-0.93
X20.646 Y-0.925
X20.496 Y-0.936
X20.349 Y-0.961
X20.339 Y-0.964
X20.156 Y-1.047
X20.004 Y-1.178
X19.895 Y-1.348
X19.839 Y-1.541
X19.841 Y-1.742
X19.95 Y-2.456
G3 X20.3 Y-2.695 Z-3.8 I0.295 J0.056 F200.
G1 X20.337 Y-2.686
X20.561 Y-2.613
X21.468 Y-2.322 F400.
X21.729 Y-2.239 F200.
X21.78 Y-2.222 Z-3.823
G3 X21.986 Y-1.898 Z-4. I-0.092 J0.286
G1 X21.866 Y-1.172 F400.
X21.834 Y-1.026
X21.776 Y-0.887
X21.697 Y-0.76
X21.6 Y-0.645
X21.49 Y-0.543
X21.369 Y-0.455
X21.24 Y-0.379
X21.103 Y-0.317
X20.961 Y-0.269
X20.815 Y-0.236
X20.666 Y-0.217
X20.516 Y-0.215
X20.366 Y-0.227
X20.297 Y-0.24
X20.095 Y-0.311
X19.923 Y-0.44
X19.799 Y-0.615
X19.733 Y-0.82
Y-1.034
X19.841 Y-1.742
G3 X20.191 Y-1.982 Z-3.8 I0.295 J0.056 F200.
G1 X20.23 Y-1.971
X20.452 Y-1.898
X21.349 Y-1.6 F400.
X21.609 Y-1.514 F200.
X21.663 Y-1.496 Z-3.824
G3 X21.866 Y-1.172 Z-4. I-0.095 J0.285
G1 X21.769 Y-0.585 F400.
X21.757 Y-0.495
X21.73 Y-0.348
X21.677 Y-0.207
X21.602 Y-0.077
X21.509 Y0.04
X21.402 Y0.145
X21.283 Y0.237
X21.155 Y0.316
X21.02 Y0.38
X20.879 Y0.43
X20.733 Y0.467
X20.585 Y0.488
X20.435 Y0.493
X20.285 Y0.484
X20.137 Y0.459
X20.125 Y0.456
X19.941 Y0.373
X19.788 Y0.241
X19.679 Y0.072
X19.623 Y-0.122
X19.624 Y-0.324
X19.733 Y-1.034
G3 X20.083 Y-1.273 Z-3.8 I0.295 J0.056 F200.
G1 X20.118 Y-1.265
X20.344 Y-1.193
X21.229 Y-0.912 F400.
X21.489 Y-0.829 F200.
X21.549 Y-0.81 Z-3.827
G3 X21.757 Y-0.495 Z-4. I-0.091 J0.286
G1 X21.747 Y-0.421 F400.
X21.707 Y-0.093
X21.689 Y0.071
X21.676 Y0.202
X21.653 Y0.35
X21.6 Y0.49
X21.526 Y0.62
X21.433 Y0.739
X21.327 Y0.845
X21.21 Y0.938
X21.083 Y1.018
X20.948 Y1.084
X20.808 Y1.138
X20.663 Y1.176
X20.515 Y1.2
X20.365 Y1.21
X20.216 Y1.203
X20.067 Y1.182
X20.054 Y1.179
X19.869 Y1.103
X19.713 Y0.979
X19.599 Y0.815
X19.536 Y0.626
X19.528 Y0.427
X19.589 Y-0.093
X19.624 Y-0.324
G3 X19.974 Y-0.563 Z-3.8 I0.295 J0.056 F200.
G1 X20.007 Y-0.555
X20.236 Y-0.484
X21.136 Y-0.206 F400.
X21.398 Y-0.125 F200.
X21.465 Y-0.104 Z-3.83
G3 X21.676 Y0.202 Z-4. I-0.089 J0.287
G1 X21.607 Y0.891 F400.
X21.585 Y1.039
X21.535 Y1.181
X21.463 Y1.313
X21.373 Y1.433
X21.269 Y1.541
X21.154 Y1.637
X21.029 Y1.719
X20.896 Y1.789
X20.757 Y1.846
X20.613 Y1.888
X20.466 Y1.916
X20.316 Y1.929
X20.166 Y1.926
X20.017 Y1.909
X20.004 Y1.906
X19.816 Y1.835
X19.655 Y1.713
X19.537 Y1.55
X19.469 Y1.36
X19.459 Y1.159
X19.514 Y0.563
X19.528 Y0.427
G3 X19.866 Y0.171 Z-3.8 I0.297 J0.041 F200.
G1 X19.904 Y0.179
X20.131 Y0.241
X21.064 Y0.495 F400.
X21.328 Y0.567 F200.
X21.386 Y0.582 Z-3.826
G3 X21.607 Y0.891 Z-4. I-0.079 J0.289
G1 X21.537 Y1.597 F400.
X21.514 Y1.745
X21.466 Y1.887
X21.396 Y2.02
X21.307 Y2.141
X21.205 Y2.25
X21.09 Y2.347
X20.966 Y2.431
X20.834 Y2.503
X20.696 Y2.561
X20.552 Y2.604
X20.405 Y2.634
X20.256 Y2.649
X20.106 Y2.647
X19.957 Y2.631
X19.942 Y2.628
X19.752 Y2.557
X19.591 Y2.435
X19.471 Y2.272
X19.403 Y2.082
X19.392 Y1.88
X19.459 Y1.159
G3 X19.794 Y0.899 Z-3.8 I0.298 J0.038 F200.
G1 X19.831 Y0.906
X20.06 Y0.965
X20.993 Y1.205 F400.
X21.258 Y1.273 F200.
X21.312 Y1.287 Z-3.824
G3 X21.537 Y1.597 Z-4. I-0.075 J0.291
G1 X21.467 Y2.294 F400.
X21.445 Y2.442
X21.401 Y2.585
X21.333 Y2.72
X21.248 Y2.843
X21.147 Y2.954
X21.034 Y3.053
X20.912 Y3.139
X20.781 Y3.213
X20.643 Y3.273
X20.5 Y3.318
X20.354 Y3.35
X20.205 Y3.366
X20.055
X19.905 Y3.352
X19.884 Y3.348
X19.692 Y3.279
X19.528 Y3.157
X19.406 Y2.993
X19.337 Y2.802
X19.326 Y2.598
X19.392 Y1.88
G3 X19.727 Y1.62 Z-3.8 I0.298 J0.038 F200.
G1 X19.76 Y1.626
X19.994 Y1.682
X20.922 Y1.907 F400.
X21.188 Y1.971 F200.
X21.238 Y1.983 Z-3.822
G3 X21.467 Y2.294 Z-4. I-0.07 J0.292
G1 X21.395 Y3.024 F400.
X21.372 Y3.172
X21.326 Y3.315
X21.257 Y3.448
X21.171 Y3.57
X21.069 Y3.681
X20.955 Y3.779
X20.832 Y3.864
X20.7 Y3.936
X20.562 Y3.995
X20.419 Y4.039
X20.272 Y4.069
X20.123 Y4.084
X19.973 Y4.083
X19.823 Y4.068
X19.809 Y4.065
X19.62 Y3.994
X19.458 Y3.872
X19.339 Y3.709
X19.27 Y3.518
X19.26 Y3.316
X19.326 Y2.598
G3 X19.661 Y2.338 Z-3.8 I0.298 J0.038 F200.
G1 X19.696 Y2.345
X19.927 Y2.403
X20.85 Y2.634 F400.
X21.116 Y2.7 F200.
X21.168 Y2.714 Z-3.823
G3 X21.395 Y3.024 Z-4. I-0.073 J0.291
G1 X21.32 Y3.77 F400.
X21.298 Y3.919
X21.247 Y4.06
X21.174 Y4.191
X21.084 Y4.311
X20.98 Y4.419
X20.864 Y4.514
X20.739 Y4.597
X20.606 Y4.666
X20.467 Y4.723
X20.323 Y4.764
X20.175 Y4.791
X20.026 Y4.803
X19.876 Y4.799
X19.804 Y4.79
X19.598 Y4.731
X19.419 Y4.612
X19.285 Y4.445
X19.207 Y4.245
X19.194 Y4.031
X19.26 Y3.316
G3 X19.595 Y3.056 Z-3.8 I0.298 J0.038 F200.
G1 X19.636 Y3.064
X19.86 Y3.125
X20.777 Y3.374 F400.
X21.042 Y3.446 F200.
X21.099 Y3.461 Z-3.825
G3 X21.32 Y3.77 Z-4. I-0.079 J0.29
G1 X21.264 Y4.336 F400.
X21.253 Y4.467
X21.234 Y4.616
X21.186 Y4.758
X21.116 Y4.891
X21.028 Y5.012
X20.925 Y5.122
X20.811 Y5.219
X20.687 Y5.303
X20.555 Y5.375
X20.416 Y5.431
X20.273 Y5.475
X20.126 Y5.504
X19.976 Y5.516
X19.826 Y5.515
X19.677 Y5.498
X19.668 Y5.496
X19.481 Y5.423
X19.322 Y5.301
X19.205 Y5.139
X19.138 Y4.949
X19.128 Y4.749
X19.194 Y4.031
G3 X19.529 Y3.771 Z-3.8 I0.298 J0.038 F200.
G1 X19.568 Y3.779
X19.794 Y3.838
X20.704 Y4.078 F400.
X20.969 Y4.147 F200.
X21.03 Y4.163 Z-3.827
G3 X21.253 Y4.467 Z-4. I-0.076 J0.29
G1 X21.225 Y4.828 F400.
X21.216 Y4.993
X21.211 Y5.157
X21.198 Y5.306
X21.152 Y5.449
X21.085 Y5.583
X20.999 Y5.706
X20.899 Y5.818
X20.786 Y5.917
X20.664 Y6.004
X20.534 Y6.078
X20.397 Y6.14
X20.254 Y6.186
X20.108 Y6.219
X19.959 Y6.237
X19.809 Y6.239
X19.659 Y6.227
X19.472 Y6.163
X19.31 Y6.049
X19.187 Y5.895
X19.111 Y5.713
X19.089 Y5.516
X19.097 Y5.321
X19.111 Y4.993
X19.12 Y4.828
X19.128 Y4.749
G3 X19.463 Y4.49 Z-3.8 I0.298 J0.038 F200.
G1 X19.498 Y4.496
X19.729 Y4.554
X20.647 Y4.782 F400.
X20.912 Y4.848 F200.
X20.983 Y4.866 Z-3.831
G3 X21.211 Y5.157 Z-4. I-0.072 J0.291
G1 X21.188 Y5.813 F400.
X21.175 Y5.962
X21.139 Y6.108
X21.08 Y6.246
X21.001 Y6.373
X20.907 Y6.49
X20.8 Y6.595
X20.682 Y6.688
X20.555 Y6.768
X20.421 Y6.836
X20.281 Y6.889
X20.136 Y6.929
X19.989 Y6.954
X19.839 Y6.963
X19.689 Y6.957
X19.668 Y6.954
X19.472 Y6.897
X19.301 Y6.785
X19.17 Y6.629
X19.089 Y6.441
X19.066 Y6.239
X19.089 Y5.516
G3 X19.409 Y5.237 Z-3.8 I0.299 J0.02 F200.
G1 X19.443 Y5.241
X19.678 Y5.285
X20.619 Y5.458 F400.
X20.889 Y5.508 F200.
X20.942 Y5.518 Z-3.823
G3 X21.188 Y5.813 Z-4. I-0.054 J0.295
G1 X21.162 Y6.559 F400.
X21.149 Y6.709
X21.108 Y6.853
X21.045 Y6.989
X20.963 Y7.115
X20.866 Y7.229
X20.757 Y7.332
X20.638 Y7.423
X20.51 Y7.502
X20.375 Y7.567
X20.234 Y7.618
X20.089 Y7.656
X19.941 Y7.678
X19.791 Y7.685
X19.641 Y7.677
X19.63 Y7.675
X19.438 Y7.615
X19.272 Y7.502
X19.144 Y7.347
X19.065 Y7.162
X19.043 Y6.962
X19.066 Y6.239
G3 X19.385 Y5.96 Z-3.8 I0.299 J0.02 F200.
G1 X19.425 Y5.965
X19.654 Y6.011
X20.595 Y6.2 F400.
X20.863 Y6.254 F200.
X20.921 Y6.265 Z-3.825
G3 X21.162 Y6.559 Z-4. I-0.059 J0.294
G1 X21.137 Y7.289 F400.
X21.124 Y7.439
X21.082 Y7.583
X21.017 Y7.718
X20.934 Y7.843
X20.837 Y7.957
X20.727 Y8.059
X20.607 Y8.15
X20.479 Y8.228
X20.344 Y8.293
X20.203 Y8.343
X20.057 Y8.38
X19.909 Y8.402
X19.759 Y8.408
X19.609 Y8.399
X19.603 Y8.398
X19.413 Y8.337
X19.247 Y8.224
X19.12 Y8.069
X19.042 Y7.884
X19.02 Y7.685
X19.043 Y6.962
G3 X19.362 Y6.683 Z-3.8 I0.299 J0.02 F200.
G1 X19.403 Y6.688
X19.631 Y6.735
X20.57 Y6.928 F400.
X20.838 Y6.983 F200.
X20.897 Y6.996 Z-3.826
G3 X21.137 Y7.289 Z-4. I-0.06 J0.294
G1 X21.112 Y7.995 F400.
X21.1 Y8.145
X21.06 Y8.289
X20.998 Y8.426
X20.917 Y8.552
X20.821 Y8.667
X20.713 Y8.771
X20.594 Y8.863
X20.467 Y8.942
X20.332 Y9.009
X20.192 Y9.061
X20.046 Y9.099
X19.898 Y9.122
X19.748 Y9.13
X19.599 Y9.122
X19.588 Y9.121
X19.395 Y9.061
X19.227 Y8.949
X19.098 Y8.793
X19.019 Y8.607
X18.996 Y8.407
X19.02 Y7.685
G3 X19.339 Y7.406 Z-3.8 I0.299 J0.02 F200.
G1 X19.376 Y7.411
X19.608 Y7.456
X20.544 Y7.638 F400.
X20.813 Y7.69 F200.
X20.869 Y7.701 Z-3.824
G3 X21.112 Y7.995 Z-4. I-0.057 J0.294
G1 X21.088 Y8.692 F400.
X21.075 Y8.841
X21.04 Y8.987
X20.982 Y9.125
X20.904 Y9.254
X20.81 Y9.371
X20.704 Y9.477
X20.587 Y9.57
X20.461 Y9.652
X20.327 Y9.72
X20.188 Y9.774
X20.043 Y9.815
X19.895 Y9.84
X19.746 Y9.85
X19.596 Y9.845
X19.575 Y9.842
X19.379 Y9.784
X19.209 Y9.673
X19.077 Y9.517
X18.996 Y9.329
X18.973 Y9.126
X18.996 Y8.407
G3 X19.316 Y8.127 Z-3.8 I0.299 J0.02 F200.
G1 X19.348 Y8.131
X19.585 Y8.174
X20.519 Y8.34 F400.
X20.789 Y8.388 F200.
X20.841 Y8.397 Z-3.822
G3 X21.088 Y8.692 Z-4. I-0.053 J0.295
G1 X21.069 Y9.258 F400.
X21.049 Y9.482
X21.027 Y9.63
X20.981 Y9.773
X20.914 Y9.907
X20.829 Y10.03
X20.729 Y10.143
X20.617 Y10.243
X20.496 Y10.331
X20.366 Y10.406
X20.229 Y10.467
X20.087 Y10.514
X19.941 Y10.548
X19.791 Y10.564
X19.641 Y10.567
X19.619 Y10.565
X19.401 Y10.509
X19.212 Y10.387
X19.071 Y10.212
G3 X19.198 Y9.808 Z-3.8 I0.266 J-0.139 F200.
G1 X19.218 Y9.798
X19.449 Y9.698
X20.508 Y9.242 F400.
X20.63 Y9.189 F200.
X20.674 Y9.173
X20.72 Y9.165
X20.767
G3 X21.049 Y9.482 Z-4. I-0.018 J0.299
G1 X21.023 Y9.75 F400.
X21.002 Y9.914
X20.973 Y10.078
X20.954 Y10.16
X20.936 Y10.201
X20.889 Y10.283
X20.817 Y10.406
X20.781 Y10.462
X20.753 Y10.492
X20.725 Y10.517
X20.561 Y10.654
X20.523 Y10.683
X20.485 Y10.705
X20.397 Y10.739
X20.233 Y10.798
X20.192 Y10.81
X20.151 Y10.817
X20.069 Y10.819
X19.864 Y10.818
X19.823 Y10.812
X19.741 Y10.789
X19.536 Y10.714
X19.495 Y10.694
X19.413 Y10.633
X19.249 Y10.493
X19.211 Y10.45
X19.182 Y10.406
X19.063 Y10.197
X19.046 Y10.157
X19.027 Y10.078
X18.97 Y9.75
X18.958 Y9.668
Y9.586
X18.973 Y9.126
G3 X19.307 Y8.848 I0.299 J0.02 F200.
G1 X19.356 Y8.867 Z-3.995
X19.404 Y8.886 Z-3.981
X19.448 Y8.903 Z-3.958
X19.48 Y8.941 Z-3.921
X19.506 Y8.972 Z-3.874
X19.526 Y8.995 Z-3.82
X19.538 Y9.009 Z-3.762
X19.542 Y9.014 Z-3.7
Z5. F400.
X-8.495 Y-8.447
Z-4.4
Z-4.7 F200.
X-8.489 Y-8.443 Z-4.767
X-8.47 Y-8.431 Z-4.83
X-8.44 Y-8.411 Z-4.887
X-8.4 Y-8.386 Z-4.935
X-8.352 Y-8.355 Z-4.97
X-8.299 Y-8.321 Z-4.992
X-8.243 Y-8.285 Z-5.
G3 X-6.958 Y-7.25 I-4.134 J6.447
G1 X-6.892 Y-7.179 F400.
X-6.792 Y-6.965
X-6.687 Y-6.682
X-6.578 Y-6.294
X-6.465 Y-5.72
X-6.383 Y-5.003
X-6.342 Y-4.282
X-6.321 Y-3.56
X-6.314 Y-3.085
X-6.319 Y-2.991
X-6.337 Y-2.897
X-6.368 Y-2.807
X-6.608 Y-2.226
X-6.662 Y-2.093
X-6.734 Y-1.898
X-6.776 Y-1.734
X-6.809 Y-1.57
X-6.897 Y-0.914
X-6.94 Y-0.585
X-6.975 Y-0.257
X-6.992 Y-0.093
X-7. Y0.071
Y29.929
X-6.992 Y30.093
X-6.958 Y30.421
X-6.94 Y30.585
X-6.853 Y31.242
X-6.809 Y31.57
X-6.776 Y31.734
X-6.734 Y31.898
X-6.701 Y31.988
X-6.615 Y32.265
X-6.503 Y32.762
X-6.402 Y33.477
X-6.351 Y34.197
X-6.339 Y34.558
X-6.325 Y34.738
X-6.265 Y34.908
X-6.075 Y35.215
X-5.811 Y35.462
X-5.203 Y35.85
X-4.513 Y36.065
X-3.8 Y36.178
X-3.24 Y36.225
X-3.168 Y36.234
X-3.098 Y36.251
X-3.03 Y36.275
G3 X-3.125 Y36.847 I-0.124 J0.273 F200.
G1 X-3.192 Y36.853 Z-4.992
X-3.255 Y36.86 Z-4.97
X-3.312 Y36.865 Z-4.935
X-3.359 Y36.87 Z-4.887
X-3.394 Y36.873 Z-4.83
X-3.417 Y36.875 Z-4.767
X-3.424 Y36.876 Z-4.7
Z5. F400.
X-7.401 Y31.167
Z-4.4
Z-4.7 F200.
X-7.395 Y31.172 Z-4.767
X-7.378 Y31.186 Z-4.83
X-7.35 Y31.209 Z-4.887
X-7.313 Y31.239 Z-4.935
X-7.269 Y31.275 Z-4.97
X-7.22 Y31.315 Z-4.992
X-7.168 Y31.357 Z-5.
G3 X-6.701 Y31.988 I-0.999 J1.228
G1 X-6.662 Y32.093 F400.
X-6.608 Y32.226
X-6.2 Y33.21
X-6.124 Y33.374
X-6.033 Y33.538
X-5.928 Y33.702
X-5.173 Y34.687
X-5.038 Y34.851
X-5.022 Y34.869
X-4.877 Y35.015
X-4.858 Y35.032
X-4.678 Y35.179
X-4.366 Y35.419
X-3.824 Y35.835
X-3.71 Y35.919
X-3.546 Y36.03
X-3.382 Y36.119
X-3.293 Y36.163
X-3.218 Y36.197
X-2.235 Y36.605
X-2.071 Y36.67
X-1.907 Y36.732
X-1.743 Y36.775
X-1.579 Y36.806
X-1.251 Y36.853
X-0.595 Y36.939
X-0.103 Y36.995
X0.061 Y36.998
X0.553 Y37.
X109.611
X109.939 Y36.998
X110.103 Y36.995
X110.595 Y36.939
X111.251 Y36.853
X111.579 Y36.806
X111.743 Y36.775
X111.907 Y36.732
X111.997 Y36.698
X112.205 Y36.631
X112.675 Y36.519
X113.389 Y36.41
X114.109 Y36.355
X114.469 Y36.342
X114.65 Y36.337
X114.825 Y36.292
X115.147 Y36.129
X115.407 Y35.879
X115.82 Y35.286
X116.048 Y34.601
X116.17 Y33.89
X116.228 Y33.229
X116.238 Y33.158
X116.255 Y33.089
X116.279 Y33.022
G3 X116.85 Y33.118 I0.273 J0.125 F200.
G1 X116.857 Y33.184 Z-4.992
X116.863 Y33.247 Z-4.97
X116.868 Y33.304 Z-4.935
X116.873 Y33.351 Z-4.887
X116.876 Y33.387 Z-4.83
X116.878 Y33.409 Z-4.767
X116.879 Y33.416 Z-4.7
Z5. F400.
X111.184 Y37.407
Z-4.4
Z-4.7 F200.
X111.189 Y37.401 Z-4.767
X111.203 Y37.384 Z-4.83
X111.225 Y37.356 Z-4.887
X111.254 Y37.319 Z-4.935
X111.29 Y37.274 Z-4.97
X111.329 Y37.225 Z-4.992
X111.371 Y37.173 Z-5.
G3 X111.997 Y36.698 I1.239 J0.985
G1 X112.108 Y36.656 F400.
X112.235 Y36.605
X113.218 Y36.197
X113.293 Y36.163
X113.382 Y36.119
X113.546 Y36.03
X113.71 Y35.919
X113.824 Y35.835
X114.53 Y35.293
X114.694 Y35.166
X114.858 Y35.032
X114.877 Y35.015
X115.022 Y34.87
X115.039 Y34.851
X115.173 Y34.687
X115.928 Y33.702
X116.033 Y33.538
X116.124 Y33.374
X116.2 Y33.21
X116.609 Y32.226
X116.662 Y32.094
X116.734 Y31.898
X116.777 Y31.734
X116.81 Y31.57
X116.897 Y30.914
X116.94 Y30.585
X116.975 Y30.257
X116.992 Y30.093
X117. Y29.929
Y0.071
X116.992 Y-0.093
X116.958 Y-0.421
X116.94 Y-0.585
X116.854 Y-1.242
X116.81 Y-1.57
X116.777 Y-1.734
X116.734 Y-1.898
X116.701 Y-1.988
X116.615 Y-2.265
X116.503 Y-2.763
X116.402 Y-3.478
X116.351 Y-4.198
X116.339 Y-4.559
X116.324 Y-4.739
X116.265 Y-4.909
X116.074 Y-5.216
X115.811 Y-5.462
X115.202 Y-5.851
X114.512 Y-6.065
X113.799 Y-6.178
X113.24 Y-6.224
X113.169 Y-6.234
X113.098 Y-6.251
X113.03 Y-6.275
G3 X113.126 Y-6.847 I0.124 J-0.273 F200.
G1 X113.192 Y-6.853 Z-4.992
X113.255 Y-6.859 Z-4.97
X113.312 Y-6.865 Z-4.935
X113.359 Y-6.87 Z-4.887
X113.395 Y-6.873 Z-4.83
X113.417 Y-6.875 Z-4.767
X113.424 Y-6.876 Z-4.7
Z5. F400.
X117.401 Y-1.167
Z-4.4
Z-4.7 F200.
X117.395 Y-1.172 Z-4.767
X117.378 Y-1.186 Z-4.83
X117.35 Y-1.209 Z-4.887
X117.313 Y-1.239 Z-4.935
X117.269 Y-1.275 Z-4.97
X117.22 Y-1.315 Z-4.992
X117.168 Y-1.357 Z-5.
G3 X116.701 Y-1.988 I0.999 J-1.228
G1 X116.662 Y-2.094 F400.
X116.609 Y-2.226
X116.2 Y-3.21
X116.124 Y-3.374
X116.033 Y-3.538
X115.928 Y-3.702
X115.173 Y-4.687
X115.039 Y-4.851
X115.022 Y-4.87
X114.877 Y-5.015
X114.858 Y-5.032
X114.678 Y-5.179
X114.366 Y-5.419
X113.824 Y-5.835
X113.71 Y-5.919
X113.546 Y-6.03
X113.382 Y-6.119
X113.293 Y-6.163
X113.218 Y-6.197
X112.235 Y-6.605
X112.071 Y-6.67
X111.907 Y-6.732
X111.743 Y-6.775
X111.579 Y-6.806
X111.251 Y-6.853
X110.595 Y-6.939
X110.103 Y-6.995
X109.939 Y-6.998
X109.447 Y-7.
X24.825
X24.497 Y-6.999
X24.301 Y-6.984
X24.169 Y-6.965
X24.005 Y-6.929
X23.841 Y-6.877
X23.713 Y-6.82
X23.538 Y-6.745
X23.214 Y-6.639
X22.757 Y-6.528
X22.044 Y-6.414
X21.324 Y-6.358
X20.603 Y-6.329
X20.116 Y-6.319
X19.94 Y-6.338
X19.775 Y-6.4
X19.631 Y-6.502
X19.577 Y-6.55
X19.413 Y-6.669
X19.249 Y-6.766
X19.14 Y-6.82
X19.085 Y-6.844
X18.921 Y-6.906
X18.757 Y-6.947
X18.593 Y-6.977
X18.429 Y-6.996
X17.937 Y-7.
X0.389
X0.061 Y-6.998
X-0.103 Y-6.995
X-0.595 Y-6.939
X-1.251 Y-6.853
X-1.579 Y-6.806
X-1.743 Y-6.775
X-1.907 Y-6.732
X-1.997 Y-6.698
X-2.206 Y-6.631
X-2.676 Y-6.519
X-3.389 Y-6.41
X-3.569 Y-6.396
X-3.747 Y-6.367
X-3.912 Y-6.294
X-4.198 Y-6.073
X-4.642 Y-5.504
X-4.721 Y-5.271
X-4.763 Y-5.174
X-4.82 Y-5.083
X-4.889 Y-5.003
G3 X-5.313 Y-5.017 Z-4.8 I-0.205 J-0.219 F200.
X-5.389 Y-5.27 I0.219 J-0.205
X-5.245 Y-5.481 I0.296 J0.048 F400.
G1 X-2.265 Y-7.233
X-2.211 Y-7.258
X-2.153 Y-7.272
X-2.094 Y-7.274
X-2.035 Y-7.265
G3 X-1.836 Y-7.091 I-0.078 J0.29 F200.
X-1.997 Y-6.698 Z-5. I-0.277 J0.116
G1 X-2.108 Y-6.656 F400.
X-2.235 Y-6.605
X-3.218 Y-6.197
X-3.293 Y-6.163
X-3.382 Y-6.119
X-3.546 Y-6.03
X-3.71 Y-5.919
X-3.824 Y-5.835
X-4.53 Y-5.293
X-4.694 Y-5.166
X-4.858 Y-5.032
X-4.877 Y-5.015
X-5.022 Y-4.869
X-5.038 Y-4.851
X-5.173 Y-4.687
X-5.928 Y-3.702
X-6.033 Y-3.538
X-6.124 Y-3.374
X-6.2 Y-3.21
X-6.368 Y-2.807
G3 X-6.939 Y-2.903 I-0.273 J-0.124 F200.
G1 X-6.946 Y-2.969 Z-4.992
X-6.952 Y-3.033 Z-4.97
X-6.957 Y-3.089 Z-4.935
X-6.962 Y-3.136 Z-4.887
X-6.965 Y-3.172 Z-4.83
X-6.967 Y-3.194 Z-4.767
X-6.968 Y-3.202 Z-4.7
Z5. F400.
X24.462 Y-7.596
Z-4.4
Z-4.7 F200.
X24.458 Y-7.59 Z-4.767
X24.445 Y-7.571 Z-4.83
X24.426 Y-7.542 Z-4.887
X24.399 Y-7.502 Z-4.935
X24.368 Y-7.455 Z-4.97
X24.333 Y-7.402 Z-4.992
X24.296 Y-7.346 Z-5.
G3 X23.713 Y-6.82 I-1.319 J-0.874
G1 X23.513 Y-6.723 F400.
X23.349 Y-6.613
X23.202 Y-6.491
X23.108 Y-6.407
X23.067 Y-6.367
X23.032 Y-6.327
X22.956 Y-6.231
X22.858 Y-6.118
X22.747 Y-6.016
X22.616 Y-5.916
X22.454 Y-5.812
X22.254 Y-5.705
X21.991 Y-5.591
X21.655 Y-5.476
X21.274 Y-5.379
X20.961 Y-5.326
X20.875 Y-5.318
X20.657 Y-5.333
X20.454 Y-5.414
X20.286 Y-5.554
X20.17 Y-5.739
X20.128 Y-5.835
X20.069 Y-5.958
X20.045 Y-5.999
X19.938 Y-6.163
X19.905 Y-6.209
X19.81 Y-6.327
X19.741 Y-6.401
X19.631 Y-6.502
G3 X19.625 Y-6.926 Z-4.8 I0.209 J-0.215 F200.
X19.872 Y-7.015 I0.215 J0.209
G1 X19.874 Y-7.014
X22.63 Y-6.718 F400.
X22.746 Y-6.706 F200.
X22.797 Y-6.696
X22.846 Y-6.677
X22.89 Y-6.65
G3 X22.956 Y-6.231 Z-5. I-0.177 J0.242
G1 X22.903 Y-6.163 F400.
X22.857 Y-6.097
X22.798 Y-5.999
X22.714 Y-5.835
X22.643 Y-5.671
X22.629 Y-5.622
X22.579 Y-5.48
X22.506 Y-5.349
X22.418 Y-5.228
X22.318 Y-5.116
X22.202 Y-5.007
X22.068 Y-4.899
X21.931 Y-4.806
X21.791 Y-4.727
X21.636 Y-4.655
X21.496 Y-4.602
X21.351 Y-4.562
X21.199 Y-4.533
X21.071 Y-4.52
X20.846 Y-4.533
X20.637 Y-4.617
X20.466 Y-4.764
X20.352 Y-4.958
X20.306 Y-5.179
X20.282 Y-5.343
X20.247 Y-5.507
X20.199 Y-5.671
X20.17 Y-5.739
G3 X20.34 Y-6.127 Z-4.8 I0.28 J-0.109 F200.
G1 X20.406 Y-6.145
X20.473 Y-6.147
X20.611 Y-6.136
X22.14 Y-6.013 F400.
X22.362 Y-5.995 F200.
X22.412 Y-5.986
G3 X22.629 Y-5.622 Z-5. I-0.074 J0.291
G1 X22.595 Y-5.507 F400.
X22.556 Y-5.343
X22.487 Y-4.925
X22.455 Y-4.778
X22.406 Y-4.636
X22.338 Y-4.503
X22.253 Y-4.379
X22.156 Y-4.265
X22.047 Y-4.162
X21.929 Y-4.069
X21.802 Y-3.989
X21.669 Y-3.92
X21.529 Y-3.864
X21.385 Y-3.824
X21.237 Y-3.797
X21.088 Y-3.784
X20.938 Y-3.788
X20.879 Y-3.795
X20.67 Y-3.855
X20.489 Y-3.976
X20.354 Y-4.147
X20.278 Y-4.352
X20.269 Y-4.569
X20.301 Y-4.851
X20.313 Y-5.015
X20.306 Y-5.179
G3 X20.603 Y-5.481 Z-4.8 I0.3 J-0.002 F200.
G1 X20.647 Y-5.478
X20.875 Y-5.447
X21.957 Y-5.298 F400.
X22.228 Y-5.261 F200.
X22.23 Z-4.801
G3 X22.487 Y-4.925 Z-5. I-0.041 J0.297
G1 X22.35 Y-4.102 F400.
X22.319 Y-3.955
X22.266 Y-3.815
X22.193 Y-3.684
X22.103 Y-3.564
X21.999 Y-3.456
X21.884 Y-3.36
X21.759 Y-3.276
X21.627 Y-3.206
X21.488 Y-3.15
X21.344 Y-3.107
X21.197 Y-3.078
X21.047 Y-3.066
X20.897 Y-3.069
X20.748 Y-3.086
X20.702 Y-3.097
X20.508 Y-3.173
X20.346 Y-3.304
X20.229 Y-3.477
X20.168 Y-3.676
Y-3.884
X20.241 Y-4.359
X20.263 Y-4.523
X20.269 Y-4.569
G3 X20.61 Y-4.822 Z-4.8 I0.297 J0.045 F200.
G1 X20.64 Y-4.815
X20.875 Y-4.755
X21.827 Y-4.509 F400.
X22.092 Y-4.44 F200.
X22.128 Y-4.431 Z-4.816
G3 X22.35 Y-4.102 Z-5. I-0.075 J0.29
G1 X22.222 Y-3.325 F400.
X22.19 Y-3.178
X22.132 Y-3.04
X22.053 Y-2.912
X21.958 Y-2.796
X21.849 Y-2.693
X21.729 Y-2.603
X21.601 Y-2.526
X21.465 Y-2.462
X21.324 Y-2.412
X21.178 Y-2.377
X21.029 Y-2.355
X20.879 Y-2.35
X20.73 Y-2.36
X20.582 Y-2.384
X20.563 Y-2.389
X20.378 Y-2.471
X20.224 Y-2.602
X20.114 Y-2.772
X20.058 Y-2.967
X20.059 Y-3.169
X20.168 Y-3.884
G3 X20.519 Y-4.123 Z-4.8 I0.295 J0.056 F200.
G1 X20.554 Y-4.115
X20.78 Y-4.043
X21.704 Y-3.748 F400.
X21.964 Y-3.665 F200.
X22.015 Y-3.649 Z-4.823
G3 X22.222 Y-3.325 Z-5. I-0.091 J0.286
G1 X22.107 Y-2.628 F400.
X22.075 Y-2.481
X22.022 Y-2.341
X21.946 Y-2.212
X21.853 Y-2.094
X21.745 Y-1.989
X21.626 Y-1.898
X21.499 Y-1.819
X21.364 Y-1.754
X21.223 Y-1.702
X21.077 Y-1.666
X20.929 Y-1.644
X20.779 Y-1.636
X20.629 Y-1.645
X20.481 Y-1.668
X20.461 Y-1.674
X20.274 Y-1.755
X20.118 Y-1.886
X20.006 Y-2.056
X19.949 Y-2.252
X19.95 Y-2.456
X20.059 Y-3.169
G3 X20.409 Y-3.408 Z-4.8 I0.295 J0.056 F200.
G1 X20.442 Y-3.4
X20.671 Y-3.33
X21.587 Y-3.048 F400.
X21.849 Y-2.968 F200.
X21.897 Y-2.953 Z-4.821
G3 X22.107 Y-2.628 Z-5. I-0.088 J0.287
G1 X21.986 Y-1.898 F400.
X21.954 Y-1.751
X21.898 Y-1.612
X21.821 Y-1.484
X21.726 Y-1.368
X21.617 Y-1.264
X21.497 Y-1.174
X21.368 Y-1.098
X21.232 Y-1.034
X21.09 Y-0.985
X20.944 Y-0.95
X20.796 Y-0.93
X20.646 Y-0.925
X20.496 Y-0.936
X20.349 Y-0.961
X20.339 Y-0.964
X20.156 Y-1.047
X20.004 Y-1.178
X19.895 Y-1.348
X19.839 Y-1.541
X19.841 Y-1.742
X19.95 Y-2.456
G3 X20.3 Y-2.695 Z-4.8 I0.295 J0.056 F200.
G1 X20.337 Y-2.686
X20.561 Y-2.613
X21.468 Y-2.322 F400.
X21.729 Y-2.239 F200.
X21.78 Y-2.222 Z-4.823
G3 X21.986 Y-1.898 Z-5. I-0.092 J0.286
G1 X21.866 Y-1.172 F400.
X21.834 Y-1.026
X21.776 Y-0.887
X21.697 Y-0.76
X21.6 Y-0.645
X21.49 Y-0.543
X21.369 Y-0.455
X21.24 Y-0.379
X21.103 Y-0.317
X20.961 Y-0.269
X20.815 Y-0.236
X20.666 Y-0.217
X20.516 Y-0.215
X20.366 Y-0.227
X20.297 Y-0.24
X20.095 Y-0.311
X19.923 Y-0.44
X19.799 Y-0.615
X19.733 Y-0.82
Y-1.034
X19.841 Y-1.742
G3 X20.191 Y-1.982 Z-4.8 I0.295 J0.056 F200.
G1 X20.23 Y-1.971
X20.452 Y-1.898
X21.349 Y-1.6 F400.
X21.609 Y-1.514 F200.
X21.663 Y-1.496 Z-4.824
G3 X21.866 Y-1.172 Z-5. I-0.095 J0.285
G1 X21.769 Y-0.585 F400.
X21.757 Y-0.495
X21.73 Y-0.348
X21.677 Y-0.207
X21.602 Y-0.077
X21.509 Y0.04
X21.402 Y0.145
X21.283 Y0.237
X21.155 Y0.316
X21.02 Y0.38
X20.879 Y0.43
X20.733 Y0.467
X20.585 Y0.488
X20.435 Y0.493
X20.285 Y0.484
X20.137 Y0.459
X20.125 Y0.456
X19.941 Y0.373
X19.788 Y0.241
X19.679 Y0.072
X19.623 Y-0.122
X19.624 Y-0.324
X19.733 Y-1.034
G3 X20.083 Y-1.273 Z-4.8 I0.295 J0.056 F200.
G1 X20.118 Y-1.265
X20.344 Y-1.193
X21.229 Y-0.912 F400.
X21.489 Y-0.829 F200.
X21.549 Y-0.81 Z-4.827
G3 X21.757 Y-0.495 Z-5. I-0.091 J0.286
G1 X21.747 Y-0.421 F400.
X21.707 Y-0.093
X21.689 Y0.071
X21.676 Y0.202
X21.653 Y0.35
X21.6 Y0.49
X21.526 Y0.62
X21.433 Y0.739
X21.327 Y0.845
X21.21 Y0.938
X21.083 Y1.018
X20.948 Y1.084
X20.808 Y1.138
X20.663 Y1.176
X20.515 Y1.2
X20.365 Y1.21
X20.216 Y1.203
X20.067 Y1.182
X20.054 Y1.179
X19.869 Y1.103
X19.713 Y0.979
X19.599 Y0.815
X19.536 Y0.626
X19.528 Y0.427
X19.589 Y-0.093
X19.624 Y-0.324
G3 X19.974 Y-0.563 Z-4.8 I0.295 J0.056 F200.
G1 X20.007 Y-0.555
X20.236 Y-0.484
X21.136 Y-0.206 F400.
X21.398 Y-0.125 F200.
X21.465 Y-0.104 Z-4.83
G3 X21.676 Y0.202 Z-5. I-0.089 J0.287
G1 X21.607 Y0.891 F400.
X21.585 Y1.039
X21.535 Y1.181
X21.463 Y1.313
X21.373 Y1.433
X21.269 Y1.541
X21.154 Y1.637
X21.029 Y1.719
X20.896 Y1.789
X20.757 Y1.846
X20.613 Y1.888
X20.466 Y1.916
X20.316 Y1.929
X20.166 Y1.926
X20.017 Y1.909
X20.004 Y1.906
X19.816 Y1.835
X19.655 Y1.713
X19.537 Y1.55
X19.469 Y1.36
X19.459 Y1.159
X19.514 Y0.563
X19.528 Y0.427
G3 X19.866 Y0.171 Z-4.8 I0.297 J0.041 F200.
G1 X19.904 Y0.179
X20.131 Y0.241
X21.064 Y0.495 F400.
X21.328 Y0.567 F200.
X21.386 Y0.582 Z-4.826
G3 X21.607 Y0.891 Z-5. I-0.079 J0.289
G1 X21.537 Y1.597 F400.
X21.514 Y1.745
X21.466 Y1.887
X21.396 Y2.02
X21.307 Y2.141
X21.205 Y2.25
X21.09 Y2.347
X20.966 Y2.431
X20.834 Y2.503
X20.696 Y2.561
X20.552 Y2.604
X20.405 Y2.634
X20.256 Y2.649
X20.106 Y2.647
X19.957 Y2.631
X19.942 Y2.628
X19.752 Y2.557
X19.591 Y2.435
X19.471 Y2.272
X19.403 Y2.082
X19.392 Y1.88
X19.459 Y1.159
G3 X19.794 Y0.899 Z-4.8 I0.298 J0.038 F200.
G1 X19.831 Y0.906
X20.06 Y0.965
X20.993 Y1.205 F400.
X21.258 Y1.273 F200.
X21.312 Y1.287 Z-4.824
G3 X21.537 Y1.597 Z-5. I-0.075 J0.291
G1 X21.467 Y2.294 F400.
X21.445 Y2.442
X21.401 Y2.585
X21.333 Y2.72
X21.248 Y2.843
X21.147 Y2.954
X21.034 Y3.053
X20.912 Y3.139
X20.781 Y3.213
X20.643 Y3.273
X20.5 Y3.318
X20.354 Y3.35
X20.205 Y3.366
X20.055
X19.905 Y3.352
X19.884 Y3.348
X19.692 Y3.279
X19.528 Y3.157
X19.406 Y2.993
X19.337 Y2.802
X19.326 Y2.598
X19.392 Y1.88
G3 X19.727 Y1.62 Z-4.8 I0.298 J0.038 F200.
G1 X19.76 Y1.626
X19.994 Y1.682
X20.922 Y1.907 F400.
X21.188 Y1.971 F200.
X21.238 Y1.983 Z-4.822
G3 X21.467 Y2.294 Z-5. I-0.07 J0.292
G1 X21.395 Y3.024 F400.
X21.372 Y3.172
X21.326 Y3.315
X21.257 Y3.448
X21.171 Y3.57
X21.069 Y3.681
X20.955 Y3.779
X20.832 Y3.864
X20.7 Y3.936
X20.562 Y3.995
X20.419 Y4.039
X20.272 Y4.069
X20.123 Y4.084
X19.973 Y4.083
X19.823 Y4.068
X19.809 Y4.065
X19.62 Y3.994
X19.458 Y3.872
X19.339 Y3.709
X19.27 Y3.518
X19.26 Y3.316
X19.326 Y2.598
G3 X19.661 Y2.338 Z-4.8 I0.298 J0.038 F200.
G1 X19.696 Y2.345
X19.927 Y2.403
X20.85 Y2.634 F400.
X21.116 Y2.7 F200.
X21.168 Y2.714 Z-4.823
G3 X21.395 Y3.024 Z-5. I-0.073 J0.291
G1 X21.32 Y3.77 F400.
X21.298 Y3.919
X21.247 Y4.06
X21.174 Y4.191
X21.084 Y4.311
X20.98 Y4.419
X20.864 Y4.514
X20.739 Y4.597
X20.606 Y4.666
X20.467 Y4.723
X20.323 Y4.764
X20.175 Y4.791
X20.026 Y4.803
X19.876 Y4.799
X19.804 Y4.79
X19.598 Y4.731
X19.419 Y4.612
X19.285 Y4.445
X19.207 Y4.245
X19.194 Y4.031
X19.26 Y3.316
G3 X19.595 Y3.056 Z-4.8 I0.298 J0.038 F200.
G1 X19.636 Y3.064
X19.86 Y3.125
X20.777 Y3.374 F400.
X21.042 Y3.446 F200.
X21.099 Y3.461 Z-4.825
G3 X21.32 Y3.77 Z-5. I-0.079 J0.29
G1 X21.264 Y4.336 F400.
X21.253 Y4.467
X21.234 Y4.616
X21.186 Y4.758
X21.116 Y4.891
X21.028 Y5.012
X20.925 Y5.122
X20.811 Y5.219
X20.687 Y5.303
X20.555 Y5.375
X20.416 Y5.431
X20.273 Y5.475
X20.126 Y5.504
X19.976 Y5.516
X19.826 Y5.515
X19.677 Y5.498
X19.668 Y5.496
X19.481 Y5.423
X19.322 Y5.301
X19.205 Y5.139
X19.138 Y4.949
X19.128 Y4.749
X19.194 Y4.031
G3 X19.529 Y3.771 Z-4.8 I0.298 J0.038 F200.
G1 X19.568 Y3.779
X19.794 Y3.838
X20.704 Y4.078 F400.
X20.969 Y4.147 F200.
X21.03 Y4.163 Z-4.827
G3 X21.253 Y4.467 Z-5. I-0.076 J0.29
G1 X21.225 Y4.828 F400.
X21.216 Y4.993
X21.211 Y5.157
X21.198 Y5.306
X21.152 Y5.449
X21.085 Y5.583
X20.999 Y5.706
X20.899 Y5.818
X20.786 Y5.917
X20.664 Y6.004
X20.534 Y6.078
X20.397 Y6.14
X20.254 Y6.186
X20.108 Y6.219
X19.959 Y6.237
X19.809 Y6.239
X19.659 Y6.227
X19.472 Y6.163
X19.31 Y6.049
X19.187 Y5.895
X19.111 Y5.713
X19.089 Y5.516
X19.097 Y5.321
X19.111 Y4.993
X19.12 Y4.828
X19.128 Y4.749
G3 X19.463 Y4.49 Z-4.8 I0.298 J0.038 F200.
G1 X19.498 Y4.496
X19.729 Y4.554
X20.647 Y4.782 F400.
X20.912 Y4.848 F200.
