(2003B-SECONDHOLECLEAN)
(MACHINE)
(  VENDOR HOMEMADE)
(  DESCRIPTION GENERIC 3-AXIS)
(T10  D=3. CR=0. - ZMIN=-6. - FLAT END MILL)
G90 G94 G91.1 G40 G49 G17
G21
(WHEN USING FUSION 360 FOR PERSONAL USE, THE FEEDRATE OF)
(RAPID MOVES IS REDUCED TO MATCH THE FEEDRATE OF CUTTING)
(MOVES, WHICH CAN INCREASE MACHINING TIME. UNRESTRICTED RAPID)
(MOVES ARE AVAILABLE WITH A FUSION 360 SUBSCRIPTION.)
G28 G91 Z0.
G90

(CLEANSECONDHOLE)
M5
T10 M6
S9000 M3
G54
G0 X20.848 Y25.936
G43 Z15. H10
G1 Z5. F400.
Z2.5
G3 X20.467 Y23.79 Z2.41 I0.521 J-1.199 F333.
X22.59 Y24.274 Z2.32 I0.901 J0.946
X21.318 Y26.038 Z2.23 I-1.22 J0.461
X20.19 Y24.182 Z2.14 I0.051 J-1.302
X22.336 Y23.867 Z2.05 I1.178 J0.554
X21.791 Y25.964 Z1.96 I-0.968 J0.868
X20.074 Y24.646 Z1.87 I-0.422 J-1.228
X21.954 Y23.58 Z1.78 I1.293 J0.09
X22.204 Y25.724 Z1.69 I-0.586 J1.155
X20.134 Y25.119 Z1.6 I-0.834 J-0.988
X21.496 Y23.451 Z1.51 I1.234 J-0.383
X22.501 Y25.353 Z1.42 I-0.128 J1.284
X20.36 Y25.537 Z1.33 I-1.131 J-0.618
X21.024 Y23.496 Z1.24 I1.008 J-0.8
X22.643 Y24.901 Z1.15 I0.344 J1.239
X20.721 Y25.843 Z1.06 I-1.273 J-0.166
X20.602 Y23.709 Z0.97 I0.648 J-1.107
X22.612 Y24.43 Z0.88 I0.766 J1.027
X21.166 Y25.998 Z0.79 I-1.242 J0.305
X20.286 Y24.058 Z0.7 I0.203 J-1.261
X22.413 Y24.004 Z0.61 I1.081 J0.678
X21.635 Y25.981 Z0.52 I-1.044 J0.731
X20.119 Y24.496 Z0.43 I-0.266 J-1.245
X22.075 Y23.679 Z0.34 I1.249 J0.24
X22.065 Y25.796 Z0.25 I-0.706 J1.055
X20.122 Y24.964 Z0.16 I-0.696 J-1.06
X21.644 Y23.5 Z0.07 I1.246 J-0.227
X22.398 Y25.47 Z-0.02 I-0.276 J1.235
X20.293 Y25.397 Z-0.11 I-1.028 J-0.734
X21.179 Y23.489 Z-0.2 I1.076 J-0.66
X22.589 Y25.047 Z-0.29 I0.189 J1.246
X20.607 Y25.737 Z-0.38 I-1.22 J-0.311
X20.743 Y23.646 Z-0.47 I0.761 J-1.001
X22.614 Y24.585 Z-0.56 I0.625 J1.089
X21.023 Y25.94 Z-0.65 I-1.245 J0.151
X20.395 Y23.949 Z-0.74 I0.346 J-1.204
X22.471 Y24.146 Z-0.83 I0.973 J0.787
X21.482 Y25.979 Z-0.92 I-1.102 J0.589
X20.181 Y24.356 Z-1.01 I-0.112 J-1.243
X22.18 Y23.791 Z-1.1 I1.187 J0.38
X21.922 Y25.85 Z-1.19 I-0.812 J0.944
X20.128 Y24.811 Z-1.28 I-0.552 J-1.114
X21.782 Y23.566 Z-1.37 I1.239 J-0.075
X22.284 Y25.571 Z-1.46 I-0.414 J1.169
X20.244 Y25.252 Z-1.55 I-0.914 J-0.835
X21.331 Y23.5 Z-1.64 I1.124 J-0.516
X22.52 Y25.182 Z-1.73 I0.037 J1.235
X20.51 Y25.621 Z-1.82 I-1.15 J-0.446
X20.888 Y23.602 Z-1.91 I0.858 J-0.884
X22.598 Y24.735 Z-2. I0.479 J1.133
X20.137 I-1.231 J0.
X22.598 I1.231 J0.
G1 X22.627 Y25.508 F400.
X22.485 Y25.764
X22.174 Y26.025
X22.139 Y26.05
X22.103 Y26.069
X22.032 Y26.096
X21.678 Y26.224
X21.642 Y26.234
X21.607 Y26.239
X21.465 Y26.241
X21.182
X21.146 Y26.24
X21.111 Y26.236
X21.04 Y26.217
X20.65 Y26.075
X20.614 Y26.057
X20.517 Y25.985
X20.262 Y25.771
X20.224 Y25.736
X20.189 Y25.696
X20.108 Y25.559
X20.026 Y25.418
X19.947 Y25.276
X19.934 Y25.241
X19.925 Y25.205
X19.85 Y24.78
X19.847 Y24.744
X19.849 Y24.709
X19.872 Y24.567
X19.922 Y24.284
X19.93 Y24.248
X19.941 Y24.213
X19.976 Y24.142
X20.14 Y23.859
X20.189 Y23.78
X20.213 Y23.748
X20.246 Y23.717
X20.473 Y23.527
X20.585 Y23.433
X20.614 Y23.416
X20.756 Y23.36
X21.04 Y23.257
X21.111 Y23.238
X21.146 Y23.234
X21.323 Y23.233
X21.465
X21.607 Y23.235
X21.642 Y23.241
X21.678 Y23.25
X22.032 Y23.378
X22.093 Y23.401
X22.123 Y23.415
X22.153 Y23.433
X22.174 Y23.45
X22.492 Y23.717
X22.528 Y23.752
X22.556 Y23.788
X22.68 Y24.
X22.762 Y24.142
X22.797 Y24.213
X22.809 Y24.248
X22.816 Y24.284
X22.883 Y24.664
X22.89 Y24.709
Y24.76
X22.883 Y24.81
X22.813 Y25.205
X22.804 Y25.241
X22.792 Y25.276
X22.741 Y25.368
X22.599 Y25.613
X22.545 Y25.701
X22.526 Y25.725
X22.502 Y25.75
X22.485 Y25.764
G3 X22.055 Y25.701 I-0.185 J-0.236 F200.
G1 X22.036 Y25.652 Z-1.995
X22.018 Y25.604 Z-1.981
X22.001 Y25.559 Z-1.958
X22. Y25.528 Z-1.936
X22.009 Y25.481 Z-1.888
X22.016 Y25.445 Z-1.831
X22.02 Y25.423 Z-1.767
X22.021 Y25.416 Z-1.7
Z5. F400.
X20.8 Y25.915
Z0.5
G3 X20.505 Y23.755 Z0.41 I0.569 J-1.178 F333.
X22.607 Y24.323 Z0.32 I0.863 J0.981
X21.268 Y26.036 Z0.23 I-1.238 J0.413
X20.211 Y24.139 Z0.14 I0.101 J-1.299
X22.368 Y23.903 Z0.05 I1.157 J0.598
X21.747 Y25.979 Z-0.04 I-0.999 J0.832
X20.078 Y24.601 Z-0.13 I-0.378 J-1.243
X21.994 Y23.601 Z-0.22 I1.29 J0.135
X22.171 Y25.753 Z-0.31 I-0.625 J1.135
X20.122 Y25.079 Z-0.4 I-0.801 J-1.016
X21.537 Y23.456 Z-0.49 I1.246 J-0.342
X22.482 Y25.389 Z-0.58 I-0.169 J1.28
X20.336 Y25.507 Z-0.67 I-1.112 J-0.652
X21.061 Y23.487 Z-0.76 I1.032 J-0.77
X22.638 Y24.938 Z-0.85 I0.307 J1.249
X20.69 Y25.826 Z-0.94 I-1.269 J-0.202
X20.63 Y23.688 Z-1.03 I0.679 J-1.089
X22.62 Y24.463 Z-1.12 I0.738 J1.047
X21.134 Y25.994 Z-1.21 I-1.251 J0.273
X20.303 Y24.032 Z-1.3 I0.235 J-1.257
X22.431 Y24.029 Z-1.39 I1.065 J0.704
X21.607 Y25.988 Z-1.48 I-1.062 J0.706
X20.124 Y24.469 Z-1.57 I-0.238 J-1.251
X22.098 Y23.695 Z-1.66 I1.244 J0.267
X22.044 Y25.811 Z-1.75 I-0.729 J1.041
X20.117 Y24.94 Z-1.84 I-0.674 J-1.075
X21.668 Y23.505 Z-1.93 I1.251 J-0.203
X22.385 Y25.489 Z-2.02 I-0.299 J1.23
X20.281 Y25.379 Z-2.11 I-1.016 J-0.753
X21.2 Y23.486 Z-2.2 I1.087 J-0.642
X22.585 Y25.066 Z-2.29 I0.169 J1.25
X20.593 Y25.727 Z-2.38 I-1.215 J-0.33
X20.758 Y23.637 Z-2.47 I0.776 J-0.99
X22.617 Y24.601 Z-2.56 I0.61 J1.098
X21.008 Y25.937 Z-2.65 I-1.248 J0.134
X20.404 Y23.938 Z-2.74 I0.361 J-1.2
X22.478 Y24.158 Z-2.83 I0.964 J0.798
X21.47 Y25.981 Z-2.92 I-1.109 J0.577
X20.184 Y24.345 Z-3.01 I-0.1 J-1.244
X22.189 Y23.798 Z-3.1 I1.184 J0.391
X21.914 Y25.855 Z-3.19 I-0.82 J0.938
X20.128 Y24.803 Z-3.28 I-0.544 J-1.118
X21.789 Y23.568 Z-3.37 I1.24 J-0.067
X22.281 Y25.576 Z-3.46 I-0.42 J1.167
X20.242 Y25.249 Z-3.55 I-0.911 J-0.84
X21.335 Y23.5 Z-3.64 I1.127 J-0.512
X22.519 Y25.185 Z-3.73 I0.033 J1.235
X20.509 Y25.62 Z-3.82 I-1.15 J-0.449
X20.889 Y23.601 Z-3.91 I0.86 J-0.883
X22.599 Y24.736 Z-4. I0.479 J1.134
X20.137 I-1.231 J0.
X22.599 I1.231 J0.
G1 X22.622 Y25.359 F400.
X22.632 Y25.462
X22.615 Y25.563
X22.572 Y25.657
X22.545 Y25.701
X22.526 Y25.725
X22.502 Y25.75
X22.174 Y26.025
X22.139 Y26.05
X22.103 Y26.069
X22.032 Y26.096
X21.678 Y26.224
X21.642 Y26.234
X21.607 Y26.239
X21.465 Y26.241
X21.182
X21.146 Y26.24
X21.111 Y26.236
X21.04 Y26.217
X20.65 Y26.075
X20.614 Y26.057
X20.517 Y25.985
X20.262 Y25.771
X20.224 Y25.736
X20.189 Y25.696
X20.108 Y25.559
X20.026 Y25.418
X19.947 Y25.276
X19.934 Y25.241
X19.925 Y25.205
X19.85 Y24.78
X19.847 Y24.744
X19.849 Y24.709
X19.872 Y24.567
X19.922 Y24.284
X19.93 Y24.248
X19.941 Y24.213
X19.976 Y24.142
X20.14 Y23.859
X20.189 Y23.78
X20.213 Y23.748
X20.246 Y23.717
X20.473 Y23.527
X20.585 Y23.433
X20.614 Y23.416
X20.756 Y23.36
X21.04 Y23.257
X21.111 Y23.238
X21.146 Y23.234
X21.323 Y23.233
X21.465
X21.607 Y23.235
X21.642 Y23.241
X21.678 Y23.25
X22.032 Y23.378
X22.093 Y23.401
X22.123 Y23.415
X22.153 Y23.433
X22.174 Y23.45
X22.492 Y23.717
X22.528 Y23.752
X22.556 Y23.788
X22.68 Y24.
X22.762 Y24.142
X22.797 Y24.213
X22.809 Y24.248
X22.816 Y24.284
X22.883 Y24.664
X22.89 Y24.709
Y24.76
X22.883 Y24.81
X22.813 Y25.205
X22.804 Y25.241
X22.792 Y25.276
X22.741 Y25.368
X22.599 Y25.613
X22.572 Y25.657
G3 X22.145 Y25.733 I-0.25 J-0.166 F200.
G1 X22.112 Y25.692 Z-3.995
X22.079 Y25.652 Z-3.981
X22.049 Y25.615 Z-3.958
X22.038 Y25.562 Z-3.917
X22.029 Y25.521 Z-3.865
X22.023 Y25.491 Z-3.805
Y25.477 Z-3.753
Y25.472 Z-3.7
Z5. F400.
X20.804 Y25.917
Z-1.5
G3 X20.502 Y23.758 Z-1.59 I0.565 J-1.18 F333.
X22.606 Y24.319 Z-1.68 I0.866 J0.978
X21.273 Y26.037 Z-1.77 I-1.237 J0.417
X20.21 Y24.142 Z-1.86 I0.097 J-1.3
X22.366 Y23.9 Z-1.95 I1.158 J0.594
X21.751 Y25.978 Z-2.04 I-0.997 J0.835
X20.078 Y24.605 Z-2.13 I-0.381 J-1.241
X21.991 Y23.599 Z-2.22 I1.29 J0.131
X22.174 Y25.75 Z-2.31 I-0.622 J1.136
X20.123 Y25.083 Z-2.4 I-0.804 J-1.014
X21.534 Y23.455 Z-2.49 I1.245 J-0.346
X22.484 Y25.386 Z-2.58 I-0.166 J1.28
X20.338 Y25.509 Z-2.67 I-1.114 J-0.65
X21.058 Y23.487 Z-2.76 I1.03 J-0.772
X22.639 Y24.935 Z-2.85 I0.31 J1.248
X20.693 Y25.827 Z-2.94 I-1.269 J-0.199
X20.628 Y23.69 Z-3.03 I0.676 J-1.09
X22.62 Y24.46 Z-3.12 I0.74 J1.046
X21.137 Y25.994 Z-3.21 I-1.25 J0.275
X20.302 Y24.034 Z-3.3 I0.232 J-1.257
X22.43 Y24.027 Z-3.39 I1.066 J0.702
X21.61 Y25.987 Z-3.48 I-1.06 J0.708
X20.124 Y24.471 Z-3.57 I-0.24 J-1.251
X22.096 Y23.693 Z-3.66 I1.244 J0.265
X22.046 Y25.81 Z-3.75 I-0.727 J1.042
X20.118 Y24.942 Z-3.84 I-0.676 J-1.074
X21.666 Y23.505 Z-3.93 I1.251 J-0.205
X22.387 Y25.487 Z-4.02 I-0.297 J1.23
X20.282 Y25.381 Z-4.11 I-1.017 J-0.751
X21.198 Y23.486 Z-4.2 I1.086 J-0.644
X22.586 Y25.065 Z-4.29 I0.17 J1.249
X20.594 Y25.728 Z-4.38 I-1.216 J-0.329
X20.757 Y23.638 Z-4.47 I0.775 J-0.991
X22.617 Y24.6 Z-4.56 I0.611 J1.098
X21.01 Y25.937 Z-4.65 I-1.247 J0.136
X20.403 Y23.939 Z-4.74 I0.36 J-1.2
X22.478 Y24.157 Z-4.83 I0.965 J0.797
X21.471 Y25.981 Z-4.92 I-1.108 J0.578
X20.184 Y24.346 Z-5.01 I-0.101 J-1.244
X22.188 Y23.797 Z-5.1 I1.184 J0.39
X21.915 Y25.854 Z-5.19 I-0.819 J0.938
X20.128 Y24.804 Z-5.28 I-0.545 J-1.118
X21.789 Y23.568 Z-5.37 I1.24 J-0.067
X22.281 Y25.576 Z-5.46 I-0.42 J1.167
X20.242 Y25.249 Z-5.55 I-0.911 J-0.84
X21.335 Y23.5 Z-5.64 I1.127 J-0.512
X22.52 Y25.185 Z-5.73 I0.033 J1.235
X20.509 Y25.62 Z-5.82 I-1.15 J-0.449
X20.889 Y23.601 Z-5.91 I0.86 J-0.883
X22.599 Y24.736 Z-6. I0.479 J1.134
X20.137 I-1.231 J0.
X22.599 I1.231 J0.
G1 X22.622 Y25.359 F400.
X22.632 Y25.462
X22.615 Y25.563
X22.572 Y25.657
X22.545 Y25.701
X22.526 Y25.725
X22.502 Y25.75
X22.174 Y26.025
X22.139 Y26.05
X22.103 Y26.069
X22.032 Y26.096
X21.678 Y26.224
X21.642 Y26.234
X21.607 Y26.239
X21.465 Y26.241
X21.182
X21.146 Y26.24
X21.111 Y26.236
X21.04 Y26.217
X20.65 Y26.075
X20.614 Y26.057
X20.517 Y25.985
X20.262 Y25.771
X20.224 Y25.736
X20.189 Y25.696
X20.108 Y25.559
X20.026 Y25.418
X19.947 Y25.276
X19.934 Y25.241
X19.925 Y25.205
X19.85 Y24.78
X19.847 Y24.744
X19.849 Y24.709
X19.872 Y24.567
X19.922 Y24.284
X19.93 Y24.248
X19.941 Y24.213
X19.976 Y24.142
X20.14 Y23.859
X20.189 Y23.78
X20.213 Y23.748
X20.246 Y23.717
X20.473 Y23.527
X20.585 Y23.433
X20.614 Y23.416
X20.756 Y23.36
X21.04 Y23.257
X21.111 Y23.238
X21.146 Y23.234
X21.323 Y23.233
X21.465
X21.607 Y23.235
X21.642 Y23.241
X21.678 Y23.25
X22.032 Y23.378
X22.093 Y23.401
X22.123 Y23.415
X22.153 Y23.433
X22.174 Y23.45
X22.492 Y23.717
X22.528 Y23.752
X22.556 Y23.788
X22.68 Y24.
X22.762 Y24.142
X22.797 Y24.213
X22.809 Y24.248
X22.816 Y24.284
X22.883 Y24.664
X22.89 Y24.709
Y24.76
X22.883 Y24.81
X22.813 Y25.205
X22.804 Y25.241
X22.792 Y25.276
X22.741 Y25.368
X22.599 Y25.613
X22.572 Y25.657
G3 X22.023 Y25.472 I-0.25 J-0.166 F200.
G1 X22.028 Y25.405 Z-5.992
X22.032 Y25.342 Z-5.97
X22.035 Y25.285 Z-5.935
X22.038 Y25.238 Z-5.887
X22.04 Y25.202 Z-5.83
X22.042 Y25.18 Z-5.767
Y25.173 Z-5.7
Z15. F400.

G28 G91 Z0.
G90
G28 G91 X0. Y0.
G90
M30
