(2004-SLOTFINALHOLE)
(MACHINE)
(  VENDOR HOMEMADE)
(  DESCRIPTION GENERIC 3-AXIS)
(T10  D=3. CR=0. - ZMIN=-5. - FLAT END MILL)
G90 G94 G91.1 G40 G49 G17
G21
(WHEN USING FUSION FOR PERSONAL USE, THE FEEDRATE OF RAPID)
(MOVES IS REDUCED TO MATCH THE FEEDRATE OF CUTTING MOVES,)
(WHICH CAN INCREASE MACHINING TIME. UNRESTRICTED RAPID MOVES)
(ARE AVAILABLE WITH A FUSION SUBSCRIPTION.)
G28 G91 Z0.
G90

(CLEAN SLOT)
M5
T10 M6
S9000 M3
G54
X0.371 Y-6.94
Z-4.4
Z-4.7 F200.
X0.365 Y-6.935 Z-4.767
X0.348 Y-6.921 Z-4.83
X0.32 Y-6.899 Z-4.887
X0.283 Y-6.87 Z-4.935
X0.238 Y-6.835 Z-4.97
X0.188 Y-6.795 Z-4.992
X0.136 Y-6.754 Z-5.1
G3 X-0.583 Y-6.436 I-0.979 J-1.243
G2 X-1.732 Y-6.264 I0.881 J9.814 F400.
X-3.278 Y-5.615 I9.373 J24.49
X-4.633 Y-4.565 I13.919 J19.345
X-5.65 Y-3.215 I20.968 J16.858
X-6.305 Y-1.586 I14.19 J6.658
G1 X-6.316 Y-1.485
Z5.
X25.117 Y-7.081
Z-4.4
Z-4.7 F200.
X25.112 Y-7.076 Z-4.767
X25.096 Y-7.06 Z-4.83
X25.071 Y-7.035 Z-4.887
X25.038 Y-7.001 Z-4.935
X24.998 Y-6.961 Z-4.97
X24.953 Y-6.916 Z-4.992
X24.906 Y-6.869 Z-5.1
G3 X24.231 Y-6.467 I-1.122 J-1.116
G2 X23.449 Y-6.035 I0.282 J1.436 F400.
G3 X22.247 Y-5.436 I-1.786 J-2.077
X20.323 Y-5.166 I-2.088 J-7.902
X19.694 Y-5.59 I-0.031 J-0.632
G1 X19.639 Y-5.694
G3 X19.778 Y-6.095 Z-4.8 I0.27 J-0.131 F200.
G1 X19.824 Y-6.112
X19.871 Y-6.122
X20.046 Y-6.144
X23.189 Y-6.541 F400.
X23.195 F200.
G3 X23.441 Y-6.46 I0.038 J0.298
X23.449 Y-6.036 Z-5. I-0.208 J0.216
G2 X23.124 Y-5.519 I0.954 J0.961 F400.
G3 X22.323 Y-4.682 I-1.505 J-0.639
X20.402 Y-4.215 I-1.668 J-2.678
X19.811 Y-4.956 I0.124 J-0.705
G1 X19.823 Y-5.016 Z-4.974 F200.
X19.848 Y-5.073 Z-4.948
X19.883 Y-5.123 Z-4.922
X19.928 Y-5.165 Z-4.896
X19.98 Y-5.197 Z-4.869
X20.038 Y-5.218 Z-4.843
X20.137 Y-5.243 Z-5.1
X20.402 Y-5.309
X22.659 Y-5.874 F400.
X22.764 Y-5.9 F200.
X22.819 Y-5.909
X22.873 Y-5.907
X22.927 Y-5.895
G3 X23.123 Y-5.52 Z-5.1 I-0.09 J0.286
G2 X22.981 Y-4.843 I3.283 J1.045 F400.
G3 X22.268 Y-3.813 I-1.575 J-0.328
X20.141 Y-3.416 I-1.442 J-1.827
X19.707 Y-4.18 I0.284 J-0.666
G1 X19.787 Y-4.702
X19.805 Y-4.844
X19.812 Y-4.956
G3 X20.116 Y-5.227 Z-4.81 I0.299 J0.029 F200.
G1 X20.139 Z-5.1
X20.413 Y-5.222
X22.448 Y-5.186 F400.
G3 X22.721 Y-5.18 I0.083 J2.245 F200.
X22.98 Y-4.844 Z-5. I-0.039 J0.298
G1 X22.816 Y-3.851 F400.
G3 X21.963 Y-2.772 I-1.568 J-0.363
X19.999 Y-2.571 I-1.189 J-1.919
X19.577 Y-3.327 I0.283 J-0.655
G1 X19.708 Y-4.18
G3 X20.03 Y-4.423 Z-4.812 I0.295 J0.056 F200.
G1 X20.058 Y-4.421 Z-5.1
X20.331 Y-4.395
X22.285 Y-4.213 F400.
X22.546 Y-4.189 F200.
X22.557 Y-4.187
G3 X22.816 Y-3.851 Z-5. I-0.039 J0.297
G1 X22.661 Y-2.913 F400.
G3 X21.8 Y-1.866 I-1.487 J-0.345
X19.848 Y-1.718 I-1.131 J-1.961
X19.445 Y-2.464 I0.3 J-0.644
G1 X19.577 Y-3.327
G3 X19.91 Y-3.569 Z-4.807 I0.295 J0.056 F200.
G1 X19.928 Y-3.567 Z-5.1
X20.199 Y-3.532
X22.13 Y-3.284 F400.
X22.401 Y-3.249 F200.
G3 X22.661 Y-2.913 Z-5. I-0.038 J0.298
G1 X22.511 Y-2.009 F400.
G3 X21.792 Y-1.064 I-1.385 J-0.308
X19.704 Y-0.858 I-1.243 J-1.922
X19.313 Y-1.599 I0.312 J-0.638
G1 X19.446 Y-2.464
G3 X19.784 Y-2.706 Z-5.1 I0.295 J0.056 F200.
G1 X19.796 Y-2.704 Z-5.1
X20.067 Y-2.664
X21.982 Y-2.384 F400.
X22.252 Y-2.345 F200.
X22.257 Y-2.344 Z-4.802
G3 X22.511 Y-2.009 Z-5.1 I-0.043 J0.297
G1 X22.371 Y-1.158 F400.
G3 X21.519 Y-0.121 I-1.441 J-0.315
X19.576 Y0.008 I-1.107 J-1.969
X19.181 Y-0.735 I0.307 J-0.64
G1 X19.313 Y-1.599
G3 X19.65 Y-1.841 Z-4.806 I0.295 J0.056 F200.
G1 X19.664 Y-1.839 Z-4.8
X19.935 Y-1.801
X21.841 Y-1.533 F400.
X22.112 Y-1.494 F200.
X22.115 Z-4.801
G3 X22.371 Y-1.158 Z-5.1 I-0.042 J0.297
G1 X22.277 Y-0.591 F400.
X22.255 Y-0.45
X22.237 Y-0.308
G3 X21.547 Y0.65 I-1.347 J-0.242
X19.453 Y0.877 I-1.265 J-1.901
X19.049 Y0.169 I0.304 J-0.643
G1 X19.054 Y0.117
X19.072 Y-0.024
X19.181 Y-0.735
G3 X19.517 Y-0.976 Z-4.806 I0.295 J0.056 F200.
G1 X19.531 Y-0.974 Z-4.8
X19.802 Y-0.937
X21.695 Y-0.672 F400.
X21.966 Y-0.635 F200.
X21.979 Y-0.633 Z-4.806
G3 X22.237 Y-0.308 Z-5.1 I-0.041 J0.297
G1 X22.201 Y-0.024 F400.
X22.15 Y0.479
G3 X21.371 Y1.554 I-1.411 J-0.203
X19.401 Y1.774 I-1.215 J-1.948
X18.966 Y1.057 I0.271 J-0.655
G1 X19.026 Y0.401
X19.049 Y0.169
G3 X19.376 Y-0.09 Z-4.804 I0.297 J0.04 F200.
G1 X19.386 Y-0.089 Z-4.8
X19.658 Y-0.062
X21.598 Y0.133 F400.
X21.871 Y0.16 F200.
X21.881 Y0.161 Z-4.804
G3 X22.15 Y0.479 Z-5. I-0.03 J0.299
G1 X22.066 Y1.329 F400.
G3 X21.287 Y2.413 I-1.431 J-0.206
X19.324 Y2.653 I-1.233 J-1.931
X18.885 Y1.935 I0.268 J-0.657
G1 X18.966 Y1.057
G3 X19.289 Y0.796 Z-4.805 I0.298 J0.038 F200.
G1 X19.301 Y0.797 Z-4.8
X19.574 Y0.821
X21.513 Y0.987 F400.
X21.786 Y1.01 F200.
X21.792 Y1.011 Z-4.803
G3 X22.066 Y1.329 Z-5.1 I-0.026 J0.299
G1 X21.981 Y2.18 F400.
G3 X21.214 Y3.273 I-1.444 J-0.198
X19.25 Y3.531 I-1.25 J-1.91
X18.804 Y2.809 I0.262 J-0.661
G1 X18.885 Y1.935
G3 X19.205 Y1.674 Z-4.807 I0.298 J0.038 F200.
G1 X19.22 Y1.675 Z-4.8
X19.493 Y1.696
X21.428 Y1.841 F400.
X21.701 Y1.861 F200.
X21.704 Z-4.801
G3 X21.981 Y2.18 Z-5.1 I-0.022 J0.299
G1 X21.89 Y3.094 F400.
G3 X21.232 Y4.077 I-1.38 J-0.212
X19.156 Y4.399 I-1.351 J-1.853
X18.723 Y3.683 I0.274 J-0.655
G1 X18.804 Y2.809
G3 X19.129 Y2.549 Z-4.804 I0.298 J0.038 F200.
G1 X19.14 Z-4.8
X19.412 Y2.574
X21.338 Y2.75 F400.
X21.61 Y2.775 F200.
X21.618 Y2.776 Z-4.803
G3 X21.89 Y3.094 Z-5. I-0.027 J0.299
G1 X21.805 Y3.944 F400.
G3 X21.019 Y5.029 I-1.449 J-0.223
X19.082 Y5.273 I-1.224 J-1.905
X18.643 Y4.559 I0.268 J-0.657
G1 X18.724 Y3.683
G3 X19.046 Y3.422 Z-4.806 I0.298 J0.038 F200.
G1 X19.059 Y3.423 Z-4.8
X19.332 Y3.446
X21.253 Y3.603 F400.
X21.526 Y3.626 F200.
X21.531 Z-4.802
G3 X21.805 Y3.944 Z-5. I-0.025 J0.299
G1 X21.735 Y4.653 F400.
X21.728 Y4.795
G3 X21.101 Y5.793 I-1.341 J-0.146
X19.038 Y6.159 I-1.389 J-1.831
X18.59 Y5.48 I0.263 J-0.661
X18.643 Y4.559 I12.329 J0.251
X18.965 Y4.296 Z-4.805 I0.298 J0.037 F200.
G1 X18.977 Y4.297 Z-4.8
X19.25 Y4.319
X21.159 Y4.469 F400.
X21.431 Y4.491 F200.
X21.451 Y4.492 Z-4.808
G3 X21.728 Y4.795 Z-5.1 I-0.024 J0.299
G1 X21.714 Y5.078 F400.
X21.696 Y5.581
G3 X20.987 Y6.705 I-1.422 J-0.112
X19.042 Y7.054 I-1.338 J-1.861
X18.562 Y6.363 I0.229 J-0.671
G1 X18.59 Y5.48
G3 X18.899 Y5.201 Z-4.804 I0.299 J0.02 F200.
G1 X18.91 Z-4.8
X19.183 Y5.21
X21.123 Y5.272 F400.
X21.396 Y5.281 F200.
X21.406 Y5.282 Z-4.804
G3 X21.696 Y5.581 Z-5.1 I-0.01 J0.3
G1 X21.667 Y6.432 F400.
G3 X20.963 Y7.566 I-1.443 J-0.11
X19.019 Y7.934 I-1.355 J-1.837
X18.533 Y7.242 I0.224 J-0.674
G1 X18.562 Y6.363
G3 X18.867 Y6.084 Z-4.806 I0.299 J0.02 F200.
G1 X18.881 Z-4.8
X19.155 Y6.089
X21.093 Y6.127 F400.
X21.367 Y6.132 F200.
X21.373 Z-4.802
G3 X21.667 Y6.432 Z-5.1 I-0.006 J0.3
G1 X21.635 Y7.346 F400.
G3 X21.033 Y8.366 I-1.386 J-0.131
X18.978 Y8.808 I-1.457 J-1.774
X18.505 Y8.12 I0.236 J-0.669
G1 X18.534 Y7.242
G3 X18.843 Y6.962 Z-4.804 I0.299 J0.02 F200.
G1 X18.853 Y6.963 Z-4.8
X19.126 Y6.972
X21.062 Y7.037 F400.
X21.335 Y7.046 F200.
X21.345 Z-4.804
G3 X21.635 Y7.346 Z-5.1 I-0.01 J0.3
G1 X21.606 Y8.196 F400.
G3 X20.883 Y9.327 I-1.46 J-0.137
X18.957 Y9.687 I-1.339 J-1.833
X18.477 Y8.996 I0.229 J-0.671
G1 X18.505 Y8.12
G3 X18.811 Y7.84 Z-4.806 I0.299 J0.02 F200.
G1 X18.825 Y7.841 Z-4.8
X19.098 Y7.847
X21.032 Y7.89 F400.
X21.306 Y7.897 F200.
X21.312 Z-4.803
G3 X21.606 Y8.196 Z-5.1 I-0.007 J0.3
G1 X21.576 Y9.047 F400.
G3 X20.875 Y10.186 I-1.459 J-0.113
X19.045 Y10.592 I-1.367 J-1.833
X18.51 Y10.027 I0.165 J-0.691
G1 X18.464 Y9.756
X18.456 Y9.685
X18.462 Y9.472
X18.477 Y8.996
G3 X18.78 Y8.716 Z-4.807 I0.299 J0.02 F200.
G1 X18.796 Y8.717 Z-4.8
X19.07 Y8.72
X21.003 Y8.744 F400.
X21.276 Y8.747 F200.
X21.28 Z-4.801
G3 X21.576 Y9.047 Z-5.1 I-0.004 J0.3
X21.475 Y10.117 I-5.193 J0.05 F400.
G1 X21.467 Y10.152
X21.462 Y10.181
X21.426 Y10.326
X21.375 Y10.438
X21.353 Y10.48
G3 X20.94 Y10.574 Z-4.8 I-0.254 J-0.16 F200.
X20.8 Y10.35 I0.159 J-0.254
G1 X20.801 Y10.282 F400.
X20.817 Y10.217
X20.884 Y10.035
X20.914 Y9.975
X20.957 Y9.923
G3 X21.208 Y9.841 I0.209 J0.215 F200.
X21.462 Y10.181 Z-5.1 I-0.043 J0.297
X21.317 Y10.542 I-0.699 J-0.072 F400.
G1 X21.296 Y10.577
X21.28 Y10.606
G3 X20.609 Y11.196 I-1.324 J-0.828
G1 X20.543 Y11.209 Z-4.971 F200.
X20.475 Y11.207 Z-4.943
X20.41 Y11.19 Z-4.914
X20.35 Y11.159 Z-4.886
X20.299 Y11.116 Z-4.857
X20.258 Y11.062 Z-4.829
X20.231 Y11.001 Z-4.8
G3 X20.269 Y10.739 I0.285 J-0.092
G1 X20.291 Y10.71 F400.
X20.317 Y10.684
X20.816 Y10.24
X20.852 Y10.213
X20.893 Y10.191
G3 X21.157 Y10.2 I0.122 J0.274 F200.
X21.28 Y10.606 Z-5.1 I-0.142 J0.264
X21.112 Y10.846 I-0.602 J-0.243 F400.
G1 X20.828 Y11.083
X20.757 Y11.135
G3 X20.256 Y11.315 I-1.09 J-2.248
X19.694 Y11.305 I-0.236 J-2.612
G1 X19.268 Y11.148
G3 X18.8 Y10.75 I1.148 J-1.826
G1 X18.598 Y10.393
X18.58 Y10.358
G3 X18.511 Y10.027 I1.066 J-0.394
X19.045 Y9.801 I0.297 J-0.041 F200.
G1 X19.086 Y9.854 Z-4.992
X19.125 Y9.904 Z-4.97
X19.16 Y9.949 Z-4.935
X19.189 Y9.986 Z-4.887
X19.211 Y10.015 Z-4.83
X19.224 Y10.032 Z-4.767
X19.229 Y10.038 Z-4.7
Z15. F400.

G28 G91 Z0.
G90
G28 G91 X0. Y0.
G90
M30
