(CASTERSPACER-MAINBODY)
(MACHINE)
(  VENDOR HOMEMADE)
(  DESCRIPTION GENERIC 3-AXIS)
(T1 D=4. CR=0. - ZMIN=-5.4 - FLAT END MILL)
G90 G94 G91.1 G40 G49 G17
G21
(WHEN USING FUSION FOR PERSONAL USE, THE FEEDRATE OF RAPID)
(MOVES IS REDUCED TO MATCH THE FEEDRATE OF CUTTING MOVES,)
(WHICH CAN INCREASE MACHINING TIME. UNRESTRICTED RAPID MOVES)
(ARE AVAILABLE WITH A FUSION SUBSCRIPTION.)
G28 G91 Z0.
G90

(CLEAROUTSIDE)
T1 M6
S5000 M3
G17 G90 G94
G54
G0 X-45.536 Y-44.237
G43 Z15. H1
G1 Z5. F350.
Z1.9
Z1.5
Z-0.5
G3 X-45.223 Y-42.059 I-9.893 J2.534
G1 Y-41.909
X-45.296 Y-41.778
X-45.39 Y-41.661
X-45.496 Y-41.556
X-45.625 Y-41.45
X-45.79 Y-41.334
X-46.002 Y-41.211
X-46.275 Y-41.079
X-46.634 Y-40.94
X-47.123 Y-40.796
X-47.829 Y-40.647
X-48.545 Y-40.555
X-49.265 Y-40.497
X-49.986 Y-40.461
X-50.708 Y-40.439
X-51.43 Y-40.424
X-52.151 Y-40.415
X-52.873 Y-40.41
X-53.234 Y-40.408
X-53.581 Y-40.305
X-53.882 Y-40.108
X-54.398 Y-39.602
X-54.748 Y-38.97
X-54.981 Y-38.287
X-55.132 Y-37.581
X-55.229 Y-36.866
X-55.292 Y-36.146
X-55.331 Y-35.425
X-55.357 Y-34.704
X-55.373 Y-33.982
X-55.383 Y-33.26
X-55.389 Y-32.538
X-55.393 Y-31.816
X-55.397 Y-30.372
X-55.4 Y-27.484
Y0.674
Y38.217
X-55.304 Y38.565
X-55.109 Y38.869
X-54.607 Y39.388
X-53.978 Y39.742
X-53.295 Y39.977
X-52.589 Y40.129
X-51.874 Y40.228
X-51.155 Y40.291
X-50.434 Y40.331
X-49.713 Y40.356
X-48.991 Y40.372
X-48.269 Y40.382
X-47.547 Y40.389
X-46.825 Y40.393
X-45.381 Y40.397
X-43.215 Y40.399
X-24.443 Y40.4
X7.325
X53.171
X53.524 Y40.323
X53.834 Y40.137
X54.364 Y39.647
X54.726 Y39.022
X54.966 Y38.341
X55.122 Y37.636
X55.223 Y36.921
X55.288 Y36.202
X55.329 Y35.482
X55.355 Y34.76
X55.372 Y34.038
X55.382 Y33.316
X55.389 Y32.594
X55.393 Y31.872
X55.397 Y30.428
X55.399 Y28.262
X55.4 Y10.935
Y-13.613
Y-38.161
X55.327 Y-38.515
X55.144 Y-38.826
X54.656 Y-39.358
X54.033 Y-39.722
X53.352 Y-39.963
X52.647 Y-40.121
X51.933 Y-40.222
X51.214 Y-40.287
X50.493 Y-40.328
X49.771 Y-40.355
X49.049 Y-40.371
X48.328 Y-40.382
X47.606 Y-40.389
X46.884 Y-40.393
X45.44 Y-40.397
X43.274 Y-40.399
X30.278 Y-40.4
X-20.262
X-42.644
X-43.361 Y-40.313
X-44.056 Y-40.12
X-44.741 Y-39.893
X-45.427 Y-39.667
X-46.121 Y-39.466
X-46.822 Y-39.296
X-47.532 Y-39.162
X-48.246 Y-39.059
X-48.964 Y-38.983
X-49.684 Y-38.928
X-50.405 Y-38.889
X-51.127 Y-38.861
X-51.479 Y-38.782
X-51.806 Y-38.629
X-52.394 Y-38.21
X-52.831 Y-37.635
X-53.142 Y-36.984
X-53.357 Y-36.295
X-53.504 Y-35.588
X-53.604 Y-34.873
X-53.67 Y-34.154
X-53.714 Y-33.433
X-53.744 Y-32.712
X-53.763 Y-31.99
X-53.776 Y-31.268
X-53.784 Y-30.546
X-53.79 Y-29.824
X-53.793 Y-29.102
X-53.797 Y-27.658
X-53.799 Y-24.77
X-53.8 Y-20.438
Y30.101
Y35.877
X-53.785 Y36.238
X-53.685 Y36.585
X-53.344 Y37.221
X-52.809 Y37.706
X-52.177 Y38.055
X-51.497 Y38.298
X-50.795 Y38.464
X-50.081 Y38.577
X-49.363 Y38.652
X-48.643 Y38.703
X-47.922 Y38.736
X-47.2 Y38.758
X-46.478 Y38.772
X-45.756 Y38.782
X-45.034 Y38.788
X-44.313 Y38.792
X-42.869 Y38.797
X-40.703 Y38.799
X-29.873 Y38.8
X-10.379
X40.161
X50.991
X51.35 Y38.761
X51.689 Y38.638
X52.305 Y38.262
X52.768 Y37.707
X53.098 Y37.065
X53.328 Y36.381
X53.485 Y35.676
X53.591 Y34.962
X53.661 Y34.243
X53.709 Y33.523
X53.74 Y32.802
X53.761 Y32.08
X53.774 Y31.358
X53.783 Y30.636
X53.789 Y29.914
X53.793 Y29.192
X53.797 Y27.748
X53.799 Y25.582
X53.8 Y13.308
Y0.312
Y-36.148
X53.721 Y-36.501
X53.566 Y-36.827
X53.143 Y-37.412
X52.565 Y-37.845
X51.912 Y-38.152
X51.222 Y-38.365
X50.515 Y-38.51
X49.8 Y-38.608
X49.08 Y-38.673
X48.36 Y-38.716
X47.638 Y-38.745
X46.917 Y-38.764
X46.195 Y-38.776
X45.473 Y-38.785
X44.751 Y-38.79
X44.029 Y-38.793
X42.585 Y-38.797
X41.141 Y-38.799
X34.643 Y-38.8
X-9.399
X-41.167
X-41.888 Y-38.766
X-42.603 Y-38.669
X-43.311 Y-38.525
X-44.012 Y-38.354
X-44.712 Y-38.176
X-45.413 Y-38.003
X-46.117 Y-37.845
X-46.826 Y-37.707
X-47.539 Y-37.592
X-48.255 Y-37.499
X-48.973 Y-37.424
X-49.691 Y-37.352
X-50.347 Y-37.049
X-50.872 Y-36.554
X-51.267 Y-35.95
X-51.553 Y-35.287
X-51.756 Y-34.594
X-51.897 Y-33.886
X-51.994 Y-33.17
X-52.061 Y-32.451
X-52.106 Y-31.731
X-52.137 Y-31.009
X-52.158 Y-30.288
X-52.172 Y-29.566
X-52.181 Y-28.844
X-52.187 Y-28.122
X-52.192 Y-27.4
X-52.196 Y-25.956
X-52.197 Y-25.689
X-52.199 Y-25.624
X-52.206 Y-25.559
X-52.217 Y-25.495
X-52.253 Y-25.328
X-52.295 Y-25.083
X-52.336 Y-24.836
X-52.353 Y-24.672
X-52.491 Y-22.705
X-52.497 Y-22.541
X-52.5 Y-22.049
Y22.049
X-52.497 Y22.541
X-52.491 Y22.705
X-52.353 Y24.672
X-52.336 Y24.836
X-52.263 Y25.555
X-52.24 Y26.276
X-52.225 Y26.998
X-52.216 Y27.72
X-52.21 Y28.442
X-52.206 Y29.164
X-52.203 Y30.608
X-52.2 Y33.496
Y34.218
X-52.155 Y34.576
X-52.038 Y34.918
X-51.682 Y35.546
X-51.149 Y36.032
X-50.521 Y36.389
X-49.846 Y36.643
X-49.146 Y36.821
X-48.434 Y36.943
X-47.717 Y37.027
X-46.997 Y37.084
X-46.276 Y37.122
X-45.555 Y37.148
X-44.833 Y37.165
X-44.742 Y37.167
X-44.608 Y37.179
X-44.476 Y37.21
X-44.35 Y37.26
X-44.277 Y37.295
X-44.099 Y37.364
X-43.935 Y37.412
X-43.771 Y37.451
X-43.607 Y37.479
X-43.115 Y37.499
X-42.459 Y37.5
X42.951
X43.115 Y37.499
X43.607 Y37.479
X43.722 Y37.459
X44.439 Y37.371
X45.158 Y37.307
X45.879 Y37.268
X46.6 Y37.243
X47.322 Y37.227
X48.044 Y37.217
X48.766 Y37.211
X49.488 Y37.207
X49.834 Y37.105
X50.477 Y36.775
X50.978 Y36.256
X51.348 Y35.636
X51.613 Y34.964
X51.799 Y34.267
X51.928 Y33.556
X52.016 Y32.84
X52.076 Y32.12
X52.117 Y31.399
X52.144 Y30.678
X52.163 Y29.956
X52.175 Y29.234
X52.183 Y28.512
X52.189 Y27.79
X52.193 Y27.068
X52.197 Y25.689
X52.199 Y25.624
X52.206 Y25.56
X52.217 Y25.496
X52.253 Y25.328
X52.295 Y25.083
X52.336 Y24.836
X52.353 Y24.672
X52.491 Y22.705
X52.497 Y22.541
X52.5 Y22.049
Y-22.049
X52.497 Y-22.541
X52.491 Y-22.705
X52.353 Y-24.672
X52.336 Y-24.836
X52.263 Y-25.555
X52.24 Y-26.276
X52.225 Y-26.998
X52.216 Y-27.72
X52.21 Y-28.442
X52.206 Y-29.164
X52.203 Y-30.608
X52.2 Y-33.496
Y-34.218
X52.153 Y-34.576
X52.036 Y-34.917
X51.68 Y-35.546
X51.146 Y-36.031
X50.518 Y-36.387
X49.842 Y-36.641
X49.142 Y-36.819
X48.431 Y-36.941
X47.714 Y-37.025
X46.994 Y-37.082
X46.273 Y-37.121
X45.551 Y-37.147
X44.83 Y-37.165
X44.743 Y-37.166
X44.609 Y-37.178
X44.477 Y-37.209
X44.352 Y-37.259
X44.277 Y-37.295
X44.099 Y-37.364
X43.935 Y-37.412
X43.771 Y-37.451
X43.607 Y-37.479
X43.115 Y-37.499
X42.459 Y-37.5
X-42.951
X-43.115 Y-37.499
X-43.607 Y-37.479
X-43.771 Y-37.451
X-43.935 Y-37.412
X-44.099 Y-37.364
X-44.277 Y-37.295
X-44.427 Y-37.223
X-44.594 Y-37.131
X-44.881 Y-36.961
X-45.327 Y-36.743
X-45.921 Y-36.509
X-46.612 Y-36.299
X-47.316 Y-36.137
X-48.026 Y-36.006
X-48.671 Y-35.683
X-49.197 Y-35.188
X-49.598 Y-34.588
X-49.894 Y-33.929
X-50.106 Y-33.239
X-50.257 Y-32.533
X-50.364 Y-31.819
X-50.437 Y-31.1
X-50.459 Y-30.796
X-50.477 Y-30.667
X-50.514 Y-30.541
X-50.568 Y-30.421
X-50.749 Y-30.082
X-50.923 Y-29.754
X-50.998 Y-29.59
X-51.24 Y-28.935
X-51.64 Y-27.845
X-51.78 Y-27.459
X-51.804 Y-27.368
X-51.901 Y-26.967
X-51.937 Y-26.803
X-52.217 Y-25.495
G3 X-52.844 Y-25.272 I-0.388 J-0.097
G1 X-52.907 Y-25.318 Z-0.492
X-52.967 Y-25.363 Z-0.47
X-53.022 Y-25.404 Z-0.433
X-53.071 Y-25.44 Z-0.383
X-53.111 Y-25.47 Z-0.322
X-53.141 Y-25.492 Z-0.253
X-53.159 Y-25.505 Z-0.178
X-53.165 Y-25.51 Z-0.1
Z5.
X-43.915 Y-38.093
Z0.3
Z-0.1
X-43.918 Y-38.086 Z-0.178
X-43.928 Y-38.065 Z-0.253
X-43.944 Y-38.032 Z-0.322
X-43.966 Y-37.987 Z-0.383
X-43.992 Y-37.933 Z-0.433
X-44.022 Y-37.87 Z-0.47
X-44.055 Y-37.803 Z-0.492
X-44.089 Y-37.732 Z-0.5
G3 X-44.594 Y-37.131 I-1.426 J-0.686
G1 X-44.754 Y-37.025
X-45.082 Y-36.776
X-46.112 Y-35.984
X-46.558 Y-35.63
X-46.722 Y-35.489
X-46.886 Y-35.323
X-48.033 Y-34.148
X-48.197 Y-33.98
X-48.317 Y-33.853
X-48.689 Y-33.361
X-49.051 Y-32.869
X-49.509 Y-32.246
X-49.836 Y-31.772
X-49.869 Y-31.722
X-50.568 Y-30.421
G3 X-51.232 Y-30.38 I-0.346 J-0.201
G1 X-51.279 Y-30.442 Z-0.492
X-51.324 Y-30.502 Z-0.47
X-51.366 Y-30.557 Z-0.433
X-51.403 Y-30.605 Z-0.383
X-51.433 Y-30.645 Z-0.322
X-51.455 Y-30.674 Z-0.253
X-51.469 Y-30.693 Z-0.178
X-51.474 Y-30.699 Z-0.1
Z5.
X-52.936 Y23.824
Z0.3
Z-0.1
X-52.931 Y23.829 Z-0.178
X-52.917 Y23.847 Z-0.253
X-52.893 Y23.875 Z-0.322
X-52.861 Y23.913 Z-0.383
X-52.822 Y23.959 Z-0.433
X-52.777 Y24.012 Z-0.47
X-52.729 Y24.07 Z-0.492
X-52.678 Y24.129 Z-0.5
G3 X-52.336 Y24.836 I-1.209 J1.021
G1 X-52.282 Y25.164
X-52.253 Y25.328
X-51.937 Y26.803
X-51.901 Y26.967
X-51.804 Y27.368
X-51.78 Y27.459
X-51.541 Y28.115
X-51.24 Y28.935
X-51.025 Y29.624
X-50.876 Y30.283
X-50.773 Y30.998
X-50.709 Y31.717
X-50.669 Y32.438
X-50.626 Y32.796
X-50.524 Y33.142
X-50.201 Y33.788
X-49.692 Y34.3
X-49.08 Y34.683
X-48.414 Y34.961
X-47.719 Y35.158
X-47.143 Y35.271
X-46.988 Y35.317
X-46.845 Y35.391
X-46.719 Y35.492
G3 X-46.82 Y36.149 I-0.27 J0.295
G1 X-46.891 Y36.182 Z-0.492
X-46.959 Y36.214 Z-0.47
X-47.022 Y36.243 Z-0.433
X-47.077 Y36.269 Z-0.383
X-47.122 Y36.29 Z-0.322
X-47.155 Y36.305 Z-0.253
X-47.176 Y36.315 Z-0.178
X-47.183 Y36.318 Z-0.1
Z5.
X-52.019 Y28.052
Z0.3
Z-0.1
X-52.013 Y28.057 Z-0.178
X-51.995 Y28.071 Z-0.253
X-51.966 Y28.094 Z-0.322
X-51.928 Y28.126 Z-0.383
X-51.881 Y28.164 Z-0.433
X-51.827 Y28.207 Z-0.47
X-51.769 Y28.255 Z-0.492
X-51.708 Y28.304 Z-0.5
G3 X-51.24 Y28.935 I-0.997 J1.229
G1 X-50.998 Y29.59
X-50.923 Y29.754
X-50.749 Y30.082
X-49.869 Y31.722
X-49.836 Y31.772
X-49.509 Y32.246
X-48.81 Y33.197
X-48.689 Y33.362
X-48.317 Y33.853
X-48.197 Y33.98
X-47.201 Y35.
X-46.793 Y35.417
X-46.719 Y35.492
X-46.558 Y35.63
X-46.112 Y35.984
X-45.047 Y36.804
X-44.754 Y37.025
X-44.59 Y37.134
X-44.427 Y37.223
X-44.35 Y37.26
G3 X-44.282 Y37.921 I-0.187 J0.354
G1 X-44.342 Y37.971 Z-0.492
X-44.4 Y38.019 Z-0.47
X-44.453 Y38.063 Z-0.433
X-44.5 Y38.102 Z-0.383
X-44.538 Y38.134 Z-0.322
X-44.567 Y38.157 Z-0.253
X-44.584 Y38.172 Z-0.178
X-44.59 Y38.177 Z-0.1
Z5.
X52.936 Y-23.824
Z0.3
Z-0.1
X52.931 Y-23.829 Z-0.178
X52.917 Y-23.847 Z-0.253
X52.893 Y-23.875 Z-0.322
X52.861 Y-23.913 Z-0.383
X52.822 Y-23.959 Z-0.433
X52.777 Y-24.012 Z-0.47
X52.729 Y-24.07 Z-0.492
X52.678 Y-24.129 Z-0.5
G3 X52.336 Y-24.836 I1.209 J-1.021
G1 X52.282 Y-25.164
X52.253 Y-25.328
X51.937 Y-26.803
X51.901 Y-26.967
X51.804 Y-27.368
X51.78 Y-27.459
X51.541 Y-28.115
X51.24 Y-28.935
X51.025 Y-29.624
X50.876 Y-30.283
X50.773 Y-30.998
X50.709 Y-31.717
X50.669 Y-32.438
X50.626 Y-32.796
X50.523 Y-33.142
X50.199 Y-33.787
X49.69 Y-34.299
X49.078 Y-34.682
X48.411 Y-34.96
X47.717 Y-35.157
X47.147 Y-35.268
X46.991 Y-35.315
X46.846 Y-35.39
X46.719 Y-35.492
G3 X46.82 Y-36.149 I0.27 J-0.295
G1 X46.891 Y-36.182 Z-0.492
X46.959 Y-36.214 Z-0.47
X47.022 Y-36.243 Z-0.433
X47.077 Y-36.269 Z-0.383
X47.122 Y-36.29 Z-0.322
X47.155 Y-36.305 Z-0.253
X47.176 Y-36.315 Z-0.178
X47.183 Y-36.318 Z-0.1
Z5.
X52.019 Y-28.052
Z0.3
Z-0.1
X52.013 Y-28.057 Z-0.178
X51.995 Y-28.071 Z-0.253
X51.966 Y-28.094 Z-0.322
X51.928 Y-28.126 Z-0.383
X51.881 Y-28.164 Z-0.433
X51.827 Y-28.207 Z-0.47
X51.769 Y-28.255 Z-0.492
X51.708 Y-28.304 Z-0.5
G3 X51.24 Y-28.935 I0.997 J-1.229
G1 X50.998 Y-29.59
X50.923 Y-29.754
X50.749 Y-30.082
X49.869 Y-31.722
X49.836 Y-31.772
X49.509 Y-32.246
X48.81 Y-33.197
X48.689 Y-33.362
X48.317 Y-33.853
X48.197 Y-33.98
X47.201 Y-35.
X46.793 Y-35.417
X46.719 Y-35.492
X46.558 Y-35.63
X46.112 Y-35.984
X45.047 Y-36.804
X44.754 Y-37.025
X44.59 Y-37.134
X44.427 Y-37.223
X44.352 Y-37.259
G3 X44.283 Y-37.921 I0.187 J-0.354
G1 X44.343 Y-37.971 Z-0.492
X44.401 Y-38.019 Z-0.47
X44.454 Y-38.063 Z-0.433
X44.501 Y-38.101 Z-0.383
X44.539 Y-38.133 Z-0.322
X44.568 Y-38.157 Z-0.253
X44.585 Y-38.171 Z-0.178
X44.591 Y-38.176 Z-0.1
Z5.
X42.714 Y38.068
Z0.3
Z-0.1
X42.72 Y38.063 Z-0.178
X42.737 Y38.048 Z-0.253
X42.765 Y38.024 Z-0.322
X42.803 Y37.991 Z-0.383
X42.849 Y37.952 Z-0.433
X42.902 Y37.907 Z-0.47
X42.959 Y37.858 Z-0.492
X43.018 Y37.807 Z-0.5
G3 X43.722 Y37.459 I1.031 J1.201
G1 X43.771 Y37.451
X43.935 Y37.412
X44.099 Y37.364
X44.277 Y37.295
X44.427 Y37.223
X44.594 Y37.131
X44.754 Y37.025
X45.082 Y36.776
X45.246 Y36.65
X45.369 Y36.565
X45.596 Y36.433
X45.886 Y36.295
X46.266 Y36.15
X46.78 Y36.
X47.487 Y35.854
X48.196 Y35.714
X48.82 Y35.352
X49.317 Y34.828
X49.69 Y34.21
X49.962 Y33.541
X50.157 Y32.846
X50.294 Y32.137
X50.39 Y31.422
X50.447 Y30.803
X50.466 Y30.68
X50.502 Y30.561
X50.554 Y30.447
G3 X51.218 Y30.406 I0.346 J0.201
G1 X51.265 Y30.468 Z-0.492
X51.31 Y30.528 Z-0.47
X51.352 Y30.583 Z-0.433
X51.389 Y30.631 Z-0.383
X51.419 Y30.671 Z-0.322
X51.441 Y30.7 Z-0.253
X51.455 Y30.718 Z-0.178
X51.46 Y30.725 Z-0.1
Z5.
X44.636 Y37.657
Z0.3
Z-0.1
X44.639 Y37.65 Z-0.178
X44.648 Y37.629 Z-0.253
X44.661 Y37.594 Z-0.322
X44.68 Y37.548 Z-0.383
X44.702 Y37.492 Z-0.433
X44.728 Y37.428 Z-0.47
X44.755 Y37.358 Z-0.492
X44.784 Y37.285 Z-0.5
G3 X45.246 Y36.65 I1.471 J0.585
G1 X46.112 Y35.984
X46.558 Y35.63
X46.722 Y35.489
X46.886 Y35.323
X48.033 Y34.148
X48.197 Y33.98
X48.317 Y33.853
X48.689 Y33.361
X49.051 Y32.869
X49.509 Y32.246
X49.836 Y31.772
X49.869 Y31.722
X50.749 Y30.082
X50.923 Y29.754
X50.998 Y29.59
X51.24 Y28.935
X51.64 Y27.845
X51.78 Y27.459
X51.804 Y27.368
X51.901 Y26.967
X51.937 Y26.803
X52.217 Y25.496
G3 X52.464 Y25.219 I0.388 J0.097
G1 X52.536 Y25.206 Z-0.493
X52.605 Y25.193 Z-0.473
X52.671 Y25.208 Z-0.439
X52.729 Y25.221 Z-0.393
X52.777 Y25.232 Z-0.337
X52.806 Y25.249 Z-0.283
X52.827 Y25.262 Z-0.225
X52.839 Y25.27 Z-0.163
X52.844 Y25.272 Z-0.1
Z5.
X-45.536 Y-44.237
Z1.4
Z1.
Z-1.
G3 X-45.223 Y-42.059 I-9.893 J2.534
G1 Y-41.909
X-45.296 Y-41.778
X-45.39 Y-41.661
X-45.496 Y-41.556
X-45.625 Y-41.45
X-45.79 Y-41.334
X-46.002 Y-41.211
X-46.275 Y-41.079
X-46.634 Y-40.94
X-47.123 Y-40.796
X-47.829 Y-40.647
X-48.545 Y-40.555
X-49.265 Y-40.497
X-49.986 Y-40.461
X-50.708 Y-40.439
X-51.43 Y-40.424
X-52.151 Y-40.415
X-52.873 Y-40.41
X-53.234 Y-40.408
X-53.581 Y-40.305
X-53.882 Y-40.108
X-54.398 Y-39.602
X-54.748 Y-38.97
X-54.981 Y-38.287
X-55.132 Y-37.581
X-55.229 Y-36.866
X-55.292 Y-36.146
X-55.331 Y-35.425
X-55.357 Y-34.704
X-55.373 Y-33.982
X-55.383 Y-33.26
X-55.389 Y-32.538
X-55.393 Y-31.816
X-55.397 Y-30.372
X-55.4 Y-27.484
Y0.674
Y38.217
X-55.304 Y38.565
X-55.109 Y38.869
X-54.607 Y39.388
X-53.978 Y39.742
X-53.295 Y39.977
X-52.589 Y40.129
X-51.874 Y40.228
X-51.155 Y40.291
X-50.434 Y40.331
X-49.713 Y40.356
X-48.991 Y40.372
X-48.269 Y40.382
X-47.547 Y40.389
X-46.825 Y40.393
X-45.381 Y40.397
X-43.215 Y40.399
X-24.443 Y40.4
X7.325
X53.171
X53.524 Y40.323
X53.834 Y40.137
X54.364 Y39.647
X54.726 Y39.022
X54.966 Y38.341
X55.122 Y37.636
X55.223 Y36.921
X55.288 Y36.202
X55.329 Y35.482
X55.355 Y34.76
X55.372 Y34.038
X55.382 Y33.316
X55.389 Y32.594
X55.393 Y31.872
X55.397 Y30.428
X55.399 Y28.262
X55.4 Y10.935
Y-13.613
Y-38.161
X55.327 Y-38.515
X55.144 Y-38.826
X54.656 Y-39.358
X54.033 Y-39.722
X53.352 Y-39.963
X52.647 Y-40.121
X51.933 Y-40.222
X51.214 Y-40.287
X50.493 Y-40.328
X49.771 Y-40.355
X49.049 Y-40.371
X48.328 Y-40.382
X47.606 Y-40.389
X46.884 Y-40.393
X45.44 Y-40.397
X43.274 Y-40.399
X30.278 Y-40.4
X-20.262
X-42.644
X-43.361 Y-40.313
X-44.056 Y-40.12
X-44.741 Y-39.893
X-45.427 Y-39.667
X-46.121 Y-39.466
X-46.822 Y-39.296
X-47.532 Y-39.162
X-48.246 Y-39.059
X-48.964 Y-38.983
X-49.684 Y-38.928
X-50.405 Y-38.889
X-51.127 Y-38.861
X-51.479 Y-38.782
X-51.806 Y-38.629
X-52.394 Y-38.21
X-52.831 Y-37.635
X-53.142 Y-36.984
X-53.357 Y-36.295
X-53.504 Y-35.588
X-53.604 Y-34.873
X-53.67 Y-34.154
X-53.714 Y-33.433
X-53.744 Y-32.712
X-53.763 Y-31.99
X-53.776 Y-31.268
X-53.784 Y-30.546
X-53.79 Y-29.824
X-53.793 Y-29.102
X-53.797 Y-27.658
X-53.799 Y-24.77
X-53.8 Y-20.438
Y30.101
Y35.877
X-53.785 Y36.238
X-53.685 Y36.585
X-53.344 Y37.221
X-52.809 Y37.706
X-52.177 Y38.055
X-51.497 Y38.298
X-50.795 Y38.464
X-50.081 Y38.577
X-49.363 Y38.652
X-48.643 Y38.703
X-47.922 Y38.736
X-47.2 Y38.758
X-46.478 Y38.772
X-45.756 Y38.782
X-45.034 Y38.788
X-44.313 Y38.792
X-42.869 Y38.797
X-40.703 Y38.799
X-29.873 Y38.8
X-10.379
X40.161
X50.991
X51.35 Y38.761
X51.689 Y38.638
X52.305 Y38.262
X52.768 Y37.707
X53.098 Y37.065
X53.328 Y36.381
X53.485 Y35.676
X53.591 Y34.962
X53.661 Y34.243
X53.709 Y33.523
X53.74 Y32.802
X53.761 Y32.08
X53.774 Y31.358
X53.783 Y30.636
X53.789 Y29.914
X53.793 Y29.192
X53.797 Y27.748
X53.799 Y25.582
X53.8 Y13.308
Y0.312
Y-36.148
X53.721 Y-36.501
X53.566 Y-36.827
X53.143 Y-37.412
X52.565 Y-37.845
X51.912 Y-38.152
X51.222 Y-38.365
X50.515 Y-38.51
X49.8 Y-38.608
X49.08 Y-38.673
X48.36 Y-38.716
X47.638 Y-38.745
X46.917 Y-38.764
X46.195 Y-38.776
X45.473 Y-38.785
X44.751 Y-38.79
X44.029 Y-38.793
X42.585 Y-38.797
X41.141 Y-38.799
X34.643 Y-38.8
X-9.399
X-41.167
X-41.888 Y-38.766
X-42.603 Y-38.669
X-43.311 Y-38.525
X-44.012 Y-38.354
X-44.712 Y-38.176
X-45.413 Y-38.003
X-46.117 Y-37.845
X-46.826 Y-37.707
X-47.539 Y-37.592
X-48.255 Y-37.499
X-48.973 Y-37.424
X-49.691 Y-37.352
X-50.347 Y-37.049
X-50.872 Y-36.554
X-51.267 Y-35.95
X-51.553 Y-35.287
X-51.756 Y-34.594
X-51.897 Y-33.886
X-51.994 Y-33.17
X-52.061 Y-32.451
X-52.106 Y-31.731
X-52.137 Y-31.009
X-52.158 Y-30.288
X-52.172 Y-29.566
X-52.181 Y-28.844
X-52.187 Y-28.122
X-52.192 Y-27.4
X-52.196 Y-25.956
X-52.197 Y-25.689
X-52.199 Y-25.624
X-52.206 Y-25.559
X-52.217 Y-25.495
X-52.253 Y-25.328
X-52.295 Y-25.083
X-52.336 Y-24.836
X-52.353 Y-24.672
X-52.491 Y-22.705
X-52.497 Y-22.541
X-52.5 Y-22.049
Y22.049
X-52.497 Y22.541
X-52.491 Y22.705
X-52.353 Y24.672
X-52.336 Y24.836
X-52.263 Y25.555
X-52.24 Y26.276
X-52.225 Y26.998
X-52.216 Y27.72
X-52.21 Y28.442
X-52.206 Y29.164
X-52.203 Y30.608
X-52.2 Y33.496
Y34.218
X-52.155 Y34.576
X-52.038 Y34.918
X-51.682 Y35.546
X-51.149 Y36.032
X-50.521 Y36.389
X-49.846 Y36.643
X-49.146 Y36.821
X-48.434 Y36.943
X-47.717 Y37.027
X-46.997 Y37.084
X-46.276 Y37.122
X-45.555 Y37.148
X-44.833 Y37.165
X-44.742 Y37.167
X-44.608 Y37.179
X-44.476 Y37.21
X-44.35 Y37.26
X-44.277 Y37.295
X-44.099 Y37.364
X-43.935 Y37.412
X-43.771 Y37.451
X-43.607 Y37.479
X-43.115 Y37.499
X-42.459 Y37.5
X42.951
X43.115 Y37.499
X43.607 Y37.479
X43.722 Y37.459
X44.439 Y37.371
X45.158 Y37.307
X45.879 Y37.268
X46.6 Y37.243
X47.322 Y37.227
X48.044 Y37.217
X48.766 Y37.211
X49.488 Y37.207
X49.834 Y37.105
X50.477 Y36.775
X50.978 Y36.256
X51.348 Y35.636
X51.613 Y34.964
X51.799 Y34.267
X51.928 Y33.556
X52.016 Y32.84
X52.076 Y32.12
X52.117 Y31.399
X52.144 Y30.678
X52.163 Y29.956
X52.175 Y29.234
X52.183 Y28.512
X52.189 Y27.79
X52.193 Y27.068
X52.197 Y25.689
X52.199 Y25.624
X52.206 Y25.56
X52.217 Y25.496
X52.253 Y25.328
X52.295 Y25.083
X52.336 Y24.836
X52.353 Y24.672
X52.491 Y22.705
X52.497 Y22.541
X52.5 Y22.049
Y-22.049
X52.497 Y-22.541
X52.491 Y-22.705
X52.353 Y-24.672
X52.336 Y-24.836
X52.263 Y-25.555
X52.24 Y-26.276
X52.225 Y-26.998
X52.216 Y-27.72
X52.21 Y-28.442
X52.206 Y-29.164
X52.203 Y-30.608
X52.2 Y-33.496
Y-34.218
X52.153 Y-34.576
X52.036 Y-34.917
X51.68 Y-35.546
X51.146 Y-36.031
X50.518 Y-36.387
X49.842 Y-36.641
X49.142 Y-36.819
X48.431 Y-36.941
X47.714 Y-37.025
X46.994 Y-37.082
X46.273 Y-37.121
X45.551 Y-37.147
X44.83 Y-37.165
X44.743 Y-37.166
X44.609 Y-37.178
X44.477 Y-37.209
X44.352 Y-37.259
X44.277 Y-37.295
X44.099 Y-37.364
X43.935 Y-37.412
X43.771 Y-37.451
X43.607 Y-37.479
X43.115 Y-37.499
X42.459 Y-37.5
X-42.951
X-43.115 Y-37.499
X-43.607 Y-37.479
X-43.771 Y-37.451
X-43.935 Y-37.412
X-44.099 Y-37.364
X-44.277 Y-37.295
X-44.427 Y-37.223
X-44.594 Y-37.131
X-44.881 Y-36.961
X-45.327 Y-36.743
X-45.921 Y-36.509
X-46.612 Y-36.299
X-47.316 Y-36.137
X-48.026 Y-36.006
X-48.671 Y-35.683
X-49.197 Y-35.188
X-49.598 Y-34.588
X-49.894 Y-33.929
X-50.106 Y-33.239
X-50.257 Y-32.533
X-50.364 Y-31.819
X-50.437 Y-31.1
X-50.459 Y-30.796
X-50.477 Y-30.667
X-50.514 Y-30.541
X-50.568 Y-30.421
X-50.749 Y-30.082
X-50.923 Y-29.754
X-50.998 Y-29.59
X-51.24 Y-28.935
X-51.64 Y-27.845
X-51.78 Y-27.459
X-51.804 Y-27.368
X-51.901 Y-26.967
X-51.937 Y-26.803
X-52.217 Y-25.495
G3 X-52.844 Y-25.272 I-0.388 J-0.097
G1 X-52.907 Y-25.318 Z-0.992
X-52.967 Y-25.363 Z-0.97
X-53.022 Y-25.404 Z-0.933
X-53.071 Y-25.44 Z-0.883
X-53.111 Y-25.47 Z-0.822
X-53.141 Y-25.492 Z-0.753
X-53.159 Y-25.505 Z-0.678
X-53.165 Y-25.51 Z-0.6
Z5.
X-43.915 Y-38.093
Z-0.2
Z-0.6
X-43.918 Y-38.086 Z-0.678
X-43.928 Y-38.065 Z-0.753
X-43.944 Y-38.032 Z-0.822
X-43.966 Y-37.987 Z-0.883
X-43.992 Y-37.933 Z-0.933
X-44.022 Y-37.87 Z-0.97
X-44.055 Y-37.803 Z-0.992
X-44.089 Y-37.732 Z-1.
G3 X-44.594 Y-37.131 I-1.426 J-0.686
G1 X-44.754 Y-37.025
X-45.082 Y-36.776
X-46.112 Y-35.984
X-46.558 Y-35.63
X-46.722 Y-35.489
X-46.886 Y-35.323
X-48.033 Y-34.148
X-48.197 Y-33.98
X-48.317 Y-33.853
X-48.689 Y-33.361
X-49.051 Y-32.869
X-49.509 Y-32.246
X-49.836 Y-31.772
X-49.869 Y-31.722
X-50.568 Y-30.421
G3 X-51.232 Y-30.38 I-0.346 J-0.201
G1 X-51.279 Y-30.442 Z-0.992
X-51.324 Y-30.502 Z-0.97
X-51.366 Y-30.557 Z-0.933
X-51.403 Y-30.605 Z-0.883
X-51.433 Y-30.645 Z-0.822
X-51.455 Y-30.674 Z-0.753
X-51.469 Y-30.693 Z-0.678
X-51.474 Y-30.699 Z-0.6
Z5.
X-52.936 Y23.824
Z-0.2
Z-0.6
X-52.931 Y23.829 Z-0.678
X-52.917 Y23.847 Z-0.753
X-52.893 Y23.875 Z-0.822
X-52.861 Y23.913 Z-0.883
X-52.822 Y23.959 Z-0.933
X-52.777 Y24.012 Z-0.97
X-52.729 Y24.07 Z-0.992
X-52.678 Y24.129 Z-1.
G3 X-52.336 Y24.836 I-1.209 J1.021
G1 X-52.282 Y25.164
X-52.253 Y25.328
X-51.937 Y26.803
X-51.901 Y26.967
X-51.804 Y27.368
X-51.78 Y27.459
X-51.541 Y28.115
X-51.24 Y28.935
X-51.025 Y29.624
X-50.876 Y30.283
X-50.773 Y30.998
X-50.709 Y31.717
X-50.669 Y32.438
X-50.626 Y32.796
X-50.524 Y33.142
X-50.201 Y33.788
X-49.692 Y34.3
X-49.08 Y34.683
X-48.414 Y34.961
X-47.719 Y35.158
X-47.143 Y35.271
X-46.988 Y35.317
X-46.845 Y35.391
X-46.719 Y35.492
G3 X-46.82 Y36.149 I-0.27 J0.295
G1 X-46.891 Y36.182 Z-0.992
X-46.959 Y36.214 Z-0.97
X-47.022 Y36.243 Z-0.933
X-47.077 Y36.269 Z-0.883
X-47.122 Y36.29 Z-0.822
X-47.155 Y36.305 Z-0.753
X-47.176 Y36.315 Z-0.678
X-47.183 Y36.318 Z-0.6
Z5.
X-52.019 Y28.052
Z-0.2
Z-0.6
X-52.013 Y28.057 Z-0.678
X-51.995 Y28.071 Z-0.753
X-51.966 Y28.094 Z-0.822
X-51.928 Y28.126 Z-0.883
X-51.881 Y28.164 Z-0.933
X-51.827 Y28.207 Z-0.97
X-51.769 Y28.255 Z-0.992
X-51.708 Y28.304 Z-1.
G3 X-51.24 Y28.935 I-0.997 J1.229
G1 X-50.998 Y29.59
X-50.923 Y29.754
X-50.749 Y30.082
X-49.869 Y31.722
X-49.836 Y31.772
X-49.509 Y32.246
X-48.81 Y33.197
X-48.689 Y33.362
X-48.317 Y33.853
X-48.197 Y33.98
X-47.201 Y35.
X-46.793 Y35.417
X-46.719 Y35.492
X-46.558 Y35.63
X-46.112 Y35.984
X-45.047 Y36.804
X-44.754 Y37.025
X-44.59 Y37.134
X-44.427 Y37.223
X-44.35 Y37.26
G3 X-44.282 Y37.921 I-0.187 J0.354
G1 X-44.342 Y37.971 Z-0.992
X-44.4 Y38.019 Z-0.97
X-44.453 Y38.063 Z-0.933
X-44.5 Y38.102 Z-0.883
X-44.538 Y38.134 Z-0.822
X-44.567 Y38.157 Z-0.753
X-44.584 Y38.172 Z-0.678
X-44.59 Y38.177 Z-0.6
Z5.
X52.936 Y-23.824
Z-0.2
Z-0.6
X52.931 Y-23.829 Z-0.678
X52.917 Y-23.847 Z-0.753
X52.893 Y-23.875 Z-0.822
X52.861 Y-23.913 Z-0.883
X52.822 Y-23.959 Z-0.933
X52.777 Y-24.012 Z-0.97
X52.729 Y-24.07 Z-0.992
X52.678 Y-24.129 Z-1.
G3 X52.336 Y-24.836 I1.209 J-1.021
G1 X52.282 Y-25.164
X52.253 Y-25.328
X51.937 Y-26.803
X51.901 Y-26.967
X51.804 Y-27.368
X51.78 Y-27.459
X51.541 Y-28.115
X51.24 Y-28.935
X51.025 Y-29.624
X50.876 Y-30.283
X50.773 Y-30.998
X50.709 Y-31.717
X50.669 Y-32.438
X50.626 Y-32.796
X50.523 Y-33.142
X50.199 Y-33.787
X49.69 Y-34.299
X49.078 Y-34.682
X48.411 Y-34.96
X47.717 Y-35.157
X47.147 Y-35.268
X46.991 Y-35.315
X46.846 Y-35.39
X46.719 Y-35.492
G3 X46.82 Y-36.149 I0.27 J-0.295
G1 X46.891 Y-36.182 Z-0.992
X46.959 Y-36.214 Z-0.97
X47.022 Y-36.243 Z-0.933
X47.077 Y-36.269 Z-0.883
X47.122 Y-36.29 Z-0.822
X47.155 Y-36.305 Z-0.753
X47.176 Y-36.315 Z-0.678
X47.183 Y-36.318 Z-0.6
Z5.
X52.019 Y-28.052
Z-0.2
Z-0.6
X52.013 Y-28.057 Z-0.678
X51.995 Y-28.071 Z-0.753
X51.966 Y-28.094 Z-0.822
X51.928 Y-28.126 Z-0.883
X51.881 Y-28.164 Z-0.933
X51.827 Y-28.207 Z-0.97
X51.769 Y-28.255 Z-0.992
X51.708 Y-28.304 Z-1.
G3 X51.24 Y-28.935 I0.997 J-1.229
G1 X50.998 Y-29.59
X50.923 Y-29.754
X50.749 Y-30.082
X49.869 Y-31.722
X49.836 Y-31.772
X49.509 Y-32.246
X48.81 Y-33.197
X48.689 Y-33.362
X48.317 Y-33.853
X48.197 Y-33.98
X47.201 Y-35.
X46.793 Y-35.417
X46.719 Y-35.492
X46.558 Y-35.63
X46.112 Y-35.984
X45.047 Y-36.804
X44.754 Y-37.025
X44.59 Y-37.134
X44.427 Y-37.223
X44.352 Y-37.259
G3 X44.283 Y-37.921 I0.187 J-0.354
G1 X44.343 Y-37.971 Z-0.992
X44.401 Y-38.019 Z-0.97
X44.454 Y-38.063 Z-0.933
X44.501 Y-38.101 Z-0.883
X44.539 Y-38.133 Z-0.822
X44.568 Y-38.157 Z-0.753
X44.585 Y-38.171 Z-0.678
X44.591 Y-38.176 Z-0.6
Z5.
X42.714 Y38.068
Z-0.2
Z-0.6
X42.72 Y38.063 Z-0.678
X42.737 Y38.048 Z-0.753
X42.765 Y38.024 Z-0.822
X42.803 Y37.991 Z-0.883
X42.849 Y37.952 Z-0.933
X42.902 Y37.907 Z-0.97
X42.959 Y37.858 Z-0.992
X43.018 Y37.807 Z-1.
G3 X43.722 Y37.459 I1.031 J1.201
G1 X43.771 Y37.451
X43.935 Y37.412
X44.099 Y37.364
X44.277 Y37.295
X44.427 Y37.223
X44.594 Y37.131
X44.754 Y37.025
X45.082 Y36.776
X45.246 Y36.65
X45.369 Y36.565
X45.596 Y36.433
X45.886 Y36.295
X46.266 Y36.15
X46.78 Y36.
X47.487 Y35.854
X48.196 Y35.714
X48.82 Y35.352
X49.317 Y34.828
X49.69 Y34.21
X49.962 Y33.541
X50.157 Y32.846
X50.294 Y32.137
X50.39 Y31.422
X50.447 Y30.803
X50.466 Y30.68
X50.502 Y30.561
X50.554 Y30.447
G3 X51.218 Y30.406 I0.346 J0.201
G1 X51.265 Y30.468 Z-0.992
X51.31 Y30.528 Z-0.97
X51.352 Y30.583 Z-0.933
X51.389 Y30.631 Z-0.883
X51.419 Y30.671 Z-0.822
X51.441 Y30.7 Z-0.753
X51.455 Y30.718 Z-0.678
X51.46 Y30.725 Z-0.6
Z5.
X44.636 Y37.657
Z-0.2
Z-0.6
X44.639 Y37.65 Z-0.678
X44.648 Y37.629 Z-0.753
X44.661 Y37.594 Z-0.822
X44.68 Y37.548 Z-0.883
X44.702 Y37.492 Z-0.933
X44.728 Y37.428 Z-0.97
X44.755 Y37.358 Z-0.992
X44.784 Y37.285 Z-1.
G3 X45.246 Y36.65 I1.471 J0.585
G1 X46.112 Y35.984
X46.558 Y35.63
X46.722 Y35.489
X46.886 Y35.323
X48.033 Y34.148
X48.197 Y33.98
X48.317 Y33.853
X48.689 Y33.361
X49.051 Y32.869
X49.509 Y32.246
X49.836 Y31.772
X49.869 Y31.722
X50.749 Y30.082
X50.923 Y29.754
X50.998 Y29.59
X51.24 Y28.935
X51.64 Y27.845
X51.78 Y27.459
X51.804 Y27.368
X51.901 Y26.967
X51.937 Y26.803
X52.217 Y25.496
G3 X52.464 Y25.219 I0.388 J0.097
G1 X52.536 Y25.206 Z-0.993
X52.605 Y25.193 Z-0.973
X52.671 Y25.208 Z-0.939
X52.729 Y25.221 Z-0.893
X52.777 Y25.232 Z-0.837
X52.806 Y25.249 Z-0.783
X52.827 Y25.262 Z-0.725
X52.839 Y25.27 Z-0.663
X52.844 Y25.272 Z-0.6
Z5.
X-45.536 Y-44.237
Z0.9
Z0.5
Z-1.5
G3 X-45.223 Y-42.059 I-9.893 J2.534
G1 Y-41.909
X-45.296 Y-41.778
X-45.39 Y-41.661
X-45.496 Y-41.556
X-45.625 Y-41.45
X-45.79 Y-41.334
X-46.002 Y-41.211
X-46.275 Y-41.079
X-46.634 Y-40.94
X-47.123 Y-40.796
X-47.829 Y-40.647
X-48.545 Y-40.555
X-49.265 Y-40.497
X-49.986 Y-40.461
X-50.708 Y-40.439
X-51.43 Y-40.424
X-52.151 Y-40.415
X-52.873 Y-40.41
X-53.234 Y-40.408
X-53.581 Y-40.305
X-53.882 Y-40.108
X-54.398 Y-39.602
X-54.748 Y-38.97
X-54.981 Y-38.287
X-55.132 Y-37.581
X-55.229 Y-36.866
X-55.292 Y-36.146
X-55.331 Y-35.425
X-55.357 Y-34.704
X-55.373 Y-33.982
X-55.383 Y-33.26
X-55.389 Y-32.538
X-55.393 Y-31.816
X-55.397 Y-30.372
X-55.4 Y-27.484
Y0.674
Y38.217
X-55.304 Y38.565
X-55.109 Y38.869
X-54.607 Y39.388
X-53.978 Y39.742
X-53.295 Y39.977
X-52.589 Y40.129
X-51.874 Y40.228
X-51.155 Y40.291
X-50.434 Y40.331
X-49.713 Y40.356
X-48.991 Y40.372
X-48.269 Y40.382
X-47.547 Y40.389
X-46.825 Y40.393
X-45.381 Y40.397
X-43.215 Y40.399
X-24.443 Y40.4
X7.325
X53.171
X53.524 Y40.323
X53.834 Y40.137
X54.364 Y39.647
X54.726 Y39.022
X54.966 Y38.341
X55.122 Y37.636
X55.223 Y36.921
X55.288 Y36.202
X55.329 Y35.482
X55.355 Y34.76
X55.372 Y34.038
X55.382 Y33.316
X55.389 Y32.594
X55.393 Y31.872
X55.397 Y30.428
X55.399 Y28.262
X55.4 Y10.935
Y-13.613
Y-38.161
X55.327 Y-38.515
X55.144 Y-38.826
X54.656 Y-39.358
X54.033 Y-39.722
X53.352 Y-39.963
X52.647 Y-40.121
X51.933 Y-40.222
X51.214 Y-40.287
X50.493 Y-40.328
X49.771 Y-40.355
X49.049 Y-40.371
X48.328 Y-40.382
X47.606 Y-40.389
X46.884 Y-40.393
X45.44 Y-40.397
X43.274 Y-40.399
X30.278 Y-40.4
X-20.262
X-42.644
X-43.361 Y-40.313
X-44.056 Y-40.12
X-44.741 Y-39.893
X-45.427 Y-39.667
X-46.121 Y-39.466
X-46.822 Y-39.296
X-47.532 Y-39.162
X-48.246 Y-39.059
X-48.964 Y-38.983
X-49.684 Y-38.928
X-50.405 Y-38.889
X-51.127 Y-38.861
X-51.479 Y-38.782
X-51.806 Y-38.629
X-52.394 Y-38.21
X-52.831 Y-37.635
X-53.142 Y-36.984
X-53.357 Y-36.295
X-53.504 Y-35.588
X-53.604 Y-34.873
X-53.67 Y-34.154
X-53.714 Y-33.433
X-53.744 Y-32.712
X-53.763 Y-31.99
X-53.776 Y-31.268
X-53.784 Y-30.546
X-53.79 Y-29.824
X-53.793 Y-29.102
X-53.797 Y-27.658
X-53.799 Y-24.77
X-53.8 Y-20.438
Y30.101
Y35.877
X-53.785 Y36.238
X-53.685 Y36.585
X-53.344 Y37.221
X-52.809 Y37.706
X-52.177 Y38.055
X-51.497 Y38.298
X-50.795 Y38.464
X-50.081 Y38.577
X-49.363 Y38.652
X-48.643 Y38.703
X-47.922 Y38.736
X-47.2 Y38.758
X-46.478 Y38.772
X-45.756 Y38.782
X-45.034 Y38.788
X-44.313 Y38.792
X-42.869 Y38.797
X-40.703 Y38.799
X-29.873 Y38.8
X-10.379
X40.161
X50.991
X51.35 Y38.761
X51.689 Y38.638
X52.305 Y38.262
X52.768 Y37.707
X53.098 Y37.065
X53.328 Y36.381
X53.485 Y35.676
X53.591 Y34.962
X53.661 Y34.243
X53.709 Y33.523
X53.74 Y32.802
X53.761 Y32.08
X53.774 Y31.358
X53.783 Y30.636
X53.789 Y29.914
X53.793 Y29.192
X53.797 Y27.748
X53.799 Y25.582
X53.8 Y13.308
Y0.312
Y-36.148
X53.721 Y-36.501
X53.566 Y-36.827
X53.143 Y-37.412
X52.565 Y-37.845
X51.912 Y-38.152
X51.222 Y-38.365
X50.515 Y-38.51
X49.8 Y-38.608
X49.08 Y-38.673
X48.36 Y-38.716
X47.638 Y-38.745
X46.917 Y-38.764
X46.195 Y-38.776
X45.473 Y-38.785
X44.751 Y-38.79
X44.029 Y-38.793
X42.585 Y-38.797
X41.141 Y-38.799
X34.643 Y-38.8
X-9.399
X-41.167
X-41.888 Y-38.766
X-42.603 Y-38.669
X-43.311 Y-38.525
X-44.012 Y-38.354
X-44.712 Y-38.176
X-45.413 Y-38.003
X-46.117 Y-37.845
X-46.826 Y-37.707
X-47.539 Y-37.592
X-48.255 Y-37.499
X-48.973 Y-37.424
X-49.691 Y-37.352
X-50.347 Y-37.049
X-50.872 Y-36.554
X-51.267 Y-35.95
X-51.553 Y-35.287
X-51.756 Y-34.594
X-51.897 Y-33.886
X-51.994 Y-33.17
X-52.061 Y-32.451
X-52.106 Y-31.731
X-52.137 Y-31.009
X-52.158 Y-30.288
X-52.172 Y-29.566
X-52.181 Y-28.844
X-52.187 Y-28.122
X-52.192 Y-27.4
X-52.196 Y-25.956
X-52.197 Y-25.689
X-52.199 Y-25.624
X-52.206 Y-25.559
X-52.217 Y-25.495
X-52.253 Y-25.328
X-52.295 Y-25.083
X-52.336 Y-24.836
X-52.353 Y-24.672
X-52.491 Y-22.705
X-52.497 Y-22.541
X-52.5 Y-22.049
Y22.049
X-52.497 Y22.541
X-52.491 Y22.705
X-52.353 Y24.672
X-52.336 Y24.836
X-52.263 Y25.555
X-52.24 Y26.276
X-52.225 Y26.998
X-52.216 Y27.72
X-52.21 Y28.442
X-52.206 Y29.164
X-52.203 Y30.608
X-52.2 Y33.496
Y34.218
X-52.155 Y34.576
X-52.038 Y34.918
X-51.682 Y35.546
X-51.149 Y36.032
X-50.521 Y36.389
X-49.846 Y36.643
X-49.146 Y36.821
X-48.434 Y36.943
X-47.717 Y37.027
X-46.997 Y37.084
X-46.276 Y37.122
X-45.555 Y37.148
X-44.833 Y37.165
X-44.742 Y37.167
X-44.608 Y37.179
X-44.476 Y37.21
X-44.35 Y37.26
X-44.277 Y37.295
X-44.099 Y37.364
X-43.935 Y37.412
X-43.771 Y37.451
X-43.607 Y37.479
X-43.115 Y37.499
X-42.459 Y37.5
X42.951
X43.115 Y37.499
X43.607 Y37.479
X43.722 Y37.459
X44.439 Y37.371
X45.158 Y37.307
X45.879 Y37.268
X46.6 Y37.243
X47.322 Y37.227
X48.044 Y37.217
X48.766 Y37.211
X49.488 Y37.207
X49.834 Y37.105
X50.477 Y36.775
X50.978 Y36.256
X51.348 Y35.636
X51.613 Y34.964
X51.799 Y34.267
X51.928 Y33.556
X52.016 Y32.84
X52.076 Y32.12
X52.117 Y31.399
X52.144 Y30.678
X52.163 Y29.956
X52.175 Y29.234
X52.183 Y28.512
X52.189 Y27.79
X52.193 Y27.068
X52.197 Y25.689
X52.199 Y25.624
X52.206 Y25.56
X52.217 Y25.496
X52.253 Y25.328
X52.295 Y25.083
X52.336 Y24.836
X52.353 Y24.672
X52.491 Y22.705
X52.497 Y22.541
X52.5 Y22.049
Y-22.049
X52.497 Y-22.541
X52.491 Y-22.705
X52.353 Y-24.672
X52.336 Y-24.836
X52.263 Y-25.555
X52.24 Y-26.276
X52.225 Y-26.998
X52.216 Y-27.72
X52.21 Y-28.442
X52.206 Y-29.164
X52.203 Y-30.608
X52.2 Y-33.496
Y-34.218
X52.153 Y-34.576
X52.036 Y-34.917
X51.68 Y-35.546
X51.146 Y-36.031
X50.518 Y-36.387
X49.842 Y-36.641
X49.142 Y-36.819
X48.431 Y-36.941
X47.714 Y-37.025
X46.994 Y-37.082
X46.273 Y-37.121
X45.551 Y-37.147
X44.83 Y-37.165
X44.743 Y-37.166
X44.609 Y-37.178
X44.477 Y-37.209
X44.352 Y-37.259
X44.277 Y-37.295
X44.099 Y-37.364
X43.935 Y-37.412
X43.771 Y-37.451
X43.607 Y-37.479
X43.115 Y-37.499
X42.459 Y-37.5
X-42.951
X-43.115 Y-37.499
X-43.607 Y-37.479
X-43.771 Y-37.451
X-43.935 Y-37.412
X-44.099 Y-37.364
X-44.277 Y-37.295
X-44.427 Y-37.223
X-44.594 Y-37.131
X-44.881 Y-36.961
X-45.327 Y-36.743
X-45.921 Y-36.509
X-46.612 Y-36.299
X-47.316 Y-36.137
X-48.026 Y-36.006
X-48.671 Y-35.683
X-49.197 Y-35.188
X-49.598 Y-34.588
X-49.894 Y-33.929
X-50.106 Y-33.239
X-50.257 Y-32.533
X-50.364 Y-31.819
X-50.437 Y-31.1
X-50.459 Y-30.796
X-50.477 Y-30.667
X-50.514 Y-30.541
X-50.568 Y-30.421
X-50.749 Y-30.082
X-50.923 Y-29.754
X-50.998 Y-29.59
X-51.24 Y-28.935
X-51.64 Y-27.845
X-51.78 Y-27.459
X-51.804 Y-27.368
X-51.901 Y-26.967
X-51.937 Y-26.803
X-52.217 Y-25.495
G3 X-52.844 Y-25.272 I-0.388 J-0.097
G1 X-52.907 Y-25.318 Z-1.492
X-52.967 Y-25.363 Z-1.47
X-53.022 Y-25.404 Z-1.433
X-53.071 Y-25.44 Z-1.383
X-53.111 Y-25.47 Z-1.322
X-53.141 Y-25.492 Z-1.253
X-53.159 Y-25.505 Z-1.178
X-53.165 Y-25.51 Z-1.1
Z5.
X-43.915 Y-38.093
Z-0.7
Z-1.1
X-43.918 Y-38.086 Z-1.178
X-43.928 Y-38.065 Z-1.253
X-43.944 Y-38.032 Z-1.322
X-43.966 Y-37.987 Z-1.383
X-43.992 Y-37.933 Z-1.433
X-44.022 Y-37.87 Z-1.47
X-44.055 Y-37.803 Z-1.492
X-44.089 Y-37.732 Z-1.5
G3 X-44.594 Y-37.131 I-1.426 J-0.686
G1 X-44.754 Y-37.025
X-45.082 Y-36.776
X-46.112 Y-35.984
X-46.558 Y-35.63
X-46.722 Y-35.489
X-46.886 Y-35.323
X-48.033 Y-34.148
X-48.197 Y-33.98
X-48.317 Y-33.853
X-48.689 Y-33.361
X-49.051 Y-32.869
X-49.509 Y-32.246
X-49.836 Y-31.772
X-49.869 Y-31.722
X-50.568 Y-30.421
G3 X-51.232 Y-30.38 I-0.346 J-0.201
G1 X-51.279 Y-30.442 Z-1.492
X-51.324 Y-30.502 Z-1.47
X-51.366 Y-30.557 Z-1.433
X-51.403 Y-30.605 Z-1.383
X-51.433 Y-30.645 Z-1.322
X-51.455 Y-30.674 Z-1.253
X-51.469 Y-30.693 Z-1.178
X-51.474 Y-30.699 Z-1.1
Z5.
X-52.936 Y23.824
Z-0.7
Z-1.1
X-52.931 Y23.829 Z-1.178
X-52.917 Y23.847 Z-1.253
X-52.893 Y23.875 Z-1.322
X-52.861 Y23.913 Z-1.383
X-52.822 Y23.959 Z-1.433
X-52.777 Y24.012 Z-1.47
X-52.729 Y24.07 Z-1.492
X-52.678 Y24.129 Z-1.5
G3 X-52.336 Y24.836 I-1.209 J1.021
G1 X-52.282 Y25.164
X-52.253 Y25.328
X-51.937 Y26.803
X-51.901 Y26.967
X-51.804 Y27.368
X-51.78 Y27.459
X-51.541 Y28.115
X-51.24 Y28.935
X-51.025 Y29.624
X-50.876 Y30.283
X-50.773 Y30.998
X-50.709 Y31.717
X-50.669 Y32.438
X-50.626 Y32.796
X-50.524 Y33.142
X-50.201 Y33.788
X-49.692 Y34.3
X-49.08 Y34.683
X-48.414 Y34.961
X-47.719 Y35.158
X-47.143 Y35.271
X-46.988 Y35.317
X-46.845 Y35.391
X-46.719 Y35.492
G3 X-46.82 Y36.149 I-0.27 J0.295
G1 X-46.891 Y36.182 Z-1.492
X-46.959 Y36.214 Z-1.47
X-47.022 Y36.243 Z-1.433
X-47.077 Y36.269 Z-1.383
X-47.122 Y36.29 Z-1.322
X-47.155 Y36.305 Z-1.253
X-47.176 Y36.315 Z-1.178
X-47.183 Y36.318 Z-1.1
Z5.
X-52.019 Y28.052
Z-0.7
Z-1.1
X-52.013 Y28.057 Z-1.178
X-51.995 Y28.071 Z-1.253
X-51.966 Y28.094 Z-1.322
X-51.928 Y28.126 Z-1.383
X-51.881 Y28.164 Z-1.433
X-51.827 Y28.207 Z-1.47
X-51.769 Y28.255 Z-1.492
X-51.708 Y28.304 Z-1.5
G3 X-51.24 Y28.935 I-0.997 J1.229
G1 X-50.998 Y29.59
X-50.923 Y29.754
X-50.749 Y30.082
X-49.869 Y31.722
X-49.836 Y31.772
X-49.509 Y32.246
X-48.81 Y33.197
X-48.689 Y33.362
X-48.317 Y33.853
X-48.197 Y33.98
X-47.201 Y35.
X-46.793 Y35.417
X-46.719 Y35.492
X-46.558 Y35.63
X-46.112 Y35.984
X-45.047 Y36.804
X-44.754 Y37.025
X-44.59 Y37.134
X-44.427 Y37.223
X-44.35 Y37.26
G3 X-44.282 Y37.921 I-0.187 J0.354
G1 X-44.342 Y37.971 Z-1.492
X-44.4 Y38.019 Z-1.47
X-44.453 Y38.063 Z-1.433
X-44.5 Y38.102 Z-1.383
X-44.538 Y38.134 Z-1.322
X-44.567 Y38.157 Z-1.253
X-44.584 Y38.172 Z-1.178
X-44.59 Y38.177 Z-1.1
Z5.
X52.936 Y-23.824
Z-0.7
Z-1.1
X52.931 Y-23.829 Z-1.178
X52.917 Y-23.847 Z-1.253
X52.893 Y-23.875 Z-1.322
X52.861 Y-23.913 Z-1.383
X52.822 Y-23.959 Z-1.433
X52.777 Y-24.012 Z-1.47
X52.729 Y-24.07 Z-1.492
X52.678 Y-24.129 Z-1.5
G3 X52.336 Y-24.836 I1.209 J-1.021
G1 X52.282 Y-25.164
X52.253 Y-25.328
X51.937 Y-26.803
X51.901 Y-26.967
X51.804 Y-27.368
X51.78 Y-27.459
X51.541 Y-28.115
X51.24 Y-28.935
X51.025 Y-29.624
X50.876 Y-30.283
X50.773 Y-30.998
X50.709 Y-31.717
X50.669 Y-32.438
X50.626 Y-32.796
X50.523 Y-33.142
X50.199 Y-33.787
X49.69 Y-34.299
X49.078 Y-34.682
X48.411 Y-34.96
X47.717 Y-35.157
X47.147 Y-35.268
X46.991 Y-35.315
X46.846 Y-35.39
X46.719 Y-35.492
G3 X46.82 Y-36.149 I0.27 J-0.295
G1 X46.891 Y-36.182 Z-1.492
X46.959 Y-36.214 Z-1.47
X47.022 Y-36.243 Z-1.433
X47.077 Y-36.269 Z-1.383
X47.122 Y-36.29 Z-1.322
X47.155 Y-36.305 Z-1.253
X47.176 Y-36.315 Z-1.178
X47.183 Y-36.318 Z-1.1
Z5.
X52.019 Y-28.052
Z-0.7
Z-1.1
X52.013 Y-28.057 Z-1.178
X51.995 Y-28.071 Z-1.253
X51.966 Y-28.094 Z-1.322
X51.928 Y-28.126 Z-1.383
X51.881 Y-28.164 Z-1.433
X51.827 Y-28.207 Z-1.47
X51.769 Y-28.255 Z-1.492
X51.708 Y-28.304 Z-1.5
G3 X51.24 Y-28.935 I0.997 J-1.229
G1 X50.998 Y-29.59
X50.923 Y-29.754
X50.749 Y-30.082
X49.869 Y-31.722
X49.836 Y-31.772
X49.509 Y-32.246
X48.81 Y-33.197
X48.689 Y-33.362
X48.317 Y-33.853
X48.197 Y-33.98
X47.201 Y-35.
X46.793 Y-35.417
X46.719 Y-35.492
X46.558 Y-35.63
X46.112 Y-35.984
X45.047 Y-36.804
X44.754 Y-37.025
X44.59 Y-37.134
X44.427 Y-37.223
X44.352 Y-37.259
G3 X44.283 Y-37.921 I0.187 J-0.354
G1 X44.343 Y-37.971 Z-1.492
X44.401 Y-38.019 Z-1.47
X44.454 Y-38.063 Z-1.433
X44.501 Y-38.101 Z-1.383
X44.539 Y-38.133 Z-1.322
X44.568 Y-38.157 Z-1.253
X44.585 Y-38.171 Z-1.178
X44.591 Y-38.176 Z-1.1
Z5.
X42.714 Y38.068
Z-0.7
Z-1.1
X42.72 Y38.063 Z-1.178
X42.737 Y38.048 Z-1.253
X42.765 Y38.024 Z-1.322
X42.803 Y37.991 Z-1.383
X42.849 Y37.952 Z-1.433
X42.902 Y37.907 Z-1.47
X42.959 Y37.858 Z-1.492
X43.018 Y37.807 Z-1.5
G3 X43.722 Y37.459 I1.031 J1.201
G1 X43.771 Y37.451
X43.935 Y37.412
X44.099 Y37.364
X44.277 Y37.295
X44.427 Y37.223
X44.594 Y37.131
X44.754 Y37.025
X45.082 Y36.776
X45.246 Y36.65
X45.369 Y36.565
X45.596 Y36.433
X45.886 Y36.295
X46.266 Y36.15
X46.78 Y36.
X47.487 Y35.854
X48.196 Y35.714
X48.82 Y35.352
X49.317 Y34.828
X49.69 Y34.21
X49.962 Y33.541
X50.157 Y32.846
X50.294 Y32.137
X50.39 Y31.422
X50.447 Y30.803
X50.466 Y30.68
X50.502 Y30.561
X50.554 Y30.447
G3 X51.218 Y30.406 I0.346 J0.201
G1 X51.265 Y30.468 Z-1.492
X51.31 Y30.528 Z-1.47
X51.352 Y30.583 Z-1.433
X51.389 Y30.631 Z-1.383
X51.419 Y30.671 Z-1.322
X51.441 Y30.7 Z-1.253
X51.455 Y30.718 Z-1.178
X51.46 Y30.725 Z-1.1
Z5.
X44.636 Y37.657
Z-0.7
Z-1.1
X44.639 Y37.65 Z-1.178
X44.648 Y37.629 Z-1.253
X44.661 Y37.594 Z-1.322
X44.68 Y37.548 Z-1.383
X44.702 Y37.492 Z-1.433
X44.728 Y37.428 Z-1.47
X44.755 Y37.358 Z-1.492
X44.784 Y37.285 Z-1.5
G3 X45.246 Y36.65 I1.471 J0.585
G1 X46.112 Y35.984
X46.558 Y35.63
X46.722 Y35.489
X46.886 Y35.323
X48.033 Y34.148
X48.197 Y33.98
X48.317 Y33.853
X48.689 Y33.361
X49.051 Y32.869
X49.509 Y32.246
X49.836 Y31.772
X49.869 Y31.722
X50.749 Y30.082
X50.923 Y29.754
X50.998 Y29.59
X51.24 Y28.935
X51.64 Y27.845
X51.78 Y27.459
X51.804 Y27.368
X51.901 Y26.967
X51.937 Y26.803
X52.217 Y25.496
G3 X52.464 Y25.219 I0.388 J0.097
G1 X52.536 Y25.206 Z-1.493
X52.605 Y25.193 Z-1.473
X52.671 Y25.208 Z-1.439
X52.729 Y25.221 Z-1.393
X52.777 Y25.232 Z-1.337
X52.806 Y25.249 Z-1.283
X52.827 Y25.262 Z-1.225
X52.839 Y25.27 Z-1.163
X52.844 Y25.272 Z-1.1
Z5.
X-45.536 Y-44.237
Z0.4
Z0.
Z-2.
G3 X-45.223 Y-42.059 I-9.893 J2.534
G1 Y-41.909
X-45.296 Y-41.778
X-45.39 Y-41.661
X-45.496 Y-41.556
X-45.625 Y-41.45
X-45.79 Y-41.334
X-46.002 Y-41.211
X-46.275 Y-41.079
X-46.634 Y-40.94
X-47.123 Y-40.796
X-47.829 Y-40.647
X-48.545 Y-40.555
X-49.265 Y-40.497
X-49.986 Y-40.461
X-50.708 Y-40.439
X-51.43 Y-40.424
X-52.151 Y-40.415
X-52.873 Y-40.41
X-53.234 Y-40.408
X-53.581 Y-40.305
X-53.882 Y-40.108
X-54.398 Y-39.602
X-54.748 Y-38.97
X-54.981 Y-38.287
X-55.132 Y-37.581
X-55.229 Y-36.866
X-55.292 Y-36.146
X-55.331 Y-35.425
X-55.357 Y-34.704
X-55.373 Y-33.982
X-55.383 Y-33.26
X-55.389 Y-32.538
X-55.393 Y-31.816
X-55.397 Y-30.372
X-55.4 Y-27.484
Y0.674
Y38.217
X-55.304 Y38.565
X-55.109 Y38.869
X-54.607 Y39.388
X-53.978 Y39.742
X-53.295 Y39.977
X-52.589 Y40.129
X-51.874 Y40.228
X-51.155 Y40.291
X-50.434 Y40.331
X-49.713 Y40.356
X-48.991 Y40.372
X-48.269 Y40.382
X-47.547 Y40.389
X-46.825 Y40.393
X-45.381 Y40.397
X-43.215 Y40.399
X-24.443 Y40.4
X7.325
X53.171
X53.524 Y40.323
X53.834 Y40.137
X54.364 Y39.647
X54.726 Y39.022
X54.966 Y38.341
X55.122 Y37.636
X55.223 Y36.921
X55.288 Y36.202
X55.329 Y35.482
X55.355 Y34.76
X55.372 Y34.038
X55.382 Y33.316
X55.389 Y32.594
X55.393 Y31.872
X55.397 Y30.428
X55.399 Y28.262
X55.4 Y10.935
Y-13.613
Y-38.161
X55.327 Y-38.515
X55.144 Y-38.826
X54.656 Y-39.358
X54.033 Y-39.722
X53.352 Y-39.963
X52.647 Y-40.121
X51.933 Y-40.222
X51.214 Y-40.287
X50.493 Y-40.328
X49.771 Y-40.355
X49.049 Y-40.371
X48.328 Y-40.382
X47.606 Y-40.389
X46.884 Y-40.393
X45.44 Y-40.397
X43.274 Y-40.399
X30.278 Y-40.4
X-20.262
X-42.644
X-43.361 Y-40.313
X-44.056 Y-40.12
X-44.741 Y-39.893
X-45.427 Y-39.667
X-46.121 Y-39.466
X-46.822 Y-39.296
X-47.532 Y-39.162
X-48.246 Y-39.059
X-48.964 Y-38.983
X-49.684 Y-38.928
X-50.405 Y-38.889
X-51.127 Y-38.861
X-51.479 Y-38.782
X-51.806 Y-38.629
X-52.394 Y-38.21
X-52.831 Y-37.635
X-53.142 Y-36.984
X-53.357 Y-36.295
X-53.504 Y-35.588
X-53.604 Y-34.873
X-53.67 Y-34.154
X-53.714 Y-33.433
X-53.744 Y-32.712
X-53.763 Y-31.99
X-53.776 Y-31.268
X-53.784 Y-30.546
X-53.79 Y-29.824
X-53.793 Y-29.102
X-53.797 Y-27.658
X-53.799 Y-24.77
X-53.8 Y-20.438
Y30.101
Y35.877
X-53.785 Y36.238
X-53.685 Y36.585
X-53.344 Y37.221
X-52.809 Y37.706
X-52.177 Y38.055
X-51.497 Y38.298
X-50.795 Y38.464
X-50.081 Y38.577
X-49.363 Y38.652
X-48.643 Y38.703
X-47.922 Y38.736
X-47.2 Y38.758
X-46.478 Y38.772
X-45.756 Y38.782
X-45.034 Y38.788
X-44.313 Y38.792
X-42.869 Y38.797
X-40.703 Y38.799
X-29.873 Y38.8
X-10.379
X40.161
X50.991
X51.35 Y38.761
X51.689 Y38.638
X52.305 Y38.262
X52.768 Y37.707
X53.098 Y37.065
X53.328 Y36.381
X53.485 Y35.676
X53.591 Y34.962
X53.661 Y34.243
X53.709 Y33.523
X53.74 Y32.802
X53.761 Y32.08
X53.774 Y31.358
X53.783 Y30.636
X53.789 Y29.914
X53.793 Y29.192
X53.797 Y27.748
X53.799 Y25.582
X53.8 Y13.308
Y0.312
Y-36.148
X53.721 Y-36.501
X53.566 Y-36.827
X53.143 Y-37.412
X52.565 Y-37.845
X51.912 Y-38.152
X51.222 Y-38.365
X50.515 Y-38.51
X49.8 Y-38.608
X49.08 Y-38.673
X48.36 Y-38.716
X47.638 Y-38.745
X46.917 Y-38.764
X46.195 Y-38.776
X45.473 Y-38.785
X44.751 Y-38.79
X44.029 Y-38.793
X42.585 Y-38.797
X41.141 Y-38.799
X34.643 Y-38.8
X-9.399
X-41.167
X-41.888 Y-38.766
X-42.603 Y-38.669
X-43.311 Y-38.525
X-44.012 Y-38.354
X-44.712 Y-38.176
X-45.413 Y-38.003
X-46.117 Y-37.845
X-46.826 Y-37.707
X-47.539 Y-37.592
X-48.255 Y-37.499
X-48.973 Y-37.424
X-49.691 Y-37.352
X-50.347 Y-37.049
X-50.872 Y-36.554
X-51.267 Y-35.95
X-51.553 Y-35.287
X-51.756 Y-34.594
X-51.897 Y-33.886
X-51.994 Y-33.17
X-52.061 Y-32.451
X-52.106 Y-31.731
X-52.137 Y-31.009
X-52.158 Y-30.288
X-52.172 Y-29.566
X-52.181 Y-28.844
X-52.187 Y-28.122
X-52.192 Y-27.4
X-52.196 Y-25.956
X-52.197 Y-25.689
X-52.199 Y-25.624
X-52.206 Y-25.559
X-52.217 Y-25.495
X-52.253 Y-25.328
X-52.295 Y-25.083
X-52.336 Y-24.836
X-52.353 Y-24.672
X-52.491 Y-22.705
X-52.497 Y-22.541
X-52.5 Y-22.049
Y22.049
X-52.497 Y22.541
X-52.491 Y22.705
X-52.353 Y24.672
X-52.336 Y24.836
X-52.263 Y25.555
X-52.24 Y26.276
X-52.225 Y26.998
X-52.216 Y27.72
X-52.21 Y28.442
X-52.206 Y29.164
X-52.203 Y30.608
X-52.2 Y33.496
Y34.218
X-52.155 Y34.576
X-52.038 Y34.918
X-51.682 Y35.546
X-51.149 Y36.032
X-50.521 Y36.389
X-49.846 Y36.643
X-49.146 Y36.821
X-48.434 Y36.943
X-47.717 Y37.027
X-46.997 Y37.084
X-46.276 Y37.122
X-45.555 Y37.148
X-44.833 Y37.165
X-44.742 Y37.167
X-44.608 Y37.179
X-44.476 Y37.21
X-44.35 Y37.26
X-44.277 Y37.295
X-44.099 Y37.364
X-43.935 Y37.412
X-43.771 Y37.451
X-43.607 Y37.479
X-43.115 Y37.499
X-42.459 Y37.5
X42.951
X43.115 Y37.499
X43.607 Y37.479
X43.722 Y37.459
X44.439 Y37.371
X45.158 Y37.307
X45.879 Y37.268
X46.6 Y37.243
X47.322 Y37.227
X48.044 Y37.217
X48.766 Y37.211
X49.488 Y37.207
X49.834 Y37.105
X50.477 Y36.775
X50.978 Y36.256
X51.348 Y35.636
X51.613 Y34.964
X51.799 Y34.267
X51.928 Y33.556
X52.016 Y32.84
X52.076 Y32.12
X52.117 Y31.399
X52.144 Y30.678
X52.163 Y29.956
X52.175 Y29.234
X52.183 Y28.512
X52.189 Y27.79
X52.193 Y27.068
X52.197 Y25.689
X52.199 Y25.624
X52.206 Y25.56
X52.217 Y25.496
X52.253 Y25.328
X52.295 Y25.083
X52.336 Y24.836
X52.353 Y24.672
X52.491 Y22.705
X52.497 Y22.541
X52.5 Y22.049
Y-22.049
X52.497 Y-22.541
X52.491 Y-22.705
X52.353 Y-24.672
X52.336 Y-24.836
X52.263 Y-25.555
X52.24 Y-26.276
X52.225 Y-26.998
X52.216 Y-27.72
X52.21 Y-28.442
X52.206 Y-29.164
X52.203 Y-30.608
X52.2 Y-33.496
Y-34.218
X52.153 Y-34.576
X52.036 Y-34.917
X51.68 Y-35.546
X51.146 Y-36.031
X50.518 Y-36.387
X49.842 Y-36.641
X49.142 Y-36.819
X48.431 Y-36.941
X47.714 Y-37.025
X46.994 Y-37.082
X46.273 Y-37.121
X45.551 Y-37.147
X44.83 Y-37.165
X44.743 Y-37.166
X44.609 Y-37.178
X44.477 Y-37.209
X44.352 Y-37.259
X44.277 Y-37.295
X44.099 Y-37.364
X43.935 Y-37.412
X43.771 Y-37.451
X43.607 Y-37.479
X43.115 Y-37.499
X42.459 Y-37.5
X-42.951
X-43.115 Y-37.499
X-43.607 Y-37.479
X-43.771 Y-37.451
X-43.935 Y-37.412
X-44.099 Y-37.364
X-44.277 Y-37.295
X-44.427 Y-37.223
X-44.594 Y-37.131
X-44.881 Y-36.961
X-45.327 Y-36.743
X-45.921 Y-36.509
X-46.612 Y-36.299
X-47.316 Y-36.137
X-48.026 Y-36.006
X-48.671 Y-35.683
X-49.197 Y-35.188
X-49.598 Y-34.588
X-49.894 Y-33.929
X-50.106 Y-33.239
X-50.257 Y-32.533
X-50.364 Y-31.819
X-50.437 Y-31.1
X-50.459 Y-30.796
X-50.477 Y-30.667
X-50.514 Y-30.541
X-50.568 Y-30.421
X-50.749 Y-30.082
X-50.923 Y-29.754
X-50.998 Y-29.59
X-51.24 Y-28.935
X-51.64 Y-27.845
X-51.78 Y-27.459
X-51.804 Y-27.368
X-51.901 Y-26.967
X-51.937 Y-26.803
X-52.217 Y-25.495
G3 X-52.844 Y-25.272 I-0.388 J-0.097
G1 X-52.907 Y-25.318 Z-1.992
X-52.967 Y-25.363 Z-1.97
X-53.022 Y-25.404 Z-1.933
X-53.071 Y-25.44 Z-1.883
X-53.111 Y-25.47 Z-1.822
X-53.141 Y-25.492 Z-1.753
X-53.159 Y-25.505 Z-1.678
X-53.165 Y-25.51 Z-1.6
Z5.
X-43.915 Y-38.093
Z-1.2
Z-1.6
X-43.918 Y-38.086 Z-1.678
X-43.928 Y-38.065 Z-1.753
X-43.944 Y-38.032 Z-1.822
X-43.966 Y-37.987 Z-1.883
X-43.992 Y-37.933 Z-1.933
X-44.022 Y-37.87 Z-1.97
X-44.055 Y-37.803 Z-1.992
X-44.089 Y-37.732 Z-2.
G3 X-44.594 Y-37.131 I-1.426 J-0.686
G1 X-44.754 Y-37.025
X-45.082 Y-36.776
X-46.112 Y-35.984
X-46.558 Y-35.63
X-46.722 Y-35.489
X-46.886 Y-35.323
X-48.033 Y-34.148
X-48.197 Y-33.98
X-48.317 Y-33.853
X-48.689 Y-33.361
X-49.051 Y-32.869
X-49.509 Y-32.246
X-49.836 Y-31.772
X-49.869 Y-31.722
X-50.568 Y-30.421
G3 X-51.232 Y-30.38 I-0.346 J-0.201
G1 X-51.279 Y-30.442 Z-1.992
X-51.324 Y-30.502 Z-1.97
X-51.366 Y-30.557 Z-1.933
X-51.403 Y-30.605 Z-1.883
X-51.433 Y-30.645 Z-1.822
X-51.455 Y-30.674 Z-1.753
X-51.469 Y-30.693 Z-1.678
X-51.474 Y-30.699 Z-1.6
Z5.
X-52.936 Y23.824
Z-1.2
Z-1.6
X-52.931 Y23.829 Z-1.678
X-52.917 Y23.847 Z-1.753
X-52.893 Y23.875 Z-1.822
X-52.861 Y23.913 Z-1.883
X-52.822 Y23.959 Z-1.933
X-52.777 Y24.012 Z-1.97
X-52.729 Y24.07 Z-1.992
X-52.678 Y24.129 Z-2.
G3 X-52.336 Y24.836 I-1.209 J1.021
G1 X-52.282 Y25.164
X-52.253 Y25.328
X-51.937 Y26.803
X-51.901 Y26.967
X-51.804 Y27.368
X-51.78 Y27.459
X-51.541 Y28.115
X-51.24 Y28.935
X-51.025 Y29.624
X-50.876 Y30.283
X-50.773 Y30.998
X-50.709 Y31.717
X-50.669 Y32.438
X-50.626 Y32.796
X-50.524 Y33.142
X-50.201 Y33.788
X-49.692 Y34.3
X-49.08 Y34.683
X-48.414 Y34.961
X-47.719 Y35.158
X-47.143 Y35.271
X-46.988 Y35.317
X-46.845 Y35.391
X-46.719 Y35.492
G3 X-46.82 Y36.149 I-0.27 J0.295
G1 X-46.891 Y36.182 Z-1.992
X-46.959 Y36.214 Z-1.97
X-47.022 Y36.243 Z-1.933
X-47.077 Y36.269 Z-1.883
X-47.122 Y36.29 Z-1.822
X-47.155 Y36.305 Z-1.753
X-47.176 Y36.315 Z-1.678
X-47.183 Y36.318 Z-1.6
Z5.
X-52.019 Y28.052
Z-1.2
Z-1.6
X-52.013 Y28.057 Z-1.678
X-51.995 Y28.071 Z-1.753
X-51.966 Y28.094 Z-1.822
X-51.928 Y28.126 Z-1.883
X-51.881 Y28.164 Z-1.933
X-51.827 Y28.207 Z-1.97
X-51.769 Y28.255 Z-1.992
X-51.708 Y28.304 Z-2.
G3 X-51.24 Y28.935 I-0.997 J1.229
G1 X-50.998 Y29.59
X-50.923 Y29.754
X-50.749 Y30.082
X-49.869 Y31.722
X-49.836 Y31.772
X-49.509 Y32.246
X-48.81 Y33.197
X-48.689 Y33.362
X-48.317 Y33.853
X-48.197 Y33.98
X-47.201 Y35.
X-46.793 Y35.417
X-46.719 Y35.492
X-46.558 Y35.63
X-46.112 Y35.984
X-45.047 Y36.804
X-44.754 Y37.025
X-44.59 Y37.134
X-44.427 Y37.223
X-44.35 Y37.26
G3 X-44.282 Y37.921 I-0.187 J0.354
G1 X-44.342 Y37.971 Z-1.992
X-44.4 Y38.019 Z-1.97
X-44.453 Y38.063 Z-1.933
X-44.5 Y38.102 Z-1.883
X-44.538 Y38.134 Z-1.822
X-44.567 Y38.157 Z-1.753
X-44.584 Y38.172 Z-1.678
X-44.59 Y38.177 Z-1.6
Z5.
X52.936 Y-23.824
Z-1.2
Z-1.6
X52.931 Y-23.829 Z-1.678
X52.917 Y-23.847 Z-1.753
X52.893 Y-23.875 Z-1.822
X52.861 Y-23.913 Z-1.883
X52.822 Y-23.959 Z-1.933
X52.777 Y-24.012 Z-1.97
X52.729 Y-24.07 Z-1.992
X52.678 Y-24.129 Z-2.
G3 X52.336 Y-24.836 I1.209 J-1.021
G1 X52.282 Y-25.164
X52.253 Y-25.328
X51.937 Y-26.803
X51.901 Y-26.967
X51.804 Y-27.368
X51.78 Y-27.459
X51.541 Y-28.115
X51.24 Y-28.935
X51.025 Y-29.624
X50.876 Y-30.283
X50.773 Y-30.998
X50.709 Y-31.717
X50.669 Y-32.438
X50.626 Y-32.796
X50.523 Y-33.142
X50.199 Y-33.787
X49.69 Y-34.299
X49.078 Y-34.682
X48.411 Y-34.96
X47.717 Y-35.157
X47.147 Y-35.268
X46.991 Y-35.315
X46.846 Y-35.39
X46.719 Y-35.492
G3 X46.82 Y-36.149 I0.27 J-0.295
G1 X46.891 Y-36.182 Z-1.992
X46.959 Y-36.214 Z-1.97
X47.022 Y-36.243 Z-1.933
X47.077 Y-36.269 Z-1.883
X47.122 Y-36.29 Z-1.822
X47.155 Y-36.305 Z-1.753
X47.176 Y-36.315 Z-1.678
X47.183 Y-36.318 Z-1.6
Z5.
X52.019 Y-28.052
Z-1.2
Z-1.6
X52.013 Y-28.057 Z-1.678
X51.995 Y-28.071 Z-1.753
X51.966 Y-28.094 Z-1.822
X51.928 Y-28.126 Z-1.883
X51.881 Y-28.164 Z-1.933
X51.827 Y-28.207 Z-1.97
X51.769 Y-28.255 Z-1.992
X51.708 Y-28.304 Z-2.
G3 X51.24 Y-28.935 I0.997 J-1.229
G1 X50.998 Y-29.59
X50.923 Y-29.754
X50.749 Y-30.082
X49.869 Y-31.722
X49.836 Y-31.772
X49.509 Y-32.246
X48.81 Y-33.197
X48.689 Y-33.362
X48.317 Y-33.853
X48.197 Y-33.98
X47.201 Y-35.
X46.793 Y-35.417
X46.719 Y-35.492
X46.558 Y-35.63
X46.112 Y-35.984
X45.047 Y-36.804
X44.754 Y-37.025
X44.59 Y-37.134
X44.427 Y-37.223
X44.352 Y-37.259
G3 X44.283 Y-37.921 I0.187 J-0.354
G1 X44.343 Y-37.971 Z-1.992
X44.401 Y-38.019 Z-1.97
X44.454 Y-38.063 Z-1.933
X44.501 Y-38.101 Z-1.883
X44.539 Y-38.133 Z-1.822
X44.568 Y-38.157 Z-1.753
X44.585 Y-38.171 Z-1.678
X44.591 Y-38.176 Z-1.6
Z5.
X42.714 Y38.068
Z-1.2
Z-1.6
X42.72 Y38.063 Z-1.678
X42.737 Y38.048 Z-1.753
X42.765 Y38.024 Z-1.822
X42.803 Y37.991 Z-1.883
X42.849 Y37.952 Z-1.933
X42.902 Y37.907 Z-1.97
X42.959 Y37.858 Z-1.992
X43.018 Y37.807 Z-2.
G3 X43.722 Y37.459 I1.031 J1.201
G1 X43.771 Y37.451
X43.935 Y37.412
X44.099 Y37.364
X44.277 Y37.295
X44.427 Y37.223
X44.594 Y37.131
X44.754 Y37.025
X45.082 Y36.776
X45.246 Y36.65
X45.369 Y36.565
X45.596 Y36.433
X45.886 Y36.295
X46.266 Y36.15
X46.78 Y36.
X47.487 Y35.854
X48.196 Y35.714
X48.82 Y35.352
X49.317 Y34.828
X49.69 Y34.21
X49.962 Y33.541
X50.157 Y32.846
X50.294 Y32.137
X50.39 Y31.422
X50.447 Y30.803
X50.466 Y30.68
X50.502 Y30.561
X50.554 Y30.447
G3 X51.218 Y30.406 I0.346 J0.201
G1 X51.265 Y30.468 Z-1.992
X51.31 Y30.528 Z-1.97
X51.352 Y30.583 Z-1.933
X51.389 Y30.631 Z-1.883
X51.419 Y30.671 Z-1.822
X51.441 Y30.7 Z-1.753
X51.455 Y30.718 Z-1.678
X51.46 Y30.725 Z-1.6
Z5.
X44.636 Y37.657
Z-1.2
Z-1.6
X44.639 Y37.65 Z-1.678
X44.648 Y37.629 Z-1.753
X44.661 Y37.594 Z-1.822
X44.68 Y37.548 Z-1.883
X44.702 Y37.492 Z-1.933
X44.728 Y37.428 Z-1.97
X44.755 Y37.358 Z-1.992
X44.784 Y37.285 Z-2.
G3 X45.246 Y36.65 I1.471 J0.585
G1 X46.112 Y35.984
X46.558 Y35.63
X46.722 Y35.489
X46.886 Y35.323
X48.033 Y34.148
X48.197 Y33.98
X48.317 Y33.853
X48.689 Y33.361
X49.051 Y32.869
X49.509 Y32.246
X49.836 Y31.772
X49.869 Y31.722
X50.749 Y30.082
X50.923 Y29.754
X50.998 Y29.59
X51.24 Y28.935
X51.64 Y27.845
X51.78 Y27.459
X51.804 Y27.368
X51.901 Y26.967
X51.937 Y26.803
X52.217 Y25.496
G3 X52.464 Y25.219 I0.388 J0.097
G1 X52.536 Y25.206 Z-1.993
X52.605 Y25.193 Z-1.973
X52.671 Y25.208 Z-1.939
X52.729 Y25.221 Z-1.893
X52.777 Y25.232 Z-1.837
X52.806 Y25.249 Z-1.783
X52.827 Y25.262 Z-1.725
X52.839 Y25.27 Z-1.663
X52.844 Y25.272 Z-1.6
Z5.
X-45.536 Y-44.237
Z-0.1
Z-0.5
Z-2.5
G3 X-45.223 Y-42.059 I-9.893 J2.534
G1 Y-41.909
X-45.296 Y-41.778
X-45.39 Y-41.661
X-45.496 Y-41.556
X-45.625 Y-41.45
X-45.79 Y-41.334
X-46.002 Y-41.211
X-46.275 Y-41.079
X-46.634 Y-40.94
X-47.123 Y-40.796
X-47.829 Y-40.647
X-48.545 Y-40.555
X-49.265 Y-40.497
X-49.986 Y-40.461
X-50.708 Y-40.439
X-51.43 Y-40.424
X-52.151 Y-40.415
X-52.873 Y-40.41
X-53.234 Y-40.408
X-53.581 Y-40.305
X-53.882 Y-40.108
X-54.398 Y-39.602
X-54.748 Y-38.97
X-54.981 Y-38.287
X-55.132 Y-37.581
X-55.229 Y-36.866
X-55.292 Y-36.146
X-55.331 Y-35.425
X-55.357 Y-34.704
X-55.373 Y-33.982
X-55.383 Y-33.26
X-55.389 Y-32.538
X-55.393 Y-31.816
X-55.397 Y-30.372
X-55.4 Y-27.484
Y0.674
Y38.217
X-55.304 Y38.565
X-55.109 Y38.869
X-54.607 Y39.388
X-53.978 Y39.742
X-53.295 Y39.977
X-52.589 Y40.129
X-51.874 Y40.228
X-51.155 Y40.291
X-50.434 Y40.331
X-49.713 Y40.356
X-48.991 Y40.372
X-48.269 Y40.382
X-47.547 Y40.389
X-46.825 Y40.393
X-45.381 Y40.397
X-43.215 Y40.399
X-24.443 Y40.4
X7.325
X53.171
X53.524 Y40.323
X53.834 Y40.137
X54.364 Y39.647
X54.726 Y39.022
X54.966 Y38.341
X55.122 Y37.636
X55.223 Y36.921
X55.288 Y36.202
X55.329 Y35.482
X55.355 Y34.76
X55.372 Y34.038
X55.382 Y33.316
X55.389 Y32.594
X55.393 Y31.872
X55.397 Y30.428
X55.399 Y28.262
X55.4 Y10.935
Y-13.613
Y-38.161
X55.327 Y-38.515
X55.144 Y-38.826
X54.656 Y-39.358
X54.033 Y-39.722
X53.352 Y-39.963
X52.647 Y-40.121
X51.933 Y-40.222
X51.214 Y-40.287
X50.493 Y-40.328
X49.771 Y-40.355
X49.049 Y-40.371
X48.328 Y-40.382
X47.606 Y-40.389
X46.884 Y-40.393
X45.44 Y-40.397
X43.274 Y-40.399
X30.278 Y-40.4
X-20.262
X-42.644
X-43.361 Y-40.313
X-44.056 Y-40.12
X-44.741 Y-39.893
X-45.427 Y-39.667
X-46.121 Y-39.466
X-46.822 Y-39.296
X-47.532 Y-39.162
X-48.246 Y-39.059
X-48.964 Y-38.983
X-49.684 Y-38.928
X-50.405 Y-38.889
X-51.127 Y-38.861
X-51.479 Y-38.782
X-51.806 Y-38.629
X-52.394 Y-38.21
X-52.831 Y-37.635
X-53.142 Y-36.984
X-53.357 Y-36.295
X-53.504 Y-35.588
X-53.604 Y-34.873
X-53.67 Y-34.154
X-53.714 Y-33.433
X-53.744 Y-32.712
X-53.763 Y-31.99
X-53.776 Y-31.268
X-53.784 Y-30.546
X-53.79 Y-29.824
X-53.793 Y-29.102
X-53.797 Y-27.658
X-53.799 Y-24.77
X-53.8 Y-20.438
Y30.101
Y35.877
X-53.785 Y36.238
X-53.685 Y36.585
X-53.344 Y37.221
X-52.809 Y37.706
X-52.177 Y38.055
X-51.497 Y38.298
X-50.795 Y38.464
X-50.081 Y38.577
X-49.363 Y38.652
X-48.643 Y38.703
X-47.922 Y38.736
X-47.2 Y38.758
X-46.478 Y38.772
X-45.756 Y38.782
X-45.034 Y38.788
X-44.313 Y38.792
X-42.869 Y38.797
X-40.703 Y38.799
X-29.873 Y38.8
X-10.379
X40.161
X50.991
X51.35 Y38.761
X51.689 Y38.638
X52.305 Y38.262
X52.768 Y37.707
X53.098 Y37.065
X53.328 Y36.381
X53.485 Y35.676
X53.591 Y34.962
X53.661 Y34.243
X53.709 Y33.523
X53.74 Y32.802
X53.761 Y32.08
X53.774 Y31.358
X53.783 Y30.636
X53.789 Y29.914
X53.793 Y29.192
X53.797 Y27.748
X53.799 Y25.582
X53.8 Y13.308
Y0.312
Y-36.148
X53.721 Y-36.501
X53.566 Y-36.827
X53.143 Y-37.412
X52.565 Y-37.845
X51.912 Y-38.152
X51.222 Y-38.365
X50.515 Y-38.51
X49.8 Y-38.608
X49.08 Y-38.673
X48.36 Y-38.716
X47.638 Y-38.745
X46.917 Y-38.764
X46.195 Y-38.776
X45.473 Y-38.785
X44.751 Y-38.79
X44.029 Y-38.793
X42.585 Y-38.797
X41.141 Y-38.799
X34.643 Y-38.8
X-9.399
X-41.167
X-41.888 Y-38.766
X-42.603 Y-38.669
X-43.311 Y-38.525
X-44.012 Y-38.354
X-44.712 Y-38.176
X-45.413 Y-38.003
X-46.117 Y-37.845
X-46.826 Y-37.707
X-47.539 Y-37.592
X-48.255 Y-37.499
X-48.973 Y-37.424
X-49.691 Y-37.352
X-50.347 Y-37.049
X-50.872 Y-36.554
X-51.267 Y-35.95
X-51.553 Y-35.287
X-51.756 Y-34.594
X-51.897 Y-33.886
X-51.994 Y-33.17
X-52.061 Y-32.451
X-52.106 Y-31.731
X-52.137 Y-31.009
X-52.158 Y-30.288
X-52.172 Y-29.566
X-52.181 Y-28.844
X-52.187 Y-28.122
X-52.192 Y-27.4
X-52.196 Y-25.956
X-52.197 Y-25.689
X-52.199 Y-25.624
X-52.206 Y-25.559
X-52.217 Y-25.495
X-52.253 Y-25.328
X-52.295 Y-25.083
X-52.336 Y-24.836
X-52.353 Y-24.672
X-52.491 Y-22.705
X-52.497 Y-22.541
X-52.5 Y-22.049
Y22.049
X-52.497 Y22.541
X-52.491 Y22.705
X-52.353 Y24.672
X-52.336 Y24.836
X-52.263 Y25.555
X-52.24 Y26.276
X-52.225 Y26.998
X-52.216 Y27.72
X-52.21 Y28.442
X-52.206 Y29.164
X-52.203 Y30.608
X-52.2 Y33.496
Y34.218
X-52.155 Y34.576
X-52.038 Y34.918
X-51.682 Y35.546
X-51.149 Y36.032
X-50.521 Y36.389
X-49.846 Y36.643
X-49.146 Y36.821
X-48.434 Y36.943
X-47.717 Y37.027
X-46.997 Y37.084
X-46.276 Y37.122
X-45.555 Y37.148
X-44.833 Y37.165
X-44.742 Y37.167
X-44.608 Y37.179
X-44.476 Y37.21
X-44.35 Y37.26
X-44.277 Y37.295
X-44.099 Y37.364
X-43.935 Y37.412
X-43.771 Y37.451
X-43.607 Y37.479
X-43.115 Y37.499
X-42.459 Y37.5
X42.951
X43.115 Y37.499
X43.607 Y37.479
X43.722 Y37.459
X44.439 Y37.371
X45.158 Y37.307
X45.879 Y37.268
X46.6 Y37.243
X47.322 Y37.227
X48.044 Y37.217
X48.766 Y37.211
X49.488 Y37.207
X49.834 Y37.105
X50.477 Y36.775
X50.978 Y36.256
X51.348 Y35.636
X51.613 Y34.964
X51.799 Y34.267
X51.928 Y33.556
X52.016 Y32.84
X52.076 Y32.12
X52.117 Y31.399
X52.144 Y30.678
X52.163 Y29.956
X52.175 Y29.234
X52.183 Y28.512
X52.189 Y27.79
X52.193 Y27.068
X52.197 Y25.689
X52.199 Y25.624
X52.206 Y25.56
X52.217 Y25.496
X52.253 Y25.328
X52.295 Y25.083
X52.336 Y24.836
X52.353 Y24.672
X52.491 Y22.705
X52.497 Y22.541
X52.5 Y22.049
Y-22.049
X52.497 Y-22.541
X52.491 Y-22.705
X52.353 Y-24.672
X52.336 Y-24.836
X52.263 Y-25.555
X52.24 Y-26.276
X52.225 Y-26.998
X52.216 Y-27.72
X52.21 Y-28.442
X52.206 Y-29.164
X52.203 Y-30.608
X52.2 Y-33.496
Y-34.218
X52.153 Y-34.576
X52.036 Y-34.917
X51.68 Y-35.546
X51.146 Y-36.031
X50.518 Y-36.387
X49.842 Y-36.641
X49.142 Y-36.819
X48.431 Y-36.941
X47.714 Y-37.025
X46.994 Y-37.082
X46.273 Y-37.121
X45.551 Y-37.147
X44.83 Y-37.165
X44.743 Y-37.166
X44.609 Y-37.178
X44.477 Y-37.209
X44.352 Y-37.259
X44.277 Y-37.295
X44.099 Y-37.364
X43.935 Y-37.412
X43.771 Y-37.451
X43.607 Y-37.479
X43.115 Y-37.499
X42.459 Y-37.5
X-42.951
X-43.115 Y-37.499
X-43.607 Y-37.479
X-43.771 Y-37.451
X-43.935 Y-37.412
X-44.099 Y-37.364
X-44.277 Y-37.295
X-44.427 Y-37.223
X-44.594 Y-37.131
X-44.881 Y-36.961
X-45.327 Y-36.743
X-45.921 Y-36.509
X-46.612 Y-36.299
X-47.316 Y-36.137
X-48.026 Y-36.006
X-48.671 Y-35.683
X-49.197 Y-35.188
X-49.598 Y-34.588
X-49.894 Y-33.929
X-50.106 Y-33.239
X-50.257 Y-32.533
X-50.364 Y-31.819
X-50.437 Y-31.1
X-50.459 Y-30.796
X-50.477 Y-30.667
X-50.514 Y-30.541
X-50.568 Y-30.421
X-50.749 Y-30.082
X-50.923 Y-29.754
X-50.998 Y-29.59
X-51.24 Y-28.935
X-51.64 Y-27.845
X-51.78 Y-27.459
X-51.804 Y-27.368
X-51.901 Y-26.967
X-51.937 Y-26.803
X-52.217 Y-25.495
G3 X-52.844 Y-25.272 I-0.388 J-0.097
G1 X-52.907 Y-25.318 Z-2.492
X-52.967 Y-25.363 Z-2.47
X-53.022 Y-25.404 Z-2.433
X-53.071 Y-25.44 Z-2.383
X-53.111 Y-25.47 Z-2.322
X-53.141 Y-25.492 Z-2.253
X-53.159 Y-25.505 Z-2.178
X-53.165 Y-25.51 Z-2.1
Z5.
X-43.915 Y-38.093
Z-1.7
Z-2.1
X-43.918 Y-38.086 Z-2.178
X-43.928 Y-38.065 Z-2.253
X-43.944 Y-38.032 Z-2.322
X-43.966 Y-37.987 Z-2.383
X-43.992 Y-37.933 Z-2.433
X-44.022 Y-37.87 Z-2.47
X-44.055 Y-37.803 Z-2.492
X-44.089 Y-37.732 Z-2.5
G3 X-44.594 Y-37.131 I-1.426 J-0.686
G1 X-44.754 Y-37.025
X-45.082 Y-36.776
X-46.112 Y-35.984
X-46.558 Y-35.63
X-46.722 Y-35.489
X-46.886 Y-35.323
X-48.033 Y-34.148
X-48.197 Y-33.98
X-48.317 Y-33.853
X-48.689 Y-33.361
X-49.051 Y-32.869
X-49.509 Y-32.246
X-49.836 Y-31.772
X-49.869 Y-31.722
X-50.568 Y-30.421
G3 X-51.232 Y-30.38 I-0.346 J-0.201
G1 X-51.279 Y-30.442 Z-2.492
X-51.324 Y-30.502 Z-2.47
X-51.366 Y-30.557 Z-2.433
X-51.403 Y-30.605 Z-2.383
X-51.433 Y-30.645 Z-2.322
X-51.455 Y-30.674 Z-2.253
X-51.469 Y-30.693 Z-2.178
X-51.474 Y-30.699 Z-2.1
Z5.
X-52.936 Y23.824
Z-1.7
Z-2.1
X-52.931 Y23.829 Z-2.178
X-52.917 Y23.847 Z-2.253
X-52.893 Y23.875 Z-2.322
X-52.861 Y23.913 Z-2.383
X-52.822 Y23.959 Z-2.433
X-52.777 Y24.012 Z-2.47
X-52.729 Y24.07 Z-2.492
X-52.678 Y24.129 Z-2.5
G3 X-52.336 Y24.836 I-1.209 J1.021
G1 X-52.282 Y25.164
X-52.253 Y25.328
X-51.937 Y26.803
X-51.901 Y26.967
X-51.804 Y27.368
X-51.78 Y27.459
X-51.541 Y28.115
X-51.24 Y28.935
X-51.025 Y29.624
X-50.876 Y30.283
X-50.773 Y30.998
X-50.709 Y31.717
X-50.669 Y32.438
X-50.626 Y32.796
X-50.524 Y33.142
X-50.201 Y33.788
X-49.692 Y34.3
X-49.08 Y34.683
X-48.414 Y34.961
X-47.719 Y35.158
X-47.143 Y35.271
X-46.988 Y35.317
X-46.845 Y35.391
X-46.719 Y35.492
G3 X-46.82 Y36.149 I-0.27 J0.295
G1 X-46.891 Y36.182 Z-2.492
X-46.959 Y36.214 Z-2.47
X-47.022 Y36.243 Z-2.433
X-47.077 Y36.269 Z-2.383
X-47.122 Y36.29 Z-2.322
X-47.155 Y36.305 Z-2.253
X-47.176 Y36.315 Z-2.178
X-47.183 Y36.318 Z-2.1
Z5.
X-52.019 Y28.052
Z-1.7
Z-2.1
X-52.013 Y28.057 Z-2.178
X-51.995 Y28.071 Z-2.253
X-51.966 Y28.094 Z-2.322
X-51.928 Y28.126 Z-2.383
X-51.881 Y28.164 Z-2.433
X-51.827 Y28.207 Z-2.47
X-51.769 Y28.255 Z-2.492
X-51.708 Y28.304 Z-2.5
G3 X-51.24 Y28.935 I-0.997 J1.229
G1 X-50.998 Y29.59
X-50.923 Y29.754
X-50.749 Y30.082
X-49.869 Y31.722
X-49.836 Y31.772
X-49.509 Y32.246
X-48.81 Y33.197
X-48.689 Y33.362
X-48.317 Y33.853
X-48.197 Y33.98
X-47.201 Y35.
X-46.793 Y35.417
X-46.719 Y35.492
X-46.558 Y35.63
X-46.112 Y35.984
X-45.047 Y36.804
X-44.754 Y37.025
X-44.59 Y37.134
X-44.427 Y37.223
X-44.35 Y37.26
G3 X-44.282 Y37.921 I-0.187 J0.354
G1 X-44.342 Y37.971 Z-2.492
X-44.4 Y38.019 Z-2.47
X-44.453 Y38.063 Z-2.433
X-44.5 Y38.102 Z-2.383
X-44.538 Y38.134 Z-2.322
X-44.567 Y38.157 Z-2.253
X-44.584 Y38.172 Z-2.178
X-44.59 Y38.177 Z-2.1
Z5.
X52.936 Y-23.824
Z-1.7
Z-2.1
X52.931 Y-23.829 Z-2.178
X52.917 Y-23.847 Z-2.253
X52.893 Y-23.875 Z-2.322
X52.861 Y-23.913 Z-2.383
X52.822 Y-23.959 Z-2.433
X52.777 Y-24.012 Z-2.47
X52.729 Y-24.07 Z-2.492
X52.678 Y-24.129 Z-2.5
G3 X52.336 Y-24.836 I1.209 J-1.021
G1 X52.282 Y-25.164
X52.253 Y-25.328
X51.937 Y-26.803
X51.901 Y-26.967
X51.804 Y-27.368
X51.78 Y-27.459
X51.541 Y-28.115
X51.24 Y-28.935
X51.025 Y-29.624
X50.876 Y-30.283
X50.773 Y-30.998
X50.709 Y-31.717
X50.669 Y-32.438
X50.626 Y-32.796
X50.523 Y-33.142
X50.199 Y-33.787
X49.69 Y-34.299
X49.078 Y-34.682
X48.411 Y-34.96
X47.717 Y-35.157
X47.147 Y-35.268
X46.991 Y-35.315
X46.846 Y-35.39
X46.719 Y-35.492
G3 X46.82 Y-36.149 I0.27 J-0.295
G1 X46.891 Y-36.182 Z-2.492
X46.959 Y-36.214 Z-2.47
X47.022 Y-36.243 Z-2.433
X47.077 Y-36.269 Z-2.383
X47.122 Y-36.29 Z-2.322
X47.155 Y-36.305 Z-2.253
X47.176 Y-36.315 Z-2.178
X47.183 Y-36.318 Z-2.1
Z5.
X52.019 Y-28.052
Z-1.7
Z-2.1
X52.013 Y-28.057 Z-2.178
X51.995 Y-28.071 Z-2.253
X51.966 Y-28.094 Z-2.322
X51.928 Y-28.126 Z-2.383
X51.881 Y-28.164 Z-2.433
X51.827 Y-28.207 Z-2.47
X51.769 Y-28.255 Z-2.492
X51.708 Y-28.304 Z-2.5
G3 X51.24 Y-28.935 I0.997 J-1.229
G1 X50.998 Y-29.59
X50.923 Y-29.754
X50.749 Y-30.082
X49.869 Y-31.722
X49.836 Y-31.772
X49.509 Y-32.246
X48.81 Y-33.197
X48.689 Y-33.362
X48.317 Y-33.853
X48.197 Y-33.98
X47.201 Y-35.
X46.793 Y-35.417
X46.719 Y-35.492
X46.558 Y-35.63
X46.112 Y-35.984
X45.047 Y-36.804
X44.754 Y-37.025
X44.59 Y-37.134
X44.427 Y-37.223
X44.352 Y-37.259
G3 X44.283 Y-37.921 I0.187 J-0.354
G1 X44.343 Y-37.971 Z-2.492
X44.401 Y-38.019 Z-2.47
X44.454 Y-38.063 Z-2.433
X44.501 Y-38.101 Z-2.383
X44.539 Y-38.133 Z-2.322
X44.568 Y-38.157 Z-2.253
X44.585 Y-38.171 Z-2.178
X44.591 Y-38.176 Z-2.1
Z5.
X42.714 Y38.068
Z-1.7
Z-2.1
X42.72 Y38.063 Z-2.178
X42.737 Y38.048 Z-2.253
X42.765 Y38.024 Z-2.322
X42.803 Y37.991 Z-2.383
X42.849 Y37.952 Z-2.433
X42.902 Y37.907 Z-2.47
X42.959 Y37.858 Z-2.492
X43.018 Y37.807 Z-2.5
G3 X43.722 Y37.459 I1.031 J1.201
G1 X43.771 Y37.451
X43.935 Y37.412
X44.099 Y37.364
X44.277 Y37.295
X44.427 Y37.223
X44.594 Y37.131
X44.754 Y37.025
X45.082 Y36.776
X45.246 Y36.65
X45.369 Y36.565
X45.596 Y36.433
X45.886 Y36.295
X46.266 Y36.15
X46.78 Y36.
X47.487 Y35.854
X48.196 Y35.714
X48.82 Y35.352
X49.317 Y34.828
X49.69 Y34.21
X49.962 Y33.541
X50.157 Y32.846
X50.294 Y32.137
X50.39 Y31.422
X50.447 Y30.803
X50.466 Y30.68
X50.502 Y30.561
X50.554 Y30.447
G3 X51.218 Y30.406 I0.346 J0.201
G1 X51.265 Y30.468 Z-2.492
X51.31 Y30.528 Z-2.47
X51.352 Y30.583 Z-2.433
X51.389 Y30.631 Z-2.383
X51.419 Y30.671 Z-2.322
X51.441 Y30.7 Z-2.253
X51.455 Y30.718 Z-2.178
X51.46 Y30.725 Z-2.1
Z5.
X44.636 Y37.657
Z-1.7
Z-2.1
X44.639 Y37.65 Z-2.178
X44.648 Y37.629 Z-2.253
X44.661 Y37.594 Z-2.322
X44.68 Y37.548 Z-2.383
X44.702 Y37.492 Z-2.433
X44.728 Y37.428 Z-2.47
X44.755 Y37.358 Z-2.492
X44.784 Y37.285 Z-2.5
G3 X45.246 Y36.65 I1.471 J0.585
G1 X46.112 Y35.984
X46.558 Y35.63
X46.722 Y35.489
X46.886 Y35.323
X48.033 Y34.148
X48.197 Y33.98
X48.317 Y33.853
X48.689 Y33.361
X49.051 Y32.869
X49.509 Y32.246
X49.836 Y31.772
X49.869 Y31.722
X50.749 Y30.082
X50.923 Y29.754
X50.998 Y29.59
X51.24 Y28.935
X51.64 Y27.845
X51.78 Y27.459
X51.804 Y27.368
X51.901 Y26.967
X51.937 Y26.803
X52.217 Y25.496
G3 X52.464 Y25.219 I0.388 J0.097
G1 X52.536 Y25.206 Z-2.493
X52.605 Y25.193 Z-2.473
X52.671 Y25.208 Z-2.439
X52.729 Y25.221 Z-2.393
X52.777 Y25.232 Z-2.337
X52.806 Y25.249 Z-2.283
X52.827 Y25.262 Z-2.225
X52.839 Y25.27 Z-2.163
X52.844 Y25.272 Z-2.1
Z5.
X-45.536 Y-44.237
Z-0.6
Z-1.
Z-3.
G3 X-45.223 Y-42.059 I-9.893 J2.534
G1 Y-41.909
X-45.296 Y-41.778
X-45.39 Y-41.661
X-45.496 Y-41.556
X-45.625 Y-41.45
X-45.79 Y-41.334
X-46.002 Y-41.211
X-46.275 Y-41.079
X-46.634 Y-40.94
X-47.123 Y-40.796
X-47.829 Y-40.647
X-48.545 Y-40.555
X-49.265 Y-40.497
X-49.986 Y-40.461
X-50.708 Y-40.439
X-51.43 Y-40.424
X-52.151 Y-40.415
X-52.873 Y-40.41
X-53.234 Y-40.408
X-53.581 Y-40.305
X-53.882 Y-40.108
X-54.398 Y-39.602
X-54.748 Y-38.97
X-54.981 Y-38.287
X-55.132 Y-37.581
X-55.229 Y-36.866
X-55.292 Y-36.146
X-55.331 Y-35.425
X-55.357 Y-34.704
X-55.373 Y-33.982
X-55.383 Y-33.26
X-55.389 Y-32.538
X-55.393 Y-31.816
X-55.397 Y-30.372
X-55.4 Y-27.484
Y0.674
Y38.217
X-55.304 Y38.565
X-55.109 Y38.869
X-54.607 Y39.388
X-53.978 Y39.742
X-53.295 Y39.977
X-52.589 Y40.129
X-51.874 Y40.228
X-51.155 Y40.291
X-50.434 Y40.331
X-49.713 Y40.356
X-48.991 Y40.372
X-48.269 Y40.382
X-47.547 Y40.389
X-46.825 Y40.393
X-45.381 Y40.397
X-43.215 Y40.399
X-24.443 Y40.4
X7.325
X53.171
X53.524 Y40.323
X53.834 Y40.137
X54.364 Y39.647
X54.726 Y39.022
X54.966 Y38.341
X55.122 Y37.636
X55.223 Y36.921
X55.288 Y36.202
X55.329 Y35.482
X55.355 Y34.76
X55.372 Y34.038
X55.382 Y33.316
X55.389 Y32.594
X55.393 Y31.872
X55.397 Y30.428
X55.399 Y28.262
X55.4 Y10.935
Y-13.613
Y-38.161
X55.327 Y-38.515
X55.144 Y-38.826
X54.656 Y-39.358
X54.033 Y-39.722
X53.352 Y-39.963
X52.647 Y-40.121
X51.933 Y-40.222
X51.214 Y-40.287
X50.493 Y-40.328
X49.771 Y-40.355
X49.049 Y-40.371
X48.328 Y-40.382
X47.606 Y-40.389
X46.884 Y-40.393
X45.44 Y-40.397
X43.274 Y-40.399
X30.278 Y-40.4
X-20.262
X-42.644
X-43.361 Y-40.313
X-44.056 Y-40.12
X-44.741 Y-39.893
X-45.427 Y-39.667
X-46.121 Y-39.466
X-46.822 Y-39.296
X-47.532 Y-39.162
X-48.246 Y-39.059
X-48.964 Y-38.983
X-49.684 Y-38.928
X-50.405 Y-38.889
X-51.127 Y-38.861
X-51.479 Y-38.782
X-51.806 Y-38.629
X-52.394 Y-38.21
X-52.831 Y-37.635
X-53.142 Y-36.984
X-53.357 Y-36.295
X-53.504 Y-35.588
X-53.604 Y-34.873
X-53.67 Y-34.154
X-53.714 Y-33.433
X-53.744 Y-32.712
X-53.763 Y-31.99
X-53.776 Y-31.268
X-53.784 Y-30.546
X-53.79 Y-29.824
X-53.793 Y-29.102
X-53.797 Y-27.658
X-53.799 Y-24.77
X-53.8 Y-20.438
Y30.101
Y35.877
X-53.785 Y36.238
X-53.685 Y36.585
X-53.344 Y37.221
X-52.809 Y37.706
X-52.177 Y38.055
X-51.497 Y38.298
X-50.795 Y38.464
X-50.081 Y38.577
X-49.363 Y38.652
X-48.643 Y38.703
X-47.922 Y38.736
X-47.2 Y38.758
X-46.478 Y38.772
X-45.756 Y38.782
X-45.034 Y38.788
X-44.313 Y38.792
X-42.869 Y38.797
X-40.703 Y38.799
X-29.873 Y38.8
X-10.379
X40.161
X50.991
X51.35 Y38.761
X51.689 Y38.638
X52.305 Y38.262
X52.768 Y37.707
X53.098 Y37.065
X53.328 Y36.381
X53.485 Y35.676
X53.591 Y34.962
X53.661 Y34.243
X53.709 Y33.523
X53.74 Y32.802
X53.761 Y32.08
X53.774 Y31.358
X53.783 Y30.636
X53.789 Y29.914
X53.793 Y29.192
X53.797 Y27.748
X53.799 Y25.582
X53.8 Y13.308
Y0.312
Y-36.148
X53.721 Y-36.501
X53.566 Y-36.827
X53.143 Y-37.412
X52.565 Y-37.845
X51.912 Y-38.152
X51.222 Y-38.365
X50.515 Y-38.51
X49.8 Y-38.608
X49.08 Y-38.673
X48.36 Y-38.716
X47.638 Y-38.745
X46.917 Y-38.764
X46.195 Y-38.776
X45.473 Y-38.785
X44.751 Y-38.79
X44.029 Y-38.793
X42.585 Y-38.797
X41.141 Y-38.799
X34.643 Y-38.8
X-9.399
X-41.167
X-41.888 Y-38.766
X-42.603 Y-38.669
X-43.311 Y-38.525
X-44.012 Y-38.354
X-44.712 Y-38.176
X-45.413 Y-38.003
X-46.117 Y-37.845
X-46.826 Y-37.707
X-47.539 Y-37.592
X-48.255 Y-37.499
X-48.973 Y-37.424
X-49.691 Y-37.352
X-50.347 Y-37.049
X-50.872 Y-36.554
X-51.267 Y-35.95
X-51.553 Y-35.287
X-51.756 Y-34.594
X-51.897 Y-33.886
X-51.994 Y-33.17
X-52.061 Y-32.451
X-52.106 Y-31.731
X-52.137 Y-31.009
X-52.158 Y-30.288
X-52.172 Y-29.566
X-52.181 Y-28.844
X-52.187 Y-28.122
X-52.192 Y-27.4
X-52.196 Y-25.956
X-52.197 Y-25.689
X-52.199 Y-25.624
X-52.206 Y-25.559
X-52.217 Y-25.495
X-52.253 Y-25.328
X-52.295 Y-25.083
X-52.336 Y-24.836
X-52.353 Y-24.672
X-52.491 Y-22.705
X-52.497 Y-22.541
X-52.5 Y-22.049
Y22.049
X-52.497 Y22.541
X-52.491 Y22.705
X-52.353 Y24.672
X-52.336 Y24.836
X-52.263 Y25.555
X-52.24 Y26.276
X-52.225 Y26.998
X-52.216 Y27.72
X-52.21 Y28.442
X-52.206 Y29.164
X-52.203 Y30.608
X-52.2 Y33.496
Y34.218
X-52.155 Y34.576
X-52.038 Y34.918
X-51.682 Y35.546
X-51.149 Y36.032
X-50.521 Y36.389
X-49.846 Y36.643
X-49.146 Y36.821
X-48.434 Y36.943
X-47.717 Y37.027
X-46.997 Y37.084
X-46.276 Y37.122
X-45.555 Y37.148
X-44.833 Y37.165
X-44.742 Y37.167
X-44.608 Y37.179
X-44.476 Y37.21
X-44.35 Y37.26
X-44.277 Y37.295
X-44.099 Y37.364
X-43.935 Y37.412
X-43.771 Y37.451
X-43.607 Y37.479
X-43.115 Y37.499
X-42.459 Y37.5
X42.951
X43.115 Y37.499
X43.607 Y37.479
X43.722 Y37.459
X44.439 Y37.371
X45.158 Y37.307
X45.879 Y37.268
X46.6 Y37.243
X47.322 Y37.227
X48.044 Y37.217
X48.766 Y37.211
X49.488 Y37.207
X49.834 Y37.105
X50.477 Y36.775
X50.978 Y36.256
X51.348 Y35.636
X51.613 Y34.964
X51.799 Y34.267
X51.928 Y33.556
X52.016 Y32.84
X52.076 Y32.12
X52.117 Y31.399
X52.144 Y30.678
X52.163 Y29.956
X52.175 Y29.234
X52.183 Y28.512
X52.189 Y27.79
X52.193 Y27.068
X52.197 Y25.689
X52.199 Y25.624
X52.206 Y25.56
X52.217 Y25.496
X52.253 Y25.328
X52.295 Y25.083
X52.336 Y24.836
X52.353 Y24.672
X52.491 Y22.705
X52.497 Y22.541
X52.5 Y22.049
Y-22.049
X52.497 Y-22.541
X52.491 Y-22.705
X52.353 Y-24.672
X52.336 Y-24.836
X52.263 Y-25.555
X52.24 Y-26.276
X52.225 Y-26.998
X52.216 Y-27.72
X52.21 Y-28.442
X52.206 Y-29.164
X52.203 Y-30.608
X52.2 Y-33.496
Y-34.218
X52.153 Y-34.576
X52.036 Y-34.917
X51.68 Y-35.546
X51.146 Y-36.031
X50.518 Y-36.387
X49.842 Y-36.641
X49.142 Y-36.819
X48.431 Y-36.941
X47.714 Y-37.025
X46.994 Y-37.082
X46.273 Y-37.121
X45.551 Y-37.147
X44.83 Y-37.165
X44.743 Y-37.166
X44.609 Y-37.178
X44.477 Y-37.209
X44.352 Y-37.259
X44.277 Y-37.295
X44.099 Y-37.364
X43.935 Y-37.412
X43.771 Y-37.451
X43.607 Y-37.479
X43.115 Y-37.499
X42.459 Y-37.5
X-42.951
X-43.115 Y-37.499
X-43.607 Y-37.479
X-43.771 Y-37.451
X-43.935 Y-37.412
X-44.099 Y-37.364
X-44.277 Y-37.295
X-44.427 Y-37.223
X-44.594 Y-37.131
X-44.881 Y-36.961
X-45.327 Y-36.743
X-45.921 Y-36.509
X-46.612 Y-36.299
X-47.316 Y-36.137
X-48.026 Y-36.006
X-48.671 Y-35.683
X-49.197 Y-35.188
X-49.598 Y-34.588
X-49.894 Y-33.929
X-50.106 Y-33.239
X-50.257 Y-32.533
X-50.364 Y-31.819
X-50.437 Y-31.1
X-50.459 Y-30.796
X-50.477 Y-30.667
X-50.514 Y-30.541
X-50.568 Y-30.421
X-50.749 Y-30.082
X-50.923 Y-29.754
X-50.998 Y-29.59
X-51.24 Y-28.935
X-51.64 Y-27.845
X-51.78 Y-27.459
X-51.804 Y-27.368
X-51.901 Y-26.967
X-51.937 Y-26.803
X-52.217 Y-25.495
G3 X-52.844 Y-25.272 I-0.388 J-0.097
G1 X-52.907 Y-25.318 Z-2.992
X-52.967 Y-25.363 Z-2.97
X-53.022 Y-25.404 Z-2.933
X-53.071 Y-25.44 Z-2.883
X-53.111 Y-25.47 Z-2.822
X-53.141 Y-25.492 Z-2.753
X-53.159 Y-25.505 Z-2.678
X-53.165 Y-25.51 Z-2.6
Z5.
X-43.915 Y-38.093
Z-2.2
Z-2.6
X-43.918 Y-38.086 Z-2.678
X-43.928 Y-38.065 Z-2.753
X-43.944 Y-38.032 Z-2.822
X-43.966 Y-37.987 Z-2.883
X-43.992 Y-37.933 Z-2.933
X-44.022 Y-37.87 Z-2.97
X-44.055 Y-37.803 Z-2.992
X-44.089 Y-37.732 Z-3.
G3 X-44.594 Y-37.131 I-1.426 J-0.686
G1 X-44.754 Y-37.025
X-45.082 Y-36.776
X-46.112 Y-35.984
X-46.558 Y-35.63
X-46.722 Y-35.489
X-46.886 Y-35.323
X-48.033 Y-34.148
X-48.197 Y-33.98
X-48.317 Y-33.853
X-48.689 Y-33.361
X-49.051 Y-32.869
X-49.509 Y-32.246
X-49.836 Y-31.772
X-49.869 Y-31.722
X-50.568 Y-30.421
G3 X-51.232 Y-30.38 I-0.346 J-0.201
G1 X-51.279 Y-30.442 Z-2.992
X-51.324 Y-30.502 Z-2.97
X-51.366 Y-30.557 Z-2.933
X-51.403 Y-30.605 Z-2.883
X-51.433 Y-30.645 Z-2.822
X-51.455 Y-30.674 Z-2.753
X-51.469 Y-30.693 Z-2.678
X-51.474 Y-30.699 Z-2.6
Z5.
X-52.936 Y23.824
Z-2.2
Z-2.6
X-52.931 Y23.829 Z-2.678
X-52.917 Y23.847 Z-2.753
X-52.893 Y23.875 Z-2.822
X-52.861 Y23.913 Z-2.883
X-52.822 Y23.959 Z-2.933
X-52.777 Y24.012 Z-2.97
X-52.729 Y24.07 Z-2.992
X-52.678 Y24.129 Z-3.
G3 X-52.336 Y24.836 I-1.209 J1.021
G1 X-52.282 Y25.164
X-52.253 Y25.328
X-51.937 Y26.803
X-51.901 Y26.967
X-51.804 Y27.368
X-51.78 Y27.459
X-51.541 Y28.115
X-51.24 Y28.935
X-51.025 Y29.624
X-50.876 Y30.283
X-50.773 Y30.998
X-50.709 Y31.717
X-50.669 Y32.438
X-50.626 Y32.796
X-50.524 Y33.142
X-50.201 Y33.788
X-49.692 Y34.3
X-49.08 Y34.683
X-48.414 Y34.961
X-47.719 Y35.158
X-47.143 Y35.271
X-46.988 Y35.317
X-46.845 Y35.391
X-46.719 Y35.492
G3 X-46.82 Y36.149 I-0.27 J0.295
G1 X-46.891 Y36.182 Z-2.992
X-46.959 Y36.214 Z-2.97
X-47.022 Y36.243 Z-2.933
X-47.077 Y36.269 Z-2.883
X-47.122 Y36.29 Z-2.822
X-47.155 Y36.305 Z-2.753
X-47.176 Y36.315 Z-2.678
X-47.183 Y36.318 Z-2.6
Z5.
X-52.019 Y28.052
Z-2.2
Z-2.6
X-52.013 Y28.057 Z-2.678
X-51.995 Y28.071 Z-2.753
X-51.966 Y28.094 Z-2.822
X-51.928 Y28.126 Z-2.883
X-51.881 Y28.164 Z-2.933
X-51.827 Y28.207 Z-2.97
X-51.769 Y28.255 Z-2.992
X-51.708 Y28.304 Z-3.
G3 X-51.24 Y28.935 I-0.997 J1.229
G1 X-50.998 Y29.59
X-50.923 Y29.754
X-50.749 Y30.082
X-49.869 Y31.722
X-49.836 Y31.772
X-49.509 Y32.246
X-48.81 Y33.197
X-48.689 Y33.362
X-48.317 Y33.853
X-48.197 Y33.98
X-47.201 Y35.
X-46.793 Y35.417
X-46.719 Y35.492
X-46.558 Y35.63
X-46.112 Y35.984
X-45.047 Y36.804
X-44.754 Y37.025
X-44.59 Y37.134
X-44.427 Y37.223
X-44.35 Y37.26
G3 X-44.282 Y37.921 I-0.187 J0.354
G1 X-44.342 Y37.971 Z-2.992
X-44.4 Y38.019 Z-2.97
X-44.453 Y38.063 Z-2.933
X-44.5 Y38.102 Z-2.883
X-44.538 Y38.134 Z-2.822
X-44.567 Y38.157 Z-2.753
X-44.584 Y38.172 Z-2.678
X-44.59 Y38.177 Z-2.6
Z5.
X52.936 Y-23.824
Z-2.2
Z-2.6
X52.931 Y-23.829 Z-2.678
X52.917 Y-23.847 Z-2.753
X52.893 Y-23.875 Z-2.822
X52.861 Y-23.913 Z-2.883
X52.822 Y-23.959 Z-2.933
X52.777 Y-24.012 Z-2.97
X52.729 Y-24.07 Z-2.992
X52.678 Y-24.129 Z-3.
G3 X52.336 Y-24.836 I1.209 J-1.021
G1 X52.282 Y-25.164
X52.253 Y-25.328
X51.937 Y-26.803
X51.901 Y-26.967
X51.804 Y-27.368
X51.78 Y-27.459
X51.541 Y-28.115
X51.24 Y-28.935
X51.025 Y-29.624
X50.876 Y-30.283
X50.773 Y-30.998
X50.709 Y-31.717
X50.669 Y-32.438
X50.626 Y-32.796
X50.523 Y-33.142
X50.199 Y-33.787
X49.69 Y-34.299
X49.078 Y-34.682
X48.411 Y-34.96
X47.717 Y-35.157
X47.147 Y-35.268
X46.991 Y-35.315
X46.846 Y-35.39
X46.719 Y-35.492
G3 X46.82 Y-36.149 I0.27 J-0.295
G1 X46.891 Y-36.182 Z-2.992
X46.959 Y-36.214 Z-2.97
X47.022 Y-36.243 Z-2.933
X47.077 Y-36.269 Z-2.883
X47.122 Y-36.29 Z-2.822
X47.155 Y-36.305 Z-2.753
X47.176 Y-36.315 Z-2.678
X47.183 Y-36.318 Z-2.6
Z5.
X52.019 Y-28.052
Z-2.2
Z-2.6
X52.013 Y-28.057 Z-2.678
X51.995 Y-28.071 Z-2.753
X51.966 Y-28.094 Z-2.822
X51.928 Y-28.126 Z-2.883
X51.881 Y-28.164 Z-2.933
X51.827 Y-28.207 Z-2.97
X51.769 Y-28.255 Z-2.992
X51.708 Y-28.304 Z-3.
G3 X51.24 Y-28.935 I0.997 J-1.229
G1 X50.998 Y-29.59
X50.923 Y-29.754
X50.749 Y-30.082
X49.869 Y-31.722
X49.836 Y-31.772
X49.509 Y-32.246
X48.81 Y-33.197
X48.689 Y-33.362
X48.317 Y-33.853
X48.197 Y-33.98
X47.201 Y-35.
X46.793 Y-35.417
X46.719 Y-35.492
X46.558 Y-35.63
X46.112 Y-35.984
X45.047 Y-36.804
X44.754 Y-37.025
X44.59 Y-37.134
X44.427 Y-37.223
X44.352 Y-37.259
G3 X44.283 Y-37.921 I0.187 J-0.354
G1 X44.343 Y-37.971 Z-2.992
X44.401 Y-38.019 Z-2.97
X44.454 Y-38.063 Z-2.933
X44.501 Y-38.101 Z-2.883
X44.539 Y-38.133 Z-2.822
X44.568 Y-38.157 Z-2.753
X44.585 Y-38.171 Z-2.678
X44.591 Y-38.176 Z-2.6
Z5.
X42.714 Y38.068
Z-2.2
Z-2.6
X42.72 Y38.063 Z-2.678
X42.737 Y38.048 Z-2.753
X42.765 Y38.024 Z-2.822
X42.803 Y37.991 Z-2.883
X42.849 Y37.952 Z-2.933
X42.902 Y37.907 Z-2.97
X42.959 Y37.858 Z-2.992
X43.018 Y37.807 Z-3.
G3 X43.722 Y37.459 I1.031 J1.201
G1 X43.771 Y37.451
X43.935 Y37.412
X44.099 Y37.364
X44.277 Y37.295
X44.427 Y37.223
X44.594 Y37.131
X44.754 Y37.025
X45.082 Y36.776
X45.246 Y36.65
X45.369 Y36.565
X45.596 Y36.433
X45.886 Y36.295
X46.266 Y36.15
X46.78 Y36.
X47.487 Y35.854
X48.196 Y35.714
X48.82 Y35.352
X49.317 Y34.828
X49.69 Y34.21
X49.962 Y33.541
X50.157 Y32.846
X50.294 Y32.137
X50.39 Y31.422
X50.447 Y30.803
X50.466 Y30.68
X50.502 Y30.561
X50.554 Y30.447
G3 X51.218 Y30.406 I0.346 J0.201
G1 X51.265 Y30.468 Z-2.992
X51.31 Y30.528 Z-2.97
X51.352 Y30.583 Z-2.933
X51.389 Y30.631 Z-2.883
X51.419 Y30.671 Z-2.822
X51.441 Y30.7 Z-2.753
X51.455 Y30.718 Z-2.678
X51.46 Y30.725 Z-2.6
Z5.
X44.636 Y37.657
Z-2.2
Z-2.6
X44.639 Y37.65 Z-2.678
X44.648 Y37.629 Z-2.753
X44.661 Y37.594 Z-2.822
X44.68 Y37.548 Z-2.883
X44.702 Y37.492 Z-2.933
X44.728 Y37.428 Z-2.97
X44.755 Y37.358 Z-2.992
X44.784 Y37.285 Z-3.
G3 X45.246 Y36.65 I1.471 J0.585
G1 X46.112 Y35.984
X46.558 Y35.63
X46.722 Y35.489
X46.886 Y35.323
X48.033 Y34.148
X48.197 Y33.98
X48.317 Y33.853
X48.689 Y33.361
X49.051 Y32.869
X49.509 Y32.246
X49.836 Y31.772
X49.869 Y31.722
X50.749 Y30.082
X50.923 Y29.754
X50.998 Y29.59
X51.24 Y28.935
X51.64 Y27.845
X51.78 Y27.459
X51.804 Y27.368
X51.901 Y26.967
X51.937 Y26.803
X52.217 Y25.496
G3 X52.464 Y25.219 I0.388 J0.097
G1 X52.536 Y25.206 Z-2.993
X52.605 Y25.193 Z-2.973
X52.671 Y25.208 Z-2.939
X52.729 Y25.221 Z-2.893
X52.777 Y25.232 Z-2.837
X52.806 Y25.249 Z-2.783
X52.827 Y25.262 Z-2.725
X52.839 Y25.27 Z-2.663
X52.844 Y25.272 Z-2.6
Z5.
X-45.536 Y-44.237
Z-1.1
Z-1.5
Z-3.5
G3 X-45.223 Y-42.059 I-9.893 J2.534
G1 Y-41.909
X-45.296 Y-41.778
X-45.39 Y-41.661
X-45.496 Y-41.556
X-45.625 Y-41.45
X-45.79 Y-41.334
X-46.002 Y-41.211
X-46.275 Y-41.079
X-46.634 Y-40.94
X-47.123 Y-40.796
X-47.829 Y-40.647
X-48.545 Y-40.555
X-49.265 Y-40.497
X-49.986 Y-40.461
X-50.708 Y-40.439
X-51.43 Y-40.424
X-52.151 Y-40.415
X-52.873 Y-40.41
X-53.234 Y-40.408
X-53.581 Y-40.305
X-53.882 Y-40.108
X-54.398 Y-39.602
X-54.748 Y-38.97
X-54.981 Y-38.287
X-55.132 Y-37.581
X-55.229 Y-36.866
X-55.292 Y-36.146
X-55.331 Y-35.425
X-55.357 Y-34.704
X-55.373 Y-33.982
X-55.383 Y-33.26
X-55.389 Y-32.538
X-55.393 Y-31.816
X-55.397 Y-30.372
X-55.4 Y-27.484
Y0.674
Y38.217
X-55.304 Y38.565
X-55.109 Y38.869
X-54.607 Y39.388
X-53.978 Y39.742
X-53.295 Y39.977
X-52.589 Y40.129
X-51.874 Y40.228
X-51.155 Y40.291
X-50.434 Y40.331
X-49.713 Y40.356
X-48.991 Y40.372
X-48.269 Y40.382
X-47.547 Y40.389
X-46.825 Y40.393
X-45.381 Y40.397
X-43.215 Y40.399
X-24.443 Y40.4
X7.325
X53.171
X53.524 Y40.323
X53.834 Y40.137
X54.364 Y39.647
X54.726 Y39.022
X54.966 Y38.341
X55.122 Y37.636
X55.223 Y36.921
X55.288 Y36.202
X55.329 Y35.482
X55.355 Y34.76
X55.372 Y34.038
X55.382 Y33.316
X55.389 Y32.594
X55.393 Y31.872
X55.397 Y30.428
X55.399 Y28.262
X55.4 Y10.935
Y-13.613
Y-38.161
X55.327 Y-38.515
X55.144 Y-38.826
X54.656 Y-39.358
X54.033 Y-39.722
X53.352 Y-39.963
X52.647 Y-40.121
X51.933 Y-40.222
X51.214 Y-40.287
X50.493 Y-40.328
X49.771 Y-40.355
X49.049 Y-40.371
X48.328 Y-40.382
X47.606 Y-40.389
X46.884 Y-40.393
X45.44 Y-40.397
X43.274 Y-40.399
X30.278 Y-40.4
X-20.262
X-42.644
X-43.361 Y-40.313
X-44.056 Y-40.12
X-44.741 Y-39.893
X-45.427 Y-39.667
X-46.121 Y-39.466
X-46.822 Y-39.296
X-47.532 Y-39.162
X-48.246 Y-39.059
X-48.964 Y-38.983
X-49.684 Y-38.928
X-50.405 Y-38.889
X-51.127 Y-38.861
X-51.479 Y-38.782
X-51.806 Y-38.629
X-52.394 Y-38.21
X-52.831 Y-37.635
X-53.142 Y-36.984
X-53.357 Y-36.295
X-53.504 Y-35.588
X-53.604 Y-34.873
X-53.67 Y-34.154
X-53.714 Y-33.433
X-53.744 Y-32.712
X-53.763 Y-31.99
X-53.776 Y-31.268
X-53.784 Y-30.546
X-53.79 Y-29.824
X-53.793 Y-29.102
X-53.797 Y-27.658
X-53.799 Y-24.77
X-53.8 Y-20.438
Y30.101
Y35.877
X-53.785 Y36.238
X-53.685 Y36.585
X-53.344 Y37.221
X-52.809 Y37.706
X-52.177 Y38.055
X-51.497 Y38.298
X-50.795 Y38.464
X-50.081 Y38.577
X-49.363 Y38.652
X-48.643 Y38.703
X-47.922 Y38.736
X-47.2 Y38.758
X-46.478 Y38.772
X-45.756 Y38.782
X-45.034 Y38.788
X-44.313 Y38.792
X-42.869 Y38.797
X-40.703 Y38.799
X-29.873 Y38.8
X-10.379
X40.161
X50.991
X51.35 Y38.761
X51.689 Y38.638
X52.305 Y38.262
X52.768 Y37.707
X53.098 Y37.065
X53.328 Y36.381
X53.485 Y35.676
X53.591 Y34.962
X53.661 Y34.243
X53.709 Y33.523
X53.74 Y32.802
X53.761 Y32.08
X53.774 Y31.358
X53.783 Y30.636
X53.789 Y29.914
X53.793 Y29.192
X53.797 Y27.748
X53.799 Y25.582
X53.8 Y13.308
Y0.312
Y-36.148
X53.721 Y-36.501
X53.566 Y-36.827
X53.143 Y-37.412
X52.565 Y-37.845
X51.912 Y-38.152
X51.222 Y-38.365
X50.515 Y-38.51
X49.8 Y-38.608
X49.08 Y-38.673
X48.36 Y-38.716
X47.638 Y-38.745
X46.917 Y-38.764
X46.195 Y-38.776
X45.473 Y-38.785
X44.751 Y-38.79
X44.029 Y-38.793
X42.585 Y-38.797
X41.141 Y-38.799
X34.643 Y-38.8
X-9.399
X-41.167
X-41.888 Y-38.766
X-42.603 Y-38.669
X-43.311 Y-38.525
X-44.012 Y-38.354
X-44.712 Y-38.176
X-45.413 Y-38.003
X-46.117 Y-37.845
X-46.826 Y-37.707
X-47.539 Y-37.592
X-48.255 Y-37.499
X-48.973 Y-37.424
X-49.691 Y-37.352
X-50.347 Y-37.049
X-50.872 Y-36.554
X-51.267 Y-35.95
X-51.553 Y-35.287
X-51.756 Y-34.594
X-51.897 Y-33.886
X-51.994 Y-33.17
X-52.061 Y-32.451
X-52.106 Y-31.731
X-52.137 Y-31.009
X-52.158 Y-30.288
X-52.172 Y-29.566
X-52.181 Y-28.844
X-52.187 Y-28.122
X-52.192 Y-27.4
X-52.196 Y-25.956
X-52.197 Y-25.689
X-52.199 Y-25.624
X-52.206 Y-25.559
X-52.217 Y-25.495
X-52.253 Y-25.328
X-52.295 Y-25.083
X-52.336 Y-24.836
X-52.353 Y-24.672
X-52.491 Y-22.705
X-52.497 Y-22.541
X-52.5 Y-22.049
Y22.049
X-52.497 Y22.541
X-52.491 Y22.705
X-52.353 Y24.672
X-52.336 Y24.836
X-52.263 Y25.555
X-52.24 Y26.276
X-52.225 Y26.998
X-52.216 Y27.72
X-52.21 Y28.442
X-52.206 Y29.164
X-52.203 Y30.608
X-52.2 Y33.496
Y34.218
X-52.155 Y34.576
X-52.038 Y34.918
X-51.682 Y35.546
X-51.149 Y36.032
X-50.521 Y36.389
X-49.846 Y36.643
X-49.146 Y36.821
X-48.434 Y36.943
X-47.717 Y37.027
X-46.997 Y37.084
X-46.276 Y37.122
X-45.555 Y37.148
X-44.833 Y37.165
X-44.742 Y37.167
X-44.608 Y37.179
X-44.476 Y37.21
X-44.35 Y37.26
X-44.277 Y37.295
X-44.099 Y37.364
X-43.935 Y37.412
X-43.771 Y37.451
X-43.607 Y37.479
X-43.115 Y37.499
X-42.459 Y37.5
X42.951
X43.115 Y37.499
X43.607 Y37.479
X43.722 Y37.459
X44.439 Y37.371
X45.158 Y37.307
X45.879 Y37.268
X46.6 Y37.243
X47.322 Y37.227
X48.044 Y37.217
X48.766 Y37.211
X49.488 Y37.207
X49.834 Y37.105
X50.477 Y36.775
X50.978 Y36.256
X51.348 Y35.636
X51.613 Y34.964
X51.799 Y34.267
X51.928 Y33.556
X52.016 Y32.84
X52.076 Y32.12
X52.117 Y31.399
X52.144 Y30.678
X52.163 Y29.956
X52.175 Y29.234
X52.183 Y28.512
X52.189 Y27.79
X52.193 Y27.068
X52.197 Y25.689
X52.199 Y25.624
X52.206 Y25.56
X52.217 Y25.496
X52.253 Y25.328
X52.295 Y25.083
X52.336 Y24.836
X52.353 Y24.672
X52.491 Y22.705
X52.497 Y22.541
X52.5 Y22.049
Y-22.049
X52.497 Y-22.541
X52.491 Y-22.705
X52.353 Y-24.672
X52.336 Y-24.836
X52.263 Y-25.555
X52.24 Y-26.276
X52.225 Y-26.998
X52.216 Y-27.72
X52.21 Y-28.442
X52.206 Y-29.164
X52.203 Y-30.608
X52.2 Y-33.496
Y-34.218
X52.153 Y-34.576
X52.036 Y-34.917
X51.68 Y-35.546
X51.146 Y-36.031
X50.518 Y-36.387
X49.842 Y-36.641
X49.142 Y-36.819
X48.431 Y-36.941
X47.714 Y-37.025
X46.994 Y-37.082
X46.273 Y-37.121
X45.551 Y-37.147
X44.83 Y-37.165
X44.743 Y-37.166
X44.609 Y-37.178
X44.477 Y-37.209
X44.352 Y-37.259
X44.277 Y-37.295
X44.099 Y-37.364
X43.935 Y-37.412
X43.771 Y-37.451
X43.607 Y-37.479
X43.115 Y-37.499
X42.459 Y-37.5
X-42.951
X-43.115 Y-37.499
X-43.607 Y-37.479
X-43.771 Y-37.451
X-43.935 Y-37.412
X-44.099 Y-37.364
X-44.277 Y-37.295
X-44.427 Y-37.223
X-44.594 Y-37.131
X-44.881 Y-36.961
X-45.327 Y-36.743
X-45.921 Y-36.509
X-46.612 Y-36.299
X-47.316 Y-36.137
X-48.026 Y-36.006
X-48.671 Y-35.683
X-49.197 Y-35.188
X-49.598 Y-34.588
X-49.894 Y-33.929
X-50.106 Y-33.239
X-50.257 Y-32.533
X-50.364 Y-31.819
X-50.437 Y-31.1
X-50.459 Y-30.796
X-50.477 Y-30.667
X-50.514 Y-30.541
X-50.568 Y-30.421
X-50.749 Y-30.082
X-50.923 Y-29.754
X-50.998 Y-29.59
X-51.24 Y-28.935
X-51.64 Y-27.845
X-51.78 Y-27.459
X-51.804 Y-27.368
X-51.901 Y-26.967
X-51.937 Y-26.803
X-52.217 Y-25.495
G3 X-52.844 Y-25.272 I-0.388 J-0.097
G1 X-52.907 Y-25.318 Z-3.492
X-52.967 Y-25.363 Z-3.47
X-53.022 Y-25.404 Z-3.433
X-53.071 Y-25.44 Z-3.383
X-53.111 Y-25.47 Z-3.322
X-53.141 Y-25.492 Z-3.253
X-53.159 Y-25.505 Z-3.178
X-53.165 Y-25.51 Z-3.1
Z5.
X-43.915 Y-38.093
Z-2.7
Z-3.1
X-43.918 Y-38.086 Z-3.178
X-43.928 Y-38.065 Z-3.253
X-43.944 Y-38.032 Z-3.322
X-43.966 Y-37.987 Z-3.383
X-43.992 Y-37.933 Z-3.433
X-44.022 Y-37.87 Z-3.47
X-44.055 Y-37.803 Z-3.492
X-44.089 Y-37.732 Z-3.5
G3 X-44.594 Y-37.131 I-1.426 J-0.686
G1 X-44.754 Y-37.025
X-45.082 Y-36.776
X-46.112 Y-35.984
X-46.558 Y-35.63
X-46.722 Y-35.489
X-46.886 Y-35.323
X-48.033 Y-34.148
X-48.197 Y-33.98
X-48.317 Y-33.853
X-48.689 Y-33.361
X-49.051 Y-32.869
X-49.509 Y-32.246
X-49.836 Y-31.772
X-49.869 Y-31.722
X-50.568 Y-30.421
G3 X-51.232 Y-30.38 I-0.346 J-0.201
G1 X-51.279 Y-30.442 Z-3.492
X-51.324 Y-30.502 Z-3.47
X-51.366 Y-30.557 Z-3.433
X-51.403 Y-30.605 Z-3.383
X-51.433 Y-30.645 Z-3.322
X-51.455 Y-30.674 Z-3.253
X-51.469 Y-30.693 Z-3.178
X-51.474 Y-30.699 Z-3.1
Z5.
X-52.936 Y23.824
Z-2.7
Z-3.1
X-52.931 Y23.829 Z-3.178
X-52.917 Y23.847 Z-3.253
X-52.893 Y23.875 Z-3.322
X-52.861 Y23.913 Z-3.383
X-52.822 Y23.959 Z-3.433
X-52.777 Y24.012 Z-3.47
X-52.729 Y24.07 Z-3.492
X-52.678 Y24.129 Z-3.5
G3 X-52.336 Y24.836 I-1.209 J1.021
G1 X-52.282 Y25.164
X-52.253 Y25.328
X-51.937 Y26.803
X-51.901 Y26.967
X-51.804 Y27.368
X-51.78 Y27.459
X-51.541 Y28.115
X-51.24 Y28.935
X-51.025 Y29.624
X-50.876 Y30.283
X-50.773 Y30.998
X-50.709 Y31.717
X-50.669 Y32.438
X-50.626 Y32.796
X-50.524 Y33.142
X-50.201 Y33.788
X-49.692 Y34.3
X-49.08 Y34.683
X-48.414 Y34.961
X-47.719 Y35.158
X-47.143 Y35.271
X-46.988 Y35.317
X-46.845 Y35.391
X-46.719 Y35.492
G3 X-46.82 Y36.149 I-0.27 J0.295
G1 X-46.891 Y36.182 Z-3.492
X-46.959 Y36.214 Z-3.47
X-47.022 Y36.243 Z-3.433
X-47.077 Y36.269 Z-3.383
X-47.122 Y36.29 Z-3.322
X-47.155 Y36.305 Z-3.253
X-47.176 Y36.315 Z-3.178
X-47.183 Y36.318 Z-3.1
Z5.
X-52.019 Y28.052
Z-2.7
Z-3.1
X-52.013 Y28.057 Z-3.178
X-51.995 Y28.071 Z-3.253
X-51.966 Y28.094 Z-3.322
X-51.928 Y28.126 Z-3.383
X-51.881 Y28.164 Z-3.433
X-51.827 Y28.207 Z-3.47
X-51.769 Y28.255 Z-3.492
X-51.708 Y28.304 Z-3.5
G3 X-51.24 Y28.935 I-0.997 J1.229
G1 X-50.998 Y29.59
X-50.923 Y29.754
X-50.749 Y30.082
X-49.869 Y31.722
X-49.836 Y31.772
X-49.509 Y32.246
X-48.81 Y33.197
X-48.689 Y33.362
X-48.317 Y33.853
X-48.197 Y33.98
X-47.201 Y35.
X-46.793 Y35.417
X-46.719 Y35.492
X-46.558 Y35.63
X-46.112 Y35.984
X-45.047 Y36.804
X-44.754 Y37.025
X-44.59 Y37.134
X-44.427 Y37.223
X-44.35 Y37.26
G3 X-44.282 Y37.921 I-0.187 J0.354
G1 X-44.342 Y37.971 Z-3.492
X-44.4 Y38.019 Z-3.47
X-44.453 Y38.063 Z-3.433
X-44.5 Y38.102 Z-3.383
X-44.538 Y38.134 Z-3.322
X-44.567 Y38.157 Z-3.253
X-44.584 Y38.172 Z-3.178
X-44.59 Y38.177 Z-3.1
Z5.
X52.936 Y-23.824
Z-2.7
Z-3.1
X52.931 Y-23.829 Z-3.178
X52.917 Y-23.847 Z-3.253
X52.893 Y-23.875 Z-3.322
X52.861 Y-23.913 Z-3.383
X52.822 Y-23.959 Z-3.433
X52.777 Y-24.012 Z-3.47
X52.729 Y-24.07 Z-3.492
X52.678 Y-24.129 Z-3.5
G3 X52.336 Y-24.836 I1.209 J-1.021
G1 X52.282 Y-25.164
X52.253 Y-25.328
X51.937 Y-26.803
X51.901 Y-26.967
X51.804 Y-27.368
X51.78 Y-27.459
X51.541 Y-28.115
X51.24 Y-28.935
X51.025 Y-29.624
X50.876 Y-30.283
X50.773 Y-30.998
X50.709 Y-31.717
X50.669 Y-32.438
X50.626 Y-32.796
X50.523 Y-33.142
X50.199 Y-33.787
X49.69 Y-34.299
X49.078 Y-34.682
X48.411 Y-34.96
X47.717 Y-35.157
X47.147 Y-35.268
X46.991 Y-35.315
X46.846 Y-35.39
X46.719 Y-35.492
G3 X46.82 Y-36.149 I0.27 J-0.295
G1 X46.891 Y-36.182 Z-3.492
X46.959 Y-36.214 Z-3.47
X47.022 Y-36.243 Z-3.433
X47.077 Y-36.269 Z-3.383
X47.122 Y-36.29 Z-3.322
X47.155 Y-36.305 Z-3.253
X47.176 Y-36.315 Z-3.178
X47.183 Y-36.318 Z-3.1
Z5.
X52.019 Y-28.052
Z-2.7
Z-3.1
X52.013 Y-28.057 Z-3.178
X51.995 Y-28.071 Z-3.253
X51.966 Y-28.094 Z-3.322
X51.928 Y-28.126 Z-3.383
X51.881 Y-28.164 Z-3.433
X51.827 Y-28.207 Z-3.47
X51.769 Y-28.255 Z-3.492
X51.708 Y-28.304 Z-3.5
G3 X51.24 Y-28.935 I0.997 J-1.229
G1 X50.998 Y-29.59
X50.923 Y-29.754
X50.749 Y-30.082
X49.869 Y-31.722
X49.836 Y-31.772
X49.509 Y-32.246
X48.81 Y-33.197
X48.689 Y-33.362
X48.317 Y-33.853
X48.197 Y-33.98
X47.201 Y-35.
X46.793 Y-35.417
X46.719 Y-35.492
X46.558 Y-35.63
X46.112 Y-35.984
X45.047 Y-36.804
X44.754 Y-37.025
X44.59 Y-37.134
X44.427 Y-37.223
X44.352 Y-37.259
G3 X44.283 Y-37.921 I0.187 J-0.354
G1 X44.343 Y-37.971 Z-3.492
X44.401 Y-38.019 Z-3.47
X44.454 Y-38.063 Z-3.433
X44.501 Y-38.101 Z-3.383
X44.539 Y-38.133 Z-3.322
X44.568 Y-38.157 Z-3.253
X44.585 Y-38.171 Z-3.178
X44.591 Y-38.176 Z-3.1
Z5.
X42.714 Y38.068
Z-2.7
Z-3.1
X42.72 Y38.063 Z-3.178
X42.737 Y38.048 Z-3.253
X42.765 Y38.024 Z-3.322
X42.803 Y37.991 Z-3.383
X42.849 Y37.952 Z-3.433
X42.902 Y37.907 Z-3.47
X42.959 Y37.858 Z-3.492
X43.018 Y37.807 Z-3.5
G3 X43.722 Y37.459 I1.031 J1.201
G1 X43.771 Y37.451
X43.935 Y37.412
X44.099 Y37.364
X44.277 Y37.295
X44.427 Y37.223
X44.594 Y37.131
X44.754 Y37.025
X45.082 Y36.776
X45.246 Y36.65
X45.369 Y36.565
X45.596 Y36.433
X45.886 Y36.295
X46.266 Y36.15
X46.78 Y36.
X47.487 Y35.854
X48.196 Y35.714
X48.82 Y35.352
X49.317 Y34.828
X49.69 Y34.21
X49.962 Y33.541
X50.157 Y32.846
X50.294 Y32.137
X50.39 Y31.422
X50.447 Y30.803
X50.466 Y30.68
X50.502 Y30.561
X50.554 Y30.447
G3 X51.218 Y30.406 I0.346 J0.201
G1 X51.265 Y30.468 Z-3.492
X51.31 Y30.528 Z-3.47
X51.352 Y30.583 Z-3.433
X51.389 Y30.631 Z-3.383
X51.419 Y30.671 Z-3.322
X51.441 Y30.7 Z-3.253
X51.455 Y30.718 Z-3.178
X51.46 Y30.725 Z-3.1
Z5.
X44.636 Y37.657
Z-2.7
Z-3.1
X44.639 Y37.65 Z-3.178
X44.648 Y37.629 Z-3.253
X44.661 Y37.594 Z-3.322
X44.68 Y37.548 Z-3.383
X44.702 Y37.492 Z-3.433
X44.728 Y37.428 Z-3.47
X44.755 Y37.358 Z-3.492
X44.784 Y37.285 Z-3.5
G3 X45.246 Y36.65 I1.471 J0.585
G1 X46.112 Y35.984
X46.558 Y35.63
X46.722 Y35.489
X46.886 Y35.323
X48.033 Y34.148
X48.197 Y33.98
X48.317 Y33.853
X48.689 Y33.361
X49.051 Y32.869
X49.509 Y32.246
X49.836 Y31.772
X49.869 Y31.722
X50.749 Y30.082
X50.923 Y29.754
X50.998 Y29.59
X51.24 Y28.935
X51.64 Y27.845
X51.78 Y27.459
X51.804 Y27.368
X51.901 Y26.967
X51.937 Y26.803
X52.217 Y25.496
G3 X52.464 Y25.219 I0.388 J0.097
G1 X52.536 Y25.206 Z-3.493
X52.605 Y25.193 Z-3.473
X52.671 Y25.208 Z-3.439
X52.729 Y25.221 Z-3.393
X52.777 Y25.232 Z-3.337
X52.806 Y25.249 Z-3.283
X52.827 Y25.262 Z-3.225
X52.839 Y25.27 Z-3.163
X52.844 Y25.272 Z-3.1
Z5.
X-45.536 Y-44.237
Z-1.6
Z-2.
Z-4.
G3 X-45.223 Y-42.059 I-9.893 J2.534
G1 Y-41.909
X-45.296 Y-41.778
X-45.39 Y-41.661
X-45.496 Y-41.556
X-45.625 Y-41.45
X-45.79 Y-41.334
X-46.002 Y-41.211
X-46.275 Y-41.079
X-46.634 Y-40.94
X-47.123 Y-40.796
X-47.829 Y-40.647
X-48.545 Y-40.555
X-49.265 Y-40.497
X-49.986 Y-40.461
X-50.708 Y-40.439
X-51.43 Y-40.424
X-52.151 Y-40.415
X-52.873 Y-40.41
X-53.234 Y-40.408
X-53.581 Y-40.305
X-53.882 Y-40.108
X-54.398 Y-39.602
X-54.748 Y-38.97
X-54.981 Y-38.287
X-55.132 Y-37.581
X-55.229 Y-36.866
X-55.292 Y-36.146
X-55.331 Y-35.425
X-55.357 Y-34.704
X-55.373 Y-33.982
X-55.383 Y-33.26
X-55.389 Y-32.538
X-55.393 Y-31.816
X-55.397 Y-30.372
X-55.4 Y-27.484
Y0.674
Y38.217
X-55.304 Y38.565
X-55.109 Y38.869
X-54.607 Y39.388
X-53.978 Y39.742
X-53.295 Y39.977
X-52.589 Y40.129
X-51.874 Y40.228
X-51.155 Y40.291
X-50.434 Y40.331
X-49.713 Y40.356
X-48.991 Y40.372
X-48.269 Y40.382
X-47.547 Y40.389
X-46.825 Y40.393
X-45.381 Y40.397
X-43.215 Y40.399
X-24.443 Y40.4
X7.325
X53.171
X53.524 Y40.323
X53.834 Y40.137
X54.364 Y39.647
X54.726 Y39.022
X54.966 Y38.341
X55.122 Y37.636
X55.223 Y36.921
X55.288 Y36.202
X55.329 Y35.482
X55.355 Y34.76
X55.372 Y34.038
X55.382 Y33.316
X55.389 Y32.594
X55.393 Y31.872
X55.397 Y30.428
X55.399 Y28.262
X55.4 Y10.935
Y-13.613
Y-38.161
X55.327 Y-38.515
X55.144 Y-38.826
X54.656 Y-39.358
X54.033 Y-39.722
X53.352 Y-39.963
X52.647 Y-40.121
X51.933 Y-40.222
X51.214 Y-40.287
X50.493 Y-40.328
X49.771 Y-40.355
X49.049 Y-40.371
X48.328 Y-40.382
X47.606 Y-40.389
X46.884 Y-40.393
X45.44 Y-40.397
X43.274 Y-40.399
X30.278 Y-40.4
X-20.262
X-42.644
X-43.361 Y-40.313
X-44.056 Y-40.12
X-44.741 Y-39.893
X-45.427 Y-39.667
X-46.121 Y-39.466
X-46.822 Y-39.296
X-47.532 Y-39.162
X-48.246 Y-39.059
X-48.964 Y-38.983
X-49.684 Y-38.928
X-50.405 Y-38.889
X-51.127 Y-38.861
X-51.479 Y-38.782
X-51.806 Y-38.629
X-52.394 Y-38.21
X-52.831 Y-37.635
X-53.142 Y-36.984
X-53.357 Y-36.295
X-53.504 Y-35.588
X-53.604 Y-34.873
X-53.67 Y-34.154
X-53.714 Y-33.433
X-53.744 Y-32.712
X-53.763 Y-31.99
X-53.776 Y-31.268
X-53.784 Y-30.546
X-53.79 Y-29.824
X-53.793 Y-29.102
X-53.797 Y-27.658
X-53.799 Y-24.77
X-53.8 Y-20.438
Y30.101
Y35.877
X-53.785 Y36.238
X-53.685 Y36.585
X-53.344 Y37.221
X-52.809 Y37.706
X-52.177 Y38.055
X-51.497 Y38.298
X-50.795 Y38.464
X-50.081 Y38.577
X-49.363 Y38.652
X-48.643 Y38.703
X-47.922 Y38.736
X-47.2 Y38.758
X-46.478 Y38.772
X-45.756 Y38.782
X-45.034 Y38.788
X-44.313 Y38.792
X-42.869 Y38.797
X-40.703 Y38.799
X-29.873 Y38.8
X-10.379
X40.161
X50.991
X51.35 Y38.761
X51.689 Y38.638
X52.305 Y38.262
X52.768 Y37.707
X53.098 Y37.065
X53.328 Y36.381
X53.485 Y35.676
X53.591 Y34.962
X53.661 Y34.243
X53.709 Y33.523
X53.74 Y32.802
X53.761 Y32.08
X53.774 Y31.358
X53.783 Y30.636
X53.789 Y29.914
X53.793 Y29.192
X53.797 Y27.748
X53.799 Y25.582
X53.8 Y13.308
Y0.312
Y-36.148
X53.721 Y-36.501
X53.566 Y-36.827
X53.143 Y-37.412
X52.565 Y-37.845
X51.912 Y-38.152
X51.222 Y-38.365
X50.515 Y-38.51
X49.8 Y-38.608
X49.08 Y-38.673
X48.36 Y-38.716
X47.638 Y-38.745
X46.917 Y-38.764
X46.195 Y-38.776
X45.473 Y-38.785
X44.751 Y-38.79
X44.029 Y-38.793
X42.585 Y-38.797
X41.141 Y-38.799
X34.643 Y-38.8
X-9.399
X-41.167
X-41.888 Y-38.766
X-42.603 Y-38.669
X-43.311 Y-38.525
X-44.012 Y-38.354
X-44.712 Y-38.176
X-45.413 Y-38.003
X-46.117 Y-37.845
X-46.826 Y-37.707
X-47.539 Y-37.592
X-48.255 Y-37.499
X-48.973 Y-37.424
X-49.691 Y-37.352
X-50.347 Y-37.049
X-50.872 Y-36.554
X-51.267 Y-35.95
X-51.553 Y-35.287
X-51.756 Y-34.594
X-51.897 Y-33.886
X-51.994 Y-33.17
X-52.061 Y-32.451
X-52.106 Y-31.731
X-52.137 Y-31.009
X-52.158 Y-30.288
X-52.172 Y-29.566
X-52.181 Y-28.844
X-52.187 Y-28.122
X-52.192 Y-27.4
X-52.196 Y-25.956
X-52.197 Y-25.689
X-52.199 Y-25.624
X-52.206 Y-25.559
X-52.217 Y-25.495
X-52.253 Y-25.328
X-52.295 Y-25.083
X-52.336 Y-24.836
X-52.353 Y-24.672
X-52.491 Y-22.705
X-52.497 Y-22.541
X-52.5 Y-22.049
Y22.049
X-52.497 Y22.541
X-52.491 Y22.705
X-52.353 Y24.672
X-52.336 Y24.836
X-52.263 Y25.555
X-52.24 Y26.276
X-52.225 Y26.998
X-52.216 Y27.72
X-52.21 Y28.442
X-52.206 Y29.164
X-52.203 Y30.608
X-52.2 Y33.496
Y34.218
X-52.155 Y34.576
X-52.038 Y34.918
X-51.682 Y35.546
X-51.149 Y36.032
X-50.521 Y36.389
X-49.846 Y36.643
X-49.146 Y36.821
X-48.434 Y36.943
X-47.717 Y37.027
X-46.997 Y37.084
X-46.276 Y37.122
X-45.555 Y37.148
X-44.833 Y37.165
X-44.742 Y37.167
X-44.608 Y37.179
X-44.476 Y37.21
X-44.35 Y37.26
X-44.277 Y37.295
X-44.099 Y37.364
X-43.935 Y37.412
X-43.771 Y37.451
X-43.607 Y37.479
X-43.115 Y37.499
X-42.459 Y37.5
X42.951
X43.115 Y37.499
X43.607 Y37.479
X43.722 Y37.459
X44.439 Y37.371
X45.158 Y37.307
X45.879 Y37.268
X46.6 Y37.243
X47.322 Y37.227
X48.044 Y37.217
X48.766 Y37.211
X49.488 Y37.207
X49.834 Y37.105
X50.477 Y36.775
X50.978 Y36.256
X51.348 Y35.636
X51.613 Y34.964
X51.799 Y34.267
X51.928 Y33.556
X52.016 Y32.84
X52.076 Y32.12
X52.117 Y31.399
X52.144 Y30.678
X52.163 Y29.956
X52.175 Y29.234
X52.183 Y28.512
X52.189 Y27.79
X52.193 Y27.068
X52.197 Y25.689
X52.199 Y25.624
X52.206 Y25.56
X52.217 Y25.496
X52.253 Y25.328
X52.295 Y25.083
X52.336 Y24.836
X52.353 Y24.672
X52.491 Y22.705
X52.497 Y22.541
X52.5 Y22.049
Y-22.049
X52.497 Y-22.541
X52.491 Y-22.705
X52.353 Y-24.672
X52.336 Y-24.836
X52.263 Y-25.555
X52.24 Y-26.276
X52.225 Y-26.998
X52.216 Y-27.72
X52.21 Y-28.442
X52.206 Y-29.164
X52.203 Y-30.608
X52.2 Y-33.496
Y-34.218
X52.153 Y-34.576
X52.036 Y-34.917
X51.68 Y-35.546
X51.146 Y-36.031
X50.518 Y-36.387
X49.842 Y-36.641
X49.142 Y-36.819
X48.431 Y-36.941
X47.714 Y-37.025
X46.994 Y-37.082
X46.273 Y-37.121
X45.551 Y-37.147
X44.83 Y-37.165
X44.743 Y-37.166
X44.609 Y-37.178
X44.477 Y-37.209
X44.352 Y-37.259
X44.277 Y-37.295
X44.099 Y-37.364
X43.935 Y-37.412
X43.771 Y-37.451
X43.607 Y-37.479
X43.115 Y-37.499
X42.459 Y-37.5
X-42.951
X-43.115 Y-37.499
X-43.607 Y-37.479
X-43.771 Y-37.451
X-43.935 Y-37.412
X-44.099 Y-37.364
X-44.277 Y-37.295
X-44.427 Y-37.223
X-44.594 Y-37.131
X-44.881 Y-36.961
X-45.327 Y-36.743
X-45.921 Y-36.509
X-46.612 Y-36.299
X-47.316 Y-36.137
X-48.026 Y-36.006
X-48.671 Y-35.683
X-49.197 Y-35.188
X-49.598 Y-34.588
X-49.894 Y-33.929
X-50.106 Y-33.239
X-50.257 Y-32.533
X-50.364 Y-31.819
