(CASTERSPACER-ROUGHINGANDHOLES)
(MACHINE)
(  VENDOR HOMEMADE)
(  DESCRIPTION GENERIC 3-AXIS)
(T1 D=4. CR=0. - ZMIN=-5.4 - FLAT END MILL)
G90 G94 G91.1 G40 G49 G17
G21
(WHEN USING FUSION FOR PERSONAL USE, THE FEEDRATE OF RAPID)
(MOVES IS REDUCED TO MATCH THE FEEDRATE OF CUTTING MOVES,)
(WHICH CAN INCREASE MACHINING TIME. UNRESTRICTED RAPID MOVES)
(ARE AVAILABLE WITH A FUSION SUBSCRIPTION.)
G28 G91 Z0.
G90

(BORE HOLES)
T1 M6
S5000 M3
G17 G90 G94
G54
G0 X35.6 Y22.1
G43 Z15. H1
G1 Z2. F300.
Z0.4
G18 G2 X36. Z0. I0.4 K0.
G1 X36.2
G17 G3 X36.6 Y22.5 I0. J0.4
X33.4 Z-0.126 I-1.6 J0.
X36.6 Z-0.251 I1.6 J0.
X33.4 Z-0.377 I-1.6 J0.
X36.6 Z-0.503 I1.6 J0.
X33.4 Z-0.629 I-1.6 J0.
X36.6 Z-0.754 I1.6 J0.
X33.4 Z-0.88 I-1.6 J0.
X36.6 Z-1.006 I1.6 J0.
X33.4 Z-1.131 I-1.6 J0.
X36.6 Z-1.257 I1.6 J0.
X33.4 Z-1.383 I-1.6 J0.
X36.6 Z-1.509 I1.6 J0.
X33.4 Z-1.634 I-1.6 J0.
X36.6 Z-1.76 I1.6 J0.
X33.4 Z-1.886 I-1.6 J0.
X36.6 Z-2.011 I1.6 J0.
X33.4 Z-2.137 I-1.6 J0.
X36.6 Z-2.263 I1.6 J0.
X33.4 Z-2.389 I-1.6 J0.
X36.6 Z-2.514 I1.6 J0.
X33.4 Z-2.64 I-1.6 J0.
X36.6 Z-2.766 I1.6 J0.
X33.4 Z-2.891 I-1.6 J0.
X36.6 Z-3.017 I1.6 J0.
X33.4 Z-3.143 I-1.6 J0.
X36.6 Z-3.269 I1.6 J0.
X33.4 Z-3.394 I-1.6 J0.
X36.6 Z-3.52 I1.6 J0.
X33.4 Z-3.646 I-1.6 J0.
X36.6 Z-3.771 I1.6 J0.
X33.4 Z-3.897 I-1.6 J0.
X36.6 Z-4.023 I1.6 J0.
X33.4 Z-4.149 I-1.6 J0.
X36.6 Z-4.274 I1.6 J0.
X33.4 Z-4.4 I-1.6 J0.
X36.6 Z-4.526 I1.6 J0.
X33.4 Z-4.651 I-1.6 J0.
X36.6 Z-4.777 I1.6 J0.
X33.4 Z-4.903 I-1.6 J0.
X36.6 Z-5.029 I1.6 J0.
X33.4 Z-5.154 I-1.6 J0.
X36.6 Z-5.28 I1.6 J0.
X33.416 Y22.729 Z-5.4 I-1.6 J0.
X36.584 Y22.271 I1.584 J-0.229
X33.416 Y22.729 I-1.584 J0.229
X33.755 Y22.275 I0.396 J-0.057
G1 X33.953 Y22.247
X34.03 Y22.236 Z-5.392
X34.105 Y22.225 Z-5.37
X34.173 Y22.215 Z-5.333
X34.233 Y22.207 Z-5.283
X34.282 Y22.199 Z-5.222
X34.319 Y22.194 Z-5.153
X34.341 Y22.191 Z-5.078
X34.349 Y22.19 Z-5.
Z5.
Z15.
X36.6 Y22.1
Z2.
Z0.4
G18 G2 X37. Z0. I0.4 K0.
G1 X37.2
G17 G3 X37.6 Y22.5 I0. J0.4
X32.4 Z-0.161 I-2.6 J0.
X37.6 Z-0.321 I2.6 J0.
X32.4 Z-0.482 I-2.6 J0.
X37.6 Z-0.643 I2.6 J0.
X32.4 Z-0.803 I-2.6 J0.
X37.6 Z-0.964 I2.6 J0.
X32.4 Z-1.124 I-2.6 J0.
X37.6 Z-1.285 I2.6 J0.
X32.4 Z-1.446 I-2.6 J0.
X37.6 Z-1.606 I2.6 J0.
X32.4 Z-1.767 I-2.6 J0.
X37.6 Z-1.928 I2.6 J0.
X32.4 Z-2.088 I-2.6 J0.
X37.6 Z-2.249 I2.6 J0.
X32.4 Z-2.41 I-2.6 J0.
X37.6 Z-2.57 I2.6 J0.
X32.4 Z-2.731 I-2.6 J0.
X37.6 Z-2.891 I2.6 J0.
X32.4 Z-3.052 I-2.6 J0.
X37.6 Z-3.213 I2.6 J0.
X32.4 Z-3.373 I-2.6 J0.
X37.6 Z-3.534 I2.6 J0.
X32.4 Z-3.695 I-2.6 J0.
X37.6 Z-3.855 I2.6 J0.
X32.4 Z-4.016 I-2.6 J0.
X37.6 Z-4.177 I2.6 J0.
X32.4 Z-4.337 I-2.6 J0.
X37.6 Z-4.498 I2.6 J0.
X32.4 Z-4.658 I-2.6 J0.
X37.6 Z-4.819 I2.6 J0.
X32.4 Z-4.98 I-2.6 J0.
X37.6 Z-5.14 I2.6 J0.
X32.4 Z-5.301 I-2.6 J0.
X35.93 Y20.072 Z-5.4 I2.6 J0.
X34.07 Y24.928 I-0.93 J2.428
X35.93 Y20.072 I0.93 J-2.428
X36.161 Y20.589 I-0.143 J0.374
G1 X36.089 Y20.776
X36.061 Y20.848 Z-5.392
X36.034 Y20.918 Z-5.37
X36.01 Y20.983 Z-5.333
X35.988 Y21.04 Z-5.283
X35.97 Y21.086 Z-5.222
X35.957 Y21.121 Z-5.153
X35.949 Y21.142 Z-5.078
X35.946 Y21.149 Z-5.
Z5.
Z15.
X37. Y22.1
Z-3.4
Z-5.
G18 G2 X37.4 Z-5.4 I0.4 K0.
G1 X37.6
G17 G3 X38. Y22.5 I0. J0.4
X32. I-3. J0.
X38. I3. J0.
X37.6 Y22.9 I-0.4 J0.
G1 X37.4
G18 G3 X37. Z-5. I0. K0.4
G1 Z5.
X35.6 Y-22.9
Z2.
Z0.4
G2 X36. Z0. I0.4 K0.
G1 X36.2
G17 G3 X36.6 Y-22.5 I0. J0.4
X33.4 Z-0.126 I-1.6 J0.
X36.6 Z-0.251 I1.6 J0.
X33.4 Z-0.377 I-1.6 J0.
X36.6 Z-0.503 I1.6 J0.
X33.4 Z-0.629 I-1.6 J0.
X36.6 Z-0.754 I1.6 J0.
X33.4 Z-0.88 I-1.6 J0.
X36.6 Z-1.006 I1.6 J0.
X33.4 Z-1.131 I-1.6 J0.
X36.6 Z-1.257 I1.6 J0.
X33.4 Z-1.383 I-1.6 J0.
X36.6 Z-1.509 I1.6 J0.
X33.4 Z-1.634 I-1.6 J0.
X36.6 Z-1.76 I1.6 J0.
X33.4 Z-1.886 I-1.6 J0.
X36.6 Z-2.011 I1.6 J0.
X33.4 Z-2.137 I-1.6 J0.
X36.6 Z-2.263 I1.6 J0.
X33.4 Z-2.389 I-1.6 J0.
X36.6 Z-2.514 I1.6 J0.
X33.4 Z-2.64 I-1.6 J0.
X36.6 Z-2.766 I1.6 J0.
X33.4 Z-2.891 I-1.6 J0.
X36.6 Z-3.017 I1.6 J0.
X33.4 Z-3.143 I-1.6 J0.
X36.6 Z-3.269 I1.6 J0.
X33.4 Z-3.394 I-1.6 J0.
X36.6 Z-3.52 I1.6 J0.
X33.4 Z-3.646 I-1.6 J0.
X36.6 Z-3.771 I1.6 J0.
X33.4 Z-3.897 I-1.6 J0.
X36.6 Z-4.023 I1.6 J0.
X33.4 Z-4.149 I-1.6 J0.
X36.6 Z-4.274 I1.6 J0.
X33.4 Z-4.4 I-1.6 J0.
X36.6 Z-4.526 I1.6 J0.
X33.4 Z-4.651 I-1.6 J0.
X36.6 Z-4.777 I1.6 J0.
X33.4 Z-4.903 I-1.6 J0.
X36.6 Z-5.029 I1.6 J0.
X33.4 Z-5.154 I-1.6 J0.
X36.6 Z-5.28 I1.6 J0.
X33.416 Y-22.271 Z-5.4 I-1.6 J0.
X36.584 Y-22.729 I1.584 J-0.229
X33.416 Y-22.271 I-1.584 J0.229
X33.755 Y-22.725 I0.396 J-0.057
G1 X33.953 Y-22.753
X34.03 Y-22.764 Z-5.392
X34.105 Y-22.775 Z-5.37
X34.173 Y-22.785 Z-5.333
X34.233 Y-22.793 Z-5.283
X34.282 Y-22.801 Z-5.222
X34.319 Y-22.806 Z-5.153
X34.341 Y-22.809 Z-5.078
X34.349 Y-22.81 Z-5.
Z5.
X36.6 Y-22.9
Z2.
Z0.4
G18 G2 X37. Z0. I0.4 K0.
G1 X37.2
G17 G3 X37.6 Y-22.5 I0. J0.4
X32.4 Z-0.161 I-2.6 J0.
X37.6 Z-0.321 I2.6 J0.
X32.4 Z-0.482 I-2.6 J0.
X37.6 Z-0.643 I2.6 J0.
X32.4 Z-0.803 I-2.6 J0.
X37.6 Z-0.964 I2.6 J0.
X32.4 Z-1.124 I-2.6 J0.
X37.6 Z-1.285 I2.6 J0.
X32.4 Z-1.446 I-2.6 J0.
X37.6 Z-1.606 I2.6 J0.
X32.4 Z-1.767 I-2.6 J0.
X37.6 Z-1.928 I2.6 J0.
X32.4 Z-2.088 I-2.6 J0.
X37.6 Z-2.249 I2.6 J0.
X32.4 Z-2.41 I-2.6 J0.
X37.6 Z-2.57 I2.6 J0.
X32.4 Z-2.731 I-2.6 J0.
X37.6 Z-2.891 I2.6 J0.
X32.4 Z-3.052 I-2.6 J0.
X37.6 Z-3.213 I2.6 J0.
X32.4 Z-3.373 I-2.6 J0.
X37.6 Z-3.534 I2.6 J0.
X32.4 Z-3.695 I-2.6 J0.
X37.6 Z-3.855 I2.6 J0.
X32.4 Z-4.016 I-2.6 J0.
X37.6 Z-4.177 I2.6 J0.
X32.4 Z-4.337 I-2.6 J0.
X37.6 Z-4.498 I2.6 J0.
X32.4 Z-4.658 I-2.6 J0.
X37.6 Z-4.819 I2.6 J0.
X32.4 Z-4.98 I-2.6 J0.
X37.6 Z-5.14 I2.6 J0.
X32.4 Z-5.301 I-2.6 J0.
X35.93 Y-24.928 Z-5.4 I2.6 J0.
X34.07 Y-20.072 I-0.93 J2.428
X35.93 Y-24.928 I0.93 J-2.428
X36.161 Y-24.411 I-0.143 J0.374
G1 X36.089 Y-24.224
X36.061 Y-24.152 Z-5.392
X36.034 Y-24.082 Z-5.37
X36.01 Y-24.017 Z-5.333
X35.988 Y-23.96 Z-5.283
X35.97 Y-23.914 Z-5.222
X35.957 Y-23.879 Z-5.153
X35.949 Y-23.858 Z-5.078
X35.946 Y-23.851 Z-5.
Z5.
X37. Y-22.9
Z-3.4
Z-5.
G18 G2 X37.4 Z-5.4 I0.4 K0.
G1 X37.6
G17 G3 X38. Y-22.5 I0. J0.4
X32. I-3. J0.
X38. I3. J0.
X37.6 Y-22.1 I-0.4 J0.
G1 X37.4
G18 G3 X37. Z-5. I0. K0.4
G1 Z5.
X-34.4 Y-22.9
Z2.
Z0.4
G2 X-34. Z0. I0.4 K0.
G1 X-33.8
G17 G3 X-33.4 Y-22.5 I0. J0.4
X-36.6 Z-0.126 I-1.6 J0.
X-33.4 Z-0.251 I1.6 J0.
X-36.6 Z-0.377 I-1.6 J0.
X-33.4 Z-0.503 I1.6 J0.
X-36.6 Z-0.629 I-1.6 J0.
X-33.4 Z-0.754 I1.6 J0.
X-36.6 Z-0.88 I-1.6 J0.
X-33.4 Z-1.006 I1.6 J0.
X-36.6 Z-1.131 I-1.6 J0.
X-33.4 Z-1.257 I1.6 J0.
X-36.6 Z-1.383 I-1.6 J0.
X-33.4 Z-1.509 I1.6 J0.
X-36.6 Z-1.634 I-1.6 J0.
X-33.4 Z-1.76 I1.6 J0.
X-36.6 Z-1.886 I-1.6 J0.
X-33.4 Z-2.011 I1.6 J0.
X-36.6 Z-2.137 I-1.6 J0.
X-33.4 Z-2.263 I1.6 J0.
X-36.6 Z-2.389 I-1.6 J0.
X-33.4 Z-2.514 I1.6 J0.
X-36.6 Z-2.64 I-1.6 J0.
X-33.4 Z-2.766 I1.6 J0.
X-36.6 Z-2.891 I-1.6 J0.
X-33.4 Z-3.017 I1.6 J0.
X-36.6 Z-3.143 I-1.6 J0.
X-33.4 Z-3.269 I1.6 J0.
X-36.6 Z-3.394 I-1.6 J0.
X-33.4 Z-3.52 I1.6 J0.
X-36.6 Z-3.646 I-1.6 J0.
X-33.4 Z-3.771 I1.6 J0.
X-36.6 Z-3.897 I-1.6 J0.
X-33.4 Z-4.023 I1.6 J0.
X-36.6 Z-4.149 I-1.6 J0.
X-33.4 Z-4.274 I1.6 J0.
X-36.6 Z-4.4 I-1.6 J0.
X-33.4 Z-4.526 I1.6 J0.
X-36.6 Z-4.651 I-1.6 J0.
X-33.4 Z-4.777 I1.6 J0.
X-36.6 Z-4.903 I-1.6 J0.
X-33.4 Z-5.029 I1.6 J0.
X-36.6 Z-5.154 I-1.6 J0.
X-33.4 Z-5.28 I1.6 J0.
X-36.584 Y-22.271 Z-5.4 I-1.6 J0.
X-33.416 Y-22.729 I1.584 J-0.229
X-36.584 Y-22.271 I-1.584 J0.229
X-36.245 Y-22.725 I0.396 J-0.057
G1 X-36.047 Y-22.753
X-35.97 Y-22.764 Z-5.392
X-35.895 Y-22.775 Z-5.37
X-35.827 Y-22.785 Z-5.333
X-35.767 Y-22.793 Z-5.283
X-35.718 Y-22.801 Z-5.222
X-35.681 Y-22.806 Z-5.153
X-35.659 Y-22.809 Z-5.078
X-35.651 Y-22.81 Z-5.
Z5.
X-33.4 Y-22.9
Z2.
Z0.4
G18 G2 X-33. Z0. I0.4 K0.
G1 X-32.8
G17 G3 X-32.4 Y-22.5 I0. J0.4
X-37.6 Z-0.161 I-2.6 J0.
X-32.4 Z-0.321 I2.6 J0.
X-37.6 Z-0.482 I-2.6 J0.
X-32.4 Z-0.643 I2.6 J0.
X-37.6 Z-0.803 I-2.6 J0.
X-32.4 Z-0.964 I2.6 J0.
X-37.6 Z-1.124 I-2.6 J0.
X-32.4 Z-1.285 I2.6 J0.
X-37.6 Z-1.446 I-2.6 J0.
X-32.4 Z-1.606 I2.6 J0.
X-37.6 Z-1.767 I-2.6 J0.
X-32.4 Z-1.928 I2.6 J0.
X-37.6 Z-2.088 I-2.6 J0.
X-32.4 Z-2.249 I2.6 J0.
X-37.6 Z-2.41 I-2.6 J0.
X-32.4 Z-2.57 I2.6 J0.
X-37.6 Z-2.731 I-2.6 J0.
X-32.4 Z-2.891 I2.6 J0.
X-37.6 Z-3.052 I-2.6 J0.
X-32.4 Z-3.213 I2.6 J0.
X-37.6 Z-3.373 I-2.6 J0.
X-32.4 Z-3.534 I2.6 J0.
X-37.6 Z-3.695 I-2.6 J0.
X-32.4 Z-3.855 I2.6 J0.
X-37.6 Z-4.016 I-2.6 J0.
X-32.4 Z-4.177 I2.6 J0.
X-37.6 Z-4.337 I-2.6 J0.
X-32.4 Z-4.498 I2.6 J0.
X-37.6 Z-4.658 I-2.6 J0.
X-32.4 Z-4.819 I2.6 J0.
X-37.6 Z-4.98 I-2.6 J0.
X-32.4 Z-5.14 I2.6 J0.
X-37.6 Z-5.301 I-2.6 J0.
X-34.07 Y-24.928 Z-5.4 I2.6 J0.
X-35.93 Y-20.072 I-0.93 J2.428
X-34.07 Y-24.928 I0.93 J-2.428
X-33.839 Y-24.411 I-0.143 J0.374
G1 X-33.911 Y-24.224
X-33.939 Y-24.152 Z-5.392
X-33.966 Y-24.082 Z-5.37
X-33.99 Y-24.017 Z-5.333
X-34.012 Y-23.96 Z-5.283
X-34.03 Y-23.914 Z-5.222
X-34.043 Y-23.879 Z-5.153
X-34.051 Y-23.858 Z-5.078
X-34.054 Y-23.851 Z-5.
Z5.
X-33. Y-22.9
Z-3.4
Z-5.
G18 G2 X-32.6 Z-5.4 I0.4 K0.
G1 X-32.4
G17 G3 X-32. Y-22.5 I0. J0.4
X-38. I-3. J0.
X-32. I3. J0.
X-32.4 Y-22.1 I-0.4 J0.
G1 X-32.6
G18 G3 X-33. Z-5. I0. K0.4
G1 Z5.
X-34.4 Y22.1
Z2.
Z0.4
G2 X-34. Z0. I0.4 K0.
G1 X-33.8
G17 G3 X-33.4 Y22.5 I0. J0.4
X-36.6 Z-0.126 I-1.6 J0.
X-33.4 Z-0.251 I1.6 J0.
X-36.6 Z-0.377 I-1.6 J0.
X-33.4 Z-0.503 I1.6 J0.
X-36.6 Z-0.629 I-1.6 J0.
X-33.4 Z-0.754 I1.6 J0.
X-36.6 Z-0.88 I-1.6 J0.
X-33.4 Z-1.006 I1.6 J0.
X-36.6 Z-1.131 I-1.6 J0.
X-33.4 Z-1.257 I1.6 J0.
X-36.6 Z-1.383 I-1.6 J0.
X-33.4 Z-1.509 I1.6 J0.
X-36.6 Z-1.634 I-1.6 J0.
X-33.4 Z-1.76 I1.6 J0.
X-36.6 Z-1.886 I-1.6 J0.
X-33.4 Z-2.011 I1.6 J0.
X-36.6 Z-2.137 I-1.6 J0.
X-33.4 Z-2.263 I1.6 J0.
X-36.6 Z-2.389 I-1.6 J0.
X-33.4 Z-2.514 I1.6 J0.
X-36.6 Z-2.64 I-1.6 J0.
X-33.4 Z-2.766 I1.6 J0.
X-36.6 Z-2.891 I-1.6 J0.
X-33.4 Z-3.017 I1.6 J0.
X-36.6 Z-3.143 I-1.6 J0.
X-33.4 Z-3.269 I1.6 J0.
X-36.6 Z-3.394 I-1.6 J0.
X-33.4 Z-3.52 I1.6 J0.
X-36.6 Z-3.646 I-1.6 J0.
X-33.4 Z-3.771 I1.6 J0.
X-36.6 Z-3.897 I-1.6 J0.
X-33.4 Z-4.023 I1.6 J0.
X-36.6 Z-4.149 I-1.6 J0.
X-33.4 Z-4.274 I1.6 J0.
X-36.6 Z-4.4 I-1.6 J0.
X-33.4 Z-4.526 I1.6 J0.
X-36.6 Z-4.651 I-1.6 J0.
X-33.4 Z-4.777 I1.6 J0.
X-36.6 Z-4.903 I-1.6 J0.
X-33.4 Z-5.029 I1.6 J0.
X-36.6 Z-5.154 I-1.6 J0.
X-33.4 Z-5.28 I1.6 J0.
X-36.584 Y22.729 Z-5.4 I-1.6 J0.
X-33.416 Y22.271 I1.584 J-0.229
X-36.584 Y22.729 I-1.584 J0.229
X-36.245 Y22.275 I0.396 J-0.057
G1 X-36.047 Y22.247
X-35.97 Y22.236 Z-5.392
X-35.895 Y22.225 Z-5.37
X-35.827 Y22.215 Z-5.333
X-35.767 Y22.207 Z-5.283
X-35.718 Y22.199 Z-5.222
X-35.681 Y22.194 Z-5.153
X-35.659 Y22.191 Z-5.078
X-35.651 Y22.19 Z-5.
Z5.
X-33.4 Y22.1
Z2.
Z0.4
G18 G2 X-33. Z0. I0.4 K0.
G1 X-32.8
G17 G3 X-32.4 Y22.5 I0. J0.4
X-37.6 Z-0.161 I-2.6 J0.
X-32.4 Z-0.321 I2.6 J0.
X-37.6 Z-0.482 I-2.6 J0.
X-32.4 Z-0.643 I2.6 J0.
X-37.6 Z-0.803 I-2.6 J0.
X-32.4 Z-0.964 I2.6 J0.
X-37.6 Z-1.124 I-2.6 J0.
X-32.4 Z-1.285 I2.6 J0.
X-37.6 Z-1.446 I-2.6 J0.
X-32.4 Z-1.606 I2.6 J0.
X-37.6 Z-1.767 I-2.6 J0.
X-32.4 Z-1.928 I2.6 J0.
X-37.6 Z-2.088 I-2.6 J0.
X-32.4 Z-2.249 I2.6 J0.
X-37.6 Z-2.41 I-2.6 J0.
X-32.4 Z-2.57 I2.6 J0.
X-37.6 Z-2.731 I-2.6 J0.
X-32.4 Z-2.891 I2.6 J0.
X-37.6 Z-3.052 I-2.6 J0.
X-32.4 Z-3.213 I2.6 J0.
X-37.6 Z-3.373 I-2.6 J0.
X-32.4 Z-3.534 I2.6 J0.
X-37.6 Z-3.695 I-2.6 J0.
X-32.4 Z-3.855 I2.6 J0.
X-37.6 Z-4.016 I-2.6 J0.
X-32.4 Z-4.177 I2.6 J0.
X-37.6 Z-4.337 I-2.6 J0.
X-32.4 Z-4.498 I2.6 J0.
X-37.6 Z-4.658 I-2.6 J0.
X-32.4 Z-4.819 I2.6 J0.
X-37.6 Z-4.98 I-2.6 J0.
X-32.4 Z-5.14 I2.6 J0.
X-37.6 Z-5.301 I-2.6 J0.
X-34.07 Y20.072 Z-5.4 I2.6 J0.
X-35.93 Y24.928 I-0.93 J2.428
X-34.07 Y20.072 I0.93 J-2.428
X-33.839 Y20.589 I-0.143 J0.374
G1 X-33.911 Y20.776
X-33.939 Y20.848 Z-5.392
X-33.966 Y20.918 Z-5.37
X-33.99 Y20.983 Z-5.333
X-34.012 Y21.04 Z-5.283
X-34.03 Y21.086 Z-5.222
X-34.043 Y21.121 Z-5.153
X-34.051 Y21.142 Z-5.078
X-34.054 Y21.149 Z-5.
Z5.
X-33. Y22.1
Z-3.4
Z-5.
G18 G2 X-32.6 Z-5.4 I0.4 K0.
G1 X-32.4
G17 G3 X-32. Y22.5 I0. J0.4
X-38. I-3. J0.
X-32. I3. J0.
X-32.4 Y22.9 I-0.4 J0.
G1 X-32.6
G18 G3 X-33. Z-5. I0. K0.4
G1 Z15.
G17
(WHEN USING FUSION FOR PERSONAL USE, THE FEEDRATE OF RAPID)
(MOVES IS REDUCED TO MATCH THE FEEDRATE OF CUTTING MOVES,)
(WHICH CAN INCREASE MACHINING TIME. UNRESTRICTED RAPID MOVES)
(ARE AVAILABLE WITH A FUSION SUBSCRIPTION.)

(2D CONTOUR - ROUGHING)
G0 X53.7 Y0.4
G1 Z15. F300.
Z5.
Z0.8 F100.
Z-0.1
G18 G3 X53.3 Z-0.5 I-0.4 K0. F300.
G1 X52.9
G17 G3 X52.5 Y0. I0. J-0.4
G1 Y-22.5
G2 X44.674 Y-37.083 I-17.5 J0.
X43.292 Y-37.5 I-1.382 J2.083
G1 X-43.292
G2 X-44.674 Y-37.083 I0. J2.5
X-52.5 Y-22.5 I9.674 J14.583
G1 Y22.5
G2 X-44.674 Y37.083 I17.5 J0.
X-43.292 Y37.5 I1.382 J-2.083
G1 X43.292
G2 X44.674 Y37.083 I0. J-2.5
X52.5 Y22.5 I-9.674 J-14.583
G1 Y0.
G2 X52.3 Y-0.3 I-0.325 J0.
G3 X52.1 Y-0.6 I0.125 J-0.3
G1 Y-22.5
G2 X44.452 Y-36.75 I-17.1 J0.
X43.292 Y-37.1 I-1.161 J1.75
G1 X-43.292
G2 X-44.452 Y-36.75 I0. J2.1
X-52.1 Y-22.5 I9.452 J14.25
G1 Y22.5
G2 X-44.452 Y36.75 I17.1 J0.
X-43.292 Y37.1 I1.161 J-1.75
G1 X43.292
G2 X44.452 Y36.75 I0. J-2.1
X52.1 Y22.5 I-9.452 J-14.25
G1 Y-0.6
G3 X52.5 Y-1. I0.4 J0.
G1 X52.9
G18 G2 X53.3 Z-0.1 I0. K0.4
G1 Z5.
X53.7 Y0.4
Z0.3 F100.
Z-0.6
G3 X53.3 Z-1. I-0.4 K0. F300.
G1 X52.9
G17 G3 X52.5 Y0. I0. J-0.4
G1 Y-22.5
G2 X44.674 Y-37.083 I-17.5 J0.
X43.292 Y-37.5 I-1.382 J2.083
G1 X-43.292
G2 X-44.674 Y-37.083 I0. J2.5
X-52.5 Y-22.5 I9.674 J14.583
G1 Y22.5
G2 X-44.674 Y37.083 I17.5 J0.
X-43.292 Y37.5 I1.382 J-2.083
G1 X43.292
G2 X44.674 Y37.083 I0. J-2.5
X52.5 Y22.5 I-9.674 J-14.583
G1 Y0.
G2 X52.3 Y-0.3 I-0.325 J0.
G3 X52.1 Y-0.6 I0.125 J-0.3
G1 Y-22.5
G2 X44.452 Y-36.75 I-17.1 J0.
X43.292 Y-37.1 I-1.161 J1.75
G1 X-43.292
G2 X-44.452 Y-36.75 I0. J2.1
X-52.1 Y-22.5 I9.452 J14.25
G1 Y22.5
G2 X-44.452 Y36.75 I17.1 J0.
X-43.292 Y37.1 I1.161 J-1.75
G1 X43.292
G2 X44.452 Y36.75 I0. J-2.1
X52.1 Y22.5 I-9.452 J-14.25
G1 Y-0.6
G3 X52.5 Y-1. I0.4 J0.
G1 X52.9
G18 G2 X53.3 Z-0.6 I0. K0.4
G1 Z5.
X53.7 Y0.4
Z-0.2 F100.
Z-1.1
G3 X53.3 Z-1.5 I-0.4 K0. F300.
G1 X52.9
G17 G3 X52.5 Y0. I0. J-0.4
G1 Y-22.5
G2 X44.674 Y-37.083 I-17.5 J0.
X43.292 Y-37.5 I-1.382 J2.083
G1 X-43.292
G2 X-44.674 Y-37.083 I0. J2.5
X-52.5 Y-22.5 I9.674 J14.583
G1 Y22.5
G2 X-44.674 Y37.083 I17.5 J0.
X-43.292 Y37.5 I1.382 J-2.083
G1 X43.292
G2 X44.674 Y37.083 I0. J-2.5
X52.5 Y22.5 I-9.674 J-14.583
G1 Y0.
G2 X52.3 Y-0.3 I-0.325 J0.
G3 X52.1 Y-0.6 I0.125 J-0.3
G1 Y-22.5
G2 X44.452 Y-36.75 I-17.1 J0.
X43.292 Y-37.1 I-1.161 J1.75
G1 X-43.292
G2 X-44.452 Y-36.75 I0. J2.1
X-52.1 Y-22.5 I9.452 J14.25
G1 Y22.5
G2 X-44.452 Y36.75 I17.1 J0.
X-43.292 Y37.1 I1.161 J-1.75
G1 X43.292
G2 X44.452 Y36.75 I0. J-2.1
X52.1 Y22.5 I-9.452 J-14.25
G1 Y-0.6
G3 X52.5 Y-1. I0.4 J0.
G1 X52.9
G18 G2 X53.3 Z-1.1 I0. K0.4
G1 Z5.
X53.7 Y0.4
Z-0.7 F100.
Z-1.6
G3 X53.3 Z-2. I-0.4 K0. F300.
G1 X52.9
G17 G3 X52.5 Y0. I0. J-0.4
G1 Y-22.5
G2 X44.674 Y-37.083 I-17.5 J0.
X43.292 Y-37.5 I-1.382 J2.083
G1 X-43.292
G2 X-44.674 Y-37.083 I0. J2.5
X-52.5 Y-22.5 I9.674 J14.583
G1 Y22.5
G2 X-44.674 Y37.083 I17.5 J0.
X-43.292 Y37.5 I1.382 J-2.083
G1 X43.292
G2 X44.674 Y37.083 I0. J-2.5
X52.5 Y22.5 I-9.674 J-14.583
G1 Y0.
G2 X52.3 Y-0.3 I-0.325 J0.
G3 X52.1 Y-0.6 I0.125 J-0.3
G1 Y-22.5
G2 X44.452 Y-36.75 I-17.1 J0.
X43.292 Y-37.1 I-1.161 J1.75
G1 X-43.292
G2 X-44.452 Y-36.75 I0. J2.1
X-52.1 Y-22.5 I9.452 J14.25
G1 Y22.5
G2 X-44.452 Y36.75 I17.1 J0.
X-43.292 Y37.1 I1.161 J-1.75
G1 X43.292
G2 X44.452 Y36.75 I0. J-2.1
X52.1 Y22.5 I-9.452 J-14.25
G1 Y-0.6
G3 X52.5 Y-1. I0.4 J0.
G1 X52.9
G18 G2 X53.3 Z-1.6 I0. K0.4
G1 Z5.
X53.7 Y0.4
Z-1.2 F100.
Z-2.1
G3 X53.3 Z-2.5 I-0.4 K0. F300.
G1 X52.9
G17 G3 X52.5 Y0. I0. J-0.4
G1 Y-22.5
G2 X44.674 Y-37.083 I-17.5 J0.
X43.292 Y-37.5 I-1.382 J2.083
G1 X-43.292
G2 X-44.674 Y-37.083 I0. J2.5
X-52.5 Y-22.5 I9.674 J14.583
G1 Y22.5
G2 X-44.674 Y37.083 I17.5 J0.
X-43.292 Y37.5 I1.382 J-2.083
G1 X43.292
G2 X44.674 Y37.083 I0. J-2.5
X52.5 Y22.5 I-9.674 J-14.583
G1 Y0.
G2 X52.3 Y-0.3 I-0.325 J0.
G3 X52.1 Y-0.6 I0.125 J-0.3
G1 Y-22.5
G2 X44.452 Y-36.75 I-17.1 J0.
X43.292 Y-37.1 I-1.161 J1.75
G1 X-43.292
G2 X-44.452 Y-36.75 I0. J2.1
X-52.1 Y-22.5 I9.452 J14.25
G1 Y22.5
G2 X-44.452 Y36.75 I17.1 J0.
X-43.292 Y37.1 I1.161 J-1.75
G1 X43.292
G2 X44.452 Y36.75 I0. J-2.1
X52.1 Y22.5 I-9.452 J-14.25
G1 Y-0.6
G3 X52.5 Y-1. I0.4 J0.
G1 X52.9
G18 G2 X53.3 Z-2.1 I0. K0.4
G1 Z5.
X53.7 Y0.4
Z-1.7 F100.
Z-2.6
G3 X53.3 Z-3. I-0.4 K0. F300.
G1 X52.9
G17 G3 X52.5 Y0. I0. J-0.4
G1 Y-22.5
G2 X44.674 Y-37.083 I-17.5 J0.
X43.292 Y-37.5 I-1.382 J2.083
G1 X-43.292
G2 X-44.674 Y-37.083 I0. J2.5
X-52.5 Y-22.5 I9.674 J14.583
G1 Y22.5
G2 X-44.674 Y37.083 I17.5 J0.
X-43.292 Y37.5 I1.382 J-2.083
G1 X43.292
G2 X44.674 Y37.083 I0. J-2.5
X52.5 Y22.5 I-9.674 J-14.583
G1 Y0.
G2 X52.3 Y-0.3 I-0.325 J0.
G3 X52.1 Y-0.6 I0.125 J-0.3
G1 Y-22.5
G2 X44.452 Y-36.75 I-17.1 J0.
X43.292 Y-37.1 I-1.161 J1.75
G1 X-43.292
G2 X-44.452 Y-36.75 I0. J2.1
X-52.1 Y-22.5 I9.452 J14.25
G1 Y22.5
G2 X-44.452 Y36.75 I17.1 J0.
X-43.292 Y37.1 I1.161 J-1.75
G1 X43.292
G2 X44.452 Y36.75 I0. J-2.1
X52.1 Y22.5 I-9.452 J-14.25
G1 Y-0.6
G3 X52.5 Y-1. I0.4 J0.
G1 X52.9
G18 G2 X53.3 Z-2.6 I0. K0.4
G1 Z5.
X53.7 Y0.4
Z-2.2 F100.
Z-3.1
G3 X53.3 Z-3.5 I-0.4 K0. F300.
G1 X52.9
G17 G3 X52.5 Y0. I0. J-0.4
G1 Y-22.5
G2 X44.674 Y-37.083 I-17.5 J0.
X43.292 Y-37.5 I-1.382 J2.083
G1 X-43.292
G2 X-44.674 Y-37.083 I0. J2.5
X-52.5 Y-22.5 I9.674 J14.583
G1 Y22.5
G2 X-44.674 Y37.083 I17.5 J0.
X-43.292 Y37.5 I1.382 J-2.083
G1 X43.292
G2 X44.674 Y37.083 I0. J-2.5
X52.5 Y22.5 I-9.674 J-14.583
G1 Y0.
G2 X52.3 Y-0.3 I-0.325 J0.
G3 X52.1 Y-0.6 I0.125 J-0.3
G1 Y-22.5
G2 X44.452 Y-36.75 I-17.1 J0.
X43.292 Y-37.1 I-1.161 J1.75
G1 X-43.292
G2 X-44.452 Y-36.75 I0. J2.1
X-52.1 Y-22.5 I9.452 J14.25
G1 Y22.5
G2 X-44.452 Y36.75 I17.1 J0.
X-43.292 Y37.1 I1.161 J-1.75
G1 X43.292
G2 X44.452 Y36.75 I0. J-2.1
X52.1 Y22.5 I-9.452 J-14.25
G1 Y-0.6
G3 X52.5 Y-1. I0.4 J0.
G1 X52.9
G18 G2 X53.3 Z-3.1 I0. K0.4
G1 Z5.
X53.7 Y0.4
Z-2.7 F100.
Z-3.6
G3 X53.3 Z-4. I-0.4 K0. F300.
G1 X52.9
G17 G3 X52.5 Y0. I0. J-0.4
G1 Y-22.5
G2 X44.674 Y-37.083 I-17.5 J0.
X43.292 Y-37.5 I-1.382 J2.083
G1 X-43.292
G2 X-44.674 Y-37.083 I0. J2.5
X-52.5 Y-22.5 I9.674 J14.583
G1 Y22.5
G2 X-44.674 Y37.083 I17.5 J0.
X-43.292 Y37.5 I1.382 J-2.083
G1 X43.292
G2 X44.674 Y37.083 I0. J-2.5
X52.5 Y22.5 I-9.674 J-14.583
G1 Y0.
G2 X52.3 Y-0.3 I-0.325 J0.
G3 X52.1 Y-0.6 I0.125 J-0.3
G1 Y-22.5
G2 X44.452 Y-36.75 I-17.1 J0.
X43.292 Y-37.1 I-1.161 J1.75
G1 X-43.292
G2 X-44.452 Y-36.75 I0. J2.1
X-52.1 Y-22.5 I9.452 J14.25
G1 Y22.5
G2 X-44.452 Y36.75 I17.1 J0.
X-43.292 Y37.1 I1.161 J-1.75
G1 X43.292
G2 X44.452 Y36.75 I0. J-2.1
X52.1 Y22.5 I-9.452 J-14.25
G1 Y-0.6
G3 X52.5 Y-1. I0.4 J0.
G1 X52.9
G18 G2 X53.3 Z-3.6 I0. K0.4
G1 Z5.
X53.7 Y0.4
Z-3.2 F100.
Z-3.9
G3 X53.3 Z-4.3 I-0.4 K0. F300.
G1 X52.9
G17 G3 X52.5 Y0. I0. J-0.4
G1 Y-22.5
G2 X44.674 Y-37.083 I-17.5 J0.
X43.292 Y-37.5 I-1.382 J2.083
G1 X-43.292
G2 X-44.674 Y-37.083 I0. J2.5
X-52.5 Y-22.5 I9.674 J14.583
G1 Y22.5
G2 X-44.674 Y37.083 I17.5 J0.
X-43.292 Y37.5 I1.382 J-2.083
G1 X43.292
G2 X44.674 Y37.083 I0. J-2.5
X52.5 Y22.5 I-9.674 J-14.583
G1 Y0.
G2 X52.3 Y-0.3 I-0.325 J0.
G3 X52.1 Y-0.6 I0.125 J-0.3
G1 Y-22.5
G2 X44.452 Y-36.75 I-17.1 J0.
X43.292 Y-37.1 I-1.161 J1.75
G1 X-43.292
G2 X-44.452 Y-36.75 I0. J2.1
X-52.1 Y-22.5 I9.452 J14.25
G1 Y22.5
G2 X-44.452 Y36.75 I17.1 J0.
X-43.292 Y37.1 I1.161 J-1.75
G1 X43.292
G2 X44.452 Y36.75 I0. J-2.1
X52.1 Y22.5 I-9.452 J-14.25
G1 Y-0.6
G3 X52.5 Y-1. I0.4 J0.
G1 X52.9
G18 G2 X53.3 Z-3.9 I0. K0.4
G1 Z15.
G17
(WHEN USING FUSION FOR PERSONAL USE, THE FEEDRATE OF RAPID)
(MOVES IS REDUCED TO MATCH THE FEEDRATE OF CUTTING MOVES,)
(WHICH CAN INCREASE MACHINING TIME. UNRESTRICTED RAPID MOVES)
(ARE AVAILABLE WITH A FUSION SUBSCRIPTION.)

(2D CONTOUR - FINISHING)
G0 X-53.2 Y-0.4
G1 Z15. F300.
Z5.
Z0.8 F100.
Z-5.
G18 G2 X-52.8 Z-5.4 I0.4 K0. F300.
G1 X-52.4
G17 G3 X-52. Y0. I0. J0.4
G1 Y17.163
Z-4.9
Y22.5
G2 X-51.79 Y25.163 I17. J0.
G1 Z-5.4 F100.
G2 X-44.397 Y36.667 I16.79 J-2.663 F300.
X-43.292 Y37. I1.106 J-1.667
G1 X-31.178
Z-4.9
X-23.178
Z-5.4 F100.
X1.049 F300.
Z-4.9
X9.049
Z-5.4 F100.
X33.277 F300.
Z-4.9
X41.277
Z-5.4 F100.
X43.292 F300.
G2 X44.397 Y36.667 I0. J-2.
X52. Y22.5 I-9.397 J-14.167
G1 Y15.064
Z-4.9
Y7.064
Z-5.4 F100.
Y-17.163 F300.
Z-4.9
Y-22.5
G2 X51.79 Y-25.163 I-17. J0.
G1 Z-5.4 F100.
G2 X44.397 Y-36.667 I-16.79 J2.663 F300.
X43.292 Y-37. I-1.106 J1.667
G1 X31.178
Z-4.9
X23.178
Z-5.4 F100.
X-1.049 F300.
Z-4.9
X-9.049
Z-5.4 F100.
X-33.277 F300.
Z-4.9
X-41.277
Z-5.4 F100.
X-43.292 F300.
G2 X-44.397 Y-36.667 I0. J2.
X-52. Y-22.5 I9.397 J14.167
G1 Y-15.064
Z-4.9
Y-7.064
Z-5.4 F100.
Y0. F300.
G3 X-52.4 Y0.4 I-0.4 J0.
G1 X-52.8
G18 G3 X-53.2 Z-5. I0. K0.4
G1 Z15.
G17

M5
G28 G91 Z0.
G90
G28 G91 X0. Y0.
G90
M30
