(CASTERSPACERCHAMFERING)
(MACHINE)
(  VENDOR HOMEMADE)
(  DESCRIPTION GENERIC 3-AXIS)
(T2 D=4. CR=0. TAPER=45DEG - ZMIN=-2. - CHAMFER MILL)
G90 G94 G91.1 G40 G49 G17
G21
(WHEN USING FUSION FOR PERSONAL USE, THE FEEDRATE OF RAPID)
(MOVES IS REDUCED TO MATCH THE FEEDRATE OF CUTTING MOVES,)
(WHICH CAN INCREASE MACHINING TIME. UNRESTRICTED RAPID MOVES)
(ARE AVAILABLE WITH A FUSION SUBSCRIPTION.)
G28 G91 Z0.
G90

(2D CHAMFER1)
T2 M6
S5000 M3
G17 G90 G94
G54
G0 X-51.45 Y0.
G43 Z15. H2
G1 Z5. F400.
Z2. F133.
Z-2.
X-51.05 F400.
Y22.5
G2 X-43.872 Y35.875 I16.05 J0.
X-43.292 Y36.05 I0.58 J-0.875
G1 X43.292
G2 X43.872 Y35.875 I0. J-1.05
X51.05 Y22.5 I-8.872 J-13.375
G1 Y-22.5
G2 X43.872 Y-35.875 I-16.05 J0.
X43.292 Y-36.05 I-0.58 J0.875
G1 X-43.292
G2 X-43.872 Y-35.875 I0. J1.05
X-51.05 Y-22.5 I8.872 J13.375
G1 Y0.
X-51.45
Z5.
X-31.45 Y-22.5
Z2. F133.
Z-2.
X-31.05 F400.
G3 X-38.95 I-3.95 J0.
X-31.05 I3.95 J0.
G1 X-31.45
Z5.
X-31.464 Y22.818
Z2. F133.
Z-2.
X-31.066 Y22.854 F400.
G3 X-38.934 Y22.146 I-3.934 J-0.354
X-31.066 Y22.854 I3.934 J0.354
G1 X-31.464 Y22.818
Z5.
X38.55 Y22.5
Z2. F133.
Z-2.
X38.95 F400.
G3 X31.05 I-3.95 J0.
X38.95 I3.95 J0.
G1 X38.55
Z5.
X38.536 Y-22.182
Z2. F133.
Z-2.
X38.934 Y-22.146 F400.
G3 X31.066 Y-22.854 I-3.934 J-0.354
X38.934 Y-22.146 I3.934 J0.354
G1 X38.536 Y-22.182
Z15.

M5
G28 G91 Z0.
G90
G28 G91 X0. Y0.
G90
M30
